/* XPM */
static char *badge[] = {
/* columns rows colors chars-per-pixel */
"512 512 512 2",
/* colors */
"aa c #2B2D42",
"ab c #2B2C41",
"ac c #2B2C41",
"ad c #2C2C41",
"ae c #2C2C41",
"af c #2C2C41",
"ag c #2D2C41",
"ah c #2D2C41",
"ai c #2E2C41",
"aj c #2E2C41",
"ak c #2E2C41",
"al c #2F2C41",
"am c #2F2C41",
"an c #2F2C41",
"ao c #302C41",
"ap c #302C41",
"aq c #312C41",
"ar c #312C41",
"as c #312C41",
"at c #322C41",
"au c #322C41",
"av c #332C41",
"aw c #332C41",
"ax c #332C41",
"ay c #342C41",
"az c #342C41",
"aA c #342C41",
"aB c #352C41",
"aC c #352C41",
"aD c #362C41",
"aE c #362C41",
"aF c #362C41",
"aG c #372C41",
"aH c #372C41",
"aI c #382C41",
"aJ c #382C41",
"aK c #382C41",
"aL c #392C41",
"aM c #392C41",
"aN c #392C41",
"aO c #3A2C41",
"aP c #3A2C41",
"aQ c #3B2C41",
"aR c #3B2C41",
"aS c #3B2C41",
"aT c #3C2C41",
"aU c #3C2C41",
"aV c #3D2C41",
"aW c #3D2C41",
"aX c #3D2C41",
"aY c #3E2C41",
"aZ c #3E2C41",
"a0 c #3E2B41",
"a1 c #3F2B41",
"a2 c #3F2B41",
"a3 c #402B41",
"a4 c #402B41",
"a5 c #402B41",
"a6 c #412B41",
"a7 c #412B41",
"a8 c #422B41",
"a9 c #422B41",
"a. c #422B41",
"a+ c #432B41",
"ba c #432B41",
"bb c #432B41",
"bc c #442B41",
"bd c #442B41",
"be c #452B41",
"bf c #452B41",
"bg c #452B41",
"bh c #462B41",
"bi c #462B41",
"bj c #472B41",
"bk c #472B41",
"bl c #472B41",
"bm c #482B41",
"bn c #482B41",
"bo c #482B41",
"bp c #492B41",
"bq c #492B41",
"br c #4A2B41",
"bs c #4A2B41",
"bt c #4A2B41",
"bu c #4B2B41",
"bv c #4B2B41",
"bw c #4B2B40",
"bx c #4C2B40",
"by c #4C2B40",
"bz c #4D2B40",
"bA c #4D2B40",
"bB c #4D2B40",
"bC c #4E2B40",
"bD c #4E2B40",
"bE c #4F2B40",
"bF c #4F2B40",
"bG c #4F2B40",
"bH c #502B40",
"bI c #502B40",
"bJ c #502B40",
"bK c #512B40",
"bL c #512B40",
"bM c #522B40",
"bN c #522A40",
"bO c #522A40",
"bP c #532A40",
"bQ c #532A40",
"bR c #542A40",
"bS c #542A40",
"bT c #542A40",
"bU c #552A40",
"bV c #552A40",
"bW c #552A40",
"bX c #562A40",
"bY c #562A40",
"bZ c #572A40",
"b0 c #572A40",
"b1 c #572A40",
"b2 c #582A40",
"b3 c #582A40",
"b4 c #592A40",
"b5 c #592A40",
"b6 c #592A40",
"b7 c #5A2A40",
"b8 c #5A2A40",
"b9 c #5A2A40",
"b. c #5B2A40",
"b+ c #5B2A40",
"ca c #5C2A40",
"cb c #5C2A40",
"cc c #5C2A40",
"cd c #5D2A40",
"ce c #5D2A40",
"cf c #5E2A40",
"cg c #5E2A40",
"ch c #5E2A40",
"ci c #5F2A40",
"cj c #5F2A40",
"ck c #5F2A40",
"cl c #602A40",
"cm c #602A40",
"cn c #612A40",
"co c #612A40",
"cp c #612A40",
"cq c #622A40",
"cr c #622A40",
"cs c #632A40",
"ct c #632A40",
"cu c #632A40",
"cv c #642A40",
"cw c #642A40",
"cx c #642A40",
"cy c #652A40",
"cz c #652A40",
"cA c #662940",
"cB c #662940",
"cC c #662940",
"cD c #672940",
"cE c #672940",
"cF c #672940",
"cG c #682940",
"cH c #682940",
"cI c #692940",
"cJ c #692940",
"cK c #692940",
"cL c #6A2940",
"cM c #6A2940",
"cN c #6B2940",
"cO c #6B2940",
"cP c #6B2940",
"cQ c #6C2940",
"cR c #6C293F",
"cS c #6C293F",
"cT c #6D293F",
"cU c #6D293F",
"cV c #6E293F",
"cW c #6E293F",
"cX c #6E293F",
"cY c #6F293F",
"cZ c #6F293F",
"c0 c #70293F",
"c1 c #70293F",
"c2 c #70293F",
"c3 c #71293F",
"c4 c #71293F",
"c5 c #71293F",
"c6 c #72293F",
"c7 c #72293F",
"c8 c #73293F",
"c9 c #73293F",
"c. c #73293F",
"c+ c #74293F",
"da c #74293F",
"db c #75293F",
"dc c #75293F",
"dd c #75293F",
"de c #76293F",
"df c #76293F",
"dg c #76293F",
"dh c #77293F",
"di c #77293F",
"dj c #78293F",
"dk c #78293F",
"dl c #78293F",
"dm c #79293F",
"dn c #79283F",
"do c #7A283F",
"dp c #7A283F",
"dq c #7A283F",
"dr c #7B283F",
"ds c #7B283F",
"dt c #7B283F",
"du c #7C283F",
"dv c #7C283F",
"dw c #7D283F",
"dx c #7D283F",
"dy c #7D283F",
"dz c #7E283F",
"dA c #7E283F",
"dB c #7F283F",
"dC c #7F283F",
"dD c #7F283F",
"dE c #80283F",
"dF c #80283F",
"dG c #80283F",
"dH c #81283F",
"dI c #81283F",
"dJ c #82283F",
"dK c #82283F",
"dL c #82283F",
"dM c #83283F",
"dN c #83283F",
"dO c #83283F",
"dP c #84283F",
"dQ c #84283F",
"dR c #85283F",
"dS c #85283F",
"dT c #85283F",
"dU c #86283F",
"dV c #86283F",
"dW c #87283F",
"dX c #87283F",
"dY c #87283F",
"dZ c #88283F",
"d0 c #88283F",
"d1 c #88283F",
"d2 c #89283F",
"d3 c #89283F",
"d4 c #8A283F",
"d5 c #8A283F",
"d6 c #8A283F",
"d7 c #8B283F",
"d8 c #8B283F",
"d9 c #8C283F",
"d. c #8C283F",
"d+ c #8C283F",
"ea c #8D273E",
"eb c #8D273E",
"ec c #8D273E",
"ed c #8E273E",
"ee c #8E273E",
"ef c #8F273E",
"eg c #8F273E",
"eh c #8F273E",
"ei c #90273E",
"ej c #90273E",
"ek c #91273E",
"el c #91273E",
"em c #91273E",
"en c #92273E",
"eo c #92273E",
"ep c #92273E",
"eq c #93273E",
"er c #93273E",
"es c #94273E",
"et c #94273E",
"eu c #94273E",
"ev c #95273E",
"ew c #95273E",
"ex c #96273E",
"ey c #96273E",
"ez c #96273E",
"eA c #97273E",
"eB c #97273E",
"eC c #97273E",
"eD c #98273E",
"eE c #98273E",
"eF c #99273E",
"eG c #99273E",
"eH c #99273E",
"eI c #9A273E",
"eJ c #9A273E",
"eK c #9B273E",
"eL c #9B273E",
"eM c #9B273E",
"eN c #9C273E",
"eO c #9C273E",
"eP c #9C273E",
"eQ c #9D273E",
"eR c #9D273E",
"eS c #9E273E",
"eT c #9E273E",
"eU c #9E273E",
"eV c #9F273E",
"eW c #9F273E",
"eX c #9F273E",
"eY c #A0273E",
"eZ c #A0263E",
"e0 c #A1263E",
"e1 c #A1263E",
"e2 c #A1263E",
"e3 c #A2263E",
"e4 c #A2263E",
"e5 c #A3263E",
"e6 c #A3263E",
"e7 c #A3263E",
"e8 c #A4263E",
"e9 c #A4263E",
"e. c #A4263E",
"e+ c #A5263E",
"fa c #A5263E",
"fb c #A6263E",
"fc c #A6263E",
"fd c #A6263E",
"fe c #A7263E",
"ff c #A7263E",
"fg c #A8263E",
"fh c #A8263E",
"fi c #A8263E",
"fj c #A9263E",
"fk c #A9263E",
"fl c #A9263E",
"fm c #AA263E",
"fn c #AA263E",
"fo c #AB263E",
"fp c #AB263E",
"fq c #AB263E",
"fr c #AC263E",
"fs c #AC263E",
"ft c #AD263E",
"fu c #AD263E",
"fv c #AD263D",
"fw c #AE263D",
"fx c #AE263D",
"fy c #AE263D",
"fz c #AF263D",
"fA c #AF263D",
"fB c #B0263D",
"fC c #B0263D",
"fD c #B0263D",
"fE c #B1263D",
"fF c #B1263D",
"fG c #B2263D",
"fH c #B2263D",
"fI c #B2263D",
"fJ c #B3263D",
"fK c #B3263D",
"fL c #B3263D",
"fM c #B4253D",
"fN c #B4253D",
"fO c #B5253D",
"fP c #B5253D",
"fQ c #B5253D",
"fR c #B6253D",
"fS c #B6253D",
"fT c #B7253D",
"fU c #B7253D",
"fV c #B7253D",
"fW c #B8253D",
"fX c #B8253D",
"fY c #B8253D",
"fZ c #B9253D",
"f0 c #B9253D",
"f1 c #BA253D",
"f2 c #BA253D",
"f3 c #BA253D",
"f4 c #BB253D",
"f5 c #BB253D",
"f6 c #BB253D",
"f7 c #BC253D",
"f8 c #BC253D",
"f9 c #BD253D",
"f. c #BD253D",
"f+ c #BD253D",
"ga c #BE253D",
"gb c #BE253D",
"gc c #BF253D",
"gd c #BF253D",
"ge c #BF253D",
"gf c #C0253D",
"gg c #C0253D",
"gh c #C0253D",
"gi c #C1253D",
"gj c #C1253D",
"gk c #C2253D",
"gl c #C2253D",
"gm c #C2253D",
"gn c #C3253D",
"go c #C3253D",
"gp c #C4253D",
"gq c #C4253D",
"gr c #C4253D",
"gs c #C5253D",
"gt c #C5253D",
"gu c #C5253D",
"gv c #C6253D",
"gw c #C6253D",
"gx c #C7253D",
"gy c #C7253D",
"gz c #C7243D",
"gA c #C8243D",
"gB c #C8243D",
"gC c #C9243D",
"gD c #C9243D",
"gE c #C9243D",
"gF c #CA243D",
"gG c #CA243D",
"gH c #CA243D",
"gI c #CB243D",
"gJ c #CB243D",
"gK c #CC243D",
"gL c #CC243D",
"gM c #CC243D",
"gN c #CD243D",
"gO c #CD243D",
"gP c #CE243D",
"gQ c #CE243C",
"gR c #CE243C",
"gS c #CF243C",
"gT c #CF243C",
"gU c #CF243C",
"gV c #D0243C",
"gW c #D0243C",
"gX c #D1243C",
"gY c #D1243C",
"gZ c #D1243C",
"g0 c #D2243C",
"g1 c #D2243C",
"g2 c #D3243C",
"g3 c #D3243C",
"g4 c #D3243C",
"g5 c #D4243C",
"g6 c #D4243C",
"g7 c #D4243C",
"g8 c #D5243C",
"g9 c #D5243C",
"g. c #D6243C",
"g+ c #D6243C",
"ha c #D6243C",
"hb c #D7243C",
"hc c #D7243C",
"hd c #D7243C",
"he c #D8243C",
"hf c #D8243C",
"hg c #D9243C",
"hh c #D9243C",
"hi c #D9243C",
"hj c #DA243C",
"hk c #DA243C",
"hl c #DB243C",
"hm c #DB233C",
"hn c #DB233C",
"ho c #DC233C",
"hp c #DC233C",
"hq c #DC233C",
"hr c #DD233C",
"hs c #DD233C",
"ht c #DE233C",
"hu c #DE233C",
"hv c #DE233C",
"hw c #DF233C",
"hx c #DF233C",
"hy c #E0233C",
"hz c #E0233C",
"hA c #E0233C",
"hB c #E1233C",
"hC c #E1233C",
"hD c #E1233C",
"hE c #E2233C",
"hF c #E2233C",
"hG c #E3233C",
"hH c #E3233C",
"hI c #E3233C",
"hJ c #E4233C",
"hK c #E4233C",
"hL c #E5233C",
"hM c #E5233C",
"hN c #E5233C",
"hO c #E6233C",
"hP c #E6233C",
"hQ c #E6233C",
"hR c #E7233C",
"hS c #E7233C",
"hT c #E8233C",
"hU c #E8233C",
"hV c #E8233C",
"hW c #E9233C",
"hX c #E9233C",
"hY c #EA233C",
"hZ c #EA233C",
"h0 c #EA233C",
"h1 c #EB233C",
"h2 c #EB233C",
"h3 c #EB233C",
"h4 c #EC233C",
"h5 c #EC233C",
"h6 c #ED233C",
"h7 c #ED233C",
"h8 c #ED233C",
"h9 c #EE233C",
"h. c #EE233C",
"h+ c #EF233C",
/* pixels */
"aaabacadaeafagahaiajakalamanaoapaqarasatauavawaxayazaAaBaCaDaEaFaGaHaIaJaKaLaMaNaOaPaQaRaSaTaUaVaWaXaYaZa0a1a2a3a4a5a6a7a8a9a.a+babbbcbdbebfbgbhbibjbkblbmbnbobpbqbrbsbtbubvbwbxbybzbAbBbCbDbEbFbGbHbIbJbKbLbMbNbObPbQbRbSbTbUbVbWbXbYbZb0b1b2b3b4b5b6b7b8b9b.b+cacbcccdcecfcgchcicjckclcmcncocpcqcrcsctcucvcwcxcyczcAcBcCcDcEcFcGcHcIcJcKcLcMcNcOcPcQcRcScTcUcVcWcXcYcZc0c1c2c3c4c5c6c7c8c9c.c+dadbdcdddedfdgdhdidjdkdldmdndodpdqdrdsdtdudvdwdxdydzdAdBdCdDdEdFdGdHdIdJdKdLdMdNdOdPdQdRdSdTdUdVdWdXdYdZd0d1d2d3d4d5d6d7d8d9d.d+eaebecedeeefegeheiejekelemeneoepeqereseteuevewexeyezeAeBeCeDeEeFeGeHeIeJeKeLeMeNeOePeQeReSeTeUeVeWeXeYeZe0e1e2e3e4e5e6e7e8e9e.e+fafbfcfdfefffgfhfifjfkflfmfnfofpfqfrfsftfufvfwfxfyfzfAfBfCfDfEfFfGfHfIfJfKfLfMfNfOfPfQfRfSfTfUfVfWfXfYfZf0f1f2f3f4f5f6f7f8f9f.f+gagbgcgdgegfggghgigjgkglgmgngogpgqgrgsgtgugvgwgxgygzgAgBgCgDgEgFgGgHgIgJgKgLgMgNgOgPgQgRgSgTgUgVgWgXgYgZg0g1g2g3g4g5g6g7g8g9g.g+hahbhchdhehfhghhhihjhkhlhmhnhohphqhrhshthuhvhwhxhyhzhAhBhChDhEhFhGhHhIhJhKhLhMhNhOhPhQhRhShThUhVhWhXhYhZh0h1h2h3h4h5h6h7h8h9h.h+",
"aaabacadaeafagahaiajakalamanaoapaqarasatauavawaxayazaAaBaCaDaEaFaGaHaIaJaKaLaMaNaOaPaQaRaSaTaUaVaWaXaYaZa0a1a2a3a4a5a6a7a8a9a.a+babbbcbdbebfbgbhbibjbkblbmbnbobpbqbrbsbtbubvbwbxbybzbAbBbCbDbEbFbGbHbIbJbKbLbMbNbObPbQbRbSbTbUbVbWbXbYbZb0b1b2b3b4b5b6b7b8b9b.b+cacbcccdcecfcgchcicjckclcmcncocpcqcrcsctcucvcwcxcyczcAcBcCcDcEcFcGcHcIcJcKcLcMcNcOcPcQcRcScTcUcVcWcXcYcZc0c1c2c3c4c5c6c7c8c9c.c+dadbdcdddedfdgdhdidjdkdldmdndodpdqdrdsdtdudvdwdxdydzdAdBdCdDdEdFdGdHdIdJdKdLdMdNdOdPdQdRdSdTdUdVdWdXdYdZd0d1d2d3d4d5d6d7d8d9d.d+eaebecedeeefegeheiejekelemeneoepeqereseteuevewexeyezeAeBeCeDeEeFeGeHeIeJeKeLeMeNeOePeQeReSeTeUeVeWeXeYeZe0e1e2e3e4e5e6e7e8e9e.e+fafbfcfdfefffgfhfifjfkflfmfnfofpfqfrfsftfufvfwfxfyfzfAfBfCfDfEfFfGfHfIfJfKfLfMfNfOfPfQfRfSfTfUfVfWfXfYfZf0f1f2f3f4f5f6f7f8f9f.f+gagbgcgdgegfggghgigjgkglgmgngogpgqgrgsgtgugvgwgxgygzgAgBgCgDgEgFgGgHgIgJgKgLgMgNgOgPgQgRgSgTgUgVgWgXgYgZg0g1g2g3g4g5g6g7g8g9g.g+hahbhchdhehfhghhhihjhkhlhmhnhohphqhrhshthuhvhwhxhyhzhAhBhChDhEhFhGhHhIhJhKhLhMhNhOhPhQhRhShThUhVhWhXhYhZh0h1h2h3h4h5h6h7h8h9h.h+",
"aaabacadaeafagahaiajakalamanaoapaqarasatauavawaxayazaAaBaCaDaEaFaGaHaIaJaKaLaMaNaOaPaQaRaSaTaUaVaWaXaYaZa0a1a2a3a4a5a6a7a8a9a.a+babbbcbdbebfbgbhbibjbkblbmbnbobpbqbrbsbtbubvbwbxbybzbAbBbCbDbEbFbGbHbIbJbKbLbMbNbObPbQbRbSbTbUbVbWbXbYbZb0b1b2b3b4b5b6b7b8b9b.b+cacbcccdcecfcgchcicjckclcmcncocpcqcrcsctcucvcwcxcyczcAcBcCcDcEcFcGcHcIcJcKcLcMcNcOcPcQcRcScTcUcVcWcXcYcZc0c1c2c3c4c5c6c7c8c9c.c+dadbdcdddedfdgdhdidjdkdldmdndodpdqdrdsdtdudvdwdxdydzdAdBdCdDdEdFdGdHdIdJdKdLdMdNdOdPdQdRdSdTdUdVdWdXdYdZd0d1d2d3d4d5d6d7d8d9d.d+eaebecedeeefegeheiejekelemeneoepeqereseteuevewexeyezeAeBeCeDeEeFeGeHeIeJeKeLeMeNeOePeQeReSeTeUeVeWeXeYeZe0e1e2e3e4e5e6e7e8e9e.e+fafbfcfdfefffgfhfifjfkflfmfnfofpfqfrfsftfufvfwfxfyfzfAfBfCfDfEfFfGfHfIfJfKfLfMfNfOfPfQfRfSfTfUfVfWfXfYfZf0f1f2f3f4f5f6f7f8f9f.f+gagbgcgdgegfggghgigjgkglgmgngogpgqgrgsgtgugvgwgxgygzgAgBgCgDgEgFgGgHgIgJgKgLgMgNgOgPgQgRgSgTgUgVgWgXgYgZg0g1g2g3g4g5g6g7g8g9g.g+hahbhchdhehfhghhhihjhkhlhmhnhohphqhrhshthuhvhwhxhyhzhAhBhChDhEhFhGhHhIhJhKhLhMhNhOhPhQhRhShThUhVhWhXhYhZh0h1h2h3h4h5h6h7h8h9h.h+",
"aaabacadaeafagahaiajakalamanaoapaqarasatauavawaxayazaAaBaCaDaEaFaGaHaIaJaKaLaMaNaOaPaQaRaSaTaUaVaWaXaYaZa0a1a2a3a4a5a6a7a8a9a.a+babbbcbdbebfbgbhbibjbkblbmbnbobpbqbrbsbtbubvbwbxbybzbAbBbCbDbEbFbGbHbIbJbKbLbMbNbObPbQbRbSbTbUbVbWbXbYbZb0b1b2b3b4b5b6b7b8b9b.b+cacbcccdcecfcgchcicjckclcmcncocpcqcrcsctcucvcwcxcyczcAcBcCcDcEcFcGcHcIcJcKcLcMcNcOcPcQcRcScTcUcVcWcXcYcZc0c1c2c3c4c5c6c7c8c9c.c+dadbdcdddedfdgdhdidjdkdldmdndodpdqdrdsdtdudvdwdxdydzdAdBdCdDdEdFdGdHdIdJdKdLdMdNdOdPdQdRdSdTdUdVdWdXdYdZd0d1d2d3d4d5d6d7d8d9d.d+eaebecedeeefegeheiejekelemeneoepeqereseteuevewexeyezeAeBeCeDeEeFeGeHeIeJeKeLeMeNeOePeQeReSeTeUeVeWeXeYeZe0e1e2e3e4e5e6e7e8e9e.e+fafbfcfdfefffgfhfifjfkflfmfnfofpfqfrfsftfufvfwfxfyfzfAfBfCfDfEfFfGfHfIfJfKfLfMfNfOfPfQfRfSfTfUfVfWfXfYfZf0f1f2f3f4f5f6f7f8f9f.f+gagbgcgdgegfggghgigjgkglgmgngogpgqgrgsgtgugvgwgxgygzgAgBgCgDgEgFgGgHgIgJgKgLgMgNgOgPgQgRgSgTgUgVgWgXgYgZg0g1g2g3g4g5g6g7g8g9g.g+hahbhchdhehfhghhhihjhkhlhmhnhohphqhrhshthuhvhwhxhyhzhAhBhChDhEhFhGhHhIhJhKhLhMhNhOhPhQhRhShThUhVhWhXhYhZh0h1h2h3h4h5h6h7h8h9h.h+",
"aaabacadaeafagahaiajakalamanaoapaqarasatauavawaxayazaAaBaCaDaEaFaGaHaIaJaKaLaMaNaOaPaQaRaSaTaUaVaWaXaYaZa0a1a2a3a4a5a6a7a8a9a.a+babbbcbdbebfbgbhbibjbkblbmbnbobpbqbrbsbtbubvbwbxbybzbAbBbCbDbEbFbGbHbIbJbKbLbMbNbObPbQbRbSbTbUbVbWbXbYbZb0b1b2b3b4b5b6b7b8b9b.b+cacbcccdcecfcgchcicjckclcmcncocpcqcrcsctcucvcwcxcyczcAcBcCcDcEcFcGcHcIcJcKcLcMcNcOcPcQcRcScTcUcVcWcXcYcZc0c1c2c3c4c5c6c7c8c9c.c+dadbdcdddedfdgdhdidjdkdldmdndodpdqdrdsdtdudvdwdxdydzdAdBdCdDdEdFdGdHdIdJdKdLdMdNdOdPdQdRdSdTdUdVdWdXdYdZd0d1d2d3d4d5d6d7d8d9d.d+eaebecedeeefegeheiejekelemeneoepeqereseteuevewexeyezeAeBeCeDeEeFeGeHeIeJeKeLeMeNeOePeQeReSeTeUeVeWeXeYeZe0e1e2e3e4e5e6e7e8e9e.e+fafbfcfdfefffgfhfifjfkflfmfnfofpfqfrfsftfufvfwfxfyfzfAfBfCfDfEfFfGfHfIfJfKfLfMfNfOfPfQfRfSfTfUfVfWfXfYfZf0f1f2f3f4f5f6f7f8f9f.f+gagbgcgdgegfggghgigjgkglgmgngogpgqgrgsgtgugvgwgxgygzgAgBgCgDgEgFgGgHgIgJgKgLgMgNgOgPgQgRgSgTgUgVgWgXgYgZg0g1g2g3g4g5g6g7g8g9g.g+hahbhchdhehfhghhhihjhkhlhmhnhohphqhrhshthuhvhwhxhyhzhAhBhChDhEhFhGhHhIhJhKhLhMhNhOhPhQhRhShThUhVhWhXhYhZh0h1h2h3h4h5h6h7h8h9h.h+",
"aaabacadaeafagahaiajakalamanaoapaqarasatauavawaxayazaAaBaCaDaEaFaGaHaIaJaKaLaMaNaOaPaQaRaSaTaUaVaWaXaYaZa0a1a2a3a4a5a6a7a8a9a.a+babbbcbdbebfbgbhbibjbkblbmbnbobpbqbrbsbtbubvbwbxbybzbAbBbCbDbEbFbGbHbIbJbKbLbMbNbObPbQbRbSbTbUbVbWbXbYbZb0b1b2b3b4b5b6b7b8b9b.b+cacbcccdcecfcgchcicjckclcmcncocpcqcrcsctcucvcwcxcyczcAcBcCcDcEcFcGcHcIcJcKcLcMcNcOcPcQcRcScTcUcVcWcXcYcZc0c1c2c3c4c5c6c7c8c9c.c+dadbdcdddedfdgdhdidjdkdldmdndodpdqdrdsdtdudvdwdxdydzdAdBdCdDdEdFdGdHdIdJdKdLdMdNdOdPdQdRdSdTdUdVdWdXdYdZd0d1d2d3d4d5d6d7d8d9d.d+eaebecedeeefegeheiejekelemeneoepeqereseteuevewexeyezeAeBeCeDeEeFeGeHeIeJeKeLeMeNeOePeQeReSeTeUeVeWeXeYeZe0e1e2e3e4e5e6e7e8e9e.e+fafbfcfdfefffgfhfifjfkflfmfnfofpfqfrfsftfufvfwfxfyfzfAfBfCfDfEfFfGfHfIfJfKfLfMfNfOfPfQfRfSfTfUfVfWfXfYfZf0f1f2f3f4f5f6f7f8f9f.f+gagbgcgdgegfggghgigjgkglgmgngogpgqgrgsgtgugvgwgxgygzgAgBgCgDgEgFgGgHgIgJgKgLgMgNgOgPgQgRgSgTgUgVgWgXgYgZg0g1g2g3g4g5g6g7g8g9g.g+hahbhchdhehfhghhhihjhkhlhmhnhohphqhrhshthuhvhwhxhyhzhAhBhChDhEhFhGhHhIhJhKhLhMhNhOhPhQhRhShThUhVhWhXhYhZh0h1h2h3h4h5h6h7h8h9h.h+",
"aaabacadaeafagahaiajakalamanaoapaqarasatauavawaxayazaAaBaCaDaEaFaGaHaIaJaKaLaMaNaOaPaQaRaSaTaUaVaWaXaYaZa0a1a2a3a4a5a6a7a8a9a.a+babbbcbdbebfbgbhbibjbkblbmbnbobpbqbrbsbtbubvbwbxbybzbAbBbCbDbEbFbGbHbIbJbKbLbMbNbObPbQbRbSbTbUbVbWbXbYbZb0b1b2b3b4b5b6b7b8b9b.b+cacbcccdcecfcgchcicjckclcmcncocpcqcrcsctcucvcwcxcyczcAcBcCcDcEcFcGcHcIcJcKcLcMcNcOcPcQcRcScTcUcVcWcXcYcZc0c1c2c3c4c5c6c7c8c9c.c+dadbdcdddedfdgdhdidjdkdldmdndodpdqdrdsdtdudvdwdxdydzdAdBdCdDdEdFdGdHdIdJdKdLdMdNdOdPdQdRdSdTdUdVdWdXdYdZd0d1d2d3d4d5d6d7d8d9d.d+eaebecedeeefegeheiejekelemeneoepeqereseteuevewexeyezeAeBeCeDeEeFeGeHeIeJeKeLeMeNeOePeQeReSeTeUeVeWeXeYeZe0e1e2e3e4e5e6e7e8e9e.e+fafbfcfdfefffgfhfifjfkflfmfnfofpfqfrfsftfufvfwfxfyfzfAfBfCfDfEfFfGfHfIfJfKfLfMfNfOfPfQfRfSfTfUfVfWfXfYfZf0f1f2f3f4f5f6f7f8f9f.f+gagbgcgdgegfggghgigjgkglgmgngogpgqgrgsgtgugvgwgxgygzgAgBgCgDgEgFgGgHgIgJgKgLgMgNgOgPgQgRgSgTgUgVgWgXgYgZg0g1g2g3g4g5g6g7g8g9g.g+hahbhchdhehfhghhhihjhkhlhmhnhohphqhrhshthuhvhwhxhyhzhAhBhChDhEhFhGhHhIhJhKhLhMhNhOhPhQhRhShThUhVhWhXhYhZh0h1h2h3h4h5h6h7h8h9h.h+",
"aaabacadaeafagahaiajakalamanaoapaqarasatauavawaxayazaAaBaCaDaEaFaGaHaIaJaKaLaMaNaOaPaQaRaSaTaUaVaWaXaYaZa0a1a2a3a4a5a6a7a8a9a.a+babbbcbdbebfbgbhbibjbkblbmbnbobpbqbrbsbtbubvbwbxbybzbAbBbCbDbEbFbGbHbIbJbKbLbMbNbObPbQbRbSbTbUbVbWbXbYbZb0b1b2b3b4b5b6b7b8b9b.b+cacbcccdcecfcgchcicjckclcmcncocpcqcrcsctcucvcwcxcyczcAcBcCcDcEcFcGcHcIcJcKcLcMcNcOcPcQcRcScTcUcVcWcXcYcZc0c1c2c3c4c5c6c7c8c9c.c+dadbdcdddedfdgdhdidjdkdldmdndodpdqdrdsdtdudvdwdxdydzdAdBdCdDdEdFdGdHdIdJdKdLdMdNdOdPdQdRdSdTdUdVdWdXdYdZd0d1d2d3d4d5d6d7d8d9d.d+eaebecedeeefegeheiejekelemeneoepeqereseteuevewexeyezeAeBeCeDeEeFeGeHeIeJeKeLeMeNeOePeQeReSeTeUeVeWeXeYeZe0e1e2e3e4e5e6e7e8e9e.e+fafbfcfdfefffgfhfifjfkflfmfnfofpfqfrfsftfufvfwfxfyfzfAfBfCfDfEfFfGfHfIfJfKfLfMfNfOfPfQfRfSfTfUfVfWfXfYfZf0f1f2f3f4f5f6f7f8f9f.f+gagbgcgdgegfggghgigjgkglgmgngogpgqgrgsgtgugvgwgxgygzgAgBgCgDgEgFgGgHgIgJgKgLgMgNgOgPgQgRgSgTgUgVgWgXgYgZg0g1g2g3g4g5g6g7g8g9g.g+hahbhchdhehfhghhhihjhkhlhmhnhohphqhrhshthuhvhwhxhyhzhAhBhChDhEhFhGhHhIhJhKhLhMhNhOhPhQhRhShThUhVhWhXhYhZh0h1h2h3h4h5h6h7h8h9h.h+",
"aaabacadaeafagahaiajakalamanaoapaqarasatauavawaxayazaAaBaCaDaEaFaGaHaIaJaKaLaMaNaOaPaQaRaSaTaUaVaWaXaYaZa0a1a2a3a4a5a6a7a8a9a.a+babbbcbdbebfbgbhbibjbkblbmbnbobpbqbrbsbtbubvbwbxbybzbAbBbCbDbEbFbGbHbIbJbKbLbMbNbObPbQbRbSbTbUbVbWbXbYbZb0b1b2b3b4b5b6b7b8b9b.b+cacbcccdcecfcgchcicjckclcmcncocpcqcrcsctcucvcwcxcyczcAcBcCcDcEcFcGcHcIcJcKcLcMcNcOcPcQcRcScTcUcVcWcXcYcZc0c1c2c3c4c5c6c7c8c9c.c+dadbdcdddedfdgdhdidjdkdldmdndodpdqdrdsdtdudvdwdxdydzdAdBdCdDdEdFdGdHdIdJdKdLdMdNdOdPdQdRdSdTdUdVdWdXdYdZd0d1d2d3d4d5d6d7d8d9d.d+eaebecedeeefegeheiejekelemeneoepeqereseteuevewexeyezeAeBeCeDeEeFeGeHeIeJeKeLeMeNeOePeQeReSeTeUeVeWeXeYeZe0e1e2e3e4e5e6e7e8e9e.e+fafbfcfdfefffgfhfifjfkflfmfnfofpfqfrfsftfufvfwfxfyfzfAfBfCfDfEfFfGfHfIfJfKfLfMfNfOfPfQfRfSfTfUfVfWfXfYfZf0f1f2f3f4f5f6f7f8f9f.f+gagbgcgdgegfggghgigjgkglgmgngogpgqgrgsgtgugvgwgxgygzgAgBgCgDgEgFgGgHgIgJgKgLgMgNgOgPgQgRgSgTgUgVgWgXgYgZg0g1g2g3g4g5g6g7g8g9g.g+hahbhchdhehfhghhhihjhkhlhmhnhohphqhrhshthuhvhwhxhyhzhAhBhChDhEhFhGhHhIhJhKhLhMhNhOhPhQhRhShThUhVhWhXhYhZh0h1h2h3h4h5h6h7h8h9h.h+",
"aaabacadaeafagahaiajakalamanaoapaqarasatauavawaxayazaAaBaCaDaEaFaGaHaIaJaKaLaMaNaOaPaQaRaSaTaUaVaWaXaYaZa0a1a2a3a4a5a6a7a8a9a.a+babbbcbdbebfbgbhbibjbkblbmbnbobpbqbrbsbtbubvbwbxbybzbAbBbCbDbEbFbGbHbIbJbKbLbMbNbObPbQbRbSbTbUbVbWbXbYbZb0b1b2b3b4b5b6b7b8b9b.b+cacbcccdcecfcgchcicjckclcmcncocpcqcrcsctcucvcwcxcyczcAcBcCcDcEcFcGcHcIcJcKcLcMcNcOcPcQcRcScTcUcVcWcXcYcZc0c1c2c3c4c5c6c7c8c9c.c+dadbdcdddedfdgdhdidjdkdldmdndodpdqdrdsdtdudvdwdxdydzdAdBdCdDdEdFdGdHdIdJdKdLdMdNdOdPdQdRdSdTdUdVdWdXdYdZd0d1d2d3d4d5d6d7d8d9d.d+eaebecedeeefegeheiejekelemeneoepeqereseteuevewexeyezeAeBeCeDeEeFeGeHeIeJeKeLeMeNeOePeQeReSeTeUeVeWeXeYeZe0e1e2e3e4e5e6e7e8e9e.e+fafbfcfdfefffgfhfifjfkflfmfnfofpfqfrfsftfufvfwfxfyfzfAfBfCfDfEfFfGfHfIfJfKfLfMfNfOfPfQfRfSfTfUfVfWfXfYfZf0f1f2f3f4f5f6f7f8f9f.f+gagbgcgdgegfggghgigjgkglgmgngogpgqgrgsgtgugvgwgxgygzgAgBgCgDgEgFgGgHgIgJgKgLgMgNgOgPgQgRgSgTgUgVgWgXgYgZg0g1g2g3g4g5g6g7g8g9g.g+hahbhchdhehfhghhhihjhkhlhmhnhohphqhrhshthuhvhwhxhyhzhAhBhChDhEhFhGhHhIhJhKhLhMhNhOhPhQhRhShThUhVhWhXhYhZh0h1h2h3h4h5h6h7h8h9h.h+",
"aaabacadaeafagahaiajakalamanaoapaqarasatauavawaxayazaAaBaCaDaEaFaGaHaIaJaKaLaMaNaOaPaQaRaSaTaUaVaWaXaYaZa0a1a2a3a4a5a6a7a8a9a.a+babbbcbdbebfbgbhbibjbkblbmbnbobpbqbrbsbtbubvbwbxbybzbAbBbCbDbEbFbGbHbIbJbKbLbMbNbObPbQbRbSbTbUbVbWbXbYbZb0b1b2b3b4b5b6b7b8b9b.b+cacbcccdcecfcgchcicjckclcmcncocpcqcrcsctcucvcwcxcyczcAcBcCcDcEcFcGcHcIcJcKcLcMcNcOcPcQcRcScTcUcVcWcXcYcZc0c1c2c3c4c5c6c7c8c9c.c+dadbdcdddedfdgdhdidjdkdldmdndodpdqdrdsdtdudvdwdxdydzdAdBdCdDdEdFdGdHdIdJdKdLdMdNdOdPdQdRdSdTdUdVdWdXdYdZd0d1d2d3d4d5d6d7d8d9d.d+eaebecedeeefegeheiejekelemeneoepeqereseteuevewexeyezeAeBeCeDeEeFeGeHeIeJeKeLeMeNeOePeQeReSeTeUeVeWeXeYeZe0e1e2e3e4e5e6e7e8e9e.e+fafbfcfdfefffgfhfifjfkflfmfnfofpfqfrfsftfufvfwfxfyfzfAfBfCfDfEfFfGfHfIfJfKfLfMfNfOfPfQfRfSfTfUfVfWfXfYfZf0f1f2f3f4f5f6f7f8f9f.f+gagbgcgdgegfggghgigjgkglgmgngogpgqgrgsgtgugvgwgxgygzgAgBgCgDgEgFgGgHgIgJgKgLgMgNgOgPgQgRgSgTgUgVgWgXgYgZg0g1g2g3g4g5g6g7g8g9g.g+hahbhchdhehfhghhhihjhkhlhmhnhohphqhrhshthuhvhwhxhyhzhAhBhChDhEhFhGhHhIhJhKhLhMhNhOhPhQhRhShThUhVhWhXhYhZh0h1h2h3h4h5h6h7h8h9h.h+",
"aaabacadaeafagahaiajakalamanaoapaqarasatauavawaxayazaAaBaCaDaEaFaGaHaIaJaKaLaMaNaOaPaQaRaSaTaUaVaWaXaYaZa0a1a2a3a4a5a6a7a8a9a.a+babbbcbdbebfbgbhbibjbkblbmbnbobpbqbrbsbtbubvbwbxbybzbAbBbCbDbEbFbGbHbIbJbKbLbMbNbObPbQbRbSbTbUbVbWbXbYbZb0b1b2b3b4b5b6b7b8b9b.b+cacbcccdcecfcgchcicjckclcmcncocpcqcrcsctcucvcwcxcyczcAcBcCcDcEcFcGcHcIcJcKcLcMcNcOcPcQcRcScTcUcVcWcXcYcZc0c1c2c3c4c5c6c7c8c9c.c+dadbdcdddedfdgdhdidjdkdldmdndodpdqdrdsdtdudvdwdxdydzdAdBdCdDdEdFdGdHdIdJdKdLdMdNdOdPdQdRdSdTdUdVdWdXdYdZd0d1d2d3d4d5d6d7d8d9d.d+eaebecedeeefegeheiejekelemeneoepeqereseteuevewexeyezeAeBeCeDeEeFeGeHeIeJeKeLeMeNeOePeQeReSeTeUeVeWeXeYeZe0e1e2e3e4e5e6e7e8e9e.e+fafbfcfdfefffgfhfifjfkflfmfnfofpfqfrfsftfufvfwfxfyfzfAfBfCfDfEfFfGfHfIfJfKfLfMfNfOfPfQfRfSfTfUfVfWfXfYfZf0f1f2f3f4f5f6f7f8f9f.f+gagbgcgdgegfggghgigjgkglgmgngogpgqgrgsgtgugvgwgxgygzgAgBgCgDgEgFgGgHgIgJgKgLgMgNgOgPgQgRgSgTgUgVgWgXgYgZg0g1g2g3g4g5g6g7g8g9g.g+hahbhchdhehfhghhhihjhkhlhmhnhohphqhrhshthuhvhwhxhyhzhAhBhChDhEhFhGhHhIhJhKhLhMhNhOhPhQhRhShThUhVhWhXhYhZh0h1h2h3h4h5h6h7h8h9h.h+",
"aaabacadaeafagahaiajakalamanaoapaqarasatauavawaxayazaAaBaCaDaEaFaGaHaIaJaKaLaMaNaOaPaQaRaSaTaUaVaWaXaYaZa0a1a2a3a4a5a6a7a8a9a.a+babbbcbdbebfbgbhbibjbkblbmbnbobpbqbrbsbtbubvbwbxbybzbAbBbCbDbEbFbGbHbIbJbKbLbMbNbObPbQbRbSbTbUbVbWbXbYbZb0b1b2b3b4b5b6b7b8b9b.b+cacbcccdcecfcgchcicjckclcmcncocpcqcrcsctcucvcwcxcyczcAcBcCcDcEcFcGcHcIcJcKcLcMcNcOcPcQcRcScTcUcVcWcXcYcZc0c1c2c3c4c5c6c7c8c9c.c+dadbdcdddedfdgdhdidjdkdldmdndodpdqdrdsdtdudvdwdxdydzdAdBdCdDdEdFdGdHdIdJdKdLdMdNdOdPdQdRdSdTdUdVdWdXdYdZd0d1d2d3d4d5d6d7d8d9d.d+eaebecedeeefegeheiejekelemeneoepeqereseteuevewexeyezeAeBeCeDeEeFeGeHeIeJeKeLeMeNeOePeQeReSeTeUeVeWeXeYeZe0e1e2e3e4e5e6e7e8e9e.e+fafbfcfdfefffgfhfifjfkflfmfnfofpfqfrfsftfufvfwfxfyfzfAfBfCfDfEfFfGfHfIfJfKfLfMfNfOfPfQfRfSfTfUfVfWfXfYfZf0f1f2f3f4f5f6f7f8f9f.f+gagbgcgdgegfggghgigjgkglgmgngogpgqgrgsgtgugvgwgxgygzgAgBgCgDgEgFgGgHgIgJgKgLgMgNgOgPgQgRgSgTgUgVgWgXgYgZg0g1g2g3g4g5g6g7g8g9g.g+hahbhchdhehfhghhhihjhkhlhmhnhohphqhrhshthuhvhwhxhyhzhAhBhChDhEhFhGhHhIhJhKhLhMhNhOhPhQhRhShThUhVhWhXhYhZh0h1h2h3h4h5h6h7h8h9h.h+",
"aaabacadaeafagahaiajakalamanaoapaqarasatauavawaxayazaAaBaCaDaEaFaGaHaIaJaKaLaMaNaOaPaQaRaSaTaUaVaWaXaYaZa0a1a2a3a4a5a6a7a8a9a.a+babbbcbdbebfbgbhbibjbkblbmbnbobpbqbrbsbtbubvbwbxbybzbAbBbCbDbEbFbGbHbIbJbKbLbMbNbObPbQbRbSbTbUbVbWbXbYbZb0b1b2b3b4b5b6b7b8b9b.b+cacbcccdcecfcgchcicjckclcmcncocpcqcrcsctcucvcwcxcyczcAcBcCcDcEcFcGcHcIcJcKcLcMcNcOcPcQcRcScTcUcVcWcXcYcZc0c1c2c3c4c5c6c7c8c9c.c+dadbdcdddedfdgdhdidjdkdldmdndodpdqdrdsdtdudvdwdxdydzdAdBdCdDdEdFdGdHdIdJdKdLdMdNdOdPdQdRdSdTdUdVdWdXdYdZd0d1d2d3d4d5d6d7d8d9d.d+eaebecedeeefegeheiejekelemeneoepeqereseteuevewexeyezeAeBeCeDeEeFeGeHeIeJeKeLeMeNeOePeQeReSeTeUeVeWeXeYeZe0e1e2e3e4e5e6e7e8e9e.e+fafbfcfdfefffgfhfifjfkflfmfnfofpfqfrfsftfufvfwfxfyfzfAfBfCfDfEfFfGfHfIfJfKfLfMfNfOfPfQfRfSfTfUfVfWfXfYfZf0f1f2f3f4f5f6f7f8f9f.f+gagbgcgdgegfggghgigjgkglgmgngogpgqgrgsgtgugvgwgxgygzgAgBgCgDgEgFgGgHgIgJgKgLgMgNgOgPgQgRgSgTgUgVgWgXgYgZg0g1g2g3g4g5g6g7g8g9g.g+hahbhchdhehfhghhhihjhkhlhmhnhohphqhrhshthuhvhwhxhyhzhAhBhChDhEhFhGhHhIhJhKhLhMhNhOhPhQhRhShThUhVhWhXhYhZh0h1h2h3h4h5h6h7h8h9h.h+",
"aaabacadaeafagahaiajakalamanaoapaqarasatauavawaxayazaAaBaCaDaEaFaGaHaIaJaKaLaMaNaOaPaQaRaSaTaUaVaWaXaYaZa0a1a2a3a4a5a6a7a8a9a.a+babbbcbdbebfbgbhbibjbkblbmbnbobpbqbrbsbtbubvbwbxbybzbAbBbCbDbEbFbGbHbIbJbKbLbMbNbObPbQbRbSbTbUbVbWbXbYbZb0b1b2b3b4b5b6b7b8b9b.b+cacbcccdcecfcgchcicjckclcmcncocpcqcrcsctcucvcwcxcyczcAcBcCcDcEcFcGcHcIcJcKcLcMcNcOcPcQcRcScTcUcVcWcXcYcZc0c1c2c3c4c5c6c7c8c9c.c+dadbdcdddedfdgdhdidjdkdldmdndodpdqdrdsdtdudvdwdxdydzdAdBdCdDdEdFdGdHdIdJdKdLdMdNdOdPdQdRdSdTdUdVdWdXdYdZd0d1d2d3d4d5d6d7d8d9d.d+eaebecedeeefegeheiejekelemeneoepeqereseteuevewexeyezeAeBeCeDeEeFeGeHeIeJeKeLeMeNeOePeQeReSeTeUeVeWeXeYeZe0e1e2e3e4e5e6e7e8e9e.e+fafbfcfdfefffgfhfifjfkflfmfnfofpfqfrfsftfufvfwfxfyfzfAfBfCfDfEfFfGfHfIfJfKfLfMfNfOfPfQfRfSfTfUfVfWfXfYfZf0f1f2f3f4f5f6f7f8f9f.f+gagbgcgdgegfggghgigjgkglgmgngogpgqgrgsgtgugvgwgxgygzgAgBgCgDgEgFgGgHgIgJgKgLgMgNgOgPgQgRgSgTgUgVgWgXgYgZg0g1g2g3g4g5g6g7g8g9g.g+hahbhchdhehfhghhhihjhkhlhmhnhohphqhrhshthuhvhwhxhyhzhAhBhChDhEhFhGhHhIhJhKhLhMhNhOhPhQhRhShThUhVhWhXhYhZh0h1h2h3h4h5h6h7h8h9h.h+",
"aaabacadaeafagahaiajakalamanaoapaqarasatauavawaxayazaAaBaCaDaEaFaGaHaIaJaKaLaMaNaOaPaQaRaSaTaUaVaWaXaYaZa0a1a2a3a4a5a6a7a8a9a.a+babbbcbdbebfbgbhbibjbkblbmbnbobpbqbrbsbtbubvbwbxbybzbAbBbCbDbEbFbGbHbIbJbKbLbMbNbObPbQbRbSbTbUbVbWbXbYbZb0b1b2b3b4b5b6b7b8b9b.b+cacbcccdcecfcgchcicjckclcmcncocpcqcrcsctcucvcwcxcyczcAcBcCcDcEcFcGcHcIcJcKcLcMcNcOcPcQcRcScTcUcVcWcXcYcZc0c1c2c3c4c5c6c7c8c9c.c+dadbdcdddedfdgdhdidjdkdldmdndodpdqdrdsdtdudvdwdxdydzdAdBdCdDdEdFdGdHdIdJdKdLdMdNdOdPdQdRdSdTdUdVdWdXdYdZd0d1d2d3d4d5d6d7d8d9d.d+eaebecedeeefegeheiejekelemeneoepeqereseteuevewexeyezeAeBeCeDeEeFeGeHeIeJeKeLeMeNeOePeQeReSeTeUeVeWeXeYeZe0e1e2e3e4e5e6e7e8e9e.e+fafbfcfdfefffgfhfifjfkflfmfnfofpfqfrfsftfufvfwfxfyfzfAfBfCfDfEfFfGfHfIfJfKfLfMfNfOfPfQfRfSfTfUfVfWfXfYfZf0f1f2f3f4f5f6f7f8f9f.f+gagbgcgdgegfggghgigjgkglgmgngogpgqgrgsgtgugvgwgxgygzgAgBgCgDgEgFgGgHgIgJgKgLgMgNgOgPgQgRgSgTgUgVgWgXgYgZg0g1g2g3g4g5g6g7g8g9g.g+hahbhchdhehfhghhhihjhkhlhmhnhohphqhrhshthuhvhwhxhyhzhAhBhChDhEhFhGhHhIhJhKhLhMhNhOhPhQhRhShThUhVhWhXhYhZh0h1h2h3h4h5h6h7h8h9h.h+",
"aaabacadaeafagahaiajakalamanaoapaqarasatauavawaxayazaAaBaCaDaEaFaGaHaIaJaKaLaMaNaOaPaQaRaSaTaUaVaWaXaYaZa0a1a2a3a4a5a6a7a8a9a.a+babbbcbdbebfbgbhbibjbkblbmbnbobpbqbrbsbtbubvbwbxbybzbAbBbCbDbEbFbGbHbIbJbKbLbMbNbObPbQbRbSbTbUbVbWbXbYbZb0b1b2b3b4b5b6b7b8b9b.b+cacbcccdcecfcgchcicjckclcmcncocpcqcrcsctcucvcwcxcyczcAcBcCcDcEcFcGcHcIcJcKcLcMcNcOcPcQcRcScTcUcVcWcXcYcZc0c1c2c3c4c5c6c7c8c9c.c+dadbdcdddedfdgdhdidjdkdldmdndodpdqdrdsdtdudvdwdxdydzdAdBdCdDdEdFdGdHdIdJdKdLdMdNdOdPdQdRdSdTdUdVdWdXdYdZd0d1d2d3d4d5d6d7d8d9d.d+eaebecedeeefegeheiejekelemeneoepeqereseteuevewexeyezeAeBeCeDeEeFeGeHeIeJeKeLeMeNeOePeQeReSeTeUeVeWeXeYeZe0e1e2e3e4e5e6e7e8e9e.e+fafbfcfdfefffgfhfifjfkflfmfnfofpfqfrfsftfufvfwfxfyfzfAfBfCfDfEfFfGfHfIfJfKfLfMfNfOfPfQfRfSfTfUfVfWfXfYfZf0f1f2f3f4f5f6f7f8f9f.f+gagbgcgdgegfggghgigjgkglgmgngogpgqgrgsgtgugvgwgxgygzgAgBgCgDgEgFgGgHgIgJgKgLgMgNgOgPgQgRgSgTgUgVgWgXgYgZg0g1g2g3g4g5g6g7g8g9g.g+hahbhchdhehfhghhhihjhkhlhmhnhohphqhrhshthuhvhwhxhyhzhAhBhChDhEhFhGhHhIhJhKhLhMhNhOhPhQhRhShThUhVhWhXhYhZh0h1h2h3h4h5h6h7h8h9h.h+",
"aaabacadaeafagahaiajakalamanaoapaqarasatauavawaxayazaAaBaCaDaEaFaGaHaIaJaKaLaMaNaOaPaQaRaSaTaUaVaWaXaYaZa0a1a2a3a4a5a6a7a8a9a.a+babbbcbdbebfbgbhbibjbkblbmbnbobpbqbrbsbtbubvbwbxbybzbAbBbCbDbEbFbGbHbIbJbKbLbMbNbObPbQbRbSbTbUbVbWbXbYbZb0b1b2b3b4b5b6b7b8b9b.b+cacbcccdcecfcgchcicjckclcmcncocpcqcrcsctcucvcwcxcyczcAcBcCcDcEcFcGcHcIcJcKcLcMcNcOcPcQcRcScTcUcVcWcXcYcZc0c1c2c3c4c5c6c7c8c9c.c+dadbdcdddedfdgdhdidjdkdldmdndodpdqdrdsdtdudvdwdxdydzdAdBdCdDdEdFdGdHdIdJdKdLdMdNdOdPdQdRdSdTdUdVdWdXdYdZd0d1d2d3d4d5d6d7d8d9d.d+eaebecedeeefegeheiejekelemeneoepeqereseteuevewexeyezeAeBeCeDeEeFeGeHeIeJeKeLeMeNeOePeQeReSeTeUeVeWeXeYeZe0e1e2e3e4e5e6e7e8e9e.e+fafbfcfdfefffgfhfifjfkflfmfnfofpfqfrfsftfufvfwfxfyfzfAfBfCfDfEfFfGfHfIfJfKfLfMfNfOfPfQfRfSfTfUfVfWfXfYfZf0f1f2f3f4f5f6f7f8f9f.f+gagbgcgdgegfggghgigjgkglgmgngogpgqgrgsgtgugvgwgxgygzgAgBgCgDgEgFgGgHgIgJgKgLgMgNgOgPgQgRgSgTgUgVgWgXgYgZg0g1g2g3g4g5g6g7g8g9g.g+hahbhchdhehfhghhhihjhkhlhmhnhohphqhrhshthuhvhwhxhyhzhAhBhChDhEhFhGhHhIhJhKhLhMhNhOhPhQhRhShThUhVhWhXhYhZh0h1h2h3h4h5h6h7h8h9h.h+",
"aaabacadaeafagahaiajakalamanaoapaqarasatauavawaxayazaAaBaCaDaEaFaGaHaIaJaKaLaMaNaOaPaQaRaSaTaUaVaWaXaYaZa0a1a2a3a4a5a6a7a8a9a.a+babbbcbdbebfbgbhbibjbkblbmbnbobpbqbrbsbtbubvbwbxbybzbAbBbCbDbEbFbGbHbIbJbKbLbMbNbObPbQbRbSbTbUbVbWbXbYbZb0b1b2b3b4b5b6b7b8b9b.b+cacbcccdcecfcgchcicjckclcmcncocpcqcrcsctcucvcwcxcyczcAcBcCcDcEcFcGcHcIcJcKcLcMcNcOcPcQcRcScTcUcVcWcXcYcZc0c1c2c3c4c5c6c7c8c9c.c+dadbdcdddedfdgdhdidjdkdldmdndodpdqdrdsdtdudvdwdxdydzdAdBdCdDdEdFdGdHdIdJdKdLdMdNdOdPdQdRdSdTdUdVdWdXdYdZd0d1d2d3d4d5d6d7d8d9d.d+eaebecedeeefegeheiejekelemeneoepeqereseteuevewexeyezeAeBeCeDeEeFeGeHeIeJeKeLeMeNeOePeQeReSeTeUeVeWeXeYeZe0e1e2e3e4e5e6e7e8e9e.e+fafbfcfdfefffgfhfifjfkflfmfnfofpfqfrfsftfufvfwfxfyfzfAfBfCfDfEfFfGfHfIfJfKfLfMfNfOfPfQfRfSfTfUfVfWfXfYfZf0f1f2f3f4f5f6f7f8f9f.f+gagbgcgdgegfggghgigjgkglgmgngogpgqgrgsgtgugvgwgxgygzgAgBgCgDgEgFgGgHgIgJgKgLgMgNgOgPgQgRgSgTgUgVgWgXgYgZg0g1g2g3g4g5g6g7g8g9g.g+hahbhchdhehfhghhhihjhkhlhmhnhohphqhrhshthuhvhwhxhyhzhAhBhChDhEhFhGhHhIhJhKhLhMhNhOhPhQhRhShThUhVhWhXhYhZh0h1h2h3h4h5h6h7h8h9h.h+",
"aaabacadaeafagahaiajakalamanaoapaqarasatauavawaxayazaAaBaCaDaEaFaGaHaIaJaKaLaMaNaOaPaQaRaSaTaUaVaWaXaYaZa0a1a2a3a4a5a6a7a8a9a.a+babbbcbdbebfbgbhbibjbkblbmbnbobpbqbrbsbtbubvbwbxbybzbAbBbCbDbEbFbGbHbIbJbKbLbMbNbObPbQbRbSbTbUbVbWbXbYbZb0b1b2b3b4b5b6b7b8b9b.b+cacbcccdcecfcgchcicjckclcmcncocpcqcrcsctcucvcwcxcyczcAcBcCcDcEcFcGcHcIcJcKcLcMcNcOcPcQcRcScTcUcVcWcXcYcZc0c1c2c3c4c5c6c7c8c9c.c+dadbdcdddedfdgdhdidjdkdldmdndodpdqdrdsdtdudvdwdxdydzdAdBdCdDdEdFdGdHdIdJdKdLdMdNdOdPdQdRdSdTdUdVdWdXdYdZd0d1d2d3d4d5d6d7d8d9d.d+eaebecedeeefegeheiejekelemeneoepeqereseteuevewexeyezeAeBeCeDeEeFeGeHeIeJeKeLeMeNeOePeQeReSeTeUeVeWeXeYeZe0e1e2e3e4e5e6e7e8e9e.e+fafbfcfdfefffgfhfifjfkflfmfnfofpfqfrfsftfufvfwfxfyfzfAfBfCfDfEfFfGfHfIfJfKfLfMfNfOfPfQfRfSfTfUfVfWfXfYfZf0f1f2f3f4f5f6f7f8f9f.f+gagbgcgdgegfggghgigjgkglgmgngogpgqgrgsgtgugvgwgxgygzgAgBgCgDgEgFgGgHgIgJgKgLgMgNgOgPgQgRgSgTgUgVgWgXgYgZg0g1g2g3g4g5g6g7g8g9g.g+hahbhchdhehfhghhhihjhkhlhmhnhohphqhrhshthuhvhwhxhyhzhAhBhChDhEhFhGhHhIhJhKhLhMhNhOhPhQhRhShThUhVhWhXhYhZh0h1h2h3h4h5h6h7h8h9h.h+",
"aaabacadaeafagahaiajakalamanaoapaqarasatauavawaxayazaAaBaCaDaEaFaGaHaIaJaKaLaMaNaOaPaQaRaSaTaUaVaWaXaYaZa0a1a2a3a4a5a6a7a8a9a.a+babbbcbdbebfbgbhbibjbkblbmbnbobpbqbrbsbtbubvbwbxbybzbAbBbCbDbEbFbGbHbIbJbKbLbMbNbObPbQbRbSbTbUbVbWbXbYbZb0b1b2b3b4b5b6b7b8b9b.b+cacbcccdcecfcgchcicjckclcmcncocpcqcrcsctcucvcwcxcyczcAcBcCcDcEcFcGcHcIcJcKcLcMcNcOcPcQcRcScTcUcVcWcXcYcZc0c1c2c3c4c5c6c7c8c9c.c+dadbdcdddedfdgdhdidjdkdldmdndodpdqdrdsdtdudvdwdxdydzdAdBdCdDdEdFdGdHdIdJdKdLdMdNdOdPdQdRdSdTdUdVdWdXdYdZd0d1d2d3d4d5d6d7d8d9d.d+eaebecedeeefegeheiejekelemeneoepeqereseteuevewexeyezeAeBeCeDeEeFeGeHeIeJeKeLeMeNeOePeQeReSeTeUeVeWeXeYeZe0e1e2e3e4e5e6e7e8e9e.e+fafbfcfdfefffgfhfifjfkflfmfnfofpfqfrfsftfufvfwfxfyfzfAfBfCfDfEfFfGfHfIfJfKfLfMfNfOfPfQfRfSfTfUfVfWfXfYfZf0f1f2f3f4f5f6f7f8f9f.f+gagbgcgdgegfggghgigjgkglgmgngogpgqgrgsgtgugvgwgxgygzgAgBgCgDgEgFgGgHgIgJgKgLgMgNgOgPgQgRgSgTgUgVgWgXgYgZg0g1g2g3g4g5g6g7g8g9g.g+hahbhchdhehfhghhhihjhkhlhmhnhohphqhrhshthuhvhwhxhyhzhAhBhChDhEhFhGhHhIhJhKhLhMhNhOhPhQhRhShThUhVhWhXhYhZh0h1h2h3h4h5h6h7h8h9h.h+",
"aaabacadaeafagahaiajakalamanaoapaqarasatauavawaxayazaAaBaCaDaEaFaGaHaIaJaKaLaMaNaOaPaQaRaSaTaUaVaWaXaYaZa0a1a2a3a4a5a6a7a8a9a.a+babbbcbdbebfbgbhbibjbkblbmbnbobpbqbrbsbtbubvbwbxbybzbAbBbCbDbEbFbGbHbIbJbKbLbMbNbObPbQbRbSbTbUbVbWbXbYbZb0b1b2b3b4b5b6b7b8b9b.b+cacbcccdcecfcgchcicjckclcmcncocpcqcrcsctcucvcwcxcyczcAcBcCcDcEcFcGcHcIcJcKcLcMcNcOcPcQcRcScTcUcVcWcXcYcZc0c1c2c3c4c5c6c7c8c9c.c+dadbdcdddedfdgdhdidjdkdldmdndodpdqdrdsdtdudvdwdxdydzdAdBdCdDdEdFdGdHdIdJdKdLdMdNdOdPdQdRdSdTdUdVdWdXdYdZd0d1d2d3d4d5d6d7d8d9d.d+eaebecedeeefegeheiejekelemeneoepeqereseteuevewexeyezeAeBeCeDeEeFeGeHeIeJeKeLeMeNeOePeQeReSeTeUeVeWeXeYeZe0e1e2e3e4e5e6e7e8e9e.e+fafbfcfdfefffgfhfifjfkflfmfnfofpfqfrfsftfufvfwfxfyfzfAfBfCfDfEfFfGfHfIfJfKfLfMfNfOfPfQfRfSfTfUfVfWfXfYfZf0f1f2f3f4f5f6f7f8f9f.f+gagbgcgdgegfggghgigjgkglgmgngogpgqgrgsgtgugvgwgxgygzgAgBgCgDgEgFgGgHgIgJgKgLgMgNgOgPgQgRgSgTgUgVgWgXgYgZg0g1g2g3g4g5g6g7g8g9g.g+hahbhchdhehfhghhhihjhkhlhmhnhohphqhrhshthuhvhwhxhyhzhAhBhChDhEhFhGhHhIhJhKhLhMhNhOhPhQhRhShThUhVhWhXhYhZh0h1h2h3h4h5h6h7h8h9h.h+",
"aaabacadaeafagahaiajakalamanaoapaqarasatauavawaxayazaAaBaCaDaEaFaGaHaIaJaKaLaMaNaOaPaQaRaSaTaUaVaWaXaYaZa0a1a2a3a4a5a6a7a8a9a.a+babbbcbdbebfbgbhbibjbkblbmbnbobpbqbrbsbtbubvbwbxbybzbAbBbCbDbEbFbGbHbIbJbKbLbMbNbObPbQbRbSbTbUbVbWbXbYbZb0b1b2b3b4b5b6b7b8b9b.b+cacbcccdcecfcgchcicjckclcmcncocpcqcrcsctcucvcwcxcyczcAcBcCcDcEcFcGcHcIcJcKcLcMcNcOcPcQcRcScTcUcVcWcXcYcZc0c1c2c3c4c5c6c7c8c9c.c+dadbdcdddedfdgdhdidjdkdldmdndodpdqdrdsdtdudvdwdxdydzdAdBdCdDdEdFdGdHdIdJdKdLdMdNdOdPdQdRdSdTdUdVdWdXdYdZd0d1d2d3d4d5d6d7d8d9d.d+eaebecedeeefegeheiejekelemeneoepeqereseteuevewexeyezeAeBeCeDeEeFeGeHeIeJeKeLeMeNeOePeQeReSeTeUeVeWeXeYeZe0e1e2e3e4e5e6e7e8e9e.e+fafbfcfdfefffgfhfifjfkflfmfnfofpfqfrfsftfufvfwfxfyfzfAfBfCfDfEfFfGfHfIfJfKfLfMfNfOfPfQfRfSfTfUfVfWfXfYfZf0f1f2f3f4f5f6f7f8f9f.f+gagbgcgdgegfggghgigjgkglgmgngogpgqgrgsgtgugvgwgxgygzgAgBgCgDgEgFgGgHgIgJgKgLgMgNgOgPgQgRgSgTgUgVgWgXgYgZg0g1g2g3g4g5g6g7g8g9g.g+hahbhchdhehfhghhhihjhkhlhmhnhohphqhrhshthuhvhwhxhyhzhAhBhChDhEhFhGhHhIhJhKhLhMhNhOhPhQhRhShThUhVhWhXhYhZh0h1h2h3h4h5h6h7h8h9h.h+",
"aaabacadaeafagahaiajakalamanaoapaqarasatauavawaxayazaAaBaCaDaEaFaGaHaIaJaKaLaMaNaOaPaQaRaSaTaUaVaWaXaYaZa0a1a2a3a4a5a6a7a8a9a.a+babbbcbdbebfbgbhbibjbkblbmbnbobpbqbrbsbtbubvbwbxbybzbAbBbCbDbEbFbGbHbIbJbKbLbMbNbObPbQbRbSbTbUbVbWbXbYbZb0b1b2b3b4b5b6b7b8b9b.b+cacbcccdcecfcgchcicjckclcmcncocpcqcrcsctcucvcwcxcyczcAcBcCcDcEcFcGcHcIcJcKcLcMcNcOcPcQcRcScTcUcVcWcXcYcZc0c1c2c3c4c5c6c7c8c9c.c+dadbdcdddedfdgdhdidjdkdldmdndodpdqdrdsdtdudvdwdxdydzdAdBdCdDdEdFdGdHdIdJdKdLdMdNdOdPdQdRdSdTdUdVdWdXdYdZd0d1d2d3d4d5d6d7d8d9d.d+eaebecedeeefegeheiejekelemeneoepeqereseteuevewexeyezeAeBeCeDeEeFeGeHeIeJeKeLeMeNeOePeQeReSeTeUeVeWeXeYeZe0e1e2e3e4e5e6e7e8e9e.e+fafbfcfdfefffgfhfifjfkflfmfnfofpfqfrfsftfufvfwfxfyfzfAfBfCfDfEfFfGfHfIfJfKfLfMfNfOfPfQfRfSfTfUfVfWfXfYfZf0f1f2f3f4f5f6f7f8f9f.f+gagbgcgdgegfggghgigjgkglgmgngogpgqgrgsgtgugvgwgxgygzgAgBgCgDgEgFgGgHgIgJgKgLgMgNgOgPgQgRgSgTgUgVgWgXgYgZg0g1g2g3g4g5g6g7g8g9g.g+hahbhchdhehfhghhhihjhkhlhmhnhohphqhrhshthuhvhwhxhyhzhAhBhChDhEhFhGhHhIhJhKhLhMhNhOhPhQhRhShThUhVhWhXhYhZh0h1h2h3h4h5h6h7h8h9h.h+",
"aaabacadaeafagahaiajakalamanaoapaqarasatauavawaxayazaAaBaCaDaEaFaGaHaIaJaKaLaMaNaOaPaQaRaSaTaUaVaWaXaYaZa0a1a2a3a4a5a6a7a8a9a.a+babbbcbdbebfbgbhbibjbkblbmbnbobpbqbrbsbtbubvbwbxbybzbAbBbCbDbEbFbGbHbIbJbKbLbMbNbObPbQbRbSbTbUbVbWbXbYbZb0b1b2b3b4b5b6b7b8b9b.b+cacbcccdcecfcgchcicjckclcmcncocpcqcrcsctcucvcwcxcyczcAcBcCcDcEcFcGcHcIcJcKcLcMcNcOcPcQcRcScTcUcVcWcXcYcZc0c1c2c3c4c5c6c7c8c9c.c+dadbdcdddedfdgdhdidjdkdldmdndodpdqdrdsdtdudvdwdxdydzdAdBdCdDdEdFdGdHdIdJdKdLdMdNdOdPdQdRdSdTdUdVdWdXdYdZd0d1d2d3d4d5d6d7d8d9d.d+eaebecedeeefegeheiejekelemeneoepeqereseteuevewexeyezeAeBeCeDeEeFeGeHeIeJeKeLeMeNeOePeQeReSeTeUeVeWeXeYeZe0e1e2e3e4e5e6e7e8e9e.e+fafbfcfdfefffgfhfifjfkflfmfnfofpfqfrfsftfufvfwfxfyfzfAfBfCfDfEfFfGfHfIfJfKfLfMfNfOfPfQfRfSfTfUfVfWfXfYfZf0f1f2f3f4f5f6f7f8f9f.f+gagbgcgdgegfggghgigjgkglgmgngogpgqgrgsgtgugvgwgxgygzgAgBgCgDgEgFgGgHgIgJgKgLgMgNgOgPgQgRgSgTgUgVgWgXgYgZg0g1g2g3g4g5g6g7g8g9g.g+hahbhchdhehfhghhhihjhkhlhmhnhohphqhrhshthuhvhwhxhyhzhAhBhChDhEhFhGhHhIhJhKhLhMhNhOhPhQhRhShThUhVhWhXhYhZh0h1h2h3h4h5h6h7h8h9h.h+",
"aaabacadaeafagahaiajakalamanaoapaqarasatauavawaxayazaAaBaCaDaEaFaGaHaIaJaKaLaMaNaOaPaQaRaSaTaUaVaWaXaYaZa0a1a2a3a4a5a6a7a8a9a.a+babbbcbdbebfbgbhbibjbkblbmbnbobpbqbrbsbtbubvbwbxbybzbAbBbCbDbEbFbGbHbIbJbKbLbMbNbObPbQbRbSbTbUbVbWbXbYbZb0b1b2b3b4b5b6b7b8b9b.b+cacbcccdcecfcgchcicjckclcmcncocpcqcrcsctcucvcwcxcyczcAcBcCcDcEcFcGcHcIcJcKcLcMcNcOcPcQcRcScTcUcVcWcXcYcZc0c1c2c3c4c5c6c7c8c9c.c+dadbdcdddedfdgdhdidjdkdldmdndodpdqdrdsdtdudvdwdxdydzdAdBdCdDdEdFdGdHdIdJdKdLdMdNdOdPdQdRdSdTdUdVdWdXdYdZd0d1d2d3d4d5d6d7d8d9d.d+eaebecedeeefegeheiejekelemeneoepeqereseteuevewexeyezeAeBeCeDeEeFeGeHeIeJeKeLeMeNeOePeQeReSeTeUeVeWeXeYeZe0e1e2e3e4e5e6e7e8e9e.e+fafbfcfdfefffgfhfifjfkflfmfnfofpfqfrfsftfufvfwfxfyfzfAfBfCfDfEfFfGfHfIfJfKfLfMfNfOfPfQfRfSfTfUfVfWfXfYfZf0f1f2f3f4f5f6f7f8f9f.f+gagbgcgdgegfggghgigjgkglgmgngogpgqgrgsgtgugvgwgxgygzgAgBgCgDgEgFgGgHgIgJgKgLgMgNgOgPgQgRgSgTgUgVgWgXgYgZg0g1g2g3g4g5g6g7g8g9g.g+hahbhchdhehfhghhhihjhkhlhmhnhohphqhrhshthuhvhwhxhyhzhAhBhChDhEhFhGhHhIhJhKhLhMhNhOhPhQhRhShThUhVhWhXhYhZh0h1h2h3h4h5h6h7h8h9h.h+",
"aaabacadaeafagahaiajakalamanaoapaqarasatauavawaxayazaAaBaCaDaEaFaGaHaIaJaKaLaMaNaOaPaQaRaSaTaUaVaWaXaYaZa0a1a2a3a4a5a6a7a8a9a.a+babbbcbdbebfbgbhbibjbkblbmbnbobpbqbrbsbtbubvbwbxbybzbAbBbCbDbEbFbGbHbIbJbKbLbMbNbObPbQbRbSbTbUbVbWbXbYbZb0b1b2b3b4b5b6b7b8b9b.b+cacbcccdcecfcgchcicjckclcmcncocpcqcrcsctcucvcwcxcyczcAcBcCcDcEcFcGcHcIcJcKcLcMcNcOcPcQcRcScTcUcVcWcXcYcZc0c1c2c3c4c5c6c7c8c9c.c+dadbdcdddedfdgdhdidjdkdldmdndodpdqdrdsdtdudvdwdxdydzdAdBdCdDdEdFdGdHdIdJdKdLdMdNdOdPdQdRdSdTdUdVdWdXdYdZd0d1d2d3d4d5d6d7d8d9d.d+eaebecedeeefegeheiejekelemeneoepeqereseteuevewexeyezeAeBeCeDeEeFeGeHeIeJeKeLeMeNeOePeQeReSeTeUeVeWeXeYeZe0e1e2e3e4e5e6e7e8e9e.e+fafbfcfdfefffgfhfifjfkflfmfnfofpfqfrfsftfufvfwfxfyfzfAfBfCfDfEfFfGfHfIfJfKfLfMfNfOfPfQfRfSfTfUfVfWfXfYfZf0f1f2f3f4f5f6f7f8f9f.f+gagbgcgdgegfggghgigjgkglgmgngogpgqgrgsgtgugvgwgxgygzgAgBgCgDgEgFgGgHgIgJgKgLgMgNgOgPgQgRgSgTgUgVgWgXgYgZg0g1g2g3g4g5g6g7g8g9g.g+hahbhchdhehfhghhhihjhkhlhmhnhohphqhrhshthuhvhwhxhyhzhAhBhChDhEhFhGhHhIhJhKhLhMhNhOhPhQhRhShThUhVhWhXhYhZh0h1h2h3h4h5h6h7h8h9h.h+",
"aaabacadaeafagahaiajakalamanaoapaqarasatauavawaxayazaAaBaCaDaEaFaGaHaIaJaKaLaMaNaOaPaQaRaSaTaUaVaWaXaYaZa0a1a2a3a4a5a6a7a8a9a.a+babbbcbdbebfbgbhbibjbkblbmbnbobpbqbrbsbtbubvbwbxbybzbAbBbCbDbEbFbGbHbIbJbKbLbMbNbObPbQbRbSbTbUbVbWbXbYbZb0b1b2b3b4b5b6b7b8b9b.b+cacbcccdcecfcgchcicjckclcmcncocpcqcrcsctcucvcwcxcyczcAcBcCcDcEcFcGcHcIcJcKcLcMcNcOcPcQcRcScTcUcVcWcXcYcZc0c1c2c3c4c5c6c7c8c9c.c+dadbdcdddedfdgdhdidjdkdldmdndodpdqdrdsdtdudvdwdxdydzdAdBdCdDdEdFdGdHdIdJdKdLdMdNdOdPdQdRdSdTdUdVdWdXdYdZd0d1d2d3d4d5d6d7d8d9d.d+eaebecedeeefegeheiejekelemeneoepeqereseteuevewexeyezeAeBeCeDeEeFeGeHeIeJeKeLeMeNeOePeQeReSeTeUeVeWeXeYeZe0e1e2e3e4e5e6e7e8e9e.e+fafbfcfdfefffgfhfifjfkflfmfnfofpfqfrfsftfufvfwfxfyfzfAfBfCfDfEfFfGfHfIfJfKfLfMfNfOfPfQfRfSfTfUfVfWfXfYfZf0f1f2f3f4f5f6f7f8f9f.f+gagbgcgdgegfggghgigjgkglgmgngogpgqgrgsgtgugvgwgxgygzgAgBgCgDgEgFgGgHgIgJgKgLgMgNgOgPgQgRgSgTgUgVgWgXgYgZg0g1g2g3g4g5g6g7g8g9g.g+hahbhchdhehfhghhhihjhkhlhmhnhohphqhrhshthuhvhwhxhyhzhAhBhChDhEhFhGhHhIhJhKhLhMhNhOhPhQhRhShThUhVhWhXhYhZh0h1h2h3h4h5h6h7h8h9h.h+",
"aaabacadaeafagahaiajakalamanaoapaqarasatauavawaxayazaAaBaCaDaEaFaGaHaIaJaKaLaMaNaOaPaQaRaSaTaUaVaWaXaYaZa0a1a2a3a4a5a6a7a8a9a.a+babbbcbdbebfbgbhbibjbkblbmbnbobpbqbrbsbtbubvbwbxbybzbAbBbCbDbEbFbGbHbIbJbKbLbMbNbObPbQbRbSbTbUbVbWbXbYbZb0b1b2b3b4b5b6b7b8b9b.b+cacbcccdcecfcgchcicjckclcmcncocpcqcrcsctcucvcwcxcyczcAcBcCcDcEcFcGcHcIcJcKcLcMcNcOcPcQcRcScTcUcVcWcXcYcZc0c1c2c3c4c5c6c7c8c9c.c+dadbdcdddedfdgdhdidjdkdldmdndodpdqdrdsdtdudvdwdxdydzdAdBdCdDdEdFdGdHdIdJdKdLdMdNdOdPdQdRdSdTdUdVdWdXdYdZd0d1d2d3d4d5d6d7d8d9d.d+eaebecedeeefegeheiejekelemeneoepeqereseteuevewexeyezeAeBeCeDeEeFeGeHeIeJeKeLeMeNeOePeQeReSeTeUeVeWeXeYeZe0e1e2e3e4e5e6e7e8e9e.e+fafbfcfdfefffgfhfifjfkflfmfnfofpfqfrfsftfufvfwfxfyfzfAfBfCfDfEfFfGfHfIfJfKfLfMfNfOfPfQfRfSfTfUfVfWfXfYfZf0f1f2f3f4f5f6f7f8f9f.f+gagbgcgdgegfggghgigjgkglgmgngogpgqgrgsgtgugvgwgxgygzgAgBgCgDgEgFgGgHgIgJgKgLgMgNgOgPgQgRgSgTgUgVgWgXgYgZg0g1g2g3g4g5g6g7g8g9g.g+hahbhchdhehfhghhhihjhkhlhmhnhohphqhrhshthuhvhwhxhyhzhAhBhChDhEhFhGhHhIhJhKhLhMhNhOhPhQhRhShThUhVhWhXhYhZh0h1h2h3h4h5h6h7h8h9h.h+",
"aaabacadaeafagahaiajakalamanaoapaqarasatauavawaxayazaAaBaCaDaEaFaGaHaIaJaKaLaMaNaOaPaQaRaSaTaUaVaWaXaYaZa0a1a2a3a4a5a6a7a8a9a.a+babbbcbdbebfbgbhbibjbkblbmbnbobpbqbrbsbtbubvbwbxbybzbAbBbCbDbEbFbGbHbIbJbKbLbMbNbObPbQbRbSbTbUbVbWbXbYbZb0b1b2b3b4b5b6b7b8b9b.b+cacbcccdcecfcgchcicjckclcmcncocpcqcrcsctcucvcwcxcyczcAcBcCcDcEcFcGcHcIcJcKcLcMcNcOcPcQcRcScTcUcVcWcXcYcZc0c1c2c3c4c5c6c7c8c9c.c+dadbdcdddedfdgdhdidjdkdldmdndodpdqdrdsdtdudvdwdxdydzdAdBdCdDdEdFdGdHdIdJdKdLdMdNdOdPdQdRdSdTdUdVdWdXdYdZd0d1d2d3d4d5d6d7d8d9d.d+eaebecedeeefegeheiejekelemeneoepeqereseteuevewexeyezeAeBeCeDeEeFeGeHeIeJeKeLeMeNeOePeQeReSeTeUeVeWeXeYeZe0e1e2e3e4e5e6e7e8e9e.e+fafbfcfdfefffgfhfifjfkflfmfnfofpfqfrfsftfufvfwfxfyfzfAfBfCfDfEfFfGfHfIfJfKfLfMfNfOfPfQfRfSfTfUfVfWfXfYfZf0f1f2f3f4f5f6f7f8f9f.f+gagbgcgdgegfggghgigjgkglgmgngogpgqgrgsgtgugvgwgxgygzgAgBgCgDgEgFgGgHgIgJgKgLgMgNgOgPgQgRgSgTgUgVgWgXgYgZg0g1g2g3g4g5g6g7g8g9g.g+hahbhchdhehfhghhhihjhkhlhmhnhohphqhrhshthuhvhwhxhyhzhAhBhChDhEhFhGhHhIhJhKhLhMhNhOhPhQhRhShThUhVhWhXhYhZh0h1h2h3h4h5h6h7h8h9h.h+",
"aaabacadaeafagahaiajakalamanaoapaqarasatauavawaxayazaAaBaCaDaEaFaGaHaIaJaKaLaMaNaOaPaQaRaSaTaUaVaWaXaYaZa0a1a2a3a4a5a6a7a8a9a.a+babbbcbdbebfbgbhbibjbkblbmbnbobpbqbrbsbtbubvbwbxbybzbAbBbCbDbEbFbGbHbIbJbKbLbMbNbObPbQbRbSbTbUbVbWbXbYbZb0b1b2b3b4b5b6b7b8b9b.b+cacbcccdcecfcgchcicjckclcmcncocpcqcrcsctcucvcwcxcyczcAcBcCcDcEcFcGcHcIcJcKcLcMcNcOcPcQcRcScTcUcVcWcXcYcZc0c1c2c3c4c5c6c7c8c9c.c+dadbdcdddedfdgdhdidjdkdldmdndodpdqdrdsdtdudvdwdxdydzdAdBdCdDdEdFdGdHdIdJdKdLdMdNdOdPdQdRdSdTdUdVdWdXdYdZd0d1d2d3d4d5d6d7d8d9d.d+eaebecedeeefegeheiejekelemeneoepeqereseteuevewexeyezeAeBeCeDeEeFeGeHeIeJeKeLeMeNeOePeQeReSeTeUeVeWeXeYeZe0e1e2e3e4e5e6e7e8e9e.e+fafbfcfdfefffgfhfifjfkflfmfnfofpfqfrfsftfufvfwfxfyfzfAfBfCfDfEfFfGfHfIfJfKfLfMfNfOfPfQfRfSfTfUfVfWfXfYfZf0f1f2f3f4f5f6f7f8f9f.f+gagbgcgdgegfggghgigjgkglgmgngogpgqgrgsgtgugvgwgxgygzgAgBgCgDgEgFgGgHgIgJgKgLgMgNgOgPgQgRgSgTgUgVgWgXgYgZg0g1g2g3g4g5g6g7g8g9g.g+hahbhchdhehfhghhhihjhkhlhmhnhohphqhrhshthuhvhwhxhyhzhAhBhChDhEhFhGhHhIhJhKhLhMhNhOhPhQhRhShThUhVhWhXhYhZh0h1h2h3h4h5h6h7h8h9h.h+",
"aaabacadaeafagahaiajakalamanaoapaqarasatauavawaxayazaAaBaCaDaEaFaGaHaIaJaKaLaMaNaOaPaQaRaSaTaUaVaWaXaYaZa0a1a2a3a4a5a6a7a8a9a.a+babbbcbdbebfbgbhbibjbkblbmbnbobpbqbrbsbtbubvbwbxbybzbAbBbCbDbEbFbGbHbIbJbKbLbMbNbObPbQbRbSbTbUbVbWbXbYbZb0b1b2b3b4b5b6b7b8b9b.b+cacbcccdcecfcgchcicjckclcmcncocpcqcrcsctcucvcwcxcyczcAcBcCcDcEcFcGcHcIcJcKcLcMcNcOcPcQcRcScTcUcVcWcXcYcZc0c1c2c3c4c5c6c7c8c9c.c+dadbdcdddedfdgdhdidjdkdldmdndodpdqdrdsdtdudvdwdxdydzdAdBdCdDdEdFdGdHdIdJdKdLdMdNdOdPdQdRdSdTdUdVdWdXdYdZd0d1d2d3d4d5d6d7d8d9d.d+eaebecedeeefegeheiejekelemeneoepeqereseteuevewexeyezeAeBeCeDeEeFeGeHeIeJeKeLeMeNeOePeQeReSeTeUeVeWeXeYeZe0e1e2e3e4e5e6e7e8e9e.e+fafbfcfdfefffgfhfifjfkflfmfnfofpfqfrfsftfufvfwfxfyfzfAfBfCfDfEfFfGfHfIfJfKfLfMfNfOfPfQfRfSfTfUfVfWfXfYfZf0f1f2f3f4f5f6f7f8f9f.f+gagbgcgdgegfggghgigjgkglgmgngogpgqgrgsgtgugvgwgxgygzgAgBgCgDgEgFgGgHgIgJgKgLgMgNgOgPgQgRgSgTgUgVgWgXgYgZg0g1g2g3g4g5g6g7g8g9g.g+hahbhchdhehfhghhhihjhkhlhmhnhohphqhrhshthuhvhwhxhyhzhAhBhChDhEhFhGhHhIhJhKhLhMhNhOhPhQhRhShThUhVhWhXhYhZh0h1h2h3h4h5h6h7h8h9h.h+",
"aaabacadaeafagahaiajakalamanaoapaqarasatauavawaxayazaAaBaCaDaEaFaGaHaIaJaKaLaMaNaOaPaQaRaSaTaUaVaWaXaYaZa0a1a2a3a4a5a6a7a8a9a.a+babbbcbdbebfbgbhbibjbkblbmbnbobpbqbrbsbtbubvbwbxbybzbAbBbCbDbEbFbGbHbIbJbKbLbMbNbObPbQbRbSbTbUbVbWbXbYbZb0b1b2b3b4b5b6b7b8b9b.b+cacbcccdcecfcgchcicjckclcmcncocpcqcrcsctcucvcwcxcyczcAcBcCcDcEcFcGcHcIcJcKcLcMcNcOcPcQcRcScTcUcVcWcXcYcZc0c1c2c3c4c5c6c7c8c9c.c+dadbdcdddedfdgdhdidjdkdldmdndodpdqdrdsdtdudvdwdxdydzdAdBdCdDdEdFdGdHdIdJdKdLdMdNdOdPdQdRdSdTdUdVdWdXdYdZd0d1d2d3d4d5d6d7d8d9d.d+eaebecedeeefegeheiejekelemeneoepeqereseteuevewexeyezeAeBeCeDeEeFeGeHeIeJeKeLeMeNeOePeQeReSeTeUeVeWeXeYeZe0e1e2e3e4e5e6e7e8e9e.e+fafbfcfdfefffgfhfifjfkflfmfnfofpfqfrfsftfufvfwfxfyfzfAfBfCfDfEfFfGfHfIfJfKfLfMfNfOfPfQfRfSfTfUfVfWfXfYfZf0f1f2f3f4f5f6f7f8f9f.f+gagbgcgdgegfggghgigjgkglgmgngogpgqgrgsgtgugvgwgxgygzgAgBgCgDgEgFgGgHgIgJgKgLgMgNgOgPgQgRgSgTgUgVgWgXgYgZg0g1g2g3g4g5g6g7g8g9g.g+hahbhchdhehfhghhhihjhkhlhmhnhohphqhrhshthuhvhwhxhyhzhAhBhChDhEhFhGhHhIhJhKhLhMhNhOhPhQhRhShThUhVhWhXhYhZh0h1h2h3h4h5h6h7h8h9h.h+",
"aaabacadaeafagahaiajakalamanaoapaqarasatauavawaxayazaAaBaCaDaEaFaGaHaIaJaKaLaMaNaOaPaQaRaSaTaUaVaWaXaYaZa0a1a2a3a4a5a6a7a8a9a.a+babbbcbdbebfbgbhbibjbkblbmbnbobpbqbrbsbtbubvbwbxbybzbAbBbCbDbEbFbGbHbIbJbKbLbMbNbObPbQbRbSbTbUbVbWbXbYbZb0b1b2b3b4b5b6b7b8b9b.b+cacbcccdcecfcgchcicjckclcmcncocpcqcrcsctcucvcwcxcyczcAcBcCcDcEcFcGcHcIcJcKcLcMcNcOcPcQcRcScTcUcVcWcXcYcZc0c1c2c3c4c5c6c7c8c9c.c+dadbdcdddedfdgdhdidjdkdldmdndodpdqdrdsdtdudvdwdxdydzdAdBdCdDdEdFdGdHdIdJdKdLdMdNdOdPdQdRdSdTdUdVdWdXdYdZd0d1d2d3d4d5d6d7d8d9d.d+eaebecedeeefegeheiejekelemeneoepeqereseteuevewexeyezeAeBeCeDeEeFeGeHeIeJeKeLeMeNeOePeQeReSeTeUeVeWeXeYeZe0e1e2e3e4e5e6e7e8e9e.e+fafbfcfdfefffgfhfifjfkflfmfnfofpfqfrfsftfufvfwfxfyfzfAfBfCfDfEfFfGfHfIfJfKfLfMfNfOfPfQfRfSfTfUfVfWfXfYfZf0f1f2f3f4f5f6f7f8f9f.f+gagbgcgdgegfggghgigjgkglgmgngogpgqgrgsgtgugvgwgxgygzgAgBgCgDgEgFgGgHgIgJgKgLgMgNgOgPgQgRgSgTgUgVgWgXgYgZg0g1g2g3g4g5g6g7g8g9g.g+hahbhchdhehfhghhhihjhkhlhmhnhohphqhrhshthuhvhwhxhyhzhAhBhChDhEhFhGhHhIhJhKhLhMhNhOhPhQhRhShThUhVhWhXhYhZh0h1h2h3h4h5h6h7h8h9h.h+",
"aaabacadaeafagahaiajakalamanaoapaqarasatauavawaxayazaAaBaCaDaEaFaGaHaIaJaKaLaMaNaOaPaQaRaSaTaUaVaWaXaYaZa0a1a2a3a4a5a6a7a8a9a.a+babbbcbdbebfbgbhbibjbkblbmbnbobpbqbrbsbtbubvbwbxbybzbAbBbCbDbEbFbGbHbIbJbKbLbMbNbObPbQbRbSbTbUbVbWbXbYbZb0b1b2b3b4b5b6b7b8b9b.b+cacbcccdcecfcgchcicjckclcmcncocpcqcrcsctcucvcwcxcyczcAcBcCcDcEcFcGcHcIcJcKcLcMcNcOcPcQcRcScTcUcVcWcXcYcZc0c1c2c3c4c5c6c7c8c9c.c+dadbdcdddedfdgdhdidjdkdldmdndodpdqdrdsdtdudvdwdxdydzdAdBdCdDdEdFdGdHdIdJdKdLdMdNdOdPdQdRdSdTdUdVdWdXdYdZd0d1d2d3d4d5d6d7d8d9d.d+eaebecedeeefegeheiejekelemeneoepeqereseteuevewexeyezeAeBeCeDeEeFeGeHeIeJeKeLeMeNeOePeQeReSeTeUeVeWeXeYeZe0e1e2e3e4e5e6e7e8e9e.e+fafbfcfdfefffgfhfifjfkflfmfnfofpfqfrfsftfufvfwfxfyfzfAfBfCfDfEfFfGfHfIfJfKfLfMfNfOfPfQfRfSfTfUfVfWfXfYfZf0f1f2f3f4f5f6f7f8f9f.f+gagbgcgdgegfggghgigjgkglgmgngogpgqgrgsgtgugvgwgxgygzgAgBgCgDgEgFgGgHgIgJgKgLgMgNgOgPgQgRgSgTgUgVgWgXgYgZg0g1g2g3g4g5g6g7g8g9g.g+hahbhchdhehfhghhhihjhkhlhmhnhohphqhrhshthuhvhwhxhyhzhAhBhChDhEhFhGhHhIhJhKhLhMhNhOhPhQhRhShThUhVhWhXhYhZh0h1h2h3h4h5h6h7h8h9h.h+",
"aaabacadaeafagahaiajakalamanaoapaqarasatauavawaxayazaAaBaCaDaEaFaGaHaIaJaKaLaMaNaOaPaQaRaSaTaUaVaWaXaYaZa0a1a2a3a4a5a6a7a8a9a.a+babbbcbdbebfbgbhbibjbkblbmbnbobpbqbrbsbtbubvbwbxbybzbAbBbCbDbEbFbGbHbIbJbKbLbMbNbObPbQbRbSbTbUbVbWbXbYbZb0b1b2b3b4b5b6b7b8b9b.b+cacbcccdcecfcgchcicjckclcmcncocpcqcrcsctcucvcwcxcyczcAcBcCcDcEcFcGcHcIcJcKcLcMcNcOcPcQcRcScTcUcVcWcXcYcZc0c1c2c3c4c5c6c7c8c9c.c+dadbdcdddedfdgdhdidjdkdldmdndodpdqdrdsdtdudvdwdxdydzdAdBdCdDdEdFdGdHdIdJdKdLdMdNdOdPdQdRdSdTdUdVdWdXdYdZd0d1d2d3d4d5d6d7d8d9d.d+eaebecedeeefegeheiejekelemeneoepeqereseteuevewexeyezeAeBeCeDeEeFeGeHeIeJeKeLeMeNeOePeQeReSeTeUeVeWeXeYeZe0e1e2e3e4e5e6e7e8e9e.e+fafbfcfdfefffgfhfifjfkflfmfnfofpfqfrfsftfufvfwfxfyfzfAfBfCfDfEfFfGfHfIfJfKfLfMfNfOfPfQfRfSfTfUfVfWfXfYfZf0f1f2f3f4f5f6f7f8f9f.f+gagbgcgdgegfggghgigjgkglgmgngogpgqgrgsgtgugvgwgxgygzgAgBgCgDgEgFgGgHgIgJgKgLgMgNgOgPgQgRgSgTgUgVgWgXgYgZg0g1g2g3g4g5g6g7g8g9g.g+hahbhchdhehfhghhhihjhkhlhmhnhohphqhrhshthuhvhwhxhyhzhAhBhChDhEhFhGhHhIhJhKhLhMhNhOhPhQhRhShThUhVhWhXhYhZh0h1h2h3h4h5h6h7h8h9h.h+",
"aaabacadaeafagahaiajakalamanaoapaqarasatauavawaxayazaAaBaCaDaEaFaGaHaIaJaKaLaMaNaOaPaQaRaSaTaUaVaWaXaYaZa0a1a2a3a4a5a6a7a8a9a.a+babbbcbdbebfbgbhbibjbkblbmbnbobpbqbrbsbtbubvbwbxbybzbAbBbCbDbEbFbGbHbIbJbKbLbMbNbObPbQbRbSbTbUbVbWbXbYbZb0b1b2b3b4b5b6b7b8b9b.b+cacbcccdcecfcgchcicjckclcmcncocpcqcrcsctcucvcwcxcyczcAcBcCcDcEcFcGcHcIcJcKcLcMcNcOcPcQcRcScTcUcVcWcXcYcZc0c1c2c3c4c5c6c7c8c9c.c+dadbdcdddedfdgdhdidjdkdldmdndodpdqdrdsdtdudvdwdxdydzdAdBdCdDdEdFdGdHdIdJdKdLdMdNdOdPdQdRdSdTdUdVdWdXdYdZd0d1d2d3d4d5d6d7d8d9d.d+eaebecedeeefegeheiejekelemeneoepeqereseteuevewexeyezeAeBeCeDeEeFeGeHeIeJeKeLeMeNeOePeQeReSeTeUeVeWeXeYeZe0e1e2e3e4e5e6e7e8e9e.e+fafbfcfdfefffgfhfifjfkflfmfnfofpfqfrfsftfufvfwfxfyfzfAfBfCfDfEfFfGfHfIfJfKfLfMfNfOfPfQfRfSfTfUfVfWfXfYfZf0f1f2f3f4f5f6f7f8f9f.f+gagbgcgdgegfggghgigjgkglgmgngogpgqgrgsgtgugvgwgxgygzgAgBgCgDgEgFgGgHgIgJgKgLgMgNgOgPgQgRgSgTgUgVgWgXgYgZg0g1g2g3g4g5g6g7g8g9g.g+hahbhchdhehfhghhhihjhkhlhmhnhohphqhrhshthuhvhwhxhyhzhAhBhChDhEhFhGhHhIhJhKhLhMhNhOhPhQhRhShThUhVhWhXhYhZh0h1h2h3h4h5h6h7h8h9h.h+",
"aaabacadaeafagahaiajakalamanaoapaqarasatauavawaxayazaAaBaCaDaEaFaGaHaIaJaKaLaMaNaOaPaQaRaSaTaUaVaWaXaYaZa0a1a2a3a4a5a6a7a8a9a.a+babbbcbdbebfbgbhbibjbkblbmbnbobpbqbrbsbtbubvbwbxbybzbAbBbCbDbEbFbGbHbIbJbKbLbMbNbObPbQbRbSbTbUbVbWbXbYbZb0b1b2b3b4b5b6b7b8b9b.b+cacbcccdcecfcgchcicjckclcmcncocpcqcrcsctcucvcwcxcyczcAcBcCcDcEcFcGcHcIcJcKcLcMcNcOcPcQcRcScTcUcVcWcXcYcZc0c1c2c3c4c5c6c7c8c9c.c+dadbdcdddedfdgdhdidjdkdldmdndodpdqdrdsdtdudvdwdxdydzdAdBdCdDdEdFdGdHdIdJdKdLdMdNdOdPdQdRdSdTdUdVdWdXdYdZd0d1d2d3d4d5d6d7d8d9d.d+eaebecedeeefegeheiejekelemeneoepeqereseteuevewexeyezeAeBeCeDeEeFeGeHeIeJeKeLeMeNeOePeQeReSeTeUeVeWeXeYeZe0e1e2e3e4e5e6e7e8e9e.e+fafbfcfdfefffgfhfifjfkflfmfnfofpfqfrfsftfufvfwfxfyfzfAfBfCfDfEfFfGfHfIfJfKfLfMfNfOfPfQfRfSfTfUfVfWfXfYfZf0f1f2f3f4f5f6f7f8f9f.f+gagbgcgdgegfggghgigjgkglgmgngogpgqgrgsgtgugvgwgxgygzgAgBgCgDgEgFgGgHgIgJgKgLgMgNgOgPgQgRgSgTgUgVgWgXgYgZg0g1g2g3g4g5g6g7g8g9g.g+hahbhchdhehfhghhhihjhkhlhmhnhohphqhrhshthuhvhwhxhyhzhAhBhChDhEhFhGhHhIhJhKhLhMhNhOhPhQhRhShThUhVhWhXhYhZh0h1h2h3h4h5h6h7h8h9h.h+",
"aaabacadaeafagahaiajakalamanaoapaqarasatauavawaxayazaAaBaCaDaEaFaGaHaIaJaKaLaMaNaOaPaQaRaSaTaUaVaWaXaYaZa0a1a2a3a4a5a6a7a8a9a.a+babbbcbdbebfbgbhbibjbkblbmbnbobpbqbrbsbtbubvbwbxbybzbAbBbCbDbEbFbGbHbIbJbKbLbMbNbObPbQbRbSbTbUbVbWbXbYbZb0b1b2b3b4b5b6b7b8b9b.b+cacbcccdcecfcgchcicjckclcmcncocpcqcrcsctcucvcwcxcyczcAcBcCcDcEcFcGcHcIcJcKcLcMcNcOcPcQcRcScTcUcVcWcXcYcZc0c1c2c3c4c5c6c7c8c9c.c+dadbdcdddedfdgdhdidjdkdldmdndodpdqdrdsdtdudvdwdxdydzdAdBdCdDdEdFdGdHdIdJdKdLdMdNdOdPdQdRdSdTdUdVdWdXdYdZd0d1d2d3d4d5d6d7d8d9d.d+eaebecedeeefegeheiejekelemeneoepeqereseteuevewexeyezeAeBeCeDeEeFeGeHeIeJeKeLeMeNeOePeQeReSeTeUeVeWeXeYeZe0e1e2e3e4e5e6e7e8e9e.e+fafbfcfdfefffgfhfifjfkflfmfnfofpfqfrfsftfufvfwfxfyfzfAfBfCfDfEfFfGfHfIfJfKfLfMfNfOfPfQfRfSfTfUfVfWfXfYfZf0f1f2f3f4f5f6f7f8f9f.f+gagbgcgdgegfggghgigjgkglgmgngogpgqgrgsgtgugvgwgxgygzgAgBgCgDgEgFgGgHgIgJgKgLgMgNgOgPgQgRgSgTgUgVgWgXgYgZg0g1g2g3g4g5g6g7g8g9g.g+hahbhchdhehfhghhhihjhkhlhmhnhohphqhrhshthuhvhwhxhyhzhAhBhChDhEhFhGhHhIhJhKhLhMhNhOhPhQhRhShThUhVhWhXhYhZh0h1h2h3h4h5h6h7h8h9h.h+",
"aaabacadaeafagahaiajakalamanaoapaqarasatauavawaxayazaAaBaCaDaEaFaGaHaIaJaKaLaMaNaOaPaQaRaSaTaUaVaWaXaYaZa0a1a2a3a4a5a6a7a8a9a.a+babbbcbdbebfbgbhbibjbkblbmbnbobpbqbrbsbtbubvbwbxbybzbAbBbCbDbEbFbGbHbIbJbKbLbMbNbObPbQbRbSbTbUbVbWbXbYbZb0b1b2b3b4b5b6b7b8b9b.b+cacbcccdcecfcgchcicjckclcmcncocpcqcrcsctcucvcwcxcyczcAcBcCcDcEcFcGcHcIcJcKcLcMcNcOcPcQcRcScTcUcVcWcXcYcZc0c1c2c3c4c5c6c7c8c9c.c+dadbdcdddedfdgdhdidjdkdldmdndodpdqdrdsdtdudvdwdxdydzdAdBdCdDdEdFdGdHdIdJdKdLdMdNdOdPdQdRdSdTdUdVdWdXdYdZd0d1d2d3d4d5d6d7d8d9d.d+eaebecedeeefegeheiejekelemeneoepeqereseteuevewexeyezeAeBeCeDeEeFeGeHeIeJeKeLeMeNeOePeQeReSeTeUeVeWeXeYeZe0e1e2e3e4e5e6e7e8e9e.e+fafbfcfdfefffgfhfifjfkflfmfnfofpfqfrfsftfufvfwfxfyfzfAfBfCfDfEfFfGfHfIfJfKfLfMfNfOfPfQfRfSfTfUfVfWfXfYfZf0f1f2f3f4f5f6f7f8f9f.f+gagbgcgdgegfggghgigjgkglgmgngogpgqgrgsgtgugvgwgxgygzgAgBgCgDgEgFgGgHgIgJgKgLgMgNgOgPgQgRgSgTgUgVgWgXgYgZg0g1g2g3g4g5g6g7g8g9g.g+hahbhchdhehfhghhhihjhkhlhmhnhohphqhrhshthuhvhwhxhyhzhAhBhChDhEhFhGhHhIhJhKhLhMhNhOhPhQhRhShThUhVhWhXhYhZh0h1h2h3h4h5h6h7h8h9h.h+",
"aaabacadaeafagahaiajakalamanaoapaqarasatauavawaxayazaAaBaCaDaEaFaGaHaIaJaKaLaMaNaOaPaQaRaSaTaUaVaWaXaYaZa0a1a2a3a4a5a6a7a8a9a.a+babbbcbdbebfbgbhbibjbkblbmbnbobpbqbrbsbtbubvbwbxbybzbAbBbCbDbEbFbGbHbIbJbKbLbMbNbObPbQbRbSbTbUbVbWbXbYbZb0b1b2b3b4b5b6b7b8b9b.b+cacbcccdcecfcgchcicjckclcmcncocpcqcrcsctcucvcwcxcyczcAcBcCcDcEcFcGcHcIcJcKcLcMcNcOcPcQcRcScTcUcVcWcXcYcZc0c1c2c3c4c5c6c7c8c9c.c+dadbdcdddedfdgdhdidjdkdldmdndodpdqdrdsdtdudvdwdxdydzdAdBdCdDdEdFdGdHdIdJdKdLdMdNdOdPdQdRdSdTdUdVdWdXdYdZd0d1d2d3d4d5d6d7d8d9d.d+eaebecedeeefegeheiejekelemeneoepeqereseteuevewexeyezeAeBeCeDeEeFeGeHeIeJeKeLeMeNeOePeQeReSeTeUeVeWeXeYeZe0e1e2e3e4e5e6e7e8e9e.e+fafbfcfdfefffgfhfifjfkflfmfnfofpfqfrfsftfufvfwfxfyfzfAfBfCfDfEfFfGfHfIfJfKfLfMfNfOfPfQfRfSfTfUfVfWfXfYfZf0f1f2f3f4f5f6f7f8f9f.f+gagbgcgdgegfggghgigjgkglgmgngogpgqgrgsgtgugvgwgxgygzgAgBgCgDgEgFgGgHgIgJgKgLgMgNgOgPgQgRgSgTgUgVgWgXgYgZg0g1g2g3g4g5g6g7g8g9g.g+hahbhchdhehfhghhhihjhkhlhmhnhohphqhrhshthuhvhwhxhyhzhAhBhChDhEhFhGhHhIhJhKhLhMhNhOhPhQhRhShThUhVhWhXhYhZh0h1h2h3h4h5h6h7h8h9h.h+",
"aaabacadaeafagahaiajakalamanaoapaqarasatauavawaxayazaAaBaCaDaEaFaGaHaIaJaKaLaMaNaOaPaQaRaSaTaUaVaWaXaYaZa0a1a2a3a4a5a6a7a8a9a.a+babbbcbdbebfbgbhbibjbkblbmbnbobpbqbrbsbtbubvbwbxbybzbAbBbCbDbEbFbGbHbIbJbKbLbMbNbObPbQbRbSbTbUbVbWbXbYbZb0b1b2b3b4b5b6b7b8b9b.b+cacbcccdcecfcgchcicjckclcmcncocpcqcrcsctcucvcwcxcyczcAcBcCcDcEcFcGcHcIcJcKcLcMcNcOcPcQcRcScTcUcVcWcXcYcZc0c1c2c3c4c5c6c7c8c9c.c+dadbdcdddedfdgdhdidjdkdldmdndodpdqdrdsdtdudvdwdxdydzdAdBdCdDdEdFdGdHdIdJdKdLdMdNdOdPdQdRdSdTdUdVdWdXdYdZd0d1d2d3d4d5d6d7d8d9d.d+eaebecedeeefegeheiejekelemeneoepeqereseteuevewexeyezeAeBeCeDeEeFeGeHeIeJeKeLeMeNeOePeQeReSeTeUeVeWeXeYeZe0e1e2e3e4e5e6e7e8e9e.e+fafbfcfdfefffgfhfifjfkflfmfnfofpfqfrfsftfufvfwfxfyfzfAfBfCfDfEfFfGfHfIfJfKfLfMfNfOfPfQfRfSfTfUfVfWfXfYfZf0f1f2f3f4f5f6f7f8f9f.f+gagbgcgdgegfggghgigjgkglgmgngogpgqgrgsgtgugvgwgxgygzgAgBgCgDgEgFgGgHgIgJgKgLgMgNgOgPgQgRgSgTgUgVgWgXgYgZg0g1g2g3g4g5g6g7g8g9g.g+hahbhchdhehfhghhhihjhkhlhmhnhohphqhrhshthuhvhwhxhyhzhAhBhChDhEhFhGhHhIhJhKhLhMhNhOhPhQhRhShThUhVhWhXhYhZh0h1h2h3h4h5h6h7h8h9h.h+",
"aaabacadaeafagahaiajakalamanaoapaqarasatauavawaxayazaAaBaCaDaEaFaGaHaIaJaKaLaMaNaOaPaQaRaSaTaUaVaWaXaYaZa0a1a2a3a4a5a6a7a8a9a.a+babbbcbdbebfbgbhbibjbkblbmbnbobpbqbrbsbtbubvbwbxbybzbAbBbCbDbEbFbGbHbIbJbKbLbMbNbObPbQbRbSbTbUbVbWbXbYbZb0b1b2b3b4b5b6b7b8b9b.b+cacbcccdcecfcgchcicjckclcmcncocpcqcrcsctcucvcwcxcyczcAcBcCcDcEcFcGcHcIcJcKcLcMcNcOcPcQcRcScTcUcVcWcXcYcZc0c1c2c3c4c5c6c7c8c9c.c+dadbdcdddedfdgdhdidjdkdldmdndodpdqdrdsdtdudvdwdxdydzdAdBdCdDdEdFdGdHdIdJdKdLdMdNdOdPdQdRdSdTdUdVdWdXdYdZd0d1d2d3d4d5d6d7d8d9d.d+eaebecedeeefegeheiejekelemeneoepeqereseteuevewexeyezeAeBeCeDeEeFeGeHeIeJeKeLeMeNeOePeQeReSeTeUeVeWeXeYeZe0e1e2e3e4e5e6e7e8e9e.e+fafbfcfdfefffgfhfifjfkflfmfnfofpfqfrfsftfufvfwfxfyfzfAfBfCfDfEfFfGfHfIfJfKfLfMfNfOfPfQfRfSfTfUfVfWfXfYfZf0f1f2f3f4f5f6f7f8f9f.f+gagbgcgdgegfggghgigjgkglgmgngogpgqgrgsgtgugvgwgxgygzgAgBgCgDgEgFgGgHgIgJgKgLgMgNgOgPgQgRgSgTgUgVgWgXgYgZg0g1g2g3g4g5g6g7g8g9g.g+hahbhchdhehfhghhhihjhkhlhmhnhohphqhrhshthuhvhwhxhyhzhAhBhChDhEhFhGhHhIhJhKhLhMhNhOhPhQhRhShThUhVhWhXhYhZh0h1h2h3h4h5h6h7h8h9h.h+",
"aaabacadaeafagahaiajakalamanaoapaqarasatauavawaxayazaAaBaCaDaEaFaGaHaIaJaKaLaMaNaOaPaQaRaSaTaUaVaWaXaYaZa0a1a2a3a4a5a6a7a8a9a.a+babbbcbdbebfbgbhbibjbkblbmbnbobpbqbrbsbtbubvbwbxbybzbAbBbCbDbEbFbGbHbIbJbKbLbMbNbObPbQbRbSbTbUbVbWbXbYbZb0b1b2b3b4b5b6b7b8b9b.b+cacbcccdcecfcgchcicjckclcmcncocpcqcrcsctcucvcwcxcyczcAcBcCcDcEcFcGcHcIcJcKcLcMcNcOcPcQcRcScTcUcVcWcXcYcZc0c1c2c3c4c5c6c7c8c9c.c+dadbdcdddedfdgdhdidjdkdldmdndodpdqdrdsdtdudvdwdxdydzdAdBdCdDdEdFdGdHdIdJdKdLdMdNdOdPdQdRdSdTdUdVdWdXdYdZd0d1d2d3d4d5d6d7d8d9d.d+eaebecedeeefegeheiejekelemeneoepeqereseteuevewexeyezeAeBeCeDeEeFeGeHeIeJeKeLeMeNeOePeQeReSeTeUeVeWeXeYeZe0e1e2e3e4e5e6e7e8e9e.e+fafbfcfdfefffgfhfifjfkflfmfnfofpfqfrfsftfufvfwfxfyfzfAfBfCfDfEfFfGfHfIfJfKfLfMfNfOfPfQfRfSfTfUfVfWfXfYfZf0f1f2f3f4f5f6f7f8f9f.f+gagbgcgdgegfggghgigjgkglgmgngogpgqgrgsgtgugvgwgxgygzgAgBgCgDgEgFgGgHgIgJgKgLgMgNgOgPgQgRgSgTgUgVgWgXgYgZg0g1g2g3g4g5g6g7g8g9g.g+hahbhchdhehfhghhhihjhkhlhmhnhohphqhrhshthuhvhwhxhyhzhAhBhChDhEhFhGhHhIhJhKhLhMhNhOhPhQhRhShThUhVhWhXhYhZh0h1h2h3h4h5h6h7h8h9h.h+",
"aaabacadaeafagahaiajakalamanaoapaqarasatauavawaxayazaAaBaCaDaEaFaGaHaIaJaKaLaMaNaOaPaQaRaSaTaUaVaWaXaYaZa0a1a2a3a4a5a6a7a8a9a.a+babbbcbdbebfbgbhbibjbkblbmbnbobpbqbrbsbtbubvbwbxbybzbAbBbCbDbEbFbGbHbIbJbKbLbMbNbObPbQbRbSbTbUbVbWbXbYbZb0b1b2b3b4b5b6b7b8b9b.b+cacbcccdcecfcgchcicjckclcmcncocpcqcrcsctcucvcwcxcyczcAcBcCcDcEcFcGcHcIcJcKcLcMcNcOcPcQcRcScTcUcVcWcXcYcZc0c1c2c3c4c5c6c7c8c9c.c+dadbdcdddedfdgdhdidjdkdldmdndodpdqdrdsdtdudvdwdxdydzdAdBdCdDdEdFdGdHdIdJdKdLdMdNdOdPdQdRdSdTdUdVdWdXdYdZd0d1d2d3d4d5d6d7d8d9d.d+eaebecedeeefegeheiejekelemeneoepeqereseteuevewexeyezeAeBeCeDeEeFeGeHeIeJeKeLeMeNeOePeQeReSeTeUeVeWeXeYeZe0e1e2e3e4e5e6e7e8e9e.e+fafbfcfdfefffgfhfifjfkflfmfnfofpfqfrfsftfufvfwfxfyfzfAfBfCfDfEfFfGfHfIfJfKfLfMfNfOfPfQfRfSfTfUfVfWfXfYfZf0f1f2f3f4f5f6f7f8f9f.f+gagbgcgdgegfggghgigjgkglgmgngogpgqgrgsgtgugvgwgxgygzgAgBgCgDgEgFgGgHgIgJgKgLgMgNgOgPgQgRgSgTgUgVgWgXgYgZg0g1g2g3g4g5g6g7g8g9g.g+hahbhchdhehfhghhhihjhkhlhmhnhohphqhrhshthuhvhwhxhyhzhAhBhChDhEhFhGhHhIhJhKhLhMhNhOhPhQhRhShThUhVhWhXhYhZh0h1h2h3h4h5h6h7h8h9h.h+",
"aaabacadaeafagahaiajakalamanaoapaqarasatauavawaxayazaAaBaCaDaEaFaGaHaIaJaKaLaMaNaOaPaQaRaSaTaUaVaWaXaYaZa0a1a2a3a4a5a6a7a8a9a.a+babbbcbdbebfbgbhbibjbkblbmbnbobpbqbrbsbtbubvbwbxbybzbAbBbCbDbEbFbGbHbIbJbKbLbMbNbObPbQbRbSbTbUbVbWbXbYbZb0b1b2b3b4b5b6b7b8b9b.b+cacbcccdcecfcgchcicjckclcmcncocpcqcrcsctcucvcwcxcyczcAcBcCcDcEcFcGcHcIcJcKcLcMcNcOcPcQcRcScTcUcVcWcXcYcZc0c1c2c3c4c5c6c7c8c9c.c+dadbdcdddedfdgdhdidjdkdldmdndodpdqdrdsdtdudvdwdxdydzdAdBdCdDdEdFdGdHdIdJdKdLdMdNdOdPdQdRdSdTdUdVdWdXdYdZd0d1d2d3d4d5d6d7d8d9d.d+eaebecedeeefegeheiejekelemeneoepeqereseteuevewexeyezeAeBeCeDeEeFeGeHeIeJeKeLeMeNeOePeQeReSeTeUeVeWeXeYeZe0e1e2e3e4e5e6e7e8e9e.e+fafbfcfdfefffgfhfifjfkflfmfnfofpfqfrfsftfufvfwfxfyfzfAfBfCfDfEfFfGfHfIfJfKfLfMfNfOfPfQfRfSfTfUfVfWfXfYfZf0f1f2f3f4f5f6f7f8f9f.f+gagbgcgdgegfggghgigjgkglgmgngogpgqgrgsgtgugvgwgxgygzgAgBgCgDgEgFgGgHgIgJgKgLgMgNgOgPgQgRgSgTgUgVgWgXgYgZg0g1g2g3g4g5g6g7g8g9g.g+hahbhchdhehfhghhhihjhkhlhmhnhohphqhrhshthuhvhwhxhyhzhAhBhChDhEhFhGhHhIhJhKhLhMhNhOhPhQhRhShThUhVhWhXhYhZh0h1h2h3h4h5h6h7h8h9h.h+",
"aaabacadaeafagahaiajakalamanaoapaqarasatauavawaxayazaAaBaCaDaEaFaGaHaIaJaKaLaMaNaOaPaQaRaSaTaUaVaWaXaYaZa0a1a2a3a4a5a6a7a8a9a.a+babbbcbdbebfbgbhbibjbkblbmbnbobpbqbrbsbtbubvbwbxbybzbAbBbCbDbEbFbGbHbIbJbKbLbMbNbObPbQbRbSbTbUbVbWbXbYbZb0b1b2b3b4b5b6b7b8b9b.b+cacbcccdcecfcgchcicjckclcmcncocpcqcrcsctcucvcwcxcyczcAcBcCcDcEcFcGcHcIcJcKcLcMcNcOcPcQcRcScTcUcVcWcXcYcZc0c1c2c3c4c5c6c7c8c9c.c+dadbdcdddedfdgdhdidjdkdldmdndodpdqdrdsdtdudvdwdxdydzdAdBdCdDdEdFdGdHdIdJdKdLdMdNdOdPdQdRdSdTdUdVdWdXdYdZd0d1d2d3d4d5d6d7d8d9d.d+eaebecedeeefegeheiejekelemeneoepeqereseteuevewexeyezeAeBeCeDeEeFeGeHeIeJeKeLeMeNeOePeQeReSeTeUeVeWeXeYeZe0e1e2e3e4e5e6e7e8e9e.e+fafbfcfdfefffgfhfifjfkflfmfnfofpfqfrfsftfufvfwfxfyfzfAfBfCfDfEfFfGfHfIfJfKfLfMfNfOfPfQfRfSfTfUfVfWfXfYfZf0f1f2f3f4f5f6f7f8f9f.f+gagbgcgdgegfggghgigjgkglgmgngogpgqgrgsgtgugvgwgxgygzgAgBgCgDgEgFgGgHgIgJgKgLgMgNgOgPgQgRgSgTgUgVgWgXgYgZg0g1g2g3g4g5g6g7g8g9g.g+hahbhchdhehfhghhhihjhkhlhmhnhohphqhrhshthuhvhwhxhyhzhAhBhChDhEhFhGhHhIhJhKhLhMhNhOhPhQhRhShThUhVhWhXhYhZh0h1h2h3h4h5h6h7h8h9h.h+",
"aaabacadaeafagahaiajakalamanaoapaqarasatauavawaxayazaAaBaCaDaEaFaGaHaIaJaKaLaMaNaOaPaQaRaSaTaUaVaWaXaYaZa0a1a2a3a4a5a6a7a8a9a.a+babbbcbdbebfbgbhbibjbkblbmbnbobpbqbrbsbtbubvbwbxbybzbAbBbCbDbEbFbGbHbIbJbKbLbMbNbObPbQbRbSbTbUbVbWbXbYbZb0b1b2b3b4b5b6b7b8b9b.b+cacbcccdcecfcgchcicjckclcmcncocpcqcrcsctcucvcwcxcyczcAcBcCcDcEcFcGcHcIcJcKcLcMcNcOcPcQcRcScTcUcVcWcXcYcZc0c1c2c3c4c5c6c7c8c9c.c+dadbdcdddedfdgdhdidjdkdldmdndodpdqdrdsdtdudvdwdxdydzdAdBdCdDdEdFdGdHdIdJdKdLdMdNdOdPdQdRdSdTdUdVdWdXdYdZd0d1d2d3d4d5d6d7d8d9d.d+eaebecedeeefegeheiejekelemeneoepeqereseteuevewexeyezeAeBeCeDeEeFeGeHeIeJeKeLeMeNeOePeQeReSeTeUeVeWeXeYeZe0e1e2e3e4e5e6e7e8e9e.e+fafbfcfdfefffgfhfifjfkflfmfnfofpfqfrfsftfufvfwfxfyfzfAfBfCfDfEfFfGfHfIfJfKfLfMfNfOfPfQfRfSfTfUfVfWfXfYfZf0f1f2f3f4f5f6f7f8f9f.f+gagbgcgdgegfggghgigjgkglgmgngogpgqgrgsgtgugvgwgxgygzgAgBgCgDgEgFgGgHgIgJgKgLgMgNgOgPgQgRgSgTgUgVgWgXgYgZg0g1g2g3g4g5g6g7g8g9g.g+hahbhchdhehfhghhhihjhkhlhmhnhohphqhrhshthuhvhwhxhyhzhAhBhChDhEhFhGhHhIhJhKhLhMhNhOhPhQhRhShThUhVhWhXhYhZh0h1h2h3h4h5h6h7h8h9h.h+",
"aaabacadaeafagahaiajakalamanaoapaqarasatauavawaxayazaAaBaCaDaEaFaGaHaIaJaKaLaMaNaOaPaQaRaSaTaUaVaWaXaYaZa0a1a2a3a4a5a6a7a8a9a.a+babbbcbdbebfbgbhbibjbkblbmbnbobpbqbrbsbtbubvbwbxbybzbAbBbCbDbEbFbGbHbIbJbKbLbMbNbObPbQbRbSbTbUbVbWbXbYbZb0b1b2b3b4b5b6b7b8b9b.b+cacbcccdcecfcgchcicjckclcmcncocpcqcrcsctcucvcwcxcyczcAcBcCcDcEcFcGcHcIcJcKcLcMcNcOcPcQcRcScTcUcVcWcXcYcZc0c1c2c3c4c5c6c7c8c9c.c+dadbdcdddedfdgdhdidjdkdldmdndodpdqdrdsdtdudvdwdxdydzdAdBdCdDdEdFdGdHdIdJdKdLdMdNdOdPdQdRdSdTdUdVdWdXdYdZd0d1d2d3d4d5d6d7d8d9d.d+eaebecedeeefegeheiejekelemeneoepeqereseteuevewexeyezeAeBeCeDeEeFeGeHeIeJeKeLeMeNeOePeQeReSeTeUeVeWeXeYeZe0e1e2e3e4e5e6e7e8e9e.e+fafbfcfdfefffgfhfifjfkflfmfnfofpfqfrfsftfufvfwfxfyfzfAfBfCfDfEfFfGfHfIfJfKfLfMfNfOfPfQfRfSfTfUfVfWfXfYfZf0f1f2f3f4f5f6f7f8f9f.f+gagbgcgdgegfggghgigjgkglgmgngogpgqgrgsgtgugvgwgxgygzgAgBgCgDgEgFgGgHgIgJgKgLgMgNgOgPgQgRgSgTgUgVgWgXgYgZg0g1g2g3g4g5g6g7g8g9g.g+hahbhchdhehfhghhhihjhkhlhmhnhohphqhrhshthuhvhwhxhyhzhAhBhChDhEhFhGhHhIhJhKhLhMhNhOhPhQhRhShThUhVhWhXhYhZh0h1h2h3h4h5h6h7h8h9h.h+",
"aaabacadaeafagahaiajakalamanaoapaqarasatauavawaxayazaAaBaCaDaEaFaGaHaIaJaKaLaMaNaOaPaQaRaSaTaUaVaWaXaYaZa0a1a2a3a4a5a6a7a8a9a.a+babbbcbdbebfbgbhbibjbkblbmbnbobpbqbrbsbtbubvbwbxbybzbAbBbCbDbEbFbGbHbIbJbKbLbMbNbObPbQbRbSbTbUbVbWbXbYbZb0b1b2b3b4b5b6b7b8b9b.b+cacbcccdcecfcgchcicjckclcmcncocpcqcrcsctcucvcwcxcyczcAcBcCcDcEcFcGcHcIcJcKcLcMcNcOcPcQcRcScTcUcVcWcXcYcZc0c1c2c3c4c5c6c7c8c9c.c+dadbdcdddedfdgdhdidjdkdldmdndodpdqdrdsdtdudvdwdxdydzdAdBdCdDdEdFdGdHdIdJdKdLdMdNdOdPdQdRdSdTdUdVdWdXdYdZd0d1d2d3d4d5d6d7d8d9d.d+eaebecedeeefegeheiejekelemeneoepeqereseteuevewexeyezeAeBeCeDeEeFeGeHeIeJeKeLeMeNeOePeQeReSeTeUeVeWeXeYeZe0e1e2e3e4e5e6e7e8e9e.e+fafbfcfdfefffgfhfifjfkflfmfnfofpfqfrfsftfufvfwfxfyfzfAfBfCfDfEfFfGfHfIfJfKfLfMfNfOfPfQfRfSfTfUfVfWfXfYfZf0f1f2f3f4f5f6f7f8f9f.f+gagbgcgdgegfggghgigjgkglgmgngogpgqgrgsgtgugvgwgxgygzgAgBgCgDgEgFgGgHgIgJgKgLgMgNgOgPgQgRgSgTgUgVgWgXgYgZg0g1g2g3g4g5g6g7g8g9g.g+hahbhchdhehfhghhhihjhkhlhmhnhohphqhrhshthuhvhwhxhyhzhAhBhChDhEhFhGhHhIhJhKhLhMhNhOhPhQhRhShThUhVhWhXhYhZh0h1h2h3h4h5h6h7h8h9h.h+",
"aaabacadaeafagahaiajakalamanaoapaqarasatauavawaxayazaAaBaCaDaEaFaGaHaIaJaKaLaMaNaOaPaQaRaSaTaUaVaWaXaYaZa0a1a2a3a4a5a6a7a8a9a.a+babbbcbdbebfbgbhbibjbkblbmbnbobpbqbrbsbtbubvbwbxbybzbAbBbCbDbEbFbGbHbIbJbKbLbMbNbObPbQbRbSbTbUbVbWbXbYbZb0b1b2b3b4b5b6b7b8b9b.b+cacbcccdcecfcgchcicjckclcmcncocpcqcrcsctcucvcwcxcyczcAcBcCcDcEcFcGcHcIcJcKcLcMcNcOcPcQcRcScTcUcVcWcXcYcZc0c1c2c3c4c5c6c7c8c9c.c+dadbdcdddedfdgdhdidjdkdldmdndodpdqdrdsdtdudvdwdxdydzdAdBdCdDdEdFdGdHdIdJdKdLdMdNdOdPdQdRdSdTdUdVdWdXdYdZd0d1d2d3d4d5d6d7d8d9d.d+eaebecedeeefegeheiejekelemeneoepeqereseteuevewexeyezeAeBeCeDeEeFeGeHeIeJeKeLeMeNeOePeQeReSeTeUeVeWeXeYeZe0e1e2e3e4e5e6e7e8e9e.e+fafbfcfdfefffgfhfifjfkflfmfnfofpfqfrfsftfufvfwfxfyfzfAfBfCfDfEfFfGfHfIfJfKfLfMfNfOfPfQfRfSfTfUfVfWfXfYfZf0f1f2f3f4f5f6f7f8f9f.f+gagbgcgdgegfggghgigjgkglgmgngogpgqgrgsgtgugvgwgxgygzgAgBgCgDgEgFgGgHgIgJgKgLgMgNgOgPgQgRgSgTgUgVgWgXgYgZg0g1g2g3g4g5g6g7g8g9g.g+hahbhchdhehfhghhhihjhkhlhmhnhohphqhrhshthuhvhwhxhyhzhAhBhChDhEhFhGhHhIhJhKhLhMhNhOhPhQhRhShThUhVhWhXhYhZh0h1h2h3h4h5h6h7h8h9h.h+",
"aaabacadaeafagahaiajakalamanaoapaqarasatauavawaxayazaAaBaCaDaEaFaGaHaIaJaKaLaMaNaOaPaQaRaSaTaUaVaWaXaYaZa0a1a2a3a4a5a6a7a8a9a.a+babbbcbdbebfbgbhbibjbkblbmbnbobpbqbrbsbtbubvbwbxbybzbAbBbCbDbEbFbGbHbIbJbKbLbMbNbObPbQbRbSbTbUbVbWbXbYbZb0b1b2b3b4b5b6b7b8b9b.b+cacbcccdcecfcgchcicjckclcmcncocpcqcrcsctcucvcwcxcyczcAcBcCcDcEcFcGcHcIcJcKcLcMcNcOcPcQcRcScTcUcVcWcXcYcZc0c1c2c3c4c5c6c7c8c9c.c+dadbdcdddedfdgdhdidjdkdldmdndodpdqdrdsdtdudvdwdxdydzdAdBdCdDdEdFdGdHdIdJdKdLdMdNdOdPdQdRdSdTdUdVdWdXdYdZd0d1d2d3d4d5d6d7d8d9d.d+eaebecedeeefegeheiejekelemeneoepeqereseteuevewexeyezeAeBeCeDeEeFeGeHeIeJeKeLeMeNeOePeQeReSeTeUeVeWeXeYeZe0e1e2e3e4e5e6e7e8e9e.e+fafbfcfdfefffgfhfifjfkflfmfnfofpfqfrfsftfufvfwfxfyfzfAfBfCfDfEfFfGfHfIfJfKfLfMfNfOfPfQfRfSfTfUfVfWfXfYfZf0f1f2f3f4f5f6f7f8f9f.f+gagbgcgdgegfggghgigjgkglgmgngogpgqgrgsgtgugvgwgxgygzgAgBgCgDgEgFgGgHgIgJgKgLgMgNgOgPgQgRgSgTgUgVgWgXgYgZg0g1g2g3g4g5g6g7g8g9g.g+hahbhchdhehfhghhhihjhkhlhmhnhohphqhrhshthuhvhwhxhyhzhAhBhChDhEhFhGhHhIhJhKhLhMhNhOhPhQhRhShThUhVhWhXhYhZh0h1h2h3h4h5h6h7h8h9h.h+",
"aaabacadaeafagahaiajakalamanaoapaqarasatauavawaxayazaAaBaCaDaEaFaGaHaIaJaKaLaMaNaOaPaQaRaSaTaUaVaWaXaYaZa0a1a2a3a4a5a6a7a8a9a.a+babbbcbdbebfbgbhbibjbkblbmbnbobpbqbrbsbtbubvbwbxbybzbAbBbCbDbEbFbGbHbIbJbKbLbMbNbObPbQbRbSbTbUbVbWbXbYbZb0b1b2b3b4b5b6b7b8b9b.b+cacbcccdcecfcgchcicjckclcmcncocpcqcrcsctcucvcwcxcyczcAcBcCcDcEcFcGcHcIcJcKcLcMcNcOcPcQcRcScTcUcVcWcXcYcZc0c1c2c3c4c5c6c7c8c9c.c+dadbdcdddedfdgdhdidjdkdldmdndodpdqdrdsdtdudvdwdxdydzdAdBdCdDdEdFdGdHdIdJdKdLdMdNdOdPdQdRdSdTdUdVdWdXdYdZd0d1d2d3d4d5d6d7d8d9d.d+eaebecedeeefegeheiejekelemeneoepeqereseteuevewexeyezeAeBeCeDeEeFeGeHeIeJeKeLeMeNeOePeQeReSeTeUeVeWeXeYeZe0e1e2e3e4e5e6e7e8e9e.e+fafbfcfdfefffgfhfifjfkflfmfnfofpfqfrfsftfufvfwfxfyfzfAfBfCfDfEfFfGfHfIfJfKfLfMfNfOfPfQfRfSfTfUfVfWfXfYfZf0f1f2f3f4f5f6f7f8f9f.f+gagbgcgdgegfggghgigjgkglgmgngogpgqgrgsgtgugvgwgxgygzgAgBgCgDgEgFgGgHgIgJgKgLgMgNgOgPgQgRgSgTgUgVgWgXgYgZg0g1g2g3g4g5g6g7g8g9g.g+hahbhchdhehfhghhhihjhkhlhmhnhohphqhrhshthuhvhwhxhyhzhAhBhChDhEhFhGhHhIhJhKhLhMhNhOhPhQhRhShThUhVhWhXhYhZh0h1h2h3h4h5h6h7h8h9h.h+",
"aaabacadaeafagahaiajakalamanaoapaqarasatauavawaxayazaAaBaCaDaEaFaGaHaIaJaKaLaMaNaOaPaQaRaSaTaUaVaWaXaYaZa0a1a2a3a4a5a6a7a8a9a.a+babbbcbdbebfbgbhbibjbkblbmbnbobpbqbrbsbtbubvbwbxbybzbAbBbCbDbEbFbGbHbIbJbKbLbMbNbObPbQbRbSbTbUbVbWbXbYbZb0b1b2b3b4b5b6b7b8b9b.b+cacbcccdcecfcgchcicjckclcmcncocpcqcrcsctcucvcwcxcyczcAcBcCcDcEcFcGcHcIcJcKcLcMcNcOcPcQcRcScTcUcVcWcXcYcZc0c1c2c3c4c5c6c7c8c9c.c+dadbdcdddedfdgdhdidjdkdldmdndodpdqdrdsdtdudvdwdxdydzdAdBdCdDdEdFdGdHdIdJdKdLdMdNdOdPdQdRdSdTdUdVdWdXdYdZd0d1d2d3d4d5d6d7d8d9d.d+eaebecedeeefegeheiejekelemeneoepeqereseteuevewexeyezeAeBeCeDeEeFeGeHeIeJeKeLeMeNeOePeQeReSeTeUeVeWeXeYeZe0e1e2e3e4e5e6e7e8e9e.e+fafbfcfdfefffgfhfifjfkflfmfnfofpfqfrfsftfufvfwfxfyfzfAfBfCfDfEfFfGfHfIfJfKfLfMfNfOfPfQfRfSfTfUfVfWfXfYfZf0f1f2f3f4f5f6f7f8f9f.f+gagbgcgdgegfggghgigjgkglgmgngogpgqgrgsgtgugvgwgxgygzgAgBgCgDgEgFgGgHgIgJgKgLgMgNgOgPgQgRgSgTgUgVgWgXgYgZg0g1g2g3g4g5g6g7g8g9g.g+hahbhchdhehfhghhhihjhkhlhmhnhohphqhrhshthuhvhwhxhyhzhAhBhChDhEhFhGhHhIhJhKhLhMhNhOhPhQhRhShThUhVhWhXhYhZh0h1h2h3h4h5h6h7h8h9h.h+",
"aaabacadaeafagahaiajakalamanaoapaqarasatauavawaxayazaAaBaCaDaEaFaGaHaIaJaKaLaMaNaOaPaQaRaSaTaUaVaWaXaYaZa0a1a2a3a4a5a6a7a8a9a.a+babbbcbdbebfbgbhbibjbkblbmbnbobpbqbrbsbtbubvbwbxbybzbAbBbCbDbEbFbGbHbIbJbKbLbMbNbObPbQbRbSbTbUbVbWbXbYbZb0b1b2b3b4b5b6b7b8b9b.b+cacbcccdcecfcgchcicjckclcmcncocpcqcrcsctcucvcwcxcyczcAcBcCcDcEcFcGcHcIcJcKcLcMcNcOcPcQcRcScTcUcVcWcXcYcZc0c1c2c3c4c5c6c7c8c9c.c+dadbdcdddedfdgdhdidjdkdldmdndodpdqdrdsdtdudvdwdxdydzdAdBdCdDdEdFdGdHdIdJdKdLdMdNdOdPdQdRdSdTdUdVdWdXdYdZd0d1d2d3d4d5d6d7d8d9d.d+eaebecedeeefegeheiejekelemeneoepeqereseteuevewexeyezeAeBeCeDeEeFeGeHeIeJeKeLeMeNeOePeQeReSeTeUeVeWeXeYeZe0e1e2e3e4e5e6e7e8e9e.e+fafbfcfdfefffgfhfifjfkflfmfnfofpfqfrfsftfufvfwfxfyfzfAfBfCfDfEfFfGfHfIfJfKfLfMfNfOfPfQfRfSfTfUfVfWfXfYfZf0f1f2f3f4f5f6f7f8f9f.f+gagbgcgdgegfggghgigjgkglgmgngogpgqgrgsgtgugvgwgxgygzgAgBgCgDgEgFgGgHgIgJgKgLgMgNgOgPgQgRgSgTgUgVgWgXgYgZg0g1g2g3g4g5g6g7g8g9g.g+hahbhchdhehfhghhhihjhkhlhmhnhohphqhrhshthuhvhwhxhyhzhAhBhChDhEhFhGhHhIhJhKhLhMhNhOhPhQhRhShThUhVhWhXhYhZh0h1h2h3h4h5h6h7h8h9h.h+",
"aaabacadaeafagahaiajakalamanaoapaqarasatauavawaxayazaAaBaCaDaEaFaGaHaIaJaKaLaMaNaOaPaQaRaSaTaUaVaWaXaYaZa0a1a2a3a4a5a6a7a8a9a.a+babbbcbdbebfbgbhbibjbkblbmbnbobpbqbrbsbtbubvbwbxbybzbAbBbCbDbEbFbGbHbIbJbKbLbMbNbObPbQbRbSbTbUbVbWbXbYbZb0b1b2b3b4b5b6b7b8b9b.b+cacbcccdcecfcgchcicjckclcmcncocpcqcrcsctcucvcwcxcyczcAcBcCcDcEcFcGcHcIcJcKcLcMcNcOcPcQcRcScTcUcVcWcXcYcZc0c1c2c3c4c5c6c7c8c9c.c+dadbdcdddedfdgdhdidjdkdldmdndodpdqdrdsdtdudvdwdxdydzdAdBdCdDdEdFdGdHdIdJdKdLdMdNdOdPdQdRdSdTdUdVdWdXdYdZd0d1d2d3d4d5d6d7d8d9d.d+eaebecedeeefegeheiejekelemeneoepeqereseteuevewexeyezeAeBeCeDeEeFeGeHeIeJeKeLeMeNeOePeQeReSeTeUeVeWeXeYeZe0e1e2e3e4e5e6e7e8e9e.e+fafbfcfdfefffgfhfifjfkflfmfnfofpfqfrfsftfufvfwfxfyfzfAfBfCfDfEfFfGfHfIfJfKfLfMfNfOfPfQfRfSfTfUfVfWfXfYfZf0f1f2f3f4f5f6f7f8f9f.f+gagbgcgdgegfggghgigjgkglgmgngogpgqgrgsgtgugvgwgxgygzgAgBgCgDgEgFgGgHgIgJgKgLgMgNgOgPgQgRgSgTgUgVgWgXgYgZg0g1g2g3g4g5g6g7g8g9g.g+hahbhchdhehfhghhhihjhkhlhmhnhohphqhrhshthuhvhwhxhyhzhAhBhChDhEhFhGhHhIhJhKhLhMhNhOhPhQhRhShThUhVhWhXhYhZh0h1h2h3h4h5h6h7h8h9h.h+",
"aaabacadaeafagahaiajakalamanaoapaqarasatauavawaxayazaAaBaCaDaEaFaGaHaIaJaKaLaMaNaOaPaQaRaSaTaUaVaWaXaYaZa0a1a2a3a4a5a6a7a8a9a.a+babbbcbdbebfbgbhbibjbkblbmbnbobpbqbrbsbtbubvbwbxbybzbAbBbCbDbEbFbGbHbIbJbKbLbMbNbObPbQbRbSbTbUbVbWbXbYbZb0b1b2b3b4b5b6b7b8b9b.b+cacbcccdcecfcgchcicjckclcmcncocpcqcrcsctcucvcwcxcyczcAcBcCcDcEcFcGcHcIcJcKcLcMcNcOcPcQcRcScTcUcVcWcXcYcZc0c1c2c3c4c5c6c7c8c9c.c+dadbdcdddedfdgdhdidjdkdldmdndodpdqdrdsdtdudvdwdxdydzdAdBdCdDdEdFdGdHdIdJdKdLdMdNdOdPdQdRdSdTdUdVdWdXdYdZd0d1d2d3d4d5d6d7d8d9d.d+eaebecedeeefegeheiejekelemeneoepeqereseteuevewexeyezeAeBeCeDeEeFeGeHeIeJeKeLeMeNeOePeQeReSeTeUeVeWeXeYeZe0e1e2e3e4e5e6e7e8e9e.e+fafbfcfdfefffgfhfifjfkflfmfnfofpfqfrfsftfufvfwfxfyfzfAfBfCfDfEfFfGfHfIfJfKfLfMfNfOfPfQfRfSfTfUfVfWfXfYfZf0f1f2f3f4f5f6f7f8f9f.f+gagbgcgdgegfggghgigjgkglgmgngogpgqgrgsgtgugvgwgxgygzgAgBgCgDgEgFgGgHgIgJgKgLgMgNgOgPgQgRgSgTgUgVgWgXgYgZg0g1g2g3g4g5g6g7g8g9g.g+hahbhchdhehfhghhhihjhkhlhmhnhohphqhrhshthuhvhwhxhyhzhAhBhChDhEhFhGhHhIhJhKhLhMhNhOhPhQhRhShThUhVhWhXhYhZh0h1h2h3h4h5h6h7h8h9h.h+",
"aaabacadaeafagahaiajakalamanaoapaqarasatauavawaxayazaAaBaCaDaEaFaGaHaIaJaKaLaMaNaOaPaQaRaSaTaUaVaWaXaYaZa0a1a2a3a4a5a6a7a8a9a.a+babbbcbdbebfbgbhbibjbkblbmbnbobpbqbrbsbtbubvbwbxbybzbAbBbCbDbEbFbGbHbIbJbKbLbMbNbObPbQbRbSbTbUbVbWbXbYbZb0b1b2b3b4b5b6b7b8b9b.b+cacbcccdcecfcgchcicjckclcmcncocpcqcrcsctcucvcwcxcyczcAcBcCcDcEcFcGcHcIcJcKcLcMcNcOcPcQcRcScTcUcVcWcXcYcZc0c1c2c3c4c5c6c7c8c9c.c+dadbdcdddedfdgdhdidjdkdldmdndodpdqdrdsdtdudvdwdxdydzdAdBdCdDdEdFdGdHdIdJdKdLdMdNdOdPdQdRdSdTdUdVdWdXdYdZd0d1d2d3d4d5d6d7d8d9d.d+eaebecedeeefegeheiejekelemeneoepeqereseteuevewexeyezeAeBeCeDeEeFeGeHeIeJeKeLeMeNeOePeQeReSeTeUeVeWeXeYeZe0e1e2e3e4e5e6e7e8e9e.e+fafbfcfdfefffgfhfifjfkflfmfnfofpfqfrfsftfufvfwfxfyfzfAfBfCfDfEfFfGfHfIfJfKfLfMfNfOfPfQfRfSfTfUfVfWfXfYfZf0f1f2f3f4f5f6f7f8f9f.f+gagbgcgdgegfggghgigjgkglgmgngogpgqgrgsgtgugvgwgxgygzgAgBgCgDgEgFgGgHgIgJgKgLgMgNgOgPgQgRgSgTgUgVgWgXgYgZg0g1g2g3g4g5g6g7g8g9g.g+hahbhchdhehfhghhhihjhkhlhmhnhohphqhrhshthuhvhwhxhyhzhAhBhChDhEhFhGhHhIhJhKhLhMhNhOhPhQhRhShThUhVhWhXhYhZh0h1h2h3h4h5h6h7h8h9h.h+",
"aaabacadaeafagahaiajakalamanaoapaqarasatauavawaxayazaAaBaCaDaEaFaGaHaIaJaKaLaMaNaOaPaQaRaSaTaUaVaWaXaYaZa0a1a2a3a4a5a6a7a8a9a.a+babbbcbdbebfbgbhbibjbkblbmbnbobpbqbrbsbtbubvbwbxbybzbAbBbCbDbEbFbGbHbIbJbKbLbMbNbObPbQbRbSbTbUbVbWbXbYbZb0b1b2b3b4b5b6b7b8b9b.b+cacbcccdcecfcgchcicjckclcmcncocpcqcrcsctcucvcwcxcyczcAcBcCcDcEcFcGcHcIcJcKcLcMcNcOcPcQcRcScTcUcVcWcXcYcZc0c1c2c3c4c5c6c7c8c9c.c+dadbdcdddedfdgdhdidjdkdldmdndodpdqdrdsdtdudvdwdxdydzdAdBdCdDdEdFdGdHdIdJdKdLdMdNdOdPdQdRdSdTdUdVdWdXdYdZd0d1d2d3d4d5d6d7d8d9d.d+eaebecedeeefegeheiejekelemeneoepeqereseteuevewexeyezeAeBeCeDeEeFeGeHeIeJeKeLeMeNeOePeQeReSeTeUeVeWeXeYeZe0e1e2e3e4e5e6e7e8e9e.e+fafbfcfdfefffgfhfifjfkflfmfnfofpfqfrfsftfufvfwfxfyfzfAfBfCfDfEfFfGfHfIfJfKfLfMfNfOfPfQfRfSfTfUfVfWfXfYfZf0f1f2f3f4f5f6f7f8f9f.f+gagbgcgdgegfggghgigjgkglgmgngogpgqgrgsgtgugvgwgxgygzgAgBgCgDgEgFgGgHgIgJgKgLgMgNgOgPgQgRgSgTgUgVgWgXgYgZg0g1g2g3g4g5g6g7g8g9g.g+hahbhchdhehfhghhhihjhkhlhmhnhohphqhrhshthuhvhwhxhyhzhAhBhChDhEhFhGhHhIhJhKhLhMhNhOhPhQhRhShThUhVhWhXhYhZh0h1h2h3h4h5h6h7h8h9h.h+",
"aaabacadaeafagahaiajakalamanaoapaqarasatauavawaxayazaAaBaCaDaEaFaGaHaIaJaKaLaMaNaOaPaQaRaSaTaUaVaWaXaYaZa0a1a2a3a4a5a6a7a8a9a.a+babbbcbdbebfbgbhbibjbkblbmbnbobpbqbrbsbtbubvbwbxbybzbAbBbCbDbEbFbGbHbIbJbKbLbMbNbObPbQbRbSbTbUbVbWbXbYbZb0b1b2b3b4b5b6b7b8b9b.b+cacbcccdcecfcgchcicjckclcmcncocpcqcrcsctcucvcwcxcyczcAcBcCcDcEcFcGcHcIcJcKcLcMcNcOcPcQcRcScTcUcVcWcXcYcZc0c1c2c3c4c5c6c7c8c9c.c+dadbdcdddedfdgdhdidjdkdldmdndodpdqdrdsdtdudvdwdxdydzdAdBdCdDdEdFdGdHdIdJdKdLdMdNdOdPdQdRdSdTdUdVdWdXdYdZd0d1d2d3d4d5d6d7d8d9d.d+eaebecedeeefegeheiejekelemeneoepeqereseteuevewexeyezeAeBeCeDeEeFeGeHeIeJeKeLeMeNeOePeQeReSeTeUeVeWeXeYeZe0e1e2e3e4e5e6e7e8e9e.e+fafbfcfdfefffgfhfifjfkflfmfnfofpfqfrfsftfufvfwfxfyfzfAfBfCfDfEfFfGfHfIfJfKfLfMfNfOfPfQfRfSfTfUfVfWfXfYfZf0f1f2f3f4f5f6f7f8f9f.f+gagbgcgdgegfggghgigjgkglgmgngogpgqgrgsgtgugvgwgxgygzgAgBgCgDgEgFgGgHgIgJgKgLgMgNgOgPgQgRgSgTgUgVgWgXgYgZg0g1g2g3g4g5g6g7g8g9g.g+hahbhchdhehfhghhhihjhkhlhmhnhohphqhrhshthuhvhwhxhyhzhAhBhChDhEhFhGhHhIhJhKhLhMhNhOhPhQhRhShThUhVhWhXhYhZh0h1h2h3h4h5h6h7h8h9h.h+",
"aaabacadaeafagahaiajakalamanaoapaqarasatauavawaxayazaAaBaCaDaEaFaGaHaIaJaKaLaMaNaOaPaQaRaSaTaUaVaWaXaYaZa0a1a2a3a4a5a6a7a8a9a.a+babbbcbdbebfbgbhbibjbkblbmbnbobpbqbrbsbtbubvbwbxbybzbAbBbCbDbEbFbGbHbIbJbKbLbMbNbObPbQbRbSbTbUbVbWbXbYbZb0b1b2b3b4b5b6b7b8b9b.b+cacbcccdcecfcgchcicjckclcmcncocpcqcrcsctcucvcwcxcyczcAcBcCcDcEcFcGcHcIcJcKcLcMcNcOcPcQcRcScTcUcVcWcXcYcZc0c1c2c3c4c5c6c7c8c9c.c+dadbdcdddedfdgdhdidjdkdldmdndodpdqdrdsdtdudvdwdxdydzdAdBdCdDdEdFdGdHdIdJdKdLdMdNdOdPdQdRdSdTdUdVdWdXdYdZd0d1d2d3d4d5d6d7d8d9d.d+eaebecedeeefegeheiejekelemeneoepeqereseteuevewexeyezeAeBeCeDeEeFeGeHeIeJeKeLeMeNeOePeQeReSeTeUeVeWeXeYeZe0e1e2e3e4e5e6e7e8e9e.e+fafbfcfdfefffgfhfifjfkflfmfnfofpfqfrfsftfufvfwfxfyfzfAfBfCfDfEfFfGfHfIfJfKfLfMfNfOfPfQfRfSfTfUfVfWfXfYfZf0f1f2f3f4f5f6f7f8f9f.f+gagbgcgdgegfggghgigjgkglgmgngogpgqgrgsgtgugvgwgxgygzgAgBgCgDgEgFgGgHgIgJgKgLgMgNgOgPgQgRgSgTgUgVgWgXgYgZg0g1g2g3g4g5g6g7g8g9g.g+hahbhchdhehfhghhhihjhkhlhmhnhohphqhrhshthuhvhwhxhyhzhAhBhChDhEhFhGhHhIhJhKhLhMhNhOhPhQhRhShThUhVhWhXhYhZh0h1h2h3h4h5h6h7h8h9h.h+",
"aaabacadaeafagahaiajakalamanaoapaqarasatauavawaxayazaAaBaCaDaEaFaGaHaIaJaKaLaMaNaOaPaQaRaSaTaUaVaWaXaYaZa0a1a2a3a4a5a6a7a8a9a.a+babbbcbdbebfbgbhbibjbkblbmbnbobpbqbrbsbtbubvbwbxbybzbAbBbCbDbEbFbGbHbIbJbKbLbMbNbObPbQbRbSbTbUbVbWbXbYbZb0b1b2b3b4b5b6b7b8b9b.b+cacbcccdcecfcgchcicjckclcmcncocpcqcrcsctcucvcwcxcyczcAcBcCcDcEcFcGcHcIcJcKcLcMcNcOcPcQcRcScTcUcVcWcXcYcZc0c1c2c3c4c5c6c7c8c9c.c+dadbdcdddedfdgdhdidjdkdldmdndodpdqdrdsdtdudvdwdxdydzdAdBdCdDdEdFdGdHdIdJdKdLdMdNdOdPdQdRdSdTdUdVdWdXdYdZd0d1d2d3d4d5d6d7d8d9d.d+eaebecedeeefegeheiejekelemeneoepeqereseteuevewexeyezeAeBeCeDeEeFeGeHeIeJeKeLeMeNeOePeQeReSeTeUeVeWeXeYeZe0e1e2e3e4e5e6e7e8e9e.e+fafbfcfdfefffgfhfifjfkflfmfnfofpfqfrfsftfufvfwfxfyfzfAfBfCfDfEfFfGfHfIfJfKfLfMfNfOfPfQfRfSfTfUfVfWfXfYfZf0f1f2f3f4f5f6f7f8f9f.f+gagbgcgdgegfggghgigjgkglgmgngogpgqgrgsgtgugvgwgxgygzgAgBgCgDgEgFgGgHgIgJgKgLgMgNgOgPgQgRgSgTgUgVgWgXgYgZg0g1g2g3g4g5g6g7g8g9g.g+hahbhchdhehfhghhhihjhkhlhmhnhohphqhrhshthuhvhwhxhyhzhAhBhChDhEhFhGhHhIhJhKhLhMhNhOhPhQhRhShThUhVhWhXhYhZh0h1h2h3h4h5h6h7h8h9h.h+",
"aaabacadaeafagahaiajakalamanaoapaqarasatauavawaxayazaAaBaCaDaEaFaGaHaIaJaKaLaMaNaOaPaQaRaSaTaUaVaWaXaYaZa0a1a2a3a4a5a6a7a8a9a.a+babbbcbdbebfbgbhbibjbkblbmbnbobpbqbrbsbtbubvbwbxbybzbAbBbCbDbEbFbGbHbIbJbKbLbMbNbObPbQbRbSbTbUbVbWbXbYbZb0b1b2b3b4b5b6b7b8b9b.b+cacbcccdcecfcgchcicjckclcmcncocpcqcrcsctcucvcwcxcyczcAcBcCcDcEcFcGcHcIcJcKcLcMcNcOcPcQcRcScTcUcVcWcXcYcZc0c1c2c3c4c5c6c7c8c9c.c+dadbdcdddedfdgdhdidjdkdldmdndodpdqdrdsdtdudvdwdxdydzdAdBdCdDdEdFdGdHdIdJdKdLdMdNdOdPdQdRdSdTdUdVdWdXdYdZd0d1d2d3d4d5d6d7d8d9d.d+eaebecedeeefegeheiejekelemeneoepeqereseteuevewexeyezeAeBeCeDeEeFeGeHeIeJeKeLeMeNeOePeQeReSeTeUeVeWeXeYeZe0e1e2e3e4e5e6e7e8e9e.e+fafbfcfdfefffgfhfifjfkflfmfnfofpfqfrfsftfufvfwfxfyfzfAfBfCfDfEfFfGfHfIfJfKfLfMfNfOfPfQfRfSfTfUfVfWfXfYfZf0f1f2f3f4f5f6f7f8f9f.f+gagbgcgdgegfggghgigjgkglgmgngogpgqgrgsgtgugvgwgxgygzgAgBgCgDgEgFgGgHgIgJgKgLgMgNgOgPgQgRgSgTgUgVgWgXgYgZg0g1g2g3g4g5g6g7g8g9g.g+hahbhchdhehfhghhhihjhkhlhmhnhohphqhrhshthuhvhwhxhyhzhAhBhChDhEhFhGhHhIhJhKhLhMhNhOhPhQhRhShThUhVhWhXhYhZh0h1h2h3h4h5h6h7h8h9h.h+",
"aaabacadaeafagahaiajakalamanaoapaqarasatauavawaxayazaAaBaCaDaEaFaGaHaIaJaKaLaMaNaOaPaQaRaSaTaUaVaWaXaYaZa0a1a2a3a4a5a6a7a8a9a.a+babbbcbdbebfbgbhbibjbkblbmbnbobpbqbrbsbtbubvbwbxbybzbAbBbCbDbEbFbGbHbIbJbKbLbMbNbObPbQbRbSbTbUbVbWbXbYbZb0b1b2b3b4b5b6b7b8b9b.b+cacbcccdcecfcgchcicjckclcmcncocpcqcrcsctcucvcwcxcyczcAcBcCcDcEcFcGcHcIcJcKcLcMcNcOcPcQcRcScTcUcVcWcXcYcZc0c1c2c3c4c5c6c7c8c9c.c+dadbdcdddedfdgdhdidjdkdldmdndodpdqdrdsdtdudvdwdxdydzdAdBdCdDdEdFdGdHdIdJdKdLdMdNdOdPdQdRdSdTdUdVdWdXdYdZd0d1d2d3d4d5d6d7d8d9d.d+eaebecedeeefegeheiejekelemeneoepeqereseteuevewexeyezeAeBeCeDeEeFeGeHeIeJeKeLeMeNeOePeQeReSeTeUeVeWeXeYeZe0e1e2e3e4e5e6e7e8e9e.e+fafbfcfdfefffgfhfifjfkflfmfnfofpfqfrfsftfufvfwfxfyfzfAfBfCfDfEfFfGfHfIfJfKfLfMfNfOfPfQfRfSfTfUfVfWfXfYfZf0f1f2f3f4f5f6f7f8f9f.f+gagbgcgdgegfggghgigjgkglgmgngogpgqgrgsgtgugvgwgxgygzgAgBgCgDgEgFgGgHgIgJgKgLgMgNgOgPgQgRgSgTgUgVgWgXgYgZg0g1g2g3g4g5g6g7g8g9g.g+hahbhchdhehfhghhhihjhkhlhmhnhohphqhrhshthuhvhwhxhyhzhAhBhChDhEhFhGhHhIhJhKhLhMhNhOhPhQhRhShThUhVhWhXhYhZh0h1h2h3h4h5h6h7h8h9h.h+",
"aaabacadaeafagahaiajakalamanaoapaqarasatauavawaxayazaAaBaCaDaEaFaGaHaIaJaKaLaMaNaOaPaQaRaSaTaUaVaWaXaYaZa0a1a2a3a4a5a6a7a8a9a.a+babbbcbdbebfbgbhbibjbkblbmbnbobpbqbrbsbtbubvbwbxbybzbAbBbCbDbEbFbGbHbIbJbKbLbMbNbObPbQbRbSbTbUbVbWbXbYbZb0b1b2b3b4b5b6b7b8b9b.b+cacbcccdcecfcgchcicjckclcmcncocpcqcrcsctcucvcwcxcyczcAcBcCcDcEcFcGcHcIcJcKcLcMcNcOcPcQcRcScTcUcVcWcXcYcZc0c1c2c3c4c5c6c7c8c9c.c+dadbdcdddedfdgdhdidjdkdldmdndodpdqdrdsdtdudvdwdxdydzdAdBdCdDdEdFdGdHdIdJdKdLdMdNdOdPdQdRdSdTdUdVdWdXdYdZd0d1d2d3d4d5d6d7d8d9d.d+eaebecedeeefegeheiejekelemeneoepeqereseteuevewexeyezeAeBeCeDeEeFeGeHeIeJeKeLeMeNeOePeQeReSeTeUeVeWeXeYeZe0e1e2e3e4e5e6e7e8e9e.e+fafbfcfdfefffgfhfifjfkflfmfnfofpfqfrfsftfufvfwfxfyfzfAfBfCfDfEfFfGfHfIfJfKfLfMfNfOfPfQfRfSfTfUfVfWfXfYfZf0f1f2f3f4f5f6f7f8f9f.f+gagbgcgdgegfggghgigjgkglgmgngogpgqgrgsgtgugvgwgxgygzgAgBgCgDgEgFgGgHgIgJgKgLgMgNgOgPgQgRgSgTgUgVgWgXgYgZg0g1g2g3g4g5g6g7g8g9g.g+hahbhchdhehfhghhhihjhkhlhmhnhohphqhrhshthuhvhwhxhyhzhAhBhChDhEhFhGhHhIhJhKhLhMhNhOhPhQhRhShThUhVhWhXhYhZh0h1h2h3h4h5h6h7h8h9h.h+",
"aaabacadaeafagahaiajakalamanaoapaqarasatauavawaxayazaAaBaCaDaEaFaGaHaIaJaKaLaMaNaOaPaQaRaSaTaUaVaWaXaYaZa0a1a2a3a4a5a6a7a8a9a.a+babbbcbdbebfbgbhbibjbkblbmbnbobpbqbrbsbtbubvbwbxbybzbAbBbCbDbEbFbGbHbIbJbKbLbMbNbObPbQbRbSbTbUbVbWbXbYbZb0b1b2b3b4b5b6b7b8b9b.b+cacbcccdcecfcgchcicjckclcmcncocpcqcrcsctcucvcwcxcyczcAcBcCcDcEcFcGcHcIcJcKcLcMcNcOcPcQcRcScTcUcVcWcXcYcZc0c1c2c3c4c5c6c7c8c9c.c+dadbdcdddedfdgdhdidjdkdldmdndodpdqdrdsdtdudvdwdxdydzdAdBdCdDdEdFdGdHdIdJdKdLdMdNdOdPdQdRdSdTdUdVdWdXdYdZd0d1d2d3d4d5d6d7d8d9d.d+eaebecedeeefegeheiejekelemeneoepeqereseteuevewexeyezeAeBeCeDeEeFeGeHeIeJeKeLeMeNeOePeQeReSeTeUeVeWeXeYeZe0e1e2e3e4e5e6e7e8e9e.e+fafbfcfdfefffgfhfifjfkflfmfnfofpfqfrfsftfufvfwfxfyfzfAfBfCfDfEfFfGfHfIfJfKfLfMfNfOfPfQfRfSfTfUfVfWfXfYfZf0f1f2f3f4f5f6f7f8f9f.f+gagbgcgdgegfggghgigjgkglgmgngogpgqgrgsgtgugvgwgxgygzgAgBgCgDgEgFgGgHgIgJgKgLgMgNgOgPgQgRgSgTgUgVgWgXgYgZg0g1g2g3g4g5g6g7g8g9g.g+hahbhchdhehfhghhhihjhkhlhmhnhohphqhrhshthuhvhwhxhyhzhAhBhChDhEhFhGhHhIhJhKhLhMhNhOhPhQhRhShThUhVhWhXhYhZh0h1h2h3h4h5h6h7h8h9h.h+",
"aaabacadaeafagahaiajakalamanaoapaqarasatauavawaxayazaAaBaCaDaEaFaGaHaIaJaKaLaMaNaOaPaQaRaSaTaUaVaWaXaYaZa0a1a2a3a4a5a6a7a8a9a.a+babbbcbdbebfbgbhbibjbkblbmbnbobpbqbrbsbtbubvbwbxbybzbAbBbCbDbEbFbGbHbIbJbKbLbMbNbObPbQbRbSbTbUbVbWbXbYbZb0b1b2b3b4b5b6b7b8b9b.b+cacbcccdcecfcgchcicjckclcmcncocpcqcrcsctcucvcwcxcyczcAcBcCcDcEcFcGcHcIcJcKcLcMcNcOcPcQcRcScTcUcVcWcXcYcZc0c1c2c3c4c5c6c7c8c9c.c+dadbdcdddedfdgdhdidjdkdldmdndodpdqdrdsdtdudvdwdxdydzdAdBdCdDdEdFdGdHdIdJdKdLdMdNdOdPdQdRdSdTdUdVdWdXdYdZd0d1d2d3d4d5d6d7d8d9d.d+eaebecedeeefegeheiejekelemeneoepeqereseteuevewexeyezeAeBeCeDeEeFeGeHeIeJeKeLeMeNeOePeQeReSeTeUeVeWeXeYeZe0e1e2e3e4e5e6e7e8e9e.e+fafbfcfdfefffgfhfifjfkflfmfnfofpfqfrfsftfufvfwfxfyfzfAfBfCfDfEfFfGfHfIfJfKfLfMfNfOfPfQfRfSfTfUfVfWfXfYfZf0f1f2f3f4f5f6f7f8f9f.f+gagbgcgdgegfggghgigjgkglgmgngogpgqgrgsgtgugvgwgxgygzgAgBgCgDgEgFgGgHgIgJgKgLgMgNgOgPgQgRgSgTgUgVgWgXgYgZg0g1g2g3g4g5g6g7g8g9g.g+hahbhchdhehfhghhhihjhkhlhmhnhohphqhrhshthuhvhwhxhyhzhAhBhChDhEhFhGhHhIhJhKhLhMhNhOhPhQhRhShThUhVhWhXhYhZh0h1h2h3h4h5h6h7h8h9h.h+",
"aaabacadaeafagahaiajakalamanaoapaqarasatauavawaxayazaAaBaCaDaEaFaGaHaIaJaKaLaMaNaOaPaQaRaSaTaUaVaWaXaYaZa0a1a2a3a4a5a6a7a8a9a.a+babbbcbdbebfbgbhbibjbkblbmbnbobpbqbrbsbtbubvbwbxbybzbAbBbCbDbEbFbGbHbIbJbKbLbMbNbObPbQbRbSbTbUbVbWbXbYbZb0b1b2b3b4b5b6b7b8b9b.b+cacbcccdcecfcgchcicjckclcmcncocpcqcrcsctcucvcwcxcyczcAcBcCcDcEcFcGcHcIcJcKcLcMcNcOcPcQcRcScTcUcVcWcXcYcZc0c1c2c3c4c5c6c7c8c9c.c+dadbdcdddedfdgdhdidjdkdldmdndodpdqdrdsdtdudvdwdxdydzdAdBdCdDdEdFdGdHdIdJdKdLdMdNdOdPdQdRdSdTdUdVdWdXdYdZd0d1d2d3d4d5d6d7d8d9d.d+eaebecedeeefegeheiejekelemeneoepeqereseteuevewexeyezeAeBeCeDeEeFeGeHeIeJeKeLeMeNeOePeQeReSeTeUeVeWeXeYeZe0e1e2e3e4e5e6e7e8e9e.e+fafbfcfdfefffgfhfifjfkflfmfnfofpfqfrfsftfufvfwfxfyfzfAfBfCfDfEfFfGfHfIfJfKfLfMfNfOfPfQfRfSfTfUfVfWfXfYfZf0f1f2f3f4f5f6f7f8f9f.f+gagbgcgdgegfggghgigjgkglgmgngogpgqgrgsgtgugvgwgxgygzgAgBgCgDgEgFgGgHgIgJgKgLgMgNgOgPgQgRgSgTgUgVgWgXgYgZg0g1g2g3g4g5g6g7g8g9g.g+hahbhchdhehfhghhhihjhkhlhmhnhohphqhrhshthuhvhwhxhyhzhAhBhChDhEhFhGhHhIhJhKhLhMhNhOhPhQhRhShThUhVhWhXhYhZh0h1h2h3h4h5h6h7h8h9h.h+",
"aaabacadaeafagahaiajakalamanaoapaqarasatauavawaxayazaAaBaCaDaEaFaGaHaIaJaKaLaMaNaOaPaQaRaSaTaUaVaWaXaYaZa0a1a2a3a4a5a6a7a8a9a.a+babbbcbdbebfbgbhbibjbkblbmbnbobpbqbrbsbtbubvbwbxbybzbAbBbCbDbEbFbGbHbIbJbKbLbMbNbObPbQbRbSbTbUbVbWbXbYbZb0b1b2b3b4b5b6b7b8b9b.b+cacbcccdcecfcgchcicjckclcmcncocpcqcrcsctcucvcwcxcyczcAcBcCcDcEcFcGcHcIcJcKcLcMcNcOcPcQcRcScTcUcVcWcXcYcZc0c1c2c3c4c5c6c7c8c9c.c+dadbdcdddedfdgdhdidjdkdldmdndodpdqdrdsdtdudvdwdxdydzdAdBdCdDdEdFdGdHdIdJdKdLdMdNdOdPdQdRdSdTdUdVdWdXdYdZd0d1d2d3d4d5d6d7d8d9d.d+eaebecedeeefegeheiejekelemeneoepeqereseteuevewexeyezeAeBeCeDeEeFeGeHeIeJeKeLeMeNeOePeQeReSeTeUeVeWeXeYeZe0e1e2e3e4e5e6e7e8e9e.e+fafbfcfdfefffgfhfifjfkflfmfnfofpfqfrfsftfufvfwfxfyfzfAfBfCfDfEfFfGfHfIfJfKfLfMfNfOfPfQfRfSfTfUfVfWfXfYfZf0f1f2f3f4f5f6f7f8f9f.f+gagbgcgdgegfggghgigjgkglgmgngogpgqgrgsgtgugvgwgxgygzgAgBgCgDgEgFgGgHgIgJgKgLgMgNgOgPgQgRgSgTgUgVgWgXgYgZg0g1g2g3g4g5g6g7g8g9g.g+hahbhchdhehfhghhhihjhkhlhmhnhohphqhrhshthuhvhwhxhyhzhAhBhChDhEhFhGhHhIhJhKhLhMhNhOhPhQhRhShThUhVhWhXhYhZh0h1h2h3h4h5h6h7h8h9h.h+",
"aaabacadaeafagahaiajakalamanaoapaqarasatauavawaxayazaAaBaCaDaEaFaGaHaIaJaKaLaMaNaOaPaQaRaSaTaUaVaWaXaYaZa0a1a2a3a4a5a6a7a8a9a.a+babbbcbdbebfbgbhbibjbkblbmbnbobpbqbrbsbtbubvbwbxbybzbAbBbCbDbEbFbGbHbIbJbKbLbMbNbObPbQbRbSbTbUbVbWbXbYbZb0b1b2b3b4b5b6b7b8b9b.b+cacbcccdcecfcgchcicjckclcmcncocpcqcrcsctcucvcwcxcyczcAcBcCcDcEcFcGcHcIcJcKcLcMcNcOcPcQcRcScTcUcVcWcXcYcZc0c1c2c3c4c5c6c7c8c9c.c+dadbdcdddedfdgdhdidjdkdldmdndodpdqdrdsdtdudvdwdxdydzdAdBdCdDdEdFdGdHdIdJdKdLdMdNdOdPdQdRdSdTdUdVdWdXdYdZd0d1d2d3d4d5d6d7d8d9d.d+eaebecedeeefegeheiejekelemeneoepeqereseteuevewexeyezeAeBeCeDeEeFeGeHeIeJeKeLeMeNeOePeQeReSeTeUeVeWeXeYeZe0e1e2e3e4e5e6e7e8e9e.e+fafbfcfdfefffgfhfifjfkflfmfnfofpfqfrfsftfufvfwfxfyfzfAfBfCfDfEfFfGfHfIfJfKfLfMfNfOfPfQfRfSfTfUfVfWfXfYfZf0f1f2f3f4f5f6f7f8f9f.f+gagbgcgdgegfggghgigjgkglgmgngogpgqgrgsgtgugvgwgxgygzgAgBgCgDgEgFgGgHgIgJgKgLgMgNgOgPgQgRgSgTgUgVgWgXgYgZg0g1g2g3g4g5g6g7g8g9g.g+hahbhchdhehfhghhhihjhkhlhmhnhohphqhrhshthuhvhwhxhyhzhAhBhChDhEhFhGhHhIhJhKhLhMhNhOhPhQhRhShThUhVhWhXhYhZh0h1h2h3h4h5h6h7h8h9h.h+",
"aaabacadaeafagahaiajakalamanaoapaqarasatauavawaxayazaAaBaCaDaEaFaGaHaIaJaKaLaMaNaOaPaQaRaSaTaUaVaWaXaYaZa0a1a2a3a4a5a6a7a8a9a.a+babbbcbdbebfbgbhbibjbkblbmbnbobpbqbrbsbtbubvbwbxbybzbAbBbCbDbEbFbGbHbIbJbKbLbMbNbObPbQbRbSbTbUbVbWbXbYbZb0b1b2b3b4b5b6b7b8b9b.b+cacbcccdcecfcgchcicjckclcmcncocpcqcrcsctcucvcwcxcyczcAcBcCcDcEcFcGcHcIcJcKcLcMcNcOcPcQcRcScTcUcVcWcXcYcZc0c1c2c3c4c5c6c7c8c9c.c+dadbdcdddedfdgdhdidjdkdldmdndodpdqdrdsdtdudvdwdxdydzdAdBdCdDdEdFdGdHdIdJdKdLdMdNdOdPdQdRdSdTdUdVdWdXdYdZd0d1d2d3d4d5d6d7d8d9d.d+eaebecedeeefegeheiejekelemeneoepeqereseteuevewexeyezeAeBeCeDeEeFeGeHeIeJeKeLeMeNeOePeQeReSeTeUeVeWeXeYeZe0e1e2e3e4e5e6e7e8e9e.e+fafbfcfdfefffgfhfifjfkflfmfnfofpfqfrfsftfufvfwfxfyfzfAfBfCfDfEfFfGfHfIfJfKfLfMfNfOfPfQfRfSfTfUfVfWfXfYfZf0f1f2f3f4f5f6f7f8f9f.f+gagbgcgdgegfggghgigjgkglgmgngogpgqgrgsgtgugvgwgxgygzgAgBgCgDgEgFgGgHgIgJgKgLgMgNgOgPgQgRgSgTgUgVgWgXgYgZg0g1g2g3g4g5g6g7g8g9g.g+hahbhchdhehfhghhhihjhkhlhmhnhohphqhrhshthuhvhwhxhyhzhAhBhChDhEhFhGhHhIhJhKhLhMhNhOhPhQhRhShThUhVhWhXhYhZh0h1h2h3h4h5h6h7h8h9h.h+",
"aaabacadaeafagahaiajakalamanaoapaqarasatauavawaxayazaAaBaCaDaEaFaGaHaIaJaKaLaMaNaOaPaQaRaSaTaUaVaWaXaYaZa0a1a2a3a4a5a6a7a8a9a.a+babbbcbdbebfbgbhbibjbkblbmbnbobpbqbrbsbtbubvbwbxbybzbAbBbCbDbEbFbGbHbIbJbKbLbMbNbObPbQbRbSbTbUbVbWbXbYbZb0b1b2b3b4b5b6b7b8b9b.b+cacbcccdcecfcgchcicjckclcmcncocpcqcrcsctcucvcwcxcyczcAcBcCcDcEcFcGcHcIcJcKcLcMcNcOcPcQcRcScTcUcVcWcXcYcZc0c1c2c3c4c5c6c7c8c9c.c+dadbdcdddedfdgdhdidjdkdldmdndodpdqdrdsdtdudvdwdxdydzdAdBdCdDdEdFdGdHdIdJdKdLdMdNdOdPdQdRdSdTdUdVdWdXdYdZd0d1d2d3d4d5d6d7d8d9d.d+eaebecedeeefegeheiejekelemeneoepeqereseteuevewexeyezeAeBeCeDeEeFeGeHeIeJeKeLeMeNeOePeQeReSeTeUeVeWeXeYeZe0e1e2e3e4e5e6e7e8e9e.e+fafbfcfdfefffgfhfifjfkflfmfnfofpfqfrfsftfufvfwfxfyfzfAfBfCfDfEfFfGfHfIfJfKfLfMfNfOfPfQfRfSfTfUfVfWfXfYfZf0f1f2f3f4f5f6f7f8f9f.f+gagbgcgdgegfggghgigjgkglgmgngogpgqgrgsgtgugvgwgxgygzgAgBgCgDgEgFgGgHgIgJgKgLgMgNgOgPgQgRgSgTgUgVgWgXgYgZg0g1g2g3g4g5g6g7g8g9g.g+hahbhchdhehfhghhhihjhkhlhmhnhohphqhrhshthuhvhwhxhyhzhAhBhChDhEhFhGhHhIhJhKhLhMhNhOhPhQhRhShThUhVhWhXhYhZh0h1h2h3h4h5h6h7h8h9h.h+",
"aaabacadaeafagahaiajakalamanaoapaqarasatauavawaxayazaAaBaCaDaEaFaGaHaIaJaKaLaMaNaOaPaQaRaSaTaUaVaWaXaYaZa0a1a2a3a4a5a6a7a8a9a.a+babbbcbdbebfbgbhbibjbkblbmbnbobpbqbrbsbtbubvbwbxbybzbAbBbCbDbEbFbGbHbIbJbKbLbMbNbObPbQbRbSbTbUbVbWbXbYbZb0b1b2b3b4b5b6b7b8b9b.b+cacbcccdcecfcgchcicjckclcmcncocpcqcrcsctcucvcwcxcyczcAcBcCcDcEcFcGcHcIcJcKcLcMcNcOcPcQcRcScTcUcVcWcXcYcZc0c1c2c3c4c5c6c7c8c9c.c+dadbdcdddedfdgdhdidjdkdldmdndodpdqdrdsdtdudvdwdxdydzdAdBdCdDdEdFdGdHdIdJdKdLdMdNdOdPdQdRdSdTdUdVdWdXdYdZd0d1d2d3d4d5d6d7d8d9d.d+eaebecedeeefegeheiejekelemeneoepeqereseteuevewexeyezeAeBeCeDeEeFeGeHeIeJeKeLeMeNeOePeQeReSeTeUeVeWeXeYeZe0e1e2e3e4e5e6e7e8e9e.e+fafbfcfdfefffgfhfifjfkflfmfnfofpfqfrfsftfufvfwfxfyfzfAfBfCfDfEfFfGfHfIfJfKfLfMfNfOfPfQfRfSfTfUfVfWfXfYfZf0f1f2f3f4f5f6f7f8f9f.f+gagbgcgdgegfggghgigjgkglgmgngogpgqgrgsgtgugvgwgxgygzgAgBgCgDgEgFgGgHgIgJgKgLgMgNgOgPgQgRgSgTgUgVgWgXgYgZg0g1g2g3g4g5g6g7g8g9g.g+hahbhchdhehfhghhhihjhkhlhmhnhohphqhrhshthuhvhwhxhyhzhAhBhChDhEhFhGhHhIhJhKhLhMhNhOhPhQhRhShThUhVhWhXhYhZh0h1h2h3h4h5h6h7h8h9h.h+",
"aaabacadaeafagahaiajakalamanaoapaqarasatauavawaxayazaAaBaCaDaEaFaGaHaIaJaKaLaMaNaOaPaQaRaSaTaUaVaWaXaYaZa0a1a2a3a4a5a6a7a8a9a.a+babbbcbdbebfbgbhbibjbkblbmbnbobpbqbrbsbtbubvbwbxbybzbAbBbCbDbEbFbGbHbIbJbKbLbMbNbObPbQbRbSbTbUbVbWbXbYbZb0b1b2b3b4b5b6b7b8b9b.b+cacbcccdcecfcgchcicjckclcmcncocpcqcrcsctcucvcwcxcyczcAcBcCcDcEcFcGcHcIcJcKcLcMcNcOcPcQcRcScTcUcVcWcXcYcZc0c1c2c3c4c5c6c7c8c9c.c+dadbdcdddedfdgdhdidjdkdldmdndodpdqdrdsdtdudvdwdxdydzdAdBdCdDdEdFdGdHdIdJdKdLdMdNdOdPdQdRdSdTdUdVdWdXdYdZd0d1d2d3d4d5d6d7d8d9d.d+eaebecedeeefegeheiejekelemeneoepeqereseteuevewexeyezeAeBeCeDeEeFeGeHeIeJeKeLeMeNeOePeQeReSeTeUeVeWeXeYeZe0e1e2e3e4e5e6e7e8e9e.e+fafbfcfdfefffgfhfifjfkflfmfnfofpfqfrfsftfufvfwfxfyfzfAfBfCfDfEfFfGfHfIfJfKfLfMfNfOfPfQfRfSfTfUfVfWfXfYfZf0f1f2f3f4f5f6f7f8f9f.f+gagbgcgdgegfggghgigjgkglgmgngogpgqgrgsgtgugvgwgxgygzgAgBgCgDgEgFgGgHgIgJgKgLgMgNgOgPgQgRgSgTgUgVgWgXgYgZg0g1g2g3g4g5g6g7g8g9g.g+hahbhchdhehfhghhhihjhkhlhmhnhohphqhrhshthuhvhwhxhyhzhAhBhChDhEhFhGhHhIhJhKhLhMhNhOhPhQhRhShThUhVhWhXhYhZh0h1h2h3h4h5h6h7h8h9h.h+",
"aaabacadaeafagahaiajakalamanaoapaqarasatauavawaxayazaAaBaCaDaEaFaGaHaIaJaKaLaMaNaOaPaQaRaSaTaUaVaWaXaYaZa0a1a2a3a4a5a6a7a8a9a.a+babbbcbdbebfbgbhbibjbkblbmbnbobpbqbrbsbtbubvbwbxbybzbAbBbCbDbEbFbGbHbIbJbKbLbMbNbObPbQbRbSbTbUbVbWbXbYbZb0b1b2b3b4b5b6b7b8b9b.b+cacbcccdcecfcgchcicjckclcmcncocpcqcrcsctcucvcwcxcyczcAcBcCcDcEcFcGcHcIcJcKcLcMcNcOcPcQcRcScTcUcVcWcXcYcZc0c1c2c3c4c5c6c7c8c9c.c+dadbdcdddedfdgdhdidjdkdldmdndodpdqdrdsdtdudvdwdxdydzdAdBdCdDdEdFdGdHdIdJdKdLdMdNdOdPdQdRdSdTdUdVdWdXdYdZd0d1d2d3d4d5d6d7d8d9d.d+eaebecedeeefegeheiejekelemeneoepeqereseteuevewexeyezeAeBeCeDeEeFeGeHeIeJeKeLeMeNeOePeQeReSeTeUeVeWeXeYeZe0e1e2e3e4e5e6e7e8e9e.e+fafbfcfdfefffgfhfifjfkflfmfnfofpfqfrfsftfufvfwfxfyfzfAfBfCfDfEfFfGfHfIfJfKfLfMfNfOfPfQfRfSfTfUfVfWfXfYfZf0f1f2f3f4f5f6f7f8f9f.f+gagbgcgdgegfggghgigjgkglgmgngogpgqgrgsgtgugvgwgxgygzgAgBgCgDgEgFgGgHgIgJgKgLgMgNgOgPgQgRgSgTgUgVgWgXgYgZg0g1g2g3g4g5g6g7g8g9g.g+hahbhchdhehfhghhhihjhkhlhmhnhohphqhrhshthuhvhwhxhyhzhAhBhChDhEhFhGhHhIhJhKhLhMhNhOhPhQhRhShThUhVhWhXhYhZh0h1h2h3h4h5h6h7h8h9h.h+",
"aaabacadaeafagahaiajakalamanaoapaqarasatauavawaxayazaAaBaCaDaEaFaGaHaIaJaKaLaMaNaOaPaQaRaSaTaUaVaWaXaYaZa0a1a2a3a4a5a6a7a8a9a.a+babbbcbdbebfbgbhbibjbkblbmbnbobpbqbrbsbtbubvbwbxbybzbAbBbCbDbEbFbGbHbIbJbKbLbMbNbObPbQbRbSbTbUbVbWbXbYbZb0b1b2b3b4b5b6b7b8b9b.b+cacbcccdcecfcgchcicjckclcmcncocpcqcrcsctcucvcwcxcyczcAcBcCcDcEcFcGcHcIcJcKcLcMcNcOcPcQcRcScTcUcVcWcXcYcZc0c1c2c3c4c5c6c7c8c9c.c+dadbdcdddedfdgdhdidjdkdldmdndodpdqdrdsdtdudvdwdxdydzdAdBdCdDdEdFdGdHdIdJdKdLdMdNdOdPdQdRdSdTdUdVdWdXdYdZd0d1d2d3d4d5d6d7d8d9d.d+eaebecedeeefegeheiejekelemeneoepeqereseteuevewexeyezeAeBeCeDeEeFeGeHeIeJeKeLeMeNeOePeQeReSeTeUeVeWeXeYeZe0e1e2e3e4e5e6e7e8e9e.e+fafbfcfdfefffgfhfifjfkflfmfnfofpfqfrfsftfufvfwfxfyfzfAfBfCfDfEfFfGfHfIfJfKfLfMfNfOfPfQfRfSfTfUfVfWfXfYfZf0f1f2f3f4f5f6f7f8f9f.f+gagbgcgdgegfggghgigjgkglgmgngogpgqgrgsgtgugvgwgxgygzgAgBgCgDgEgFgGgHgIgJgKgLgMgNgOgPgQgRgSgTgUgVgWgXgYgZg0g1g2g3g4g5g6g7g8g9g.g+hahbhchdhehfhghhhihjhkhlhmhnhohphqhrhshthuhvhwhxhyhzhAhBhChDhEhFhGhHhIhJhKhLhMhNhOhPhQhRhShThUhVhWhXhYhZh0h1h2h3h4h5h6h7h8h9h.h+",
"aaabacadaeafagahaiajakalamanaoapaqarasatauavawaxayazaAaBaCaDaEaFaGaHaIaJaKaLaMaNaOaPaQaRaSaTaUaVaWaXaYaZa0a1a2a3a4a5a6a7a8a9a.a+babbbcbdbebfbgbhbibjbkblbmbnbobpbqbrbsbtbubvbwbxbybzbAbBbCbDbEbFbGbHbIbJbKbLbMbNbObPbQbRbSbTbUbVbWbXbYbZb0b1b2b3b4b5b6b7b8b9b.b+cacbcccdcecfcgchcicjckclcmcncocpcqcrcsctcucvcwcxcyczcAcBcCcDcEcFcGcHcIcJcKcLcMcNcOcPcQcRcScTcUcVcWcXcYcZc0c1c2c3c4c5c6c7c8c9c.c+dadbdcdddedfdgdhdidjdkdldmdndodpdqdrdsdtdudvdwdxdydzdAdBdCdDdEdFdGdHdIdJdKdLdMdNdOdPdQdRdSdTdUdVdWdXdYdZd0d1d2d3d4d5d6d7d8d9d.d+eaebecedeeefegeheiejekelemeneoepeqereseteuevewexeyezeAeBeCeDeEeFeGeHeIeJeKeLeMeNeOePeQeReSeTeUeVeWeXeYeZe0e1e2e3e4e5e6e7e8e9e.e+fafbfcfdfefffgfhfifjfkflfmfnfofpfqfrfsftfufvfwfxfyfzfAfBfCfDfEfFfGfHfIfJfKfLfMfNfOfPfQfRfSfTfUfVfWfXfYfZf0f1f2f3f4f5f6f7f8f9f.f+gagbgcgdgegfggghgigjgkglgmgngogpgqgrgsgtgugvgwgxgygzgAgBgCgDgEgFgGgHgIgJgKgLgMgNgOgPgQgRgSgTgUgVgWgXgYgZg0g1g2g3g4g5g6g7g8g9g.g+hahbhchdhehfhghhhihjhkhlhmhnhohphqhrhshthuhvhwhxhyhzhAhBhChDhEhFhGhHhIhJhKhLhMhNhOhPhQhRhShThUhVhWhXhYhZh0h1h2h3h4h5h6h7h8h9h.h+",
"aaabacadaeafagahaiajakalamanaoapaqarasatauavawaxayazaAaBaCaDaEaFaGaHaIaJaKaLaMaNaOaPaQaRaSaTaUaVaWaXaYaZa0a1a2a3a4a5a6a7a8a9a.a+babbbcbdbebfbgbhbibjbkblbmbnbobpbqbrbsbtbubvbwbxbybzbAbBbCbDbEbFbGbHbIbJbKbLbMbNbObPbQbRbSbTbUbVbWbXbYbZb0b1b2b3b4b5b6b7b8b9b.b+cacbcccdcecfcgchcicjckclcmcncocpcqcrcsctcucvcwcxcyczcAcBcCcDcEcFcGcHcIcJcKcLcMcNcOcPcQcRcScTcUcVcWcXcYcZc0c1c2c3c4c5c6c7c8c9c.c+dadbdcdddedfdgdhdidjdkdldmdndodpdqdrdsdtdudvdwdxdydzdAdBdCdDdEdFdGdHdIdJdKdLdMdNdOdPdQdRdSdTdUdVdWdXdYdZd0d1d2d3d4d5d6d7d8d9d.d+eaebecedeeefegeheiejekelemeneoepeqereseteuevewexeyezeAeBeCeDeEeFeGeHeIeJeKeLeMeNeOePeQeReSeTeUeVeWeXeYeZe0e1e2e3e4e5e6e7e8e9e.e+fafbfcfdfefffgfhfifjfkflfmfnfofpfqfrfsftfufvfwfxfyfzfAfBfCfDfEfFfGfHfIfJfKfLfMfNfOfPfQfRfSfTfUfVfWfXfYfZf0f1f2f3f4f5f6f7f8f9f.f+gagbgcgdgegfggghgigjgkglgmgngogpgqgrgsgtgugvgwgxgygzgAgBgCgDgEgFgGgHgIgJgKgLgMgNgOgPgQgRgSgTgUgVgWgXgYgZg0g1g2g3g4g5g6g7g8g9g.g+hahbhchdhehfhghhhihjhkhlhmhnhohphqhrhshthuhvhwhxhyhzhAhBhChDhEhFhGhHhIhJhKhLhMhNhOhPhQhRhShThUhVhWhXhYhZh0h1h2h3h4h5h6h7h8h9h.h+",
"aaabacadaeafagahaiajakalamanaoapaqarasatauavawaxayazaAaBaCaDaEaFaGaHaIaJaKaLaMaNaOaPaQaRaSaTaUaVaWaXaYaZa0a1a2a3a4a5a6a7a8a9a.a+babbbcbdbebfbgbhbibjbkblbmbnbobpbqbrbsbtbubvbwbxbybzbAbBbCbDbEbFbGbHbIbJbKbLbMbNbObPbQbRbSbTbUbVbWbXbYbZb0b1b2b3b4b5b6b7b8b9b.b+cacbcccdcecfcgchcicjckclcmcncocpcqcrcsctcucvcwcxcyczcAcBcCcDcEcFcGcHcIcJcKcLcMcNcOcPcQcRcScTcUcVcWcXcYcZc0c1c2c3c4c5c6c7c8c9c.c+dadbdcdddedfdgdhdidjdkdldmdndodpdqdrdsdtdudvdwdxdydzdAdBdCdDdEdFdGdHdIdJdKdLdMdNdOdPdQdRdSdTdUdVdWdXdYdZd0d1d2d3d4d5d6d7d8d9d.d+eaebecedeeefegeheiejekelemeneoepeqereseteuevewexeyezeAeBeCeDeEeFeGeHeIeJeKeLeMeNeOePeQeReSeTeUeVeWeXeYeZe0e1e2e3e4e5e6e7e8e9e.e+fafbfcfdfefffgfhfifjfkflfmfnfofpfqfrfsftfufvfwfxfyfzfAfBfCfDfEfFfGfHfIfJfKfLfMfNfOfPfQfRfSfTfUfVfWfXfYfZf0f1f2f3f4f5f6f7f8f9f.f+gagbgcgdgegfggghgigjgkglgmgngogpgqgrgsgtgugvgwgxgygzgAgBgCgDgEgFgGgHgIgJgKgLgMgNgOgPgQgRgSgTgUgVgWgXgYgZg0g1g2g3g4g5g6g7g8g9g.g+hahbhchdhehfhghhhihjhkhlhmhnhohphqhrhshthuhvhwhxhyhzhAhBhChDhEhFhGhHhIhJhKhLhMhNhOhPhQhRhShThUhVhWhXhYhZh0h1h2h3h4h5h6h7h8h9h.h+",
"aaabacadaeafagahaiajakalamanaoapaqarasatauavawaxayazaAaBaCaDaEaFaGaHaIaJaKaLaMaNaOaPaQaRaSaTaUaVaWaXaYaZa0a1a2a3a4a5a6a7a8a9a.a+babbbcbdbebfbgbhbibjbkblbmbnbobpbqbrbsbtbubvbwbxbybzbAbBbCbDbEbFbGbHbIbJbKbLbMbNbObPbQbRbSbTbUbVbWbXbYbZb0b1b2b3b4b5b6b7b8b9b.b+cacbcccdcecfcgchcicjckclcmcncocpcqcrcsctcucvcwcxcyczcAcBcCcDcEcFcGcHcIcJcKcLcMcNcOcPcQcRcScTcUcVcWcXcYcZc0c1c2c3c4c5c6c7c8c9c.c+dadbdcdddedfdgdhdidjdkdldmdndodpdqdrdsdtdudvdwdxdydzdAdBdCdDdEdFdGdHdIdJdKdLdMdNdOdPdQdRdSdTdUdVdWdXdYdZd0d1d2d3d4d5d6d7d8d9d.d+eaebecedeeefegeheiejekelemeneoepeqereseteuevewexeyezeAeBeCeDeEeFeGeHeIeJeKeLeMeNeOePeQeReSeTeUeVeWeXeYeZe0e1e2e3e4e5e6e7e8e9e.e+fafbfcfdfefffgfhfifjfkflfmfnfofpfqfrfsftfufvfwfxfyfzfAfBfCfDfEfFfGfHfIfJfKfLfMfNfOfPfQfRfSfTfUfVfWfXfYfZf0f1f2f3f4f5f6f7f8f9f.f+gagbgcgdgegfggghgigjgkglgmgngogpgqgrgsgtgugvgwgxgygzgAgBgCgDgEgFgGgHgIgJgKgLgMgNgOgPgQgRgSgTgUgVgWgXgYgZg0g1g2g3g4g5g6g7g8g9g.g+hahbhchdhehfhghhhihjhkhlhmhnhohphqhrhshthuhvhwhxhyhzhAhBhChDhEhFhGhHhIhJhKhLhMhNhOhPhQhRhShThUhVhWhXhYhZh0h1h2h3h4h5h6h7h8h9h.h+",
"aaabacadaeafagahaiajakalamanaoapaqarasatauavawaxayazaAaBaCaDaEaFaGaHaIaJaKaLaMaNaOaPaQaRaSaTaUaVaWaXaYaZa0a1a2a3a4a5a6a7a8a9a.a+babbbcbdbebfbgbhbibjbkblbmbnbobpbqbrbsbtbubvbwbxbybzbAbBbCbDbEbFbGbHbIbJbKbLbMbNbObPbQbRbSbTbUbVbWbXbYbZb0b1b2b3b4b5b6b7b8b9b.b+cacbcccdcecfcgchcicjckclcmcncocpcqcrcsctcucvcwcxcyczcAcBcCcDcEcFcGcHcIcJcKcLcMcNcOcPcQcRcScTcUcVcWcXcYcZc0c1c2c3c4c5c6c7c8c9c.c+dadbdcdddedfdgdhdidjdkdldmdndodpdqdrdsdtdudvdwdxdydzdAdBdCdDdEdFdGdHdIdJdKdLdMdNdOdPdQdRdSdTdUdVdWdXdYdZd0d1d2d3d4d5d6d7d8d9d.d+eaebecedeeefegeheiejekelemeneoepeqereseteuevewexeyezeAeBeCeDeEeFeGeHeIeJeKeLeMeNeOePeQeReSeTeUeVeWeXeYeZe0e1e2e3e4e5e6e7e8e9e.e+fafbfcfdfefffgfhfifjfkflfmfnfofpfqfrfsftfufvfwfxfyfzfAfBfCfDfEfFfGfHfIfJfKfLfMfNfOfPfQfRfSfTfUfVfWfXfYfZf0f1f2f3f4f5f6f7f8f9f.f+gagbgcgdgegfggghgigjgkglgmgngogpgqgrgsgtgugvgwgxgygzgAgBgCgDgEgFgGgHgIgJgKgLgMgNgOgPgQgRgSgTgUgVgWgXgYgZg0g1g2g3g4g5g6g7g8g9g.g+hahbhchdhehfhghhhihjhkhlhmhnhohphqhrhshthuhvhwhxhyhzhAhBhChDhEhFhGhHhIhJhKhLhMhNhOhPhQhRhShThUhVhWhXhYhZh0h1h2h3h4h5h6h7h8h9h.h+",
"aaabacadaeafagahaiajakalamanaoapaqarasatauavawaxayazaAaBaCaDaEaFaGaHaIaJaKaLaMaNaOaPaQaRaSaTaUaVaWaXaYaZa0a1a2a3a4a5a6a7a8a9a.a+babbbcbdbebfbgbhbibjbkblbmbnbobpbqbrbsbtbubvbwbxbybzbAbBbCbDbEbFbGbHbIbJbKbLbMbNbObPbQbRbSbTbUbVbWbXbYbZb0b1b2b3b4b5b6b7b8b9b.b+cacbcccdcecfcgchcicjckclcmcncocpcqcrcsctcucvcwcxcyczcAcBcCcDcEcFcGcHcIcJcKcLcMcNcOcPcQcRcScTcUcVcWcXcYcZc0c1c2c3c4c5c6c7c8c9c.c+dadbdcdddedfdgdhdidjdkdldmdndodpdqdrdsdtdudvdwdxdydzdAdBdCdDdEdFdGdHdIdJdKdLdMdNdOdPdQdRdSdTdUdVdWdXdYdZd0d1d2d3d4d5d6d7d8d9d.d+eaebecedeeefegeheiejekelemeneoepeqereseteuevewexeyezeAeBeCeDeEeFeGeHeIeJeKeLeMeNeOePeQeReSeTeUeVeWeXeYeZe0e1e2e3e4e5e6e7e8e9e.e+fafbfcfdfefffgfhfifjfkflfmfnfofpfqfrfsftfufvfwfxfyfzfAfBfCfDfEfFfGfHfIfJfKfLfMfNfOfPfQfRfSfTfUfVfWfXfYfZf0f1f2f3f4f5f6f7f8f9f.f+gagbgcgdgegfggghgigjgkglgmgngogpgqgrgsgtgugvgwgxgygzgAgBgCgDgEgFgGgHgIgJgKgLgMgNgOgPgQgRgSgTgUgVgWgXgYgZg0g1g2g3g4g5g6g7g8g9g.g+hahbhchdhehfhghhhihjhkhlhmhnhohphqhrhshthuhvhwhxhyhzhAhBhChDhEhFhGhHhIhJhKhLhMhNhOhPhQhRhShThUhVhWhXhYhZh0h1h2h3h4h5h6h7h8h9h.h+",
"aaabacadaeafagahaiajakalamanaoapaqarasatauavawaxayazaAaBaCaDaEaFaGaHaIaJaKaLaMaNaOaPaQaRaSaTaUaVaWaXaYaZa0a1a2a3a4a5a6a7a8a9a.a+babbbcbdbebfbgbhbibjbkblbmbnbobpbqbrbsbtbubvbwbxbybzbAbBbCbDbEbFbGbHbIbJbKbLbMbNbObPbQbRbSbTbUbVbWbXbYbZb0b1b2b3b4b5b6b7b8b9b.b+cacbcccdcecfcgchcicjckclcmcncocpcqcrcsctcucvcwcxcyczcAcBcCcDcEcFcGcHcIcJcKcLcMcNcOcPcQcRcScTcUcVcWcXcYcZc0c1c2c3c4c5c6c7c8c9c.c+dadbdcdddedfdgdhdidjdkdldmdndodpdqdrdsdtdudvdwdxdydzdAdBdCdDdEdFdGdHdIdJdKdLdMdNdOdPdQdRdSdTdUdVdWdXdYdZd0d1d2d3d4d5d6d7d8d9d.d+eaebecedeeefegeheiejekelemeneoepeqereseteuevewexeyezeAeBeCeDeEeFeGeHeIeJeKeLeMeNeOePeQeReSeTeUeVeWeXeYeZe0e1e2e3e4e5e6e7e8e9e.e+fafbfcfdfefffgfhfifjfkflfmfnfofpfqfrfsftfufvfwfxfyfzfAfBfCfDfEfFfGfHfIfJfKfLfMfNfOfPfQfRfSfTfUfVfWfXfYfZf0f1f2f3f4f5f6f7f8f9f.f+gagbgcgdgegfggghgigjgkglgmgngogpgqgrgsgtgugvgwgxgygzgAgBgCgDgEgFgGgHgIgJgKgLgMgNgOgPgQgRgSgTgUgVgWgXgYgZg0g1g2g3g4g5g6g7g8g9g.g+hahbhchdhehfhghhhihjhkhlhmhnhohphqhrhshthuhvhwhxhyhzhAhBhChDhEhFhGhHhIhJhKhLhMhNhOhPhQhRhShThUhVhWhXhYhZh0h1h2h3h4h5h6h7h8h9h.h+",
"aaabacadaeafagahaiajakalamanaoapaqarasatauavawaxayazaAaBaCaDaEaFaGaHaIaJaKaLaMaNaOaPaQaRaSaTaUaVaWaXaYaZa0a1a2a3a4a5a6a7a8a9a.a+babbbcbdbebfbgbhbibjbkblbmbnbobpbqbrbsbtbubvbwbxbybzbAbBbCbDbEbFbGbHbIbJbKbLbMbNbObPbQbRbSbTbUbVbWbXbYbZb0b1b2b3b4b5b6b7b8b9b.b+cacbcccdcecfcgchcicjckclcmcncocpcqcrcsctcucvcwcxcyczcAcBcCcDcEcFcGcHcIcJcKcLcMcNcOcPcQcRcScTcUcVcWcXcYcZc0c1c2c3c4c5c6c7c8c9c.c+dadbdcdddedfdgdhdidjdkdldmdndodpdqdrdsdtdudvdwdxdydzdAdBdCdDdEdFdGdHdIdJdKdLdMdNdOdPdQdRdSdTdUdVdWdXdYdZd0d1d2d3d4d5d6d7d8d9d.d+eaebecedeeefegeheiejekelemeneoepeqereseteuevewexeyezeAeBeCeDeEeFeGeHeIeJeKeLeMeNeOePeQeReSeTeUeVeWeXeYeZe0e1e2e3e4e5e6e7e8e9e.e+fafbfcfdfefffgfhfifjfkflfmfnfofpfqfrfsftfufvfwfxfyfzfAfBfCfDfEfFfGfHfIfJfKfLfMfNfOfPfQfRfSfTfUfVfWfXfYfZf0f1f2f3f4f5f6f7f8f9f.f+gagbgcgdgegfggghgigjgkglgmgngogpgqgrgsgtgugvgwgxgygzgAgBgCgDgEgFgGgHgIgJgKgLgMgNgOgPgQgRgSgTgUgVgWgXgYgZg0g1g2g3g4g5g6g7g8g9g.g+hahbhchdhehfhghhhihjhkhlhmhnhohphqhrhshthuhvhwhxhyhzhAhBhChDhEhFhGhHhIhJhKhLhMhNhOhPhQhRhShThUhVhWhXhYhZh0h1h2h3h4h5h6h7h8h9h.h+",
"aaabacadaeafagahaiajakalamanaoapaqarasatauavawaxayazaAaBaCaDaEaFaGaHaIaJaKaLaMaNaOaPaQaRaSaTaUaVaWaXaYaZa0a1a2a3a4a5a6a7a8a9a.a+babbbcbdbebfbgbhbibjbkblbmbnbobpbqbrbsbtbubvbwbxbybzbAbBbCbDbEbFbGbHbIbJbKbLbMbNbObPbQbRbSbTbUbVbWbXbYbZb0b1b2b3b4b5b6b7b8b9b.b+cacbcccdcecfcgchcicjckclcmcncocpcqcrcsctcucvcwcxcyczcAcBcCcDcEcFcGcHcIcJcKcLcMcNcOcPcQcRcScTcUcVcWcXcYcZc0c1c2c3c4c5c6c7c8c9c.c+dadbdcdddedfdgdhdidjdkdldmdndodpdqdrdsdtdudvdwdxdydzdAdBdCdDdEdFdGdHdIdJdKdLdMdNdOdPdQdRdSdTdUdVdWdXdYdZd0d1d2d3d4d5d6d7d8d9d.d+eaebecedeeefegeheiejekelemeneoepeqereseteuevewexeyezeAeBeCeDeEeFeGeHeIeJeKeLeMeNeOePeQeReSeTeUeVeWeXeYeZe0e1e2e3e4e5e6e7e8e9e.e+fafbfcfdfefffgfhfifjfkflfmfnfofpfqfrfsftfufvfwfxfyfzfAfBfCfDfEfFfGfHfIfJfKfLfMfNfOfPfQfRfSfTfUfVfWfXfYfZf0f1f2f3f4f5f6f7f8f9f.f+gagbgcgdgegfggghgigjgkglgmgngogpgqgrgsgtgugvgwgxgygzgAgBgCgDgEgFgGgHgIgJgKgLgMgNgOgPgQgRgSgTgUgVgWgXgYgZg0g1g2g3g4g5g6g7g8g9g.g+hahbhchdhehfhghhhihjhkhlhmhnhohphqhrhshthuhvhwhxhyhzhAhBhChDhEhFhGhHhIhJhKhLhMhNhOhPhQhRhShThUhVhWhXhYhZh0h1h2h3h4h5h6h7h8h9h.h+",
"aaabacadaeafagahaiajakalamanaoapaqarasatauavawaxayazaAaBaCaDaEaFaGaHaIaJaKaLaMaNaOaPaQaRaSaTaUaVaWaXaYaZa0a1a2a3a4a5a6a7a8a9a.a+babbbcbdbebfbgbhbibjbkblbmbnbobpbqbrbsbtbubvbwbxbybzbAbBbCbDbEbFbGbHbIbJbKbLbMbNbObPbQbRbSbTbUbVbWbXbYbZb0b1b2b3b4b5b6b7b8b9b.b+cacbcccdcecfcgchcicjckclcmcncocpcqcrcsctcucvcwcxcyczcAcBcCcDcEcFcGcHcIcJcKcLcMcNcOcPcQcRcScTcUcVcWcXcYcZc0c1c2c3c4c5c6c7c8c9c.c+dadbdcdddedfdgdhdidjdkdldmdndodpdqdrdsdtdudvdwdxdydzdAdBdCdDdEdFdGdHdIdJdKdLdMdNdOdPdQdRdSdTdUdVdWdXdYdZd0d1d2d3d4d5d6d7d8d9d.d+eaebecedeeefegeheiejekelemeneoepeqereseteuevewexeyezeAeBeCeDeEeFeGeHeIeJeKeLeMeNeOePeQeReSeTeUeVeWeXeYeZe0e1e2e3e4e5e6e7e8e9e.e+fafbfcfdfefffgfhfifjfkflfmfnfofpfqfrfsftfufvfwfxfyfzfAfBfCfDfEfFfGfHfIfJfKfLfMfNfOfPfQfRfSfTfUfVfWfXfYfZf0f1f2f3f4f5f6f7f8f9f.f+gagbgcgdgegfggghgigjgkglgmgngogpgqgrgsgtgugvgwgxgygzgAgBgCgDgEgFgGgHgIgJgKgLgMgNgOgPgQgRgSgTgUgVgWgXgYgZg0g1g2g3g4g5g6g7g8g9g.g+hahbhchdhehfhghhhihjhkhlhmhnhohphqhrhshthuhvhwhxhyhzhAhBhChDhEhFhGhHhIhJhKhLhMhNhOhPhQhRhShThUhVhWhXhYhZh0h1h2h3h4h5h6h7h8h9h.h+",
"aaabacadaeafagahaiajakalamanaoapaqarasatauavawaxayazaAaBaCaDaEaFaGaHaIaJaKaLaMaNaOaPaQaRaSaTaUaVaWaXaYaZa0a1a2a3a4a5a6a7a8a9a.a+babbbcbdbebfbgbhbibjbkblbmbnbobpbqbrbsbtbubvbwbxbybzbAbBbCbDbEbFbGbHbIbJbKbLbMbNbObPbQbRbSbTbUbVbWbXbYbZb0b1b2b3b4b5b6b7b8b9b.b+cacbcccdcecfcgchcicjckclcmcncocpcqcrcsctcucvcwcxcyczcAcBcCcDcEcFcGcHcIcJcKcLcMcNcOcPcQcRcScTcUcVcWcXcYcZc0c1c2c3c4c5c6c7c8c9c.c+dadbdcdddedfdgdhdidjdkdldmdndodpdqdrdsdtdudvdwdxdydzdAdBdCdDdEdFdGdHdIdJdKdLdMdNdOdPdQdRdSdTdUdVdWdXdYdZd0d1d2d3d4d5d6d7d8d9d.d+eaebecedeeefegeheiejekelemeneoepeqereseteuevewexeyezeAeBeCeDeEeFeGeHeIeJeKeLeMeNeOePeQeReSeTeUeVeWeXeYeZe0e1e2e3e4e5e6e7e8e9e.e+fafbfcfdfefffgfhfifjfkflfmfnfofpfqfrfsftfufvfwfxfyfzfAfBfCfDfEfFfGfHfIfJfKfLfMfNfOfPfQfRfSfTfUfVfWfXfYfZf0f1f2f3f4f5f6f7f8f9f.f+gagbgcgdgegfggghgigjgkglgmgngogpgqgrgsgtgugvgwgxgygzgAgBgCgDgEgFgGgHgIgJgKgLgMgNgOgPgQgRgSgTgUgVgWgXgYgZg0g1g2g3g4g5g6g7g8g9g.g+hahbhchdhehfhghhhihjhkhlhmhnhohphqhrhshthuhvhwhxhyhzhAhBhChDhEhFhGhHhIhJhKhLhMhNhOhPhQhRhShThUhVhWhXhYhZh0h1h2h3h4h5h6h7h8h9h.h+",
"aaabacadaeafagahaiajakalamanaoapaqarasatauavawaxayazaAaBaCaDaEaFaGaHaIaJaKaLaMaNaOaPaQaRaSaTaUaVaWaXaYaZa0a1a2a3a4a5a6a7a8a9a.a+babbbcbdbebfbgbhbibjbkblbmbnbobpbqbrbsbtbubvbwbxbybzbAbBbCbDbEbFbGbHbIbJbKbLbMbNbObPbQbRbSbTbUbVbWbXbYbZb0b1b2b3b4b5b6b7b8b9b.b+cacbcccdcecfcgchcicjckclcmcncocpcqcrcsctcucvcwcxcyczcAcBcCcDcEcFcGcHcIcJcKcLcMcNcOcPcQcRcScTcUcVcWcXcYcZc0c1c2c3c4c5c6c7c8c9c.c+dadbdcdddedfdgdhdidjdkdldmdndodpdqdrdsdtdudvdwdxdydzdAdBdCdDdEdFdGdHdIdJdKdLdMdNdOdPdQdRdSdTdUdVdWdXdYdZd0d1d2d3d4d5d6d7d8d9d.d+eaebecedeeefegeheiejekelemeneoepeqereseteuevewexeyezeAeBeCeDeEeFeGeHeIeJeKeLeMeNeOePeQeReSeTeUeVeWeXeYeZe0e1e2e3e4e5e6e7e8e9e.e+fafbfcfdfefffgfhfifjfkflfmfnfofpfqfrfsftfufvfwfxfyfzfAfBfCfDfEfFfGfHfIfJfKfLfMfNfOfPfQfRfSfTfUfVfWfXfYfZf0f1f2f3f4f5f6f7f8f9f.f+gagbgcgdgegfggghgigjgkglgmgngogpgqgrgsgtgugvgwgxgygzgAgBgCgDgEgFgGgHgIgJgKgLgMgNgOgPgQgRgSgTgUgVgWgXgYgZg0g1g2g3g4g5g6g7g8g9g.g+hahbhchdhehfhghhhihjhkhlhmhnhohphqhrhshthuhvhwhxhyhzhAhBhChDhEhFhGhHhIhJhKhLhMhNhOhPhQhRhShThUhVhWhXhYhZh0h1h2h3h4h5h6h7h8h9h.h+",
"aaabacadaeafagahaiajakalamanaoapaqarasatauavawaxayazaAaBaCaDaEaFaGaHaIaJaKaLaMaNaOaPaQaRaSaTaUaVaWaXaYaZa0a1a2a3a4a5a6a7a8a9a.a+babbbcbdbebfbgbhbibjbkblbmbnbobpbqbrbsbtbubvbwbxbybzbAbBbCbDbEbFbGbHbIbJbKbLbMbNbObPbQbRbSbTbUbVbWbXbYbZb0b1b2b3b4b5b6b7b8b9b.b+cacbcccdcecfcgchcicjckclcmcncocpcqcrcsctcucvcwcxcyczcAcBcCcDcEcFcGcHcIcJcKcLcMcNcOcPcQcRcScTcUcVcWcXcYcZc0c1c2c3c4c5c6c7c8c9c.c+dadbdcdddedfdgdhdidjdkdldmdndodpdqdrdsdtdudvdwdxdydzdAdBdCdDdEdFdGdHdIdJdKdLdMdNdOdPdQdRdSdTdUdVdWdXdYdZd0d1d2d3d4d5d6d7d8d9d.d+eaebecedeeefegeheiejekelemeneoepeqereseteuevewexeyezeAeBeCeDeEeFeGeHeIeJeKeLeMeNeOePeQeReSeTeUeVeWeXeYeZe0e1e2e3e4e5e6e7e8e9e.e+fafbfcfdfefffgfhfifjfkflfmfnfofpfqfrfsftfufvfwfxfyfzfAfBfCfDfEfFfGfHfIfJfKfLfMfNfOfPfQfRfSfTfUfVfWfXfYfZf0f1f2f3f4f5f6f7f8f9f.f+gagbgcgdgegfggghgigjgkglgmgngogpgqgrgsgtgugvgwgxgygzgAgBgCgDgEgFgGgHgIgJgKgLgMgNgOgPgQgRgSgTgUgVgWgXgYgZg0g1g2g3g4g5g6g7g8g9g.g+hahbhchdhehfhghhhihjhkhlhmhnhohphqhrhshthuhvhwhxhyhzhAhBhChDhEhFhGhHhIhJhKhLhMhNhOhPhQhRhShThUhVhWhXhYhZh0h1h2h3h4h5h6h7h8h9h.h+",
"aaabacadaeafagahaiajakalamanaoapaqarasatauavawaxayazaAaBaCaDaEaFaGaHaIaJaKaLaMaNaOaPaQaRaSaTaUaVaWaXaYaZa0a1a2a3a4a5a6a7a8a9a.a+babbbcbdbebfbgbhbibjbkblbmbnbobpbqbrbsbtbubvbwbxbybzbAbBbCbDbEbFbGbHbIbJbKbLbMbNbObPbQbRbSbTbUbVbWbXbYbZb0b1b2b3b4b5b6b7b8b9b.b+cacbcccdcecfcgchcicjckclcmcncocpcqcrcsctcucvcwcxcyczcAcBcCcDcEcFcGcHcIcJcKcLcMcNcOcPcQcRcScTcUcVcWcXcYcZc0c1c2c3c4c5c6c7c8c9c.c+dadbdcdddedfdgdhdidjdkdldmdndodpdqdrdsdtdudvdwdxdydzdAdBdCdDdEdFdGdHdIdJdKdLdMdNdOdPdQdRdSdTdUdVdWdXdYdZd0d1d2d3d4d5d6d7d8d9d.d+eaebecedeeefegeheiejekelemeneoepeqereseteuevewexeyezeAeBeCeDeEeFeGeHeIeJeKeLeMeNeOePeQeReSeTeUeVeWeXeYeZe0e1e2e3e4e5e6e7e8e9e.e+fafbfcfdfefffgfhfifjfkflfmfnfofpfqfrfsftfufvfwfxfyfzfAfBfCfDfEfFfGfHfIfJfKfLfMfNfOfPfQfRfSfTfUfVfWfXfYfZf0f1f2f3f4f5f6f7f8f9f.f+gagbgcgdgegfggghgigjgkglgmgngogpgqgrgsgtgugvgwgxgygzgAgBgCgDgEgFgGgHgIgJgKgLgMgNgOgPgQgRgSgTgUgVgWgXgYgZg0g1g2g3g4g5g6g7g8g9g.g+hahbhchdhehfhghhhihjhkhlhmhnhohphqhrhshthuhvhwhxhyhzhAhBhChDhEhFhGhHhIhJhKhLhMhNhOhPhQhRhShThUhVhWhXhYhZh0h1h2h3h4h5h6h7h8h9h.h+",
"aaabacadaeafagahaiajakalamanaoapaqarasatauavawaxayazaAaBaCaDaEaFaGaHaIaJaKaLaMaNaOaPaQaRaSaTaUaVaWaXaYaZa0a1a2a3a4a5a6a7a8a9a.a+babbbcbdbebfbgbhbibjbkblbmbnbobpbqbrbsbtbubvbwbxbybzbAbBbCbDbEbFbGbHbIbJbKbLbMbNbObPbQbRbSbTbUbVbWbXbYbZb0b1b2b3b4b5b6b7b8b9b.b+cacbcccdcecfcgchcicjckclcmcncocpcqcrcsctcucvcwcxcyczcAcBcCcDcEcFcGcHcIcJcKcLcMcNcOcPcQcRcScTcUcVcWcXcYcZc0c1c2c3c4c5c6c7c8c9c.c+dadbdcdddedfdgdhdidjdkdldmdndodpdqdrdsdtdudvdwdxdydzdAdBdCdDdEdFdGdHdIdJdKdLdMdNdOdPdQdRdSdTdUdVdWdXdYdZd0d1d2d3d4d5d6d7d8d9d.d+eaebecedeeefegeheiejekelemeneoepeqereseteuevewexeyezeAeBeCeDeEeFeGeHeIeJeKeLeMeNeOePeQeReSeTeUeVeWeXeYeZe0e1e2e3e4e5e6e7e8e9e.e+fafbfcfdfefffgfhfifjfkflfmfnfofpfqfrfsftfufvfwfxfyfzfAfBfCfDfEfFfGfHfIfJfKfLfMfNfOfPfQfRfSfTfUfVfWfXfYfZf0f1f2f3f4f5f6f7f8f9f.f+gagbgcgdgegfggghgigjgkglgmgngogpgqgrgsgtgugvgwgxgygzgAgBgCgDgEgFgGgHgIgJgKgLgMgNgOgPgQgRgSgTgUgVgWgXgYgZg0g1g2g3g4g5g6g7g8g9g.g+hahbhchdhehfhghhhihjhkhlhmhnhohphqhrhshthuhvhwhxhyhzhAhBhChDhEhFhGhHhIhJhKhLhMhNhOhPhQhRhShThUhVhWhXhYhZh0h1h2h3h4h5h6h7h8h9h.h+",
"aaabacadaeafagahaiajakalamanaoapaqarasatauavawaxayazaAaBaCaDaEaFaGaHaIaJaKaLaMaNaOaPaQaRaSaTaUaVaWaXaYaZa0a1a2a3a4a5a6a7a8a9a.a+babbbcbdbebfbgbhbibjbkblbmbnbobpbqbrbsbtbubvbwbxbybzbAbBbCbDbEbFbGbHbIbJbKbLbMbNbObPbQbRbSbTbUbVbWbXbYbZb0b1b2b3b4b5b6b7b8b9b.b+cacbcccdcecfcgchcicjckclcmcncocpcqcrcsctcucvcwcxcyczcAcBcCcDcEcFcGcHcIcJcKcLcMcNcOcPcQcRcScTcUcVcWcXcYcZc0c1c2c3c4c5c6c7c8c9c.c+dadbdcdddedfdgdhdidjdkdldmdndodpdqdrdsdtdudvdwdxdydzdAdBdCdDdEdFdGdHdIdJdKdLdMdNdOdPdQdRdSdTdUdVdWdXdYdZd0d1d2d3d4d5d6d7d8d9d.d+eaebecedeeefegeheiejekelemeneoepeqereseteuevewexeyezeAeBeCeDeEeFeGeHeIeJeKeLeMeNeOePeQeReSeTeUeVeWeXeYeZe0e1e2e3e4e5e6e7e8e9e.e+fafbfcfdfefffgfhfifjfkflfmfnfofpfqfrfsftfufvfwfxfyfzfAfBfCfDfEfFfGfHfIfJfKfLfMfNfOfPfQfRfSfTfUfVfWfXfYfZf0f1f2f3f4f5f6f7f8f9f.f+gagbgcgdgegfggghgigjgkglgmgngogpgqgrgsgtgugvgwgxgygzgAgBgCgDgEgFgGgHgIgJgKgLgMgNgOgPgQgRgSgTgUgVgWgXgYgZg0g1g2g3g4g5g6g7g8g9g.g+hahbhchdhehfhghhhihjhkhlhmhnhohphqhrhshthuhvhwhxhyhzhAhBhChDhEhFhGhHhIhJhKhLhMhNhOhPhQhRhShThUhVhWhXhYhZh0h1h2h3h4h5h6h7h8h9h.h+",
"aaabacadaeafagahaiajakalamanaoapaqarasatauavawaxayazaAaBaCaDaEaFaGaHaIaJaKaLaMaNaOaPaQaRaSaTaUaVaWaXaYaZa0a1a2a3a4a5a6a7a8a9a.a+babbbcbdbebfbgbhbibjbkblbmbnbobpbqbrbsbtbubvbwbxbybzbAbBbCbDbEbFbGbHbIbJbKbLbMbNbObPbQbRbSbTbUbVbWbXbYbZb0b1b2b3b4b5b6b7b8b9b.b+cacbcccdcecfcgchcicjckclcmcncocpcqcrcsctcucvcwcxcyczcAcBcCcDcEcFcGcHcIcJcKcLcMcNcOcPcQcRcScTcUcVcWcXcYcZc0c1c2c3c4c5c6c7c8c9c.c+dadbdcdddedfdgdhdidjdkdldmdndodpdqdrdsdtdudvdwdxdydzdAdBdCdDdEdFdGdHdIdJdKdLdMdNdOdPdQdRdSdTdUdVdWdXdYdZd0d1d2d3d4d5d6d7d8d9d.d+eaebecedeeefegeheiejekelemeneoepeqereseteuevewexeyezeAeBeCeDeEeFeGeHeIeJeKeLeMeNeOePeQeReSeTeUeVeWeXeYeZe0e1e2e3e4e5e6e7e8e9e.e+fafbfcfdfefffgfhfifjfkflfmfnfofpfqfrfsftfufvfwfxfyfzfAfBfCfDfEfFfGfHfIfJfKfLfMfNfOfPfQfRfSfTfUfVfWfXfYfZf0f1f2f3f4f5f6f7f8f9f.f+gagbgcgdgegfggghgigjgkglgmgngogpgqgrgsgtgugvgwgxgygzgAgBgCgDgEgFgGgHgIgJgKgLgMgNgOgPgQgRgSgTgUgVgWgXgYgZg0g1g2g3g4g5g6g7g8g9g.g+hahbhchdhehfhghhhihjhkhlhmhnhohphqhrhshthuhvhwhxhyhzhAhBhChDhEhFhGhHhIhJhKhLhMhNhOhPhQhRhShThUhVhWhXhYhZh0h1h2h3h4h5h6h7h8h9h.h+",
"aaabacadaeafagahaiajakalamanaoapaqarasatauavawaxayazaAaBaCaDaEaFaGaHaIaJaKaLaMaNaOaPaQaRaSaTaUaVaWaXaYaZa0a1a2a3a4a5a6a7a8a9a.a+babbbcbdbebfbgbhbibjbkblbmbnbobpbqbrbsbtbubvbwbxbybzbAbBbCbDbEbFbGbHbIbJbKbLbMbNbObPbQbRbSbTbUbVbWbXbYbZb0b1b2b3b4b5b6b7b8b9b.b+cacbcccdcecfcgchcicjckclcmcncocpcqcrcsctcucvcwcxcyczcAcBcCcDcEcFcGcHcIcJcKcLcMcNcOcPcQcRcScTcUcVcWcXcYcZc0c1c2c3c4c5c6c7c8c9c.c+dadbdcdddedfdgdhdidjdkdldmdndodpdqdrdsdtdudvdwdxdydzdAdBdCdDdEdFdGdHdIdJdKdLdMdNdOdPdQdRdSdTdUdVdWdXdYdZd0d1d2d3d4d5d6d7d8d9d.d+eaebecedeeefegeheiejekelemeneoepeqereseteuevewexeyezeAeBeCeDeEeFeGeHeIeJeKeLeMeNeOePeQeReSeTeUeVeWeXeYeZe0e1e2e3e4e5e6e7e8e9e.e+fafbfcfdfefffgfhfifjfkflfmfnfofpfqfrfsftfufvfwfxfyfzfAfBfCfDfEfFfGfHfIfJfKfLfMfNfOfPfQfRfSfTfUfVfWfXfYfZf0f1f2f3f4f5f6f7f8f9f.f+gagbgcgdgegfggghgigjgkglgmgngogpgqgrgsgtgugvgwgxgygzgAgBgCgDgEgFgGgHgIgJgKgLgMgNgOgPgQgRgSgTgUgVgWgXgYgZg0g1g2g3g4g5g6g7g8g9g.g+hahbhchdhehfhghhhihjhkhlhmhnhohphqhrhshthuhvhwhxhyhzhAhBhChDhEhFhGhHhIhJhKhLhMhNhOhPhQhRhShThUhVhWhXhYhZh0h1h2h3h4h5h6h7h8h9h.h+",
"aaabacadaeafagahaiajakalamanaoapaqarasatauavawaxayazaAaBaCaDaEaFaGaHaIaJaKaLaMaNaOaPaQaRaSaTaUaVaWaXaYaZa0a1a2a3a4a5a6a7a8a9a.a+babbbcbdbebfbgbhbibjbkblbmbnbobpbqbrbsbtbubvbwbxbybzbAbBbCbDbEbFbGbHbIbJbKbLbMbNbObPbQbRbSbTbUbVbWbXbYbZb0b1b2b3b4b5b6b7b8b9b.b+cacbcccdcecfcgchcicjckclcmcncocpcqcrcsctcucvcwcxcyczcAcBcCcDcEcFcGcHcIcJcKcLcMcNcOcPcQcRcScTcUcVcWcXcYcZc0c1c2c3c4c5c6c7c8c9c.c+dadbdcdddedfdgdhdidjdkdldmdndodpdqdrdsdtdudvdwdxdydzdAdBdCdDdEdFdGdHdIdJdKdLdMdNdOdPdQdRdSdTdUdVdWdXdYdZd0d1d2d3d4d5d6d7d8d9d.d+eaebecedeeefegeheiejekelemeneoepeqereseteuevewexeyezeAeBeCeDeEeFeGeHeIeJeKeLeMeNeOePeQeReSeTeUeVeWeXeYeZe0e1e2e3e4e5e6e7e8e9e.e+fafbfcfdfefffgfhfifjfkflfmfnfofpfqfrfsftfufvfwfxfyfzfAfBfCfDfEfFfGfHfIfJfKfLfMfNfOfPfQfRfSfTfUfVfWfXfYfZf0f1f2f3f4f5f6f7f8f9f.f+gagbgcgdgegfggghgigjgkglgmgngogpgqgrgsgtgugvgwgxgygzgAgBgCgDgEgFgGgHgIgJgKgLgMgNgOgPgQgRgSgTgUgVgWgXgYgZg0g1g2g3g4g5g6g7g8g9g.g+hahbhchdhehfhghhhihjhkhlhmhnhohphqhrhshthuhvhwhxhyhzhAhBhChDhEhFhGhHhIhJhKhLhMhNhOhPhQhRhShThUhVhWhXhYhZh0h1h2h3h4h5h6h7h8h9h.h+",
"aaabacadaeafagahaiajakalamanaoapaqarasatauavawaxayazaAaBaCaDaEaFaGaHaIaJaKaLaMaNaOaPaQaRaSaTaUaVaWaXaYaZa0a1a2a3a4a5a6a7a8a9a.a+babbbcbdbebfbgbhbibjbkblbmbnbobpbqbrbsbtbubvbwbxbybzbAbBbCbDbEbFbGbHbIbJbKbLbMbNbObPbQbRbSbTbUbVbWbXbYbZb0b1b2b3b4b5b6b7b8b9b.b+cacbcccdcecfcgchcicjckclcmcncocpcqcrcsctcucvcwcxcyczcAcBcCcDcEcFcGcHcIcJcKcLcMcNcOcPcQcRcScTcUcVcWcXcYcZc0c1c2c3c4c5c6c7c8c9c.c+dadbdcdddedfdgdhdidjdkdldmdndodpdqdrdsdtdudvdwdxdydzdAdBdCdDdEdFdGdHdIdJdKdLdMdNdOdPdQdRdSdTdUdVdWdXdYdZd0d1d2d3d4d5d6d7d8d9d.d+eaebecedeeefegeheiejekelemeneoepeqereseteuevewexeyezeAeBeCeDeEeFeGeHeIeJeKeLeMeNeOePeQeReSeTeUeVeWeXeYeZe0e1e2e3e4e5e6e7e8e9e.e+fafbfcfdfefffgfhfifjfkflfmfnfofpfqfrfsftfufvfwfxfyfzfAfBfCfDfEfFfGfHfIfJfKfLfMfNfOfPfQfRfSfTfUfVfWfXfYfZf0f1f2f3f4f5f6f7f8f9f.f+gagbgcgdgegfggghgigjgkglgmgngogpgqgrgsgtgugvgwgxgygzgAgBgCgDgEgFgGgHgIgJgKgLgMgNgOgPgQgRgSgTgUgVgWgXgYgZg0g1g2g3g4g5g6g7g8g9g.g+hahbhchdhehfhghhhihjhkhlhmhnhohphqhrhshthuhvhwhxhyhzhAhBhChDhEhFhGhHhIhJhKhLhMhNhOhPhQhRhShThUhVhWhXhYhZh0h1h2h3h4h5h6h7h8h9h.h+",
"aaabacadaeafagahaiajakalamanaoapaqarasatauavawaxayazaAaBaCaDaEaFaGaHaIaJaKaLaMaNaOaPaQaRaSaTaUaVaWaXaYaZa0a1a2a3a4a5a6a7a8a9a.a+babbbcbdbebfbgbhbibjbkblbmbnbobpbqbrbsbtbubvbwbxbybzbAbBbCbDbEbFbGbHbIbJbKbLbMbNbObPbQbRbSbTbUbVbWbXbYbZb0b1b2b3b4b5b6b7b8b9b.b+cacbcccdcecfcgchcicjckclcmcncocpcqcrcsctcucvcwcxcyczcAcBcCcDcEcFcGcHcIcJcKcLcMcNcOcPcQcRcScTcUcVcWcXcYcZc0c1c2c3c4c5c6c7c8c9c.c+dadbdcdddedfdgdhdidjdkdldmdndodpdqdrdsdtdudvdwdxdydzdAdBdCdDdEdFdGdHdIdJdKdLdMdNdOdPdQdRdSdTdUdVdWdXdYdZd0d1d2d3d4d5d6d7d8d9d.d+eaebecedeeefegeheiejekelemeneoepeqereseteuevewexeyezeAeBeCeDeEeFeGeHeIeJeKeLeMeNeOePeQeReSeTeUeVeWeXeYeZe0e1e2e3e4e5e6e7e8e9e.e+fafbfcfdfefffgfhfifjfkflfmfnfofpfqfrfsftfufvfwfxfyfzfAfBfCfDfEfFfGfHfIfJfKfLfMfNfOfPfQfRfSfTfUfVfWfXfYfZf0f1f2f3f4f5f6f7f8f9f.f+gagbgcgdgegfggghgigjgkglgmgngogpgqgrgsgtgugvgwgxgygzgAgBgCgDgEgFgGgHgIgJgKgLgMgNgOgPgQgRgSgTgUgVgWgXgYgZg0g1g2g3g4g5g6g7g8g9g.g+hahbhchdhehfhghhhihjhkhlhmhnhohphqhrhshthuhvhwhxhyhzhAhBhChDhEhFhGhHhIhJhKhLhMhNhOhPhQhRhShThUhVhWhXhYhZh0h1h2h3h4h5h6h7h8h9h.h+",
"aaabacadaeafagahaiajakalamanaoapaqarasatauavawaxayazaAaBaCaDaEaFaGaHaIaJaKaLaMaNaOaPaQaRaSaTaUaVaWaXaYaZa0a1a2a3a4a5a6a7a8a9a.a+babbbcbdbebfbgbhbibjbkblbmbnbobpbqbrbsbtbubvbwbxbybzbAbBbCbDbEbFbGbHbIbJbKbLbMbNbObPbQbRbSbTbUbVbWbXbYbZb0b1b2b3b4b5b6b7b8b9b.b+cacbcccdcecfcgchcicjckclcmcncocpcqcrcsctcucvcwcxcyczcAcBcCcDcEcFcGcHcIcJcKcLcMcNcOcPcQcRcScTcUcVcWcXcYcZc0c1c2c3c4c5c6c7c8c9c.c+dadbdcdddedfdgdhdidjdkdldmdndodpdqdrdsdtdudvdwdxdydzdAdBdCdDdEdFdGdHdIdJdKdLdMdNdOdPdQdRdSdTdUdVdWdXdYdZd0d1d2d3d4d5d6d7d8d9d.d+eaebecedeeefegeheiejekelemeneoepeqereseteuevewexeyezeAeBeCeDeEeFeGeHeIeJeKeLeMeNeOePeQeReSeTeUeVeWeXeYeZe0e1e2e3e4e5e6e7e8e9e.e+fafbfcfdfefffgfhfifjfkflfmfnfofpfqfrfsftfufvfwfxfyfzfAfBfCfDfEfFfGfHfIfJfKfLfMfNfOfPfQfRfSfTfUfVfWfXfYfZf0f1f2f3f4f5f6f7f8f9f.f+gagbgcgdgegfggghgigjgkglgmgngogpgqgrgsgtgugvgwgxgygzgAgBgCgDgEgFgGgHgIgJgKgLgMgNgOgPgQgRgSgTgUgVgWgXgYgZg0g1g2g3g4g5g6g7g8g9g.g+hahbhchdhehfhghhhihjhkhlhmhnhohphqhrhshthuhvhwhxhyhzhAhBhChDhEhFhGhHhIhJhKhLhMhNhOhPhQhRhShThUhVhWhXhYhZh0h1h2h3h4h5h6h7h8h9h.h+",
"aaabacadaeafagahaiajakalamanaoapaqarasatauavawaxayazaAaBaCaDaEaFaGaHaIaJaKaLaMaNaOaPaQaRaSaTaUaVaWaXaYaZa0a1a2a3a4a5a6a7a8a9a.a+babbbcbdbebfbgbhbibjbkblbmbnbobpbqbrbsbtbubvbwbxbybzbAbBbCbDbEbFbGbHbIbJbKbLbMbNbObPbQbRbSbTbUbVbWbXbYbZb0b1b2b3b4b5b6b7b8b9b.b+cacbcccdcecfcgchcicjckclcmcncocpcqcrcsctcucvcwcxcyczcAcBcCcDcEcFcGcHcIcJcKcLcMcNcOcPcQcRcScTcUcVcWcXcYcZc0c1c2c3c4c5c6c7c8c9c.c+dadbdcdddedfdgdhdidjdkdldmdndodpdqdrdsdtdudvdwdxdydzdAdBdCdDdEdFdGdHdIdJdKdLdMdNdOdPdQdRdSdTdUdVdWdXdYdZd0d1d2d3d4d5d6d7d8d9d.d+eaebecedeeefegeheiejekelemeneoepeqereseteuevewexeyezeAeBeCeDeEeFeGeHeIeJeKeLeMeNeOePeQeReSeTeUeVeWeXeYeZe0e1e2e3e4e5e6e7e8e9e.e+fafbfcfdfefffgfhfifjfkflfmfnfofpfqfrfsftfufvfwfxfyfzfAfBfCfDfEfFfGfHfIfJfKfLfMfNfOfPfQfRfSfTfUfVfWfXfYfZf0f1f2f3f4f5f6f7f8f9f.f+gagbgcgdgegfggghgigjgkglgmgngogpgqgrgsgtgugvgwgxgygzgAgBgCgDgEgFgGgHgIgJgKgLgMgNgOgPgQgRgSgTgUgVgWgXgYgZg0g1g2g3g4g5g6g7g8g9g.g+hahbhchdhehfhghhhihjhkhlhmhnhohphqhrhshthuhvhwhxhyhzhAhBhChDhEhFhGhHhIhJhKhLhMhNhOhPhQhRhShThUhVhWhXhYhZh0h1h2h3h4h5h6h7h8h9h.h+",
"aaabacadaeafagahaiajakalamanaoapaqarasatauavawaxayazaAaBaCaDaEaFaGaHaIaJaKaLaMaNaOaPaQaRaSaTaUaVaWaXaYaZa0a1a2a3a4a5a6a7a8a9a.a+babbbcbdbebfbgbhbibjbkblbmbnbobpbqbrbsbtbubvbwbxbybzbAbBbCbDbEbFbGbHbIbJbKbLbMbNbObPbQbRbSbTbUbVbWbXbYbZb0b1b2b3b4b5b6b7b8b9b.b+cacbcccdcecfcgchcicjckclcmcncocpcqcrcsctcucvcwcxcyczcAcBcCcDcEcFcGcHcIcJcKcLcMcNcOcPcQcRcScTcUcVcWcXcYcZc0c1c2c3c4c5c6c7c8c9c.c+dadbdcdddedfdgdhdidjdkdldmdndodpdqdrdsdtdudvdwdxdydzdAdBdCdDdEdFdGdHdIdJdKdLdMdNdOdPdQdRdSdTdUdVdWdXdYdZd0d1d2d3d4d5d6d7d8d9d.d+eaebecedeeefegeheiejekelemeneoepeqereseteuevewexeyezeAeBeCeDeEeFeGeHeIeJeKeLeMeNeOePeQeReSeTeUeVeWeXeYeZe0e1e2e3e4e5e6e7e8e9e.e+fafbfcfdfefffgfhfifjfkflfmfnfofpfqfrfsftfufvfwfxfyfzfAfBfCfDfEfFfGfHfIfJfKfLfMfNfOfPfQfRfSfTfUfVfWfXfYfZf0f1f2f3f4f5f6f7f8f9f.f+gagbgcgdgegfggghgigjgkglgmgngogpgqgrgsgtgugvgwgxgygzgAgBgCgDgEgFgGgHgIgJgKgLgMgNgOgPgQgRgSgTgUgVgWgXgYgZg0g1g2g3g4g5g6g7g8g9g.g+hahbhchdhehfhghhhihjhkhlhmhnhohphqhrhshthuhvhwhxhyhzhAhBhChDhEhFhGhHhIhJhKhLhMhNhOhPhQhRhShThUhVhWhXhYhZh0h1h2h3h4h5h6h7h8h9h.h+",
"aaabacadaeafagahaiajakalamanaoapaqarasatauavawaxayazaAaBaCaDaEaFaGaHaIaJaKaLaMaNaOaPaQaRaSaTaUaVaWaXaYaZa0a1a2a3a4a5a6a7a8a9a.a+babbbcbdbebfbgbhbibjbkblbmbnbobpbqbrbsbtbubvbwbxbybzbAbBbCbDbEbFbGbHbIbJbKbLbMbNbObPbQbRbSbTbUbVbWbXbYbZb0b1b2b3b4b5b6b7b8b9b.b+cacbcccdcecfcgchcicjckclcmcncocpcqcrcsctcucvcwcxcyczcAcBcCcDcEcFcGcHcIcJcKcLcMcNcOcPcQcRcScTcUcVcWcXcYcZc0c1c2c3c4c5c6c7c8c9c.c+dadbdcdddedfdgdhdidjdkdldmdndodpdqdrdsdtdudvdwdxdydzdAdBdCdDdEdFdGdHdIdJdKdLdMdNdOdPdQdRdSdTdUdVdWdXdYdZd0d1d2d3d4d5d6d7d8d9d.d+eaebecedeeefegeheiejekelemeneoepeqereseteuevewexeyezeAeBeCeDeEeFeGeHeIeJeKeLeMeNeOePeQeReSeTeUeVeWeXeYeZe0e1e2e3e4e5e6e7e8e9e.e+fafbfcfdfefffgfhfifjfkflfmfnfofpfqfrfsftfufvfwfxfyfzfAfBfCfDfEfFfGfHfIfJfKfLfMfNfOfPfQfRfSfTfUfVfWfXfYfZf0f1f2f3f4f5f6f7f8f9f.f+gagbgcgdgegfggghgigjgkglgmgngogpgqgrgsgtgugvgwgxgygzgAgBgCgDgEgFgGgHgIgJgKgLgMgNgOgPgQgRgSgTgUgVgWgXgYgZg0g1g2g3g4g5g6g7g8g9g.g+hahbhchdhehfhghhhihjhkhlhmhnhohphqhrhshthuhvhwhxhyhzhAhBhChDhEhFhGhHhIhJhKhLhMhNhOhPhQhRhShThUhVhWhXhYhZh0h1h2h3h4h5h6h7h8h9h.h+",
"aaabacadaeafagahaiajakalamanaoapaqarasatauavawaxayazaAaBaCaDaEaFaGaHaIaJaKaLaMaNaOaPaQaRaSaTaUaVaWaXaYaZa0a1a2a3a4a5a6a7a8a9a.a+babbbcbdbebfbgbhbibjbkblbmbnbobpbqbrbsbtbubvbwbxbybzbAbBbCbDbEbFbGbHbIbJbKbLbMbNbObPbQbRbSbTbUbVbWbXbYbZb0b1b2b3b4b5b6b7b8b9b.b+cacbcccdcecfcgchcicjckclcmcncocpcqcrcsctcucvcwcxcyczcAcBcCcDcEcFcGcHcIcJcKcLcMcNcOcPcQcRcScTcUcVcWcXcYcZc0c1c2c3c4c5c6c7c8c9c.c+dadbdcdddedfdgdhdidjdkdldmdndodpdqdrdsdtdudvdwdxdydzdAdBdCdDdEdFdGdHdIdJdKdLdMdNdOdPdQdRdSdTdUdVdWdXdYdZd0d1d2d3d4d5d6d7d8d9d.d+eaebecedeeefegeheiejekelemeneoepeqereseteuevewexeyezeAeBeCeDeEeFeGeHeIeJeKeLeMeNeOePeQeReSeTeUeVeWeXeYeZe0e1e2e3e4e5e6e7e8e9e.e+fafbfcfdfefffgfhfifjfkflfmfnfofpfqfrfsftfufvfwfxfyfzfAfBfCfDfEfFfGfHfIfJfKfLfMfNfOfPfQfRfSfTfUfVfWfXfYfZf0f1f2f3f4f5f6f7f8f9f.f+gagbgcgdgegfggghgigjgkglgmgngogpgqgrgsgtgugvgwgxgygzgAgBgCgDgEgFgGgHgIgJgKgLgMgNgOgPgQgRgSgTgUgVgWgXgYgZg0g1g2g3g4g5g6g7g8g9g.g+hahbhchdhehfhghhhihjhkhlhmhnhohphqhrhshthuhvhwhxhyhzhAhBhChDhEhFhGhHhIhJhKhLhMhNhOhPhQhRhShThUhVhWhXhYhZh0h1h2h3h4h5h6h7h8h9h.h+",
"aaabacadaeafagahaiajakalamanaoapaqarasatauavawaxayazaAaBaCaDaEaFaGaHaIaJaKaLaMaNaOaPaQaRaSaTaUaVaWaXaYaZa0a1a2a3a4a5a6a7a8a9a.a+babbbcbdbebfbgbhbibjbkblbmbnbobpbqbrbsbtbubvbwbxbybzbAbBbCbDbEbFbGbHbIbJbKbLbMbNbObPbQbRbSbTbUbVbWbXbYbZb0b1b2b3b4b5b6b7b8b9b.b+cacbcccdcecfcgchcicjckclcmcncocpcqcrcsctcucvcwcxcyczcAcBcCcDcEcFcGcHcIcJcKcLcMcNcOcPcQcRcScTcUcVcWcXcYcZc0c1c2c3c4c5c6c7c8c9c.c+dadbdcdddedfdgdhdidjdkdldmdndodpdqdrdsdtdudvdwdxdydzdAdBdCdDdEdFdGdHdIdJdKdLdMdNdOdPdQdRdSdTdUdVdWdXdYdZd0d1d2d3d4d5d6d7d8d9d.d+eaebecedeeefegeheiejekelemeneoepeqereseteuevewexeyezeAeBeCeDeEeFeGeHeIeJeKeLeMeNeOePeQeReSeTeUeVeWeXeYeZe0e1e2e3e4e5e6e7e8e9e.e+fafbfcfdfefffgfhfifjfkflfmfnfofpfqfrfsftfufvfwfxfyfzfAfBfCfDfEfFfGfHfIfJfKfLfMfNfOfPfQfRfSfTfUfVfWfXfYfZf0f1f2f3f4f5f6f7f8f9f.f+gagbgcgdgegfggghgigjgkglgmgngogpgqgrgsgtgugvgwgxgygzgAgBgCgDgEgFgGgHgIgJgKgLgMgNgOgPgQgRgSgTgUgVgWgXgYgZg0g1g2g3g4g5g6g7g8g9g.g+hahbhchdhehfhghhhihjhkhlhmhnhohphqhrhshthuhvhwhxhyhzhAhBhChDhEhFhGhHhIhJhKhLhMhNhOhPhQhRhShThUhVhWhXhYhZh0h1h2h3h4h5h6h7h8h9h.h+",
"aaabacadaeafagahaiajakalamanaoapaqarasatauavawaxayazaAaBaCaDaEaFaGaHaIaJaKaLaMaNaOaPaQaRaSaTaUaVaWaXaYaZa0a1a2a3a4a5a6a7a8a9a.a+babbbcbdbebfbgbhbibjbkblbmbnbobpbqbrbsbtbubvbwbxbybzbAbBbCbDbEbFbGbHbIbJbKbLbMbNbObPbQbRbSbTbUbVbWbXbYbZb0b1b2b3b4b5b6b7b8b9b.b+cacbcccdcecfcgchcicjckclcmcncocpcqcrcsctcucvcwcxcyczcAcBcCcDcEcFcGcHcIcJcKcLcMcNcOcPcQcRcScTcUcVcWcXcYcZc0c1c2c3c4c5c6c7c8c9c.c+dadbdcdddedfdgdhdidjdkdldmdndodpdqdrdsdtdudvdwdxdydzdAdBdCdDdEdFdGdHdIdJdKdLdMdNdOdPdQdRdSdTdUdVdWdXdYdZd0d1d2d3d4d5d6d7d8d9d.d+eaebecedeeefegeheiejekelemeneoepeqereseteuevewexeyezeAeBeCeDeEeFeGeHeIeJeKeLeMeNeOePeQeReSeTeUeVeWeXeYeZe0e1e2e3e4e5e6e7e8e9e.e+fafbfcfdfefffgfhfifjfkflfmfnfofpfqfrfsftfufvfwfxfyfzfAfBfCfDfEfFfGfHfIfJfKfLfMfNfOfPfQfRfSfTfUfVfWfXfYfZf0f1f2f3f4f5f6f7f8f9f.f+gagbgcgdgegfggghgigjgkglgmgngogpgqgrgsgtgugvgwgxgygzgAgBgCgDgEgFgGgHgIgJgKgLgMgNgOgPgQgRgSgTgUgVgWgXgYgZg0g1g2g3g4g5g6g7g8g9g.g+hahbhchdhehfhghhhihjhkhlhmhnhohphqhrhshthuhvhwhxhyhzhAhBhChDhEhFhGhHhIhJhKhLhMhNhOhPhQhRhShThUhVhWhXhYhZh0h1h2h3h4h5h6h7h8h9h.h+",
"aaabacadaeafagahaiajakalamanaoapaqarasatauavawaxayazaAaBaCaDaEaFaGaHaIaJaKaLaMaNaOaPaQaRaSaTaUaVaWaXaYaZa0a1a2a3a4a5a6a7a8a9a.a+babbbcbdbebfbgbhbibjbkblbmbnbobpbqbrbsbtbubvbwbxbybzbAbBbCbDbEbFbGbHbIbJbKbLbMbNbObPbQbRbSbTbUbVbWbXbYbZb0b1b2b3b4b5b6b7b8b9b.b+cacbcccdcecfcgchcicjckclcmcncocpcqcrcsctcucvcwcxcyczcAcBcCcDcEcFcGcHcIcJcKcLcMcNcOcPcQcRcScTcUcVcWcXcYcZc0c1c2c3c4c5c6c7c8c9c.c+dadbdcdddedfdgdhdidjdkdldmdndodpdqdrdsdtdudvdwdxdydzdAdBdCdDdEdFdGdHdIdJdKdLdMdNdOdPdQdRdSdTdUdVdWdXdYdZd0d1d2d3d4d5d6d7d8d9d.d+eaebecedeeefegeheiejekelemeneoepeqereseteuevewexeyezeAeBeCeDeEeFeGeHeIeJeKeLeMeNeOePeQeReSeTeUeVeWeXeYeZe0e1e2e3e4e5e6e7e8e9e.e+fafbfcfdfefffgfhfifjfkflfmfnfofpfqfrfsftfufvfwfxfyfzfAfBfCfDfEfFfGfHfIfJfKfLfMfNfOfPfQfRfSfTfUfVfWfXfYfZf0f1f2f3f4f5f6f7f8f9f.f+gagbgcgdgegfggghgigjgkglgmgngogpgqgrgsgtgugvgwgxgygzgAgBgCgDgEgFgGgHgIgJgKgLgMgNgOgPgQgRgSgTgUgVgWgXgYgZg0g1g2g3g4g5g6g7g8g9g.g+hahbhchdhehfhghhhihjhkhlhmhnhohphqhrhshthuhvhwhxhyhzhAhBhChDhEhFhGhHhIhJhKhLhMhNhOhPhQhRhShThUhVhWhXhYhZh0h1h2h3h4h5h6h7h8h9h.h+",
"aaabacadaeafagahaiajakalamanaoapaqarasatauavawaxayazaAaBaCaDaEaFaGaHaIaJaKaLaMaNaOaPaQaRaSaTaUaVaWaXaYaZa0a1a2a3a4a5a6a7a8a9a.a+babbbcbdbebfbgbhbibjbkblbmbnbobpbqbrbsbtbubvbwbxbybzbAbBbCbDbEbFbGbHbIbJbKbLbMbNbObPbQbRbSbTbUbVbWbXbYbZb0b1b2b3b4b5b6b7b8b9b.b+cacbcccdcecfcgchcicjckclcmcncocpcqcrcsctcucvcwcxcyczcAcBcCcDcEcFcGcHcIcJcKcLcMcNcOcPcQcRcScTcUcVcWcXcYcZc0c1c2c3c4c5c6c7c8c9c.c+dadbdcdddedfdgdhdidjdkdldmdndodpdqdrdsdtdudvdwdxdydzdAdBdCdDdEdFdGdHdIdJdKdLdMdNdOdPdQdRdSdTdUdVdWdXdYdZd0d1d2d3d4d5d6d7d8d9d.d+eaebecedeeefegeheiejekelemeneoepeqereseteuevewexeyezeAeBeCeDeEeFeGeHeIeJeKeLeMeNeOePeQeReSeTeUeVeWeXeYeZe0e1e2e3e4e5e6e7e8e9e.e+fafbfcfdfefffgfhfifjfkflfmfnfofpfqfrfsftfufvfwfxfyfzfAfBfCfDfEfFfGfHfIfJfKfLfMfNfOfPfQfRfSfTfUfVfWfXfYfZf0f1f2f3f4f5f6f7f8f9f.f+gagbgcgdgegfggghgigjgkglgmgngogpgqgrgsgtgugvgwgxgygzgAgBgCgDgEgFgGgHgIgJgKgLgMgNgOgPgQgRgSgTgUgVgWgXgYgZg0g1g2g3g4g5g6g7g8g9g.g+hahbhchdhehfhghhhihjhkhlhmhnhohphqhrhshthuhvhwhxhyhzhAhBhChDhEhFhGhHhIhJhKhLhMhNhOhPhQhRhShThUhVhWhXhYhZh0h1h2h3h4h5h6h7h8h9h.h+",
"aaabacadaeafagahaiajakalamanaoapaqarasatauavawaxayazaAaBaCaDaEaFaGaHaIaJaKaLaMaNaOaPaQaRaSaTaUaVaWaXaYaZa0a1a2a3a4a5a6a7a8a9a.a+babbbcbdbebfbgbhbibjbkblbmbnbobpbqbrbsbtbubvbwbxbybzbAbBbCbDbEbFbGbHbIbJbKbLbMbNbObPbQbRbSbTbUbVbWbXbYbZb0b1b2b3b4b5b6b7b8b9b.b+cacbcccdcecfcgchcicjckclcmcncocpcqcrcsctcucvcwcxcyczcAcBcCcDcEcFcGcHcIcJcKcLcMcNcOcPcQcRcScTcUcVcWcXcYcZc0c1c2c3c4c5c6c7c8c9c.c+dadbdcdddedfdgdhdidjdkdldmdndodpdqdrdsdtdudvdwdxdydzdAdBdCdDdEdFdGdHdIdJdKdLdMdNdOdPdQdRdSdTdUdVdWdXdYdZd0d1d2d3d4d5d6d7d8d9d.d+eaebecedeeefegeheiejekelemeneoepeqereseteuevewexeyezeAeBeCeDeEeFeGeHeIeJeKeLeMeNeOePeQeReSeTeUeVeWeXeYeZe0e1e2e3e4e5e6e7e8e9e.e+fafbfcfdfefffgfhfifjfkflfmfnfofpfqfrfsftfufvfwfxfyfzfAfBfCfDfEfFfGfHfIfJfKfLfMfNfOfPfQfRfSfTfUfVfWfXfYfZf0f1f2f3f4f5f6f7f8f9f.f+gagbgcgdgegfggghgigjgkglgmgngogpgqgrgsgtgugvgwgxgygzgAgBgCgDgEgFgGgHgIgJgKgLgMgNgOgPgQgRgSgTgUgVgWgXgYgZg0g1g2g3g4g5g6g7g8g9g.g+hahbhchdhehfhghhhihjhkhlhmhnhohphqhrhshthuhvhwhxhyhzhAhBhChDhEhFhGhHhIhJhKhLhMhNhOhPhQhRhShThUhVhWhXhYhZh0h1h2h3h4h5h6h7h8h9h.h+",
"aaabacadaeafagahaiajakalamanaoapaqarasatauavawaxayazaAaBaCaDaEaFaGaHaIaJaKaLaMaNaOaPaQaRaSaTaUaVaWaXaYaZa0a1a2a3a4a5a6a7a8a9a.a+babbbcbdbebfbgbhbibjbkblbmbnbobpbqbrbsbtbubvbwbxbybzbAbBbCbDbEbFbGbHbIbJbKbLbMbNbObPbQbRbSbTbUbVbWbXbYbZb0b1b2b3b4b5b6b7b8b9b.b+cacbcccdcecfcgchcicjckclcmcncocpcqcrcsctcucvcwcxcyczcAcBcCcDcEcFcGcHcIcJcKcLcMcNcOcPcQcRcScTcUcVcWcXcYcZc0c1c2c3c4c5c6c7c8c9c.c+dadbdcdddedfdgdhdidjdkdldmdndodpdqdrdsdtdudvdwdxdydzdAdBdCdDdEdFdGdHdIdJdKdLdMdNdOdPdQdRdSdTdUdVdWdXdYdZd0d1d2d3d4d5d6d7d8d9d.d+eaebecedeeefegeheiejekelemeneoepeqereseteuevewexeyezeAeBeCeDeEeFeGeHeIeJeKeLeMeNeOePeQeReSeTeUeVeWeXeYeZe0e1e2e3e4e5e6e7e8e9e.e+fafbfcfdfefffgfhfifjfkflfmfnfofpfqfrfsftfufvfwfxfyfzfAfBfCfDfEfFfGfHfIfJfKfLfMfNfOfPfQfRfSfTfUfVfWfXfYfZf0f1f2f3f4f5f6f7f8f9f.f+gagbgcgdgegfggghgigjgkglgmgngogpgqgrgsgtgugvgwgxgygzgAgBgCgDgEgFgGgHgIgJgKgLgMgNgOgPgQgRgSgTgUgVgWgXgYgZg0g1g2g3g4g5g6g7g8g9g.g+hahbhchdhehfhghhhihjhkhlhmhnhohphqhrhshthuhvhwhxhyhzhAhBhChDhEhFhGhHhIhJhKhLhMhNhOhPhQhRhShThUhVhWhXhYhZh0h1h2h3h4h5h6h7h8h9h.h+",
"aaabacadaeafagahaiajakalamanaoapaqarasatauavawaxayazaAaBaCaDaEaFaGaHaIaJaKaLaMaNaOaPaQaRaSaTaUaVaWaXaYaZa0a1a2a3a4a5a6a7a8a9a.a+babbbcbdbebfbgbhbibjbkblbmbnbobpbqbrbsbtbubvbwbxbybzbAbBbCbDbEbFbGbHbIbJbKbLbMbNbObPbQbRbSbTbUbVbWbXbYbZb0b1b2b3b4b5b6b7b8b9b.b+cacbcccdcecfcgchcicjckclcmcncocpcqcrcsctcucvcwcxcyczcAcBcCcDcEcFcGcHcIcJcKcLcMcNcOcPcQcRcScTcUcVcWcXcYcZc0c1c2c3c4c5c6c7c8c9c.c+dadbdcdddedfdgdhdidjdkdldmdndodpdqdrdsdtdudvdwdxdydzdAdBdCdDdEdFdGdHdIdJdKdLdMdNdOdPdQdRdSdTdUdVdWdXdYdZd0d1d2d3d4d5d6d7d8d9d.d+eaebecedeeefegeheiejekelemeneoepeqereseteuevewexeyezeAeBeCeDeEeFeGeHeIeJeKeLeMeNeOePeQeReSeTeUeVeWeXeYeZe0e1e2e3e4e5e6e7e8e9e.e+fafbfcfdfefffgfhfifjfkflfmfnfofpfqfrfsftfufvfwfxfyfzfAfBfCfDfEfFfGfHfIfJfKfLfMfNfOfPfQfRfSfTfUfVfWfXfYfZf0f1f2f3f4f5f6f7f8f9f.f+gagbgcgdgegfggghgigjgkglgmgngogpgqgrgsgtgugvgwgxgygzgAgBgCgDgEgFgGgHgIgJgKgLgMgNgOgPgQgRgSgTgUgVgWgXgYgZg0g1g2g3g4g5g6g7g8g9g.g+hahbhchdhehfhghhhihjhkhlhmhnhohphqhrhshthuhvhwhxhyhzhAhBhChDhEhFhGhHhIhJhKhLhMhNhOhPhQhRhShThUhVhWhXhYhZh0h1h2h3h4h5h6h7h8h9h.h+",
"aaabacadaeafagahaiajakalamanaoapaqarasatauavawaxayazaAaBaCaDaEaFaGaHaIaJaKaLaMaNaOaPaQaRaSaTaUaVaWaXaYaZa0a1a2a3a4a5a6a7a8a9a.a+babbbcbdbebfbgbhbibjbkblbmbnbobpbqbrbsbtbubvbwbxbybzbAbBbCbDbEbFbGbHbIbJbKbLbMbNbObPbQbRbSbTbUbVbWbXbYbZb0b1b2b3b4b5b6b7b8b9b.b+cacbcccdcecfcgchcicjckclcmcncocpcqcrcsctcucvcwcxcyczcAcBcCcDcEcFcGcHcIcJcKcLcMcNcOcPcQcRcScTcUcVcWcXcYcZc0c1c2c3c4c5c6c7c8c9c.c+dadbdcdddedfdgdhdidjdkdldmdndodpdqdrdsdtdudvdwdxdydzdAdBdCdDdEdFdGdHdIdJdKdLdMdNdOdPdQdRdSdTdUdVdWdXdYdZd0d1d2d3d4d5d6d7d8d9d.d+eaebecedeeefegeheiejekelemeneoepeqereseteuevewexeyezeAeBeCeDeEeFeGeHeIeJeKeLeMeNeOePeQeReSeTeUeVeWeXeYeZe0e1e2e3e4e5e6e7e8e9e.e+fafbfcfdfefffgfhfifjfkflfmfnfofpfqfrfsftfufvfwfxfyfzfAfBfCfDfEfFfGfHfIfJfKfLfMfNfOfPfQfRfSfTfUfVfWfXfYfZf0f1f2f3f4f5f6f7f8f9f.f+gagbgcgdgegfggghgigjgkglgmgngogpgqgrgsgtgugvgwgxgygzgAgBgCgDgEgFgGgHgIgJgKgLgMgNgOgPgQgRgSgTgUgVgWgXgYgZg0g1g2g3g4g5g6g7g8g9g.g+hahbhchdhehfhghhhihjhkhlhmhnhohphqhrhshthuhvhwhxhyhzhAhBhChDhEhFhGhHhIhJhKhLhMhNhOhPhQhRhShThUhVhWhXhYhZh0h1h2h3h4h5h6h7h8h9h.h+",
"aaabacadaeafagahaiajakalamanaoapaqarasatauavawaxayazaAaBaCaDaEaFaGaHaIaJaKaLaMaNaOaPaQaRaSaTaUaVaWaXaYaZa0a1a2a3a4a5a6a7a8a9a.a+babbbcbdbebfbgbhbibjbkblbmbnbobpbqbrbsbtbubvbwbxbybzbAbBbCbDbEbFbGbHbIbJbKbLbMbNbObPbQbRbSbTbUbVbWbXbYbZb0b1b2b3b4b5b6b7b8b9b.b+cacbcccdcecfcgchcicjckclcmcncocpcqcrcsctcucvcwcxcyczcAcBcCcDcEcFcGcHcIcJcKcLcMcNcOcPcQcRcScTcUcVcWcXcYcZc0c1c2c3c4c5c6c7c8c9c.c+dadbdcdddedfdgdhdidjdkdldmdndodpdqdrdsdtdudvdwdxdydzdAdBdCdDdEdFdGdHdIdJdKdLdMdNdOdPdQdRdSdTdUdVdWdXdYdZd0d1d2d3d4d5d6d7d8d9d.d+eaebecedeeefegeheiejekelemeneoepeqereseteuevewexeyezeAeBeCeDeEeFeGeHeIeJeKeLeMeNeOePeQeReSeTeUeVeWeXeYeZe0e1e2e3e4e5e6e7e8e9e.e+fafbfcfdfefffgfhfifjfkflfmfnfofpfqfrfsftfufvfwfxfyfzfAfBfCfDfEfFfGfHfIfJfKfLfMfNfOfPfQfRfSfTfUfVfWfXfYfZf0f1f2f3f4f5f6f7f8f9f.f+gagbgcgdgegfggghgigjgkglgmgngogpgqgrgsgtgugvgwgxgygzgAgBgCgDgEgFgGgHgIgJgKgLgMgNgOgPgQgRgSgTgUgVgWgXgYgZg0g1g2g3g4g5g6g7g8g9g.g+hahbhchdhehfhghhhihjhkhlhmhnhohphqhrhshthuhvhwhxhyhzhAhBhChDhEhFhGhHhIhJhKhLhMhNhOhPhQhRhShThUhVhWhXhYhZh0h1h2h3h4h5h6h7h8h9h.h+",
"aaabacadaeafagahaiajakalamanaoapaqarasatauavawaxayazaAaBaCaDaEaFaGaHaIaJaKaLaMaNaOaPaQaRaSaTaUaVaWaXaYaZa0a1a2a3a4a5a6a7a8a9a.a+babbbcbdbebfbgbhbibjbkblbmbnbobpbqbrbsbtbubvbwbxbybzbAbBbCbDbEbFbGbHbIbJbKbLbMbNbObPbQbRbSbTbUbVbWbXbYbZb0b1b2b3b4b5b6b7b8b9b.b+cacbcccdcecfcgchcicjckclcmcncocpcqcrcsctcucvcwcxcyczcAcBcCcDcEcFcGcHcIcJcKcLcMcNcOcPcQcRcScTcUcVcWcXcYcZc0c1c2c3c4c5c6c7c8c9c.c+dadbdcdddedfdgdhdidjdkdldmdndodpdqdrdsdtdudvdwdxdydzdAdBdCdDdEdFdGdHdIdJdKdLdMdNdOdPdQdRdSdTdUdVdWdXdYdZd0d1d2d3d4d5d6d7d8d9d.d+eaebecedeeefegeheiejekelemeneoepeqereseteuevewexeyezeAeBeCeDeEeFeGeHeIeJeKeLeMeNeOePeQeReSeTeUeVeWeXeYeZe0e1e2e3e4e5e6e7e8e9e.e+fafbfcfdfefffgfhfifjfkflfmfnfofpfqfrfsftfufvfwfxfyfzfAfBfCfDfEfFfGfHfIfJfKfLfMfNfOfPfQfRfSfTfUfVfWfXfYfZf0f1f2f3f4f5f6f7f8f9f.f+gagbgcgdgegfggghgigjgkglgmgngogpgqgrgsgtgugvgwgxgygzgAgBgCgDgEgFgGgHgIgJgKgLgMgNgOgPgQgRgSgTgUgVgWgXgYgZg0g1g2g3g4g5g6g7g8g9g.g+hahbhchdhehfhghhhihjhkhlhmhnhohphqhrhshthuhvhwhxhyhzhAhBhChDhEhFhGhHhIhJhKhLhMhNhOhPhQhRhShThUhVhWhXhYhZh0h1h2h3h4h5h6h7h8h9h.h+",
"aaabacadaeafagahaiajakalamanaoapaqarasatauavawaxayazaAaBaCaDaEaFaGaHaIaJaKaLaMaNaOaPaQaRaSaTaUaVaWaXaYaZa0a1a2a3a4a5a6a7a8a9a.a+babbbcbdbebfbgbhbibjbkblbmbnbobpbqbrbsbtbubvbwbxbybzbAbBbCbDbEbFbGbHbIbJbKbLbMbNbObPbQbRbSbTbUbVbWbXbYbZb0b1b2b3b4b5b6b7b8b9b.b+cacbcccdcecfcgchcicjckclcmcncocpcqcrcsctcucvcwcxcyczcAcBcCcDcEcFcGcHcIcJcKcLcMcNcOcPcQcRcScTcUcVcWcXcYcZc0c1c2c3c4c5c6c7c8c9c.c+dadbdcdddedfdgdhdidjdkdldmdndodpdqdrdsdtdudvdwdxdydzdAdBdCdDdEdFdGdHdIdJdKdLdMdNdOdPdQdRdSdTdUdVdWdXdYdZd0d1d2d3d4d5d6d7d8d9d.d+eaebecedeeefegeheiejekelemeneoepeqereseteuevewexeyezeAeBeCeDeEeFeGeHeIeJeKeLeMeNeOePeQeReSeTeUeVeWeXeYeZe0e1e2e3e4e5e6e7e8e9e.e+fafbfcfdfefffgfhfifjfkflfmfnfofpfqfrfsftfufvfwfxfyfzfAfBfCfDfEfFfGfHfIfJfKfLfMfNfOfPfQfRfSfTfUfVfWfXfYfZf0f1f2f3f4f5f6f7f8f9f.f+gagbgcgdgegfggghgigjgkglgmgngogpgqgrgsgtgugvgwgxgygzgAgBgCgDgEgFgGgHgIgJgKgLgMgNgOgPgQgRgSgTgUgVgWgXgYgZg0g1g2g3g4g5g6g7g8g9g.g+hahbhchdhehfhghhhihjhkhlhmhnhohphqhrhshthuhvhwhxhyhzhAhBhChDhEhFhGhHhIhJhKhLhMhNhOhPhQhRhShThUhVhWhXhYhZh0h1h2h3h4h5h6h7h8h9h.h+",
"aaabacadaeafagahaiajakalamanaoapaqarasatauavawaxayazaAaBaCaDaEaFaGaHaIaJaKaLaMaNaOaPaQaRaSaTaUaVaWaXaYaZa0a1a2a3a4a5a6a7a8a9a.a+babbbcbdbebfbgbhbibjbkblbmbnbobpbqbrbsbtbubvbwbxbybzbAbBbCbDbEbFbGbHbIbJbKbLbMbNbObPbQbRbSbTbUbVbWbXbYbZb0b1b2b3b4b5b6b7b8b9b.b+cacbcccdcecfcgchcicjckclcmcncocpcqcrcsctcucvcwcxcyczcAcBcCcDcEcFcGcHcIcJcKcLcMcNcOcPcQcRcScTcUcVcWcXcYcZc0c1c2c3c4c5c6c7c8c9c.c+dadbdcdddedfdgdhdidjdkdldmdndodpdqdrdsdtdudvdwdxdydzdAdBdCdDdEdFdGdHdIdJdKdLdMdNdOdPdQdRdSdTdUdVdWdXdYdZd0d1d2d3d4d5d6d7d8d9d.d+eaebecedeeefegeheiejekelemeneoepeqereseteuevewexeyezeAeBeCeDeEeFeGeHeIeJeKeLeMeNeOePeQeReSeTeUeVeWeXeYeZe0e1e2e3e4e5e6e7e8e9e.e+fafbfcfdfefffgfhfifjfkflfmfnfofpfqfrfsftfufvfwfxfyfzfAfBfCfDfEfFfGfHfIfJfKfLfMfNfOfPfQfRfSfTfUfVfWfXfYfZf0f1f2f3f4f5f6f7f8f9f.f+gagbgcgdgegfggghgigjgkglgmgngogpgqgrgsgtgugvgwgxgygzgAgBgCgDgEgFgGgHgIgJgKgLgMgNgOgPgQgRgSgTgUgVgWgXgYgZg0g1g2g3g4g5g6g7g8g9g.g+hahbhchdhehfhghhhihjhkhlhmhnhohphqhrhshthuhvhwhxhyhzhAhBhChDhEhFhGhHhIhJhKhLhMhNhOhPhQhRhShThUhVhWhXhYhZh0h1h2h3h4h5h6h7h8h9h.h+",
"aaabacadaeafagahaiajakalamanaoapaqarasatauavawaxayazaAaBaCaDaEaFaGaHaIaJaKaLaMaNaOaPaQaRaSaTaUaVaWaXaYaZa0a1a2a3a4a5a6a7a8a9a.a+babbbcbdbebfbgbhbibjbkblbmbnbobpbqbrbsbtbubvbwbxbybzbAbBbCbDbEbFbGbHbIbJbKbLbMbNbObPbQbRbSbTbUbVbWbXbYbZb0b1b2b3b4b5b6b7b8b9b.b+cacbcccdcecfcgchcicjckclcmcncocpcqcrcsctcucvcwcxcyczcAcBcCcDcEcFcGcHcIcJcKcLcMcNcOcPcQcRcScTcUcVcWcXcYcZc0c1c2c3c4c5c6c7c8c9c.c+dadbdcdddedfdgdhdidjdkdldmdndodpdqdrdsdtdudvdwdxdydzdAdBdCdDdEdFdGdHdIdJdKdLdMdNdOdPdQdRdSdTdUdVdWdXdYdZd0d1d2d3d4d5d6d7d8d9d.d+eaebecedeeefegeheiejekelemeneoepeqereseteuevewexeyezeAeBeCeDeEeFeGeHeIeJeKeLeMeNeOePeQeReSeTeUeVeWeXeYeZe0e1e2e3e4e5e6e7e8e9e.e+fafbfcfdfefffgfhfifjfkflfmfnfofpfqfrfsftfufvfwfxfyfzfAfBfCfDfEfFfGfHfIfJfKfLfMfNfOfPfQfRfSfTfUfVfWfXfYfZf0f1f2f3f4f5f6f7f8f9f.f+gagbgcgdgegfggghgigjgkglgmgngogpgqgrgsgtgugvgwgxgygzgAgBgCgDgEgFgGgHgIgJgKgLgMgNgOgPgQgRgSgTgUgVgWgXgYgZg0g1g2g3g4g5g6g7g8g9g.g+hahbhchdhehfhghhhihjhkhlhmhnhohphqhrhshthuhvhwhxhyhzhAhBhChDhEhFhGhHhIhJhKhLhMhNhOhPhQhRhShThUhVhWhXhYhZh0h1h2h3h4h5h6h7h8h9h.h+",
"aaabacadaeafagahaiajakalamanaoapaqarasatauavawaxayazaAaBaCaDaEaFaGaHaIaJaKaLaMaNaOaPaQaRaSaTaUaVaWaXaYaZa0a1a2a3a4a5a6a7a8a9a.a+babbbcbdbebfbgbhbibjbkblbmbnbobpbqbrbsbtbubvbwbxbybzbAbBbCbDbEbFbGbHbIbJbKbLbMbNbObPbQbRbSbTbUbVbWbXbYbZb0b1b2b3b4b5b6b7b8b9b.b+cacbcccdcecfcgchcicjckclcmcncocpcqcrcsctcucvcwcxcyczcAcBcCcDcEcFcGcHcIcJcKcLcMcNcOcPcQcRcScTcUcVcWcXcYcZc0c1c2c3c4c5c6c7c8c9c.c+dadbdcdddedfdgdhdidjdkdldmdndodpdqdrdsdtdudvdwdxdydzdAdBdCdDdEdFdGdHdIdJdKdLdMdNdOdPdQdRdSdTdUdVdWdXdYdZd0d1d2d3d4d5d6d7d8d9d.d+eaebecedeeefegeheiejekelemeneoepeqereseteuevewexeyezeAeBeCeDeEeFeGeHeIeJeKeLeMeNeOePeQeReSeTeUeVeWeXeYeZe0e1e2e3e4e5e6e7e8e9e.e+fafbfcfdfefffgfhfifjfkflfmfnfofpfqfrfsftfufvfwfxfyfzfAfBfCfDfEfFfGfHfIfJfKfLfMfNfOfPfQfRfSfTfUfVfWfXfYfZf0f1f2f3f4f5f6f7f8f9f.f+gagbgcgdgegfggghgigjgkglgmgngogpgqgrgsgtgugvgwgxgygzgAgBgCgDgEgFgGgHgIgJgKgLgMgNgOgPgQgRgSgTgUgVgWgXgYgZg0g1g2g3g4g5g6g7g8g9g.g+hahbhchdhehfhghhhihjhkhlhmhnhohphqhrhshthuhvhwhxhyhzhAhBhChDhEhFhGhHhIhJhKhLhMhNhOhPhQhRhShThUhVhWhXhYhZh0h1h2h3h4h5h6h7h8h9h.h+",
"aaabacadaeafagahaiajakalamanaoapaqarasatauavawaxayazaAaBaCaDaEaFaGaHaIaJaKaLaMaNaOaPaQaRaSaTaUaVaWaXaYaZa0a1a2a3a4a5a6a7a8a9a.a+babbbcbdbebfbgbhbibjbkblbmbnbobpbqbrbsbtbubvbwbxbybzbAbBbCbDbEbFbGbHbIbJbKbLbMbNbObPbQbRbSbTbUbVbWbXbYbZb0b1b2b3b4b5b6b7b8b9b.b+cacbcccdcecfcgchcicjckclcmcncocpcqcrcsctcucvcwcxcyczcAcBcCcDcEcFcGcHcIcJcKcLcMcNcOcPcQcRcScTcUcVcWcXcYcZc0c1c2c3c4c5c6c7c8c9c.c+dadbdcdddedfdgdhdidjdkdldmdndodpdqdrdsdtdudvdwdxdydzdAdBdCdDdEdFdGdHdIdJdKdLdMdNdOdPdQdRdSdTdUdVdWdXdYdZd0d1d2d3d4d5d6d7d8d9d.d+eaebecedeeefegeheiejekelemeneoepeqereseteuevewexeyezeAeBeCeDeEeFeGeHeIeJeKeLeMeNeOePeQeReSeTeUeVeWeXeYeZe0e1e2e3e4e5e6e7e8e9e.e+fafbfcfdfefffgfhfifjfkflfmfnfofpfqfrfsftfufvfwfxfyfzfAfBfCfDfEfFfGfHfIfJfKfLfMfNfOfPfQfRfSfTfUfVfWfXfYfZf0f1f2f3f4f5f6f7f8f9f.f+gagbgcgdgegfggghgigjgkglgmgngogpgqgrgsgtgugvgwgxgygzgAgBgCgDgEgFgGgHgIgJgKgLgMgNgOgPgQgRgSgTgUgVgWgXgYgZg0g1g2g3g4g5g6g7g8g9g.g+hahbhchdhehfhghhhihjhkhlhmhnhohphqhrhshthuhvhwhxhyhzhAhBhChDhEhFhGhHhIhJhKhLhMhNhOhPhQhRhShThUhVhWhXhYhZh0h1h2h3h4h5h6h7h8h9h.h+",
"aaabacadaeafagahaiajakalamanaoapaqarasatauavawaxayazaAaBaCaDaEaFaGaHaIaJaKaLaMaNaOaPaQaRaSaTaUaVaWaXaYaZa0a1a2a3a4a5a6a7a8a9a.a+babbbcbdbebfbgbhbibjbkblbmbnbobpbqbrbsbtbubvbwbxbybzbAbBbCbDbEbFbGbHbIbJbKbLbMbNbObPbQbRbSbTbUbVbWbXbYbZb0b1b2b3b4b5b6b7b8b9b.b+cacbcccdcecfcgchcicjckclcmcncocpcqcrcsctcucvcwcxcyczcAcBcCcDcEcFcGcHcIcJcKcLcMcNcOcPcQcRcScTcUcVcWcXcYcZc0c1c2c3c4c5c6c7c8c9c.c+dadbdcdddedfdgdhdidjdkdldmdndodpdqdrdsdtdudvdwdxdydzdAdBdCdDdEdFdGdHdIdJdKdLdMdNdOdPdQdRdSdTdUdVdWdXdYdZd0d1d2d3d4d5d6d7d8d9d.d+eaebecedeeefegeheiejekelemeneoepeqereseteuevewexeyezeAeBeCeDeEeFeGeHeIeJeKeLeMeNeOePeQeReSeTeUeVeWeXeYeZe0e1e2e3e4e5e6e7e8e9e.e+fafbfcfdfefffgfhfifjfkflfmfnfofpfqfrfsftfufvfwfxfyfzfAfBfCfDfEfFfGfHfIfJfKfLfMfNfOfPfQfRfSfTfUfVfWfXfYfZf0f1f2f3f4f5f6f7f8f9f.f+gagbgcgdgegfggghgigjgkglgmgngogpgqgrgsgtgugvgwgxgygzgAgBgCgDgEgFgGgHgIgJgKgLgMgNgOgPgQgRgSgTgUgVgWgXgYgZg0g1g2g3g4g5g6g7g8g9g.g+hahbhchdhehfhghhhihjhkhlhmhnhohphqhrhshthuhvhwhxhyhzhAhBhChDhEhFhGhHhIhJhKhLhMhNhOhPhQhRhShThUhVhWhXhYhZh0h1h2h3h4h5h6h7h8h9h.h+",
"aaabacadaeafagahaiajakalamanaoapaqarasatauavawaxayazaAaBaCaDaEaFaGaHaIaJaKaLaMaNaOaPaQaRaSaTaUaVaWaXaYaZa0a1a2a3a4a5a6a7a8a9a.a+babbbcbdbebfbgbhbibjbkblbmbnbobpbqbrbsbtbubvbwbxbybzbAbBbCbDbEbFbGbHbIbJbKbLbMbNbObPbQbRbSbTbUbVbWbXbYbZb0b1b2b3b4b5b6b7b8b9b.b+cacbcccdcecfcgchcicjckclcmcncocpcqcrcsctcucvcwcxcyczcAcBcCcDcEcFcGcHcIcJcKcLcMcNcOcPcQcRcScTcUcVcWcXcYcZc0c1c2c3c4c5c6c7c8c9c.c+dadbdcdddedfdgdhdidjdkdldmdndodpdqdrdsdtdudvdwdxdydzdAdBdCdDdEdFdGdHdIdJdKdLdMdNdOdPdQdRdSdTdUdVdWdXdYdZd0d1d2d3d4d5d6d7d8d9d.d+eaebecedeeefegeheiejekelemeneoepeqereseteuevewexeyezeAeBeCeDeEeFeGeHeIeJeKeLeMeNeOePeQeReSeTeUeVeWeXeYeZe0e1e2e3e4e5e6e7e8e9e.e+fafbfcfdfefffgfhfifjfkflfmfnfofpfqfrfsftfufvfwfxfyfzfAfBfCfDfEfFfGfHfIfJfKfLfMfNfOfPfQfRfSfTfUfVfWfXfYfZf0f1f2f3f4f5f6f7f8f9f.f+gagbgcgdgegfggghgigjgkglgmgngogpgqgrgsgtgugvgwgxgygzgAgBgCgDgEgFgGgHgIgJgKgLgMgNgOgPgQgRgSgTgUgVgWgXgYgZg0g1g2g3g4g5g6g7g8g9g.g+hahbhchdhehfhghhhihjhkhlhmhnhohphqhrhshthuhvhwhxhyhzhAhBhChDhEhFhGhHhIhJhKhLhMhNhOhPhQhRhShThUhVhWhXhYhZh0h1h2h3h4h5h6h7h8h9h.h+",
"aaabacadaeafagahaiajakalamanaoapaqarasatauavawaxayazaAaBaCaDaEaFaGaHaIaJaKaLaMaNaOaPaQaRaSaTaUaVaWaXaYaZa0a1a2a3a4a5a6a7a8a9a.a+babbbcbdbebfbgbhbibjbkblbmbnbobpbqbrbsbtbubvbwbxbybzbAbBbCbDbEbFbGbHbIbJbKbLbMbNbObPbQbRbSbTbUbVbWbXbYbZb0b1b2b3b4b5b6b7b8b9b.b+cacbcccdcecfcgchcicjckclcmcncocpcqcrcsctcucvcwcxcyczcAcBcCcDcEcFcGcHcIcJcKcLcMcNcOcPcQcRcScTcUcVcWcXcYcZc0c1c2c3c4c5c6c7c8c9c.c+dadbdcdddedfdgdhdidjdkdldmdndodpdqdrdsdtdudvdwdxdydzdAdBdCdDdEdFdGdHdIdJdKdLdMdNdOdPdQdRdSdTdUdVdWdXdYdZd0d1d2d3d4d5d6d7d8d9d.d+eaebecedeeefegeheiejekelemeneoepeqereseteuevewexeyezeAeBeCeDeEeFeGeHeIeJeKeLeMeNeOePeQeReSeTeUeVeWeXeYeZe0e1e2e3e4e5e6e7e8e9e.e+fafbfcfdfefffgfhfifjfkflfmfnfofpfqfrfsftfufvfwfxfyfzfAfBfCfDfEfFfGfHfIfJfKfLfMfNfOfPfQfRfSfTfUfVfWfXfYfZf0f1f2f3f4f5f6f7f8f9f.f+gagbgcgdgegfggghgigjgkglgmgngogpgqgrgsgtgugvgwgxgygzgAgBgCgDgEgFgGgHgIgJgKgLgMgNgOgPgQgRgSgTgUgVgWgXgYgZg0g1g2g3g4g5g6g7g8g9g.g+hahbhchdhehfhghhhihjhkhlhmhnhohphqhrhshthuhvhwhxhyhzhAhBhChDhEhFhGhHhIhJhKhLhMhNhOhPhQhRhShThUhVhWhXhYhZh0h1h2h3h4h5h6h7h8h9h.h+",
"aaabacadaeafagahaiajakalamanaoapaqarasatauavawaxayazaAaBaCaDaEaFaGaHaIaJaKaLaMaNaOaPaQaRaSaTaUaVaWaXaYaZa0a1a2a3a4a5a6a7a8a9a.a+babbbcbdbebfbgbhbibjbkblbmbnbobpbqbrbsbtbubvbwbxbybzbAbBbCbDbEbFbGbHbIbJbKbLbMbNbObPbQbRbSbTbUbVbWbXbYbZb0b1b2b3b4b5b6b7b8b9b.b+cacbcccdcecfcgchcicjckclcmcncocpcqcrcsctcucvcwcxcyczcAcBcCcDcEcFcGcHcIcJcKcLcMcNcOcPcQcRcScTcUcVcWcXcYcZc0c1c2c3c4c5c6c7c8c9c.c+dadbdcdddedfdgdhdidjdkdldmdndodpdqdrdsdtdudvdwdxdydzdAdBdCdDdEdFdGdHdIdJdKdLdMdNdOdPdQdRdSdTdUdVdWdXdYdZd0d1d2d3d4d5d6d7d8d9d.d+eaebecedeeefegeheiejekelemeneoepeqereseteuevewexeyezeAeBeCeDeEeFeGeHeIeJeKeLeMeNeOePeQeReSeTeUeVeWeXeYeZe0e1e2e3e4e5e6e7e8e9e.e+fafbfcfdfefffgfhfifjfkflfmfnfofpfqfrfsftfufvfwfxfyfzfAfBfCfDfEfFfGfHfIfJfKfLfMfNfOfPfQfRfSfTfUfVfWfXfYfZf0f1f2f3f4f5f6f7f8f9f.f+gagbgcgdgegfggghgigjgkglgmgngogpgqgrgsgtgugvgwgxgygzgAgBgCgDgEgFgGgHgIgJgKgLgMgNgOgPgQgRgSgTgUgVgWgXgYgZg0g1g2g3g4g5g6g7g8g9g.g+hahbhchdhehfhghhhihjhkhlhmhnhohphqhrhshthuhvhwhxhyhzhAhBhChDhEhFhGhHhIhJhKhLhMhNhOhPhQhRhShThUhVhWhXhYhZh0h1h2h3h4h5h6h7h8h9h.h+",
"aaabacadaeafagahaiajakalamanaoapaqarasatauavawaxayazaAaBaCaDaEaFaGaHaIaJaKaLaMaNaOaPaQaRaSaTaUaVaWaXaYaZa0a1a2a3a4a5a6a7a8a9a.a+babbbcbdbebfbgbhbibjbkblbmbnbobpbqbrbsbtbubvbwbxbybzbAbBbCbDbEbFbGbHbIbJbKbLbMbNbObPbQbRbSbTbUbVbWbXbYbZb0b1b2b3b4b5b6b7b8b9b.b+cacbcccdcecfcgchcicjckclcmcncocpcqcrcsctcucvcwcxcyczcAcBcCcDcEcFcGcHcIcJcKcLcMcNcOcPcQcRcScTcUcVcWcXcYcZc0c1c2c3c4c5c6c7c8c9c.c+dadbdcdddedfdgdhdidjdkdldmdndodpdqdrdsdtdudvdwdxdydzdAdBdCdDdEdFdGdHdIdJdKdLdMdNdOdPdQdRdSdTdUdVdWdXdYdZd0d1d2d3d4d5d6d7d8d9d.d+eaebecedeeefegeheiejekelemeneoepeqereseteuevewexeyezeAeBeCeDeEeFeGeHeIeJeKeLeMeNeOePeQeReSeTeUeVeWeXeYeZe0e1e2e3e4e5e6e7e8e9e.e+fafbfcfdfefffgfhfifjfkflfmfnfofpfqfrfsftfufvfwfxfyfzfAfBfCfDfEfFfGfHfIfJfKfLfMfNfOfPfQfRfSfTfUfVfWfXfYfZf0f1f2f3f4f5f6f7f8f9f.f+gagbgcgdgegfggghgigjgkglgmgngogpgqgrgsgtgugvgwgxgygzgAgBgCgDgEgFgGgHgIgJgKgLgMgNgOgPgQgRgSgTgUgVgWgXgYgZg0g1g2g3g4g5g6g7g8g9g.g+hahbhchdhehfhghhhihjhkhlhmhnhohphqhrhshthuhvhwhxhyhzhAhBhChDhEhFhGhHhIhJhKhLhMhNhOhPhQhRhShThUhVhWhXhYhZh0h1h2h3h4h5h6h7h8h9h.h+",
"aaabacadaeafagahaiajakalamanaoapaqarasatauavawaxayazaAaBaCaDaEaFaGaHaIaJaKaLaMaNaOaPaQaRaSaTaUaVaWaXaYaZa0a1a2a3a4a5a6a7a8a9a.a+babbbcbdbebfbgbhbibjbkblbmbnbobpbqbrbsbtbubvbwbxbybzbAbBbCbDbEbFbGbHbIbJbKbLbMbNbObPbQbRbSbTbUbVbWbXbYbZb0b1b2b3b4b5b6b7b8b9b.b+cacbcccdcecfcgchcicjckclcmcncocpcqcrcsctcucvcwcxcyczcAcBcCcDcEcFcGcHcIcJcKcLcMcNcOcPcQcRcScTcUcVcWcXcYcZc0c1c2c3c4c5c6c7c8c9c.c+dadbdcdddedfdgdhdidjdkdldmdndodpdqdrdsdtdudvdwdxdydzdAdBdCdDdEdFdGdHdIdJdKdLdMdNdOdPdQdRdSdTdUdVdWdXdYdZd0d1d2d3d4d5d6d7d8d9d.d+eaebecedeeefegeheiejekelemeneoepeqereseteuevewexeyezeAeBeCeDeEeFeGeHeIeJeKeLeMeNeOePeQeReSeTeUeVeWeXeYeZe0e1e2e3e4e5e6e7e8e9e.e+fafbfcfdfefffgfhfifjfkflfmfnfofpfqfrfsftfufvfwfxfyfzfAfBfCfDfEfFfGfHfIfJfKfLfMfNfOfPfQfRfSfTfUfVfWfXfYfZf0f1f2f3f4f5f6f7f8f9f.f+gagbgcgdgegfggghgigjgkglgmgngogpgqgrgsgtgugvgwgxgygzgAgBgCgDgEgFgGgHgIgJgKgLgMgNgOgPgQgRgSgTgUgVgWgXgYgZg0g1g2g3g4g5g6g7g8g9g.g+hahbhchdhehfhghhhihjhkhlhmhnhohphqhrhshthuhvhwhxhyhzhAhBhChDhEhFhGhHhIhJhKhLhMhNhOhPhQhRhShThUhVhWhXhYhZh0h1h2h3h4h5h6h7h8h9h.h+",
"aaabacadaeafagahaiajakalamanaoapaqarasatauavawaxayazaAaBaCaDaEaFaGaHaIaJaKaLaMaNaOaPaQaRaSaTaUaVaWaXaYaZa0a1a2a3a4a5a6a7a8a9a.a+babbbcbdbebfbgbhbibjbkblbmbnbobpbqbrbsbtbubvbwbxbybzbAbBbCbDbEbFbGbHbIbJbKbLbMbNbObPbQbRbSbTbUbVbWbXbYbZb0b1b2b3b4b5b6b7b8b9b.b+cacbcccdcecfcgchcicjckclcmcncocpcqcrcsctcucvcwcxcyczcAcBcCcDcEcFcGcHcIcJcKcLcMcNcOcPcQcRcScTcUcVcWcXcYcZc0c1c2c3c4c5c6c7c8c9c.c+dadbdcdddedfdgdhdidjdkdldmdndodpdqdrdsdtdudvdwdxdydzdAdBdCdDdEdFdGdHdIdJdKdLdMdNdOdPdQdRdSdTdUdVdWdXdYdZd0d1d2d3d4d5d6d7d8d9d.d+eaebecedeeefegeheiejekelemeneoepeqereseteuevewexeyezeAeBeCeDeEeFeGeHeIeJeKeLeMeNeOePeQeReSeTeUeVeWeXeYeZe0e1e2e3e4e5e6e7e8e9e.e+fafbfcfdfefffgfhfifjfkflfmfnfofpfqfrfsftfufvfwfxfyfzfAfBfCfDfEfFfGfHfIfJfKfLfMfNfOfPfQfRfSfTfUfVfWfXfYfZf0f1f2f3f4f5f6f7f8f9f.f+gagbgcgdgegfggghgigjgkglgmgngogpgqgrgsgtgugvgwgxgygzgAgBgCgDgEgFgGgHgIgJgKgLgMgNgOgPgQgRgSgTgUgVgWgXgYgZg0g1g2g3g4g5g6g7g8g9g.g+hahbhchdhehfhghhhihjhkhlhmhnhohphqhrhshthuhvhwhxhyhzhAhBhChDhEhFhGhHhIhJhKhLhMhNhOhPhQhRhShThUhVhWhXhYhZh0h1h2h3h4h5h6h7h8h9h.h+",
"aaabacadaeafagahaiajakalamanaoapaqarasatauavawaxayazaAaBaCaDaEaFaGaHaIaJaKaLaMaNaOaPaQaRaSaTaUaVaWaXaYaZa0a1a2a3a4a5a6a7a8a9a.a+babbbcbdbebfbgbhbibjbkblbmbnbobpbqbrbsbtbubvbwbxbybzbAbBbCbDbEbFbGbHbIbJbKbLbMbNbObPbQbRbSbTbUbVbWbXbYbZb0b1b2b3b4b5b6b7b8b9b.b+cacbcccdcecfcgchcicjckclcmcncocpcqcrcsctcucvcwcxcyczcAcBcCcDcEcFcGcHcIcJcKcLcMcNcOcPcQcRcScTcUcVcWcXcYcZc0c1c2c3c4c5c6c7c8c9c.c+dadbdcdddedfdgdhdidjdkdldmdndodpdqdrdsdtdudvdwdxdydzdAdBdCdDdEdFdGdHdIdJdKdLdMdNdOdPdQdRdSdTdUdVdWdXdYdZd0d1d2d3d4d5d6d7d8d9d.d+eaebecedeeefegeheiejekelemeneoepeqereseteuevewexeyezeAeBeCeDeEeFeGeHeIeJeKeLeMeNeOePeQeReSeTeUeVeWeXeYeZe0e1e2e3e4e5e6e7e8e9e.e+fafbfcfdfefffgfhfifjfkflfmfnfofpfqfrfsftfufvfwfxfyfzfAfBfCfDfEfFfGfHfIfJfKfLfMfNfOfPfQfRfSfTfUfVfWfXfYfZf0f1f2f3f4f5f6f7f8f9f.f+gagbgcgdgegfggghgigjgkglgmgngogpgqgrgsgtgugvgwgxgygzgAgBgCgDgEgFgGgHgIgJgKgLgMgNgOgPgQgRgSgTgUgVgWgXgYgZg0g1g2g3g4g5g6g7g8g9g.g+hahbhchdhehfhghhhihjhkhlhmhnhohphqhrhshthuhvhwhxhyhzhAhBhChDhEhFhGhHhIhJhKhLhMhNhOhPhQhRhShThUhVhWhXhYhZh0h1h2h3h4h5h6h7h8h9h.h+",
"aaabacadaeafagahaiajakalamanaoapaqarasatauavawaxayazaAaBaCaDaEaFaGaHaIaJaKaLaMaNaOaPaQaRaSaTaUaVaWaXaYaZa0a1a2a3a4a5a6a7a8a9a.a+babbbcbdbebfbgbhbibjbkblbmbnbobpbqbrbsbtbubvbwbxbybzbAbBbCbDbEbFbGbHbIbJbKbLbMbNbObPbQbRbSbTbUbVbWbXbYbZb0b1b2b3b4b5b6b7b8b9b.b+cacbcccdcecfcgchcicjckclcmcncocpcqcrcsctcucvcwcxcyczcAcBcCcDcEcFcGcHcIcJcKcLcMcNcOcPcQcRcScTcUcVcWcXcYcZc0c1c2c3c4c5c6c7c8c9c.c+dadbdcdddedfdgdhdidjdkdldmdndodpdqdrdsdtdudvdwdxdydzdAdBdCdDdEdFdGdHdIdJdKdLdMdNdOdPdQdRdSdTdUdVdWdXdYdZd0d1d2d3d4d5d6d7d8d9d.d+eaebecedeeefegeheiejekelemeneoepeqereseteuevewexeyezeAeBeCeDeEeFeGeHeIeJeKeLeMeNeOePeQeReSeTeUeVeWeXeYeZe0e1e2e3e4e5e6e7e8e9e.e+fafbfcfdfefffgfhfifjfkflfmfnfofpfqfrfsftfufvfwfxfyfzfAfBfCfDfEfFfGfHfIfJfKfLfMfNfOfPfQfRfSfTfUfVfWfXfYfZf0f1f2f3f4f5f6f7f8f9f.f+gagbgcgdgegfggghgigjgkglgmgngogpgqgrgsgtgugvgwgxgygzgAgBgCgDgEgFgGgHgIgJgKgLgMgNgOgPgQgRgSgTgUgVgWgXgYgZg0g1g2g3g4g5g6g7g8g9g.g+hahbhchdhehfhghhhihjhkhlhmhnhohphqhrhshthuhvhwhxhyhzhAhBhChDhEhFhGhHhIhJhKhLhMhNhOhPhQhRhShThUhVhWhXhYhZh0h1h2h3h4h5h6h7h8h9h.h+",
"aaabacadaeafagahaiajakalamanaoapaqarasatauavawaxayazaAaBaCaDaEaFaGaHaIaJaKaLaMaNaOaPaQaRaSaTaUaVaWaXaYaZa0a1a2a3a4a5a6a7a8a9a.a+babbbcbdbebfbgbhbibjbkblbmbnbobpbqbrbsbtbubvbwbxbybzbAbBbCbDbEbFbGbHbIbJbKbLbMbNbObPbQbRbSbTbUbVbWbXbYbZb0b1b2b3b4b5b6b7b8b9b.b+cacbcccdcecfcgchcicjckclcmcncocpcqcrcsctcucvcwcxcyczcAcBcCcDcEcFcGcHcIcJcKcLcMcNcOcPcQcRcScTcUcVcWcXcYcZc0c1c2c3c4c5c6c7c8c9c.c+dadbdcdddedfdgdhdidjdkdldmdndodpdqdrdsdtdudvdwdxdydzdAdBdCdDdEdFdGdHdIdJdKdLdMdNdOdPdQdRdSdTdUdVdWdXdYdZd0d1d2d3d4d5d6d7d8d9d.d+eaebecedeeefegeheiejekelemeneoepeqereseteuevewexeyezeAeBeCeDeEeFeGeHeIeJeKeLeMeNeOePeQeReSeTeUeVeWeXeYeZe0e1e2e3e4e5e6e7e8e9e.e+fafbfcfdfefffgfhfifjfkflfmfnfofpfqfrfsftfufvfwfxfyfzfAfBfCfDfEfFfGfHfIfJfKfLfMfNfOfPfQfRfSfTfUfVfWfXfYfZf0f1f2f3f4f5f6f7f8f9f.f+gagbgcgdgegfggghgigjgkglgmgngogpgqgrgsgtgugvgwgxgygzgAgBgCgDgEgFgGgHgIgJgKgLgMgNgOgPgQgRgSgTgUgVgWgXgYgZg0g1g2g3g4g5g6g7g8g9g.g+hahbhchdhehfhghhhihjhkhlhmhnhohphqhrhshthuhvhwhxhyhzhAhBhChDhEhFhGhHhIhJhKhLhMhNhOhPhQhRhShThUhVhWhXhYhZh0h1h2h3h4h5h6h7h8h9h.h+",
"aaabacadaeafagahaiajakalamanaoapaqarasatauavawaxayazaAaBaCaDaEaFaGaHaIaJaKaLaMaNaOaPaQaRaSaTaUaVaWaXaYaZa0a1a2a3a4a5a6a7a8a9a.a+babbbcbdbebfbgbhbibjbkblbmbnbobpbqbrbsbtbubvbwbxbybzbAbBbCbDbEbFbGbHbIbJbKbLbMbNbObPbQbRbSbTbUbVbWbXbYbZb0b1b2b3b4b5b6b7b8b9b.b+cacbcccdcecfcgchcicjckclcmcncocpcqcrcsctcucvcwcxcyczcAcBcCcDcEcFcGcHcIcJcKcLcMcNcOcPcQcRcScTcUcVcWcXcYcZc0c1c2c3c4c5c6c7c8c9c.c+dadbdcdddedfdgdhdidjdkdldmdndodpdqdrdsdtdudvdwdxdydzdAdBdCdDdEdFdGdHdIdJdKdLdMdNdOdPdQdRdSdTdUdVdWdXdYdZd0d1d2d3d4d5d6d7d8d9d.d+eaebecedeeefegeheiejekelemeneoepeqereseteuevewexeyezeAeBeCeDeEeFeGeHeIeJeKeLeMeNeOePeQeReSeTeUeVeWeXeYeZe0e1e2e3e4e5e6e7e8e9e.e+fafbfcfdfefffgfhfifjfkflfmfnfofpfqfrfsftfufvfwfxfyfzfAfBfCfDfEfFfGfHfIfJfKfLfMfNfOfPfQfRfSfTfUfVfWfXfYfZf0f1f2f3f4f5f6f7f8f9f.f+gagbgcgdgegfggghgigjgkglgmgngogpgqgrgsgtgugvgwgxgygzgAgBgCgDgEgFgGgHgIgJgKgLgMgNgOgPgQgRgSgTgUgVgWgXgYgZg0g1g2g3g4g5g6g7g8g9g.g+hahbhchdhehfhghhhihjhkhlhmhnhohphqhrhshthuhvhwhxhyhzhAhBhChDhEhFhGhHhIhJhKhLhMhNhOhPhQhRhShThUhVhWhXhYhZh0h1h2h3h4h5h6h7h8h9h.h+",
"aaabacadaeafagahaiajakalamanaoapaqarasatauavawaxayazaAaBaCaDaEaFaGaHaIaJaKaLaMaNaOaPaQaRaSaTaUaVaWaXaYaZa0a1a2a3a4a5a6a7a8a9a.a+babbbcbdbebfbgbhbibjbkblbmbnbobpbqbrbsbtbubvbwbxbybzbAbBbCbDbEbFbGbHbIbJbKbLbMbNbObPbQbRbSbTbUbVbWbXbYbZb0b1b2b3b4b5b6b7b8b9b.b+cacbcccdcecfcgchcicjckclcmcncocpcqcrcsctcucvcwcxcyczcAcBcCcDcEcFcGcHcIcJcKcLcMcNcOcPcQcRcScTcUcVcWcXcYcZc0c1c2c3c4c5c6c7c8c9c.c+dadbdcdddedfdgdhdidjdkdldmdndodpdqdrdsdtdudvdwdxdydzdAdBdCdDdEdFdGdHdIdJdKdLdMdNdOdPdQdRdSdTdUdVdWdXdYdZd0d1d2d3d4d5d6d7d8d9d.d+eaebecedeeefegeheiejekelemeneoepeqereseteuevewexeyezeAeBeCeDeEeFeGeHeIeJeKeLeMeNeOePeQeReSeTeUeVeWeXeYeZe0e1e2e3e4e5e6e7e8e9e.e+fafbfcfdfefffgfhfifjfkflfmfnfofpfqfrfsftfufvfwfxfyfzfAfBfCfDfEfFfGfHfIfJfKfLfMfNfOfPfQfRfSfTfUfVfWfXfYfZf0f1f2f3f4f5f6f7f8f9f.f+gagbgcgdgegfggghgigjgkglgmgngogpgqgrgsgtgugvgwgxgygzgAgBgCgDgEgFgGgHgIgJgKgLgMgNgOgPgQgRgSgTgUgVgWgXgYgZg0g1g2g3g4g5g6g7g8g9g.g+hahbhchdhehfhghhhihjhkhlhmhnhohphqhrhshthuhvhwhxhyhzhAhBhChDhEhFhGhHhIhJhKhLhMhNhOhPhQhRhShThUhVhWhXhYhZh0h1h2h3h4h5h6h7h8h9h.h+",
"aaabacadaeafagahaiajakalamanaoapaqarasatauavawaxayazaAaBaCaDaEaFaGaHaIaJaKaLaMaNaOaPaQaRaSaTaUaVaWaXaYaZa0a1a2a3a4a5a6a7a8a9a.a+babbbcbdbebfbgbhbibjbkblbmbnbobpbqbrbsbtbubvbwbxbybzbAbBbCbDbEbFbGbHbIbJbKbLbMbNbObPbQbRbSbTbUbVbWbXbYbZb0b1b2b3b4b5b6b7b8b9b.b+cacbcccdcecfcgchcicjckclcmcncocpcqcrcsctcucvcwcxcyczcAcBcCcDcEcFcGcHcIcJcKcLcMcNcOcPcQcRcScTcUcVcWcXcYcZc0c1c2c3c4c5c6c7c8c9c.c+dadbdcdddedfdgdhdidjdkdldmdndodpdqdrdsdtdudvdwdxdydzdAdBdCdDdEdFdGdHdIdJdKdLdMdNdOdPdQdRdSdTdUdVdWdXdYdZd0d1d2d3d4d5d6d7d8d9d.d+eaebecedeeefegeheiejekelemeneoepeqereseteuevewexeyezeAeBeCeDeEeFeGeHeIeJeKeLeMeNeOePeQeReSeTeUeVeWeXeYeZe0e1e2e3e4e5e6e7e8e9e.e+fafbfcfdfefffgfhfifjfkflfmfnfofpfqfrfsftfufvfwfxfyfzfAfBfCfDfEfFfGfHfIfJfKfLfMfNfOfPfQfRfSfTfUfVfWfXfYfZf0f1f2f3f4f5f6f7f8f9f.f+gagbgcgdgegfggghgigjgkglgmgngogpgqgrgsgtgugvgwgxgygzgAgBgCgDgEgFgGgHgIgJgKgLgMgNgOgPgQgRgSgTgUgVgWgXgYgZg0g1g2g3g4g5g6g7g8g9g.g+hahbhchdhehfhghhhihjhkhlhmhnhohphqhrhshthuhvhwhxhyhzhAhBhChDhEhFhGhHhIhJhKhLhMhNhOhPhQhRhShThUhVhWhXhYhZh0h1h2h3h4h5h6h7h8h9h.h+",
"aaabacadaeafagahaiajakalamanaoapaqarasatauavawaxayazaAaBaCaDaEaFaGaHaIaJaKaLaMaNaOaPaQaRaSaTaUaVaWaXaYaZa0a1a2a3a4a5a6a7a8a9a.a+babbbcbdbebfbgbhbibjbkblbmbnbobpbqbrbsbtbubvbwbxbybzbAbBbCbDbEbFbGbHbIbJbKbLbMbNbObPbQbRbSbTbUbVbWbXbYbZb0b1b2b3b4b5b6b7b8b9b.b+cacbcccdcecfcgchcicjckclcmcncocpcqcrcsctcucvcwcxcyczcAcBcCcDcEcFcGcHcIcJcKcLcMcNcOcPcQcRcScTcUcVcWcXcYcZc0c1c2c3c4c5c6c7c8c9c.c+dadbdcdddedfdgdhdidjdkdldmdndodpdqdrdsdtdudvdwdxdydzdAdBdCdDdEdFdGdHdIdJdKdLdMdNdOdPdQdRdSdTdUdVdWdXdYdZd0d1d2d3d4d5d6d7d8d9d.d+eaebecedeeefegeheiejekelemeneoepeqereseteuevewexeyezeAeBeCeDeEeFeGeHeIeJeKeLeMeNeOePeQeReSeTeUeVeWeXeYeZe0e1e2e3e4e5e6e7e8e9e.e+fafbfcfdfefffgfhfifjfkflfmfnfofpfqfrfsftfufvfwfxfyfzfAfBfCfDfEfFfGfHfIfJfKfLfMfNfOfPfQfRfSfTfUfVfWfXfYfZf0f1f2f3f4f5f6f7f8f9f.f+gagbgcgdgegfggghgigjgkglgmgngogpgqgrgsgtgugvgwgxgygzgAgBgCgDgEgFgGgHgIgJgKgLgMgNgOgPgQgRgSgTgUgVgWgXgYgZg0g1g2g3g4g5g6g7g8g9g.g+hahbhchdhehfhghhhihjhkhlhmhnhohphqhrhshthuhvhwhxhyhzhAhBhChDhEhFhGhHhIhJhKhLhMhNhOhPhQhRhShThUhVhWhXhYhZh0h1h2h3h4h5h6h7h8h9h.h+",
"aaabacadaeafagahaiajakalamanaoapaqarasatauavawaxayazaAaBaCaDaEaFaGaHaIaJaKaLaMaNaOaPaQaRaSaTaUaVaWaXaYaZa0a1a2a3a4a5a6a7a8a9a.a+babbbcbdbebfbgbhbibjbkblbmbnbobpbqbrbsbtbubvbwbxbybzbAbBbCbDbEbFbGbHbIbJbKbLbMbNbObPbQbRbSbTbUbVbWbXbYbZb0b1b2b3b4b5b6b7b8b9b.b+cacbcccdcecfcgchcicjckclcmcncocpcqcrcsctcucvcwcxcyczcAcBcCcDcEcFcGcHcIcJcKcLcMcNcOcPcQcRcScTcUcVcWcXcYcZc0c1c2c3c4c5c6c7c8c9c.c+dadbdcdddedfdgdhdidjdkdldmdndodpdqdrdsdtdudvdwdxdydzdAdBdCdDdEdFdGdHdIdJdKdLdMdNdOdPdQdRdSdTdUdVdWdXdYdZd0d1d2d3d4d5d6d7d8d9d.d+eaebecedeeefegeheiejekelemeneoepeqereseteuevewexeyezeAeBeCeDeEeFeGeHeIeJeKeLeMeNeOePeQeReSeTeUeVeWeXeYeZe0e1e2e3e4e5e6e7e8e9e.e+fafbfcfdfefffgfhfifjfkflfmfnfofpfqfrfsftfufvfwfxfyfzfAfBfCfDfEfFfGfHfIfJfKfLfMfNfOfPfQfRfSfTfUfVfWfXfYfZf0f1f2f3f4f5f6f7f8f9f.f+gagbgcgdgegfggghgigjgkglgmgngogpgqgrgsgtgugvgwgxgygzgAgBgCgDgEgFgGgHgIgJgKgLgMgNgOgPgQgRgSgTgUgVgWgXgYgZg0g1g2g3g4g5g6g7g8g9g.g+hahbhchdhehfhghhhihjhkhlhmhnhohphqhrhshthuhvhwhxhyhzhAhBhChDhEhFhGhHhIhJhKhLhMhNhOhPhQhRhShThUhVhWhXhYhZh0h1h2h3h4h5h6h7h8h9h.h+",
"aaabacadaeafagahaiajakalamanaoapaqarasatauavawaxayazaAaBaCaDaEaFaGaHaIaJaKaLaMaNaOaPaQaRaSaTaUaVaWaXaYaZa0a1a2a3a4a5a6a7a8a9a.a+babbbcbdbebfbgbhbibjbkblbmbnbobpbqbrbsbtbubvbwbxbybzbAbBbCbDbEbFbGbHbIbJbKbLbMbNbObPbQbRbSbTbUbVbWbXbYbZb0b1b2b3b4b5b6b7b8b9b.b+cacbcccdcecfcgchcicjckclcmcncocpcqcrcsctcucvcwcxcyczcAcBcCcDcEcFcGcHcIcJcKcLcMcNcOcPcQcRcScTcUcVcWcXcYcZc0c1c2c3c4c5c6c7c8c9c.c+dadbdcdddedfdgdhdidjdkdldmdndodpdqdrdsdtdudvdwdxdydzdAdBdCdDdEdFdGdHdIdJdKdLdMdNdOdPdQdRdSdTdUdVdWdXdYdZd0d1d2d3d4d5d6d7d8d9d.d+eaebecedeeefegeheiejekelemeneoepeqereseteuevewexeyezeAeBeCeDeEeFeGeHeIeJeKeLeMeNeOePeQeReSeTeUeVeWeXeYeZe0e1e2e3e4e5e6e7e8e9e.e+fafbfcfdfefffgfhfifjfkflfmfnfofpfqfrfsftfufvfwfxfyfzfAfBfCfDfEfFfGfHfIfJfKfLfMfNfOfPfQfRfSfTfUfVfWfXfYfZf0f1f2f3f4f5f6f7f8f9f.f+gagbgcgdgegfggghgigjgkglgmgngogpgqgrgsgtgugvgwgxgygzgAgBgCgDgEgFgGgHgIgJgKgLgMgNgOgPgQgRgSgTgUgVgWgXgYgZg0g1g2g3g4g5g6g7g8g9g.g+hahbhchdhehfhghhhihjhkhlhmhnhohphqhrhshthuhvhwhxhyhzhAhBhChDhEhFhGhHhIhJhKhLhMhNhOhPhQhRhShThUhVhWhXhYhZh0h1h2h3h4h5h6h7h8h9h.h+",
"aaabacadaeafagahaiajakalamanaoapaqarasatauavawaxayazaAaBaCaDaEaFaGaHaIaJaKaLaMaNaOaPaQaRaSaTaUaVaWaXaYaZa0a1a2a3a4a5a6a7a8a9a.a+babbbcbdbebfbgbhbibjbkblbmbnbobpbqbrbsbtbubvbwbxbybzbAbBbCbDbEbFbGbHbIbJbKbLbMbNbObPbQbRbSbTbUbVbWbXbYbZb0b1b2b3b4b5b6b7b8b9b.b+cacbcccdcecfcgchcicjckclcmcncocpcqcrcsctcucvcwcxcyczcAcBcCcDcEcFcGcHcIcJcKcLcMcNcOcPcQcRcScTcUcVcWcXcYcZc0c1c2c3c4c5c6c7c8c9c.c+dadbdcdddedfdgdhdidjdkdldmdndodpdqdrdsdtdudvdwdxdydzdAdBdCdDdEdFdGdHdIdJdKdLdMdNdOdPdQdRdSdTdUdVdWdXdYdZd0d1d2d3d4d5d6d7d8d9d.d+eaebecedeeefegeheiejekelemeneoepeqereseteuevewexeyezeAeBeCeDeEeFeGeHeIeJeKeLeMeNeOePeQeReSeTeUeVeWeXeYeZe0e1e2e3e4e5e6e7e8e9e.e+fafbfcfdfefffgfhfifjfkflfmfnfofpfqfrfsftfufvfwfxfyfzfAfBfCfDfEfFfGfHfIfJfKfLfMfNfOfPfQfRfSfTfUfVfWfXfYfZf0f1f2f3f4f5f6f7f8f9f.f+gagbgcgdgegfggghgigjgkglgmgngogpgqgrgsgtgugvgwgxgygzgAgBgCgDgEgFgGgHgIgJgKgLgMgNgOgPgQgRgSgTgUgVgWgXgYgZg0g1g2g3g4g5g6g7g8g9g.g+hahbhchdhehfhghhhihjhkhlhmhnhohphqhrhshthuhvhwhxhyhzhAhBhChDhEhFhGhHhIhJhKhLhMhNhOhPhQhRhShThUhVhWhXhYhZh0h1h2h3h4h5h6h7h8h9h.h+",
"aaabacadaeafagahaiajakalamanaoapaqarasatauavawaxayazaAaBaCaDaEaFaGaHaIaJaKaLaMaNaOaPaQaRaSaTaUaVaWaXaYaZa0a1a2a3a4a5a6a7a8a9a.a+babbbcbdbebfbgbhbibjbkblbmbnbobpbqbrbsbtbubvbwbxbybzbAbBbCbDbEbFbGbHbIbJbKbLbMbNbObPbQbRbSbTbUbVbWbXbYbZb0b1b2b3b4b5b6b7b8b9b.b+cacbcccdcecfcgchcicjckclcmcncocpcqcrcsctcucvcwcxcyczcAcBcCcDcEcFcGcHcIcJcKcLcMcNcOcPcQcRcScTcUcVcWcXcYcZc0c1c2c3c4c5c6c7c8c9c.c+dadbdcdddedfdgdhdidjdkdldmdndodpdqdrdsdtdudvdwdxdydzdAdBdCdDdEdFdGdHdIdJdKdLdMdNdOdPdQdRdSdTdUdVdWdXdYdZd0d1d2d3d4d5d6d7d8d9d.d+eaebecedeeefegeheiejekelemeneoepeqereseteuevewexeyezeAeBeCeDeEeFeGeHeIeJeKeLeMeNeOePeQeReSeTeUeVeWeXeYeZe0e1e2e3e4e5e6e7e8e9e.e+fafbfcfdfefffgfhfifjfkflfmfnfofpfqfrfsftfufvfwfxfyfzfAfBfCfDfEfFfGfHfIfJfKfLfMfNfOfPfQfRfSfTfUfVfWfXfYfZf0f1f2f3f4f5f6f7f8f9f.f+gagbgcgdgegfggghgigjgkglgmgngogpgqgrgsgtgugvgwgxgygzgAgBgCgDgEgFgGgHgIgJgKgLgMgNgOgPgQgRgSgTgUgVgWgXgYgZg0g1g2g3g4g5g6g7g8g9g.g+hahbhchdhehfhghhhihjhkhlhmhnhohphqhrhshthuhvhwhxhyhzhAhBhChDhEhFhGhHhIhJhKhLhMhNhOhPhQhRhShThUhVhWhXhYhZh0h1h2h3h4h5h6h7h8h9h.h+",
"aaabacadaeafagahaiajakalamanaoapaqarasatauavawaxayazaAaBaCaDaEaFaGaHaIaJaKaLaMaNaOaPaQaRaSaTaUaVaWaXaYaZa0a1a2a3a4a5a6a7a8a9a.a+babbbcbdbebfbgbhbibjbkblbmbnbobpbqbrbsbtbubvbwbxbybzbAbBbCbDbEbFbGbHbIbJbKbLbMbNbObPbQbRbSbTbUbVbWbXbYbZb0b1b2b3b4b5b6b7b8b9b.b+cacbcccdcecfcgchcicjckclcmcncocpcqcrcsctcucvcwcxcyczcAcBcCcDcEcFcGcHcIcJcKcLcMcNcOcPcQcRcScTcUcVcWcXcYcZc0c1c2c3c4c5c6c7c8c9c.c+dadbdcdddedfdgdhdidjdkdldmdndodpdqdrdsdtdudvdwdxdydzdAdBdCdDdEdFdGdHdIdJdKdLdMdNdOdPdQdRdSdTdUdVdWdXdYdZd0d1d2d3d4d5d6d7d8d9d.d+eaebecedeeefegeheiejekelemeneoepeqereseteuevewexeyezeAeBeCeDeEeFeGeHeIeJeKeLeMeNeOePeQeReSeTeUeVeWeXeYeZe0e1e2e3e4e5e6e7e8e9e.e+fafbfcfdfefffgfhfifjfkflfmfnfofpfqfrfsftfufvfwfxfyfzfAfBfCfDfEfFfGfHfIfJfKfLfMfNfOfPfQfRfSfTfUfVfWfXfYfZf0f1f2f3f4f5f6f7f8f9f.f+gagbgcgdgegfggghgigjgkglgmgngogpgqgrgsgtgugvgwgxgygzgAgBgCgDgEgFgGgHgIgJgKgLgMgNgOgPgQgRgSgTgUgVgWgXgYgZg0g1g2g3g4g5g6g7g8g9g.g+hahbhchdhehfhghhhihjhkhlhmhnhohphqhrhshthuhvhwhxhyhzhAhBhChDhEhFhGhHhIhJhKhLhMhNhOhPhQhRhShThUhVhWhXhYhZh0h1h2h3h4h5h6h7h8h9h.h+",
"aaabacadaeafagahaiajakalamanaoapaqarasatauavawaxayazaAaBaCaDaEaFaGaHaIaJaKaLaMaNaOaPaQaRaSaTaUaVaWaXaYaZa0a1a2a3a4a5a6a7a8a9a.a+babbbcbdbebfbgbhbibjbkblbmbnbobpbqbrbsbtbubvbwbxbybzbAbBbCbDbEbFbGbHbIbJbKbLbMbNbObPbQbRbSbTbUbVbWbXbYbZb0b1b2b3b4b5b6b7b8b9b.b+cacbcccdcecfcgchcicjckclcmcncocpcqcrcsctcucvcwcxcyczcAcBcCcDcEcFcGcHcIcJcKcLcMcNcOcPcQcRcScTcUcVcWcXcYcZc0c1c2c3c4c5c6c7c8c9c.c+dadbdcdddedfdgdhdidjdkdldmdndodpdqdrdsdtdudvdwdxdydzdAdBdCdDdEdFdGdHdIdJdKdLdMdNdOdPdQdRdSdTdUdVdWdXdYdZd0d1d2d3d4d5d6d7d8d9d.d+eaebecedeeefegeheiejekelemeneoepeqereseteuevewexeyezeAeBeCeDeEeFeGeHeIeJeKeLeMeNeOePeQeReSeTeUeVeWeXeYeZe0e1e2e3e4e5e6e7e8e9e.e+fafbfcfdfefffgfhfifjfkflfmfnfofpfqfrfsftfufvfwfxfyfzfAfBfCfDfEfFfGfHfIfJfKfLfMfNfOfPfQfRfSfTfUfVfWfXfYfZf0f1f2f3f4f5f6f7f8f9f.f+gagbgcgdgegfggghgigjgkglgmgngogpgqgrgsgtgugvgwgxgygzgAgBgCgDgEgFgGgHgIgJgKgLgMgNgOgPgQgRgSgTgUgVgWgXgYgZg0g1g2g3g4g5g6g7g8g9g.g+hahbhchdhehfhghhhihjhkhlhmhnhohphqhrhshthuhvhwhxhyhzhAhBhChDhEhFhGhHhIhJhKhLhMhNhOhPhQhRhShThUhVhWhXhYhZh0h1h2h3h4h5h6h7h8h9h.h+",
"aaabacadaeafagahaiajakalamanaoapaqarasatauavawaxayazaAaBaCaDaEaFaGaHaIaJaKaLaMaNaOaPaQaRaSaTaUaVaWaXaYaZa0a1a2a3a4a5a6a7a8a9a.a+babbbcbdbebfbgbhbibjbkblbmbnbobpbqbrbsbtbubvbwbxbybzbAbBbCbDbEbFbGbHbIbJbKbLbMbNbObPbQbRbSbTbUbVbWbXbYbZb0b1b2b3b4b5b6b7b8b9b.b+cacbcccdcecfcgchcicjckclcmcncocpcqcrcsctcucvcwcxcyczcAcBcCcDcEcFcGcHcIcJcKcLcMcNcOcPcQcRcScTcUcVcWcXcYcZc0c1c2c3c4c5c6c7c8c9c.c+dadbdcdddedfdgdhdidjdkdldmdndodpdqdrdsdtdudvdwdxdydzdAdBdCdDdEdFdGdHdIdJdKdLdMdNdOdPdQdRdSdTdUdVdWdXdYdZd0d1d2d3d4d5d6d7d8d9d.d+eaebecedeeefegeheiejekelemeneoepeqereseteuevewexeyezeAeBeCeDeEeFeGeHeIeJeKeLeMeNeOePeQeReSeTeUeVeWeXeYeZe0e1e2e3e4e5e6e7e8e9e.e+fafbfcfdfefffgfhfifjfkflfmfnfofpfqfrfsftfufvfwfxfyfzfAfBfCfDfEfFfGfHfIfJfKfLfMfNfOfPfQfRfSfTfUfVfWfXfYfZf0f1f2f3f4f5f6f7f8f9f.f+gagbgcgdgegfggghgigjgkglgmgngogpgqgrgsgtgugvgwgxgygzgAgBgCgDgEgFgGgHgIgJgKgLgMgNgOgPgQgRgSgTgUgVgWgXgYgZg0g1g2g3g4g5g6g7g8g9g.g+hahbhchdhehfhghhhihjhkhlhmhnhohphqhrhshthuhvhwhxhyhzhAhBhChDhEhFhGhHhIhJhKhLhMhNhOhPhQhRhShThUhVhWhXhYhZh0h1h2h3h4h5h6h7h8h9h.h+",
"aaabacadaeafagahaiajakalamanaoapaqarasatauavawaxayazaAaBaCaDaEaFaGaHaIaJaKaLaMaNaOaPaQaRaSaTaUaVaWaXaYaZa0a1a2a3a4a5a6a7a8a9a.a+babbbcbdbebfbgbhbibjbkblbmbnbobpbqbrbsbtbubvbwbxbybzbAbBbCbDbEbFbGbHbIbJbKbLbMbNbObPbQbRbSbTbUbVbWbXbYbZb0b1b2b3b4b5b6b7b8b9b.b+cacbcccdcecfcgchcicjckclcmcncocpcqcrcsctcucvcwcxcyczcAcBcCcDcEcFcGcHcIcJcKcLcMcNcOcPcQcRcScTcUcVcWcXcYcZc0c1c2c3c4c5c6c7c8c9c.c+dadbdcdddedfdgdhdidjdkdldmdndodpdqdrdsdtdudvdwdxdydzdAdBdCdDdEdFdGdHdIdJdKdLdMdNdOdPdQdRdSdTdUdVdWdXdYdZd0d1d2d3d4d5d6d7d8d9d.d+eaebecedeeefegeheiejekelemeneoepeqereseteuevewexeyezeAeBeCeDeEeFeGeHeIeJeKeLeMeNeOePeQeReSeTeUeVeWeXeYeZe0e1e2e3e4e5e6e7e8e9e.e+fafbfcfdfefffgfhfifjfkflfmfnfofpfqfrfsftfufvfwfxfyfzfAfBfCfDfEfFfGfHfIfJfKfLfMfNfOfPfQfRfSfTfUfVfWfXfYfZf0f1f2f3f4f5f6f7f8f9f.f+gagbgcgdgegfggghgigjgkglgmgngogpgqgrgsgtgugvgwgxgygzgAgBgCgDgEgFgGgHgIgJgKgLgMgNgOgPgQgRgSgTgUgVgWgXgYgZg0g1g2g3g4g5g6g7g8g9g.g+hahbhchdhehfhghhhihjhkhlhmhnhohphqhrhshthuhvhwhxhyhzhAhBhChDhEhFhGhHhIhJhKhLhMhNhOhPhQhRhShThUhVhWhXhYhZh0h1h2h3h4h5h6h7h8h9h.h+",
"aaabacadaeafagahaiajakalamanaoapaqarasatauavawaxayazaAaBaCaDaEaFaGaHaIaJaKaLaMaNaOaPaQaRaSaTaUaVaWaXaYaZa0a1a2a3a4a5a6a7a8a9a.a+babbbcbdbebfbgbhbibjbkblbmbnbobpbqbrbsbtbubvbwbxbybzbAbBbCbDbEbFbGbHbIbJbKbLbMbNbObPbQbRbSbTbUbVbWbXbYbZb0b1b2b3b4b5b6b7b8b9b.b+cacbcccdcecfcgchcicjckclcmcncocpcqcrcsctcucvcwcxcyczcAcBcCcDcEcFcGcHcIcJcKcLcMcNcOcPcQcRcScTcUcVcWcXcYcZc0c1c2c3c4c5c6c7c8c9c.c+dadbdcdddedfdgdhdidjdkdldmdndodpdqdrdsdtdudvdwdxdydzdAdBdCdDdEdFdGdHdIdJdKdLdMdNdOdPdQdRdSdTdUdVdWdXdYdZd0d1d2d3d4d5d6d7d8d9d.d+eaebecedeeefegeheiejekelemeneoepeqereseteuevewexeyezeAeBeCeDeEeFeGeHeIeJeKeLeMeNeOePeQeReSeTeUeVeWeXeYeZe0e1e2e3e4e5e6e7e8e9e.e+fafbfcfdfefffgfhfifjfkflfmfnfofpfqfrfsftfufvfwfxfyfzfAfBfCfDfEfFfGfHfIfJfKfLfMfNfOfPfQfRfSfTfUfVfWfXfYfZf0f1f2f3f4f5f6f7f8f9f.f+gagbgcgdgegfggghgigjgkglgmgngogpgqgrgsgtgugvgwgxgygzgAgBgCgDgEgFgGgHgIgJgKgLgMgNgOgPgQgRgSgTgUgVgWgXgYgZg0g1g2g3g4g5g6g7g8g9g.g+hahbhchdhehfhghhhihjhkhlhmhnhohphqhrhshthuhvhwhxhyhzhAhBhChDhEhFhGhHhIhJhKhLhMhNhOhPhQhRhShThUhVhWhXhYhZh0h1h2h3h4h5h6h7h8h9h.h+",
"aaabacadaeafagahaiajakalamanaoapaqarasatauavawaxayazaAaBaCaDaEaFaGaHaIaJaKaLaMaNaOaPaQaRaSaTaUaVaWaXaYaZa0a1a2a3a4a5a6a7a8a9a.a+babbbcbdbebfbgbhbibjbkblbmbnbobpbqbrbsbtbubvbwbxbybzbAbBbCbDbEbFbGbHbIbJbKbLbMbNbObPbQbRbSbTbUbVbWbXbYbZb0b1b2b3b4b5b6b7b8b9b.b+cacbcccdcecfcgchcicjckclcmcncocpcqcrcsctcucvcwcxcyczcAcBcCcDcEcFcGcHcIcJcKcLcMcNcOcPcQcRcScTcUcVcWcXcYcZc0c1c2c3c4c5c6c7c8c9c.c+dadbdcdddedfdgdhdidjdkdldmdndodpdqdrdsdtdudvdwdxdydzdAdBdCdDdEdFdGdHdIdJdKdLdMdNdOdPdQdRdSdTdUdVdWdXdYdZd0d1d2d3d4d5d6d7d8d9d.d+eaebecedeeefegeheiejekelemeneoepeqereseteuevewexeyezeAeBeCeDeEeFeGeHeIeJeKeLeMeNeOePeQeReSeTeUeVeWeXeYeZe0e1e2e3e4e5e6e7e8e9e.e+fafbfcfdfefffgfhfifjfkflfmfnfofpfqfrfsftfufvfwfxfyfzfAfBfCfDfEfFfGfHfIfJfKfLfMfNfOfPfQfRfSfTfUfVfWfXfYfZf0f1f2f3f4f5f6f7f8f9f.f+gagbgcgdgegfggghgigjgkglgmgngogpgqgrgsgtgugvgwgxgygzgAgBgCgDgEgFgGgHgIgJgKgLgMgNgOgPgQgRgSgTgUgVgWgXgYgZg0g1g2g3g4g5g6g7g8g9g.g+hahbhchdhehfhghhhihjhkhlhmhnhohphqhrhshthuhvhwhxhyhzhAhBhChDhEhFhGhHhIhJhKhLhMhNhOhPhQhRhShThUhVhWhXhYhZh0h1h2h3h4h5h6h7h8h9h.h+",
"aaabacadaeafagahaiajakalamanaoapaqarasatauavawaxayazaAaBaCaDaEaFaGaHaIaJaKaLaMaNaOaPaQaRaSaTaUaVaWaXaYaZa0a1a2a3a4a5a6a7a8a9a.a+babbbcbdbebfbgbhbibjbkblbmbnbobpbqbrbsbtbubvbwbxbybzbAbBbCbDbEbFbGbHbIbJbKbLbMbNbObPbQbRbSbTbUbVbWbXbYbZb0b1b2b3b4b5b6b7b8b9b.b+cacbcccdcecfcgchcicjckclcmcncocpcqcrcsctcucvcwcxcyczcAcBcCcDcEcFcGcHcIcJcKcLcMcNcOcPcQcRcScTcUcVcWcXcYcZc0c1c2c3c4c5c6c7c8c9c.c+dadbdcdddedfdgdhdidjdkdldmdndodpdqdrdsdtdudvdwdxdydzdAdBdCdDdEdFdGdHdIdJdKdLdMdNdOdPdQdRdSdTdUdVdWdXdYdZd0d1d2d3d4d5d6d7d8d9d.d+eaebecedeeefegeheiejekelemeneoepeqereseteuevewexeyezeAeBeCeDeEeFeGeHeIeJeKeLeMeNeOePeQeReSeTeUeVeWeXeYeZe0e1e2e3e4e5e6e7e8e9e.e+fafbfcfdfefffgfhfifjfkflfmfnfofpfqfrfsftfufvfwfxfyfzfAfBfCfDfEfFfGfHfIfJfKfLfMfNfOfPfQfRfSfTfUfVfWfXfYfZf0f1f2f3f4f5f6f7f8f9f.f+gagbgcgdgegfggghgigjgkglgmgngogpgqgrgsgtgugvgwgxgygzgAgBgCgDgEgFgGgHgIgJgKgLgMgNgOgPgQgRgSgTgUgVgWgXgYgZg0g1g2g3g4g5g6g7g8g9g.g+hahbhchdhehfhghhhihjhkhlhmhnhohphqhrhshthuhvhwhxhyhzhAhBhChDhEhFhGhHhIhJhKhLhMhNhOhPhQhRhShThUhVhWhXhYhZh0h1h2h3h4h5h6h7h8h9h.h+",
"aaabacadaeafagahaiajakalamanaoapaqarasatauavawaxayazaAaBaCaDaEaFaGaHaIaJaKaLaMaNaOaPaQaRaSaTaUaVaWaXaYaZa0a1a2a3a4a5a6a7a8a9a.a+babbbcbdbebfbgbhbibjbkblbmbnbobpbqbrbsbtbubvbwbxbybzbAbBbCbDbEbFbGbHbIbJbKbLbMbNbObPbQbRbSbTbUbVbWbXbYbZb0b1b2b3b4b5b6b7b8b9b.b+cacbcccdcecfcgchcicjckclcmcncocpcqcrcsctcucvcwcxcyczcAcBcCcDcEcFcGcHcIcJcKcLcMcNcOcPcQcRcScTcUcVcWcXcYcZc0c1c2c3c4c5c6c7c8c9c.c+dadbdcdddedfdgdhdidjdkdldmdndodpdqdrdsdtdudvdwdxdydzdAdBdCdDdEdFdGdHdIdJdKdLdMdNdOdPdQdRdSdTdUdVdWdXdYdZd0d1d2d3d4d5d6d7d8d9d.d+eaebecedeeefegeheiejekelemeneoepeqereseteuevewexeyezeAeBeCeDeEeFeGeHeIeJeKeLeMeNeOePeQeReSeTeUeVeWeXeYeZe0e1e2e3e4e5e6e7e8e9e.e+fafbfcfdfefffgfhfifjfkflfmfnfofpfqfrfsftfufvfwfxfyfzfAfBfCfDfEfFfGfHfIfJfKfLfMfNfOfPfQfRfSfTfUfVfWfXfYfZf0f1f2f3f4f5f6f7f8f9f.f+gagbgcgdgegfggghgigjgkglgmgngogpgqgrgsgtgugvgwgxgygzgAgBgCgDgEgFgGgHgIgJgKgLgMgNgOgPgQgRgSgTgUgVgWgXgYgZg0g1g2g3g4g5g6g7g8g9g.g+hahbhchdhehfhghhhihjhkhlhmhnhohphqhrhshthuhvhwhxhyhzhAhBhChDhEhFhGhHhIhJhKhLhMhNhOhPhQhRhShThUhVhWhXhYhZh0h1h2h3h4h5h6h7h8h9h.h+",
"aaabacadaeafagahaiajakalamanaoapaqarasatauavawaxayazaAaBaCaDaEaFaGaHaIaJaKaLaMaNaOaPaQaRaSaTaUaVaWaXaYaZa0a1a2a3a4a5a6a7a8a9a.a+babbbcbdbebfbgbhbibjbkblbmbnbobpbqbrbsbtbubvbwbxbybzbAbBbCbDbEbFbGbHbIbJbKbLbMbNbObPbQbRbSbTbUbVbWbXbYbZb0b1b2b3b4b5b6b7b8b9b.b+cacbcccdcecfcgchcicjckclcmcncocpcqcrcsctcucvcwcxcyczcAcBcCcDcEcFcGcHcIcJcKcLcMcNcOcPcQcRcScTcUcVcWcXcYcZc0c1c2c3c4c5c6c7c8c9c.c+dadbdcdddedfdgdhdidjdkdldmdndodpdqdrdsdtdudvdwdxdydzdAdBdCdDdEdFdGdHdIdJdKdLdMdNdOdPdQdRdSdTdUdVdWdXdYdZd0d1d2d3d4d5d6d7d8d9d.d+eaebecedeeefegeheiejekelemeneoepeqereseteuevewexeyezeAeBeCeDeEeFeGeHeIeJeKeLeMeNeOePeQeReSeTeUeVeWeXeYeZe0e1e2e3e4e5e6e7e8e9e.e+fafbfcfdfefffgfhfifjfkflfmfnfofpfqfrfsftfufvfwfxfyfzfAfBfCfDfEfFfGfHfIfJfKfLfMfNfOfPfQfRfSfTfUfVfWfXfYfZf0f1f2f3f4f5f6f7f8f9f.f+gagbgcgdgegfggghgigjgkglgmgngogpgqgrgsgtgugvgwgxgygzgAgBgCgDgEgFgGgHgIgJgKgLgMgNgOgPgQgRgSgTgUgVgWgXgYgZg0g1g2g3g4g5g6g7g8g9g.g+hahbhchdhehfhghhhihjhkhlhmhnhohphqhrhshthuhvhwhxhyhzhAhBhChDhEhFhGhHhIhJhKhLhMhNhOhPhQhRhShThUhVhWhXhYhZh0h1h2h3h4h5h6h7h8h9h.h+",
"aaabacadaeafagahaiajakalamanaoapaqarasatauavawaxayazaAaBaCaDaEaFaGaHaIaJaKaLaMaNaOaPaQaRaSaTaUaVaWaXaYaZa0a1a2a3a4a5a6a7a8a9a.a+babbbcbdbebfbgbhbibjbkblbmbnbobpbqbrbsbtbubvbwbxbybzbAbBbCbDbEbFbGbHbIbJbKbLbMbNbObPbQbRbSbTbUbVbWbXbYbZb0b1b2b3b4b5b6b7b8b9b.b+cacbcccdcecfcgchcicjckclcmcncocpcqcrcsctcucvcwcxcyczcAcBcCcDcEcFcGcHcIcJcKcLcMcNcOcPcQcRcScTcUcVcWcXcYcZc0c1c2c3c4c5c6c7c8c9c.c+dadbdcdddedfdgdhdidjdkdldmdndodpdqdrdsdtdudvdwdxdydzdAdBdCdDdEdFdGdHdIdJdKdLdMdNdOdPdQdRdSdTdUdVdWdXdYdZd0d1d2d3d4d5d6d7d8d9d.d+eaebecedeeefegeheiejekelemeneoepeqereseteuevewexeyezeAeBeCeDeEeFeGeHeIeJeKeLeMeNeOePeQeReSeTeUeVeWeXeYeZe0e1e2e3e4e5e6e7e8e9e.e+fafbfcfdfefffgfhfifjfkflfmfnfofpfqfrfsftfufvfwfxfyfzfAfBfCfDfEfFfGfHfIfJfKfLfMfNfOfPfQfRfSfTfUfVfWfXfYfZf0f1f2f3f4f5f6f7f8f9f.f+gagbgcgdgegfggghgigjgkglgmgngogpgqgrgsgtgugvgwgxgygzgAgBgCgDgEgFgGgHgIgJgKgLgMgNgOgPgQgRgSgTgUgVgWgXgYgZg0g1g2g3g4g5g6g7g8g9g.g+hahbhchdhehfhghhhihjhkhlhmhnhohphqhrhshthuhvhwhxhyhzhAhBhChDhEhFhGhHhIhJhKhLhMhNhOhPhQhRhShThUhVhWhXhYhZh0h1h2h3h4h5h6h7h8h9h.h+",
"aaabacadaeafagahaiajakalamanaoapaqarasatauavawaxayazaAaBaCaDaEaFaGaHaIaJaKaLaMaNaOaPaQaRaSaTaUaVaWaXaYaZa0a1a2a3a4a5a6a7a8a9a.a+babbbcbdbebfbgbhbibjbkblbmbnbobpbqbrbsbtbubvbwbxbybzbAbBbCbDbEbFbGbHbIbJbKbLbMbNbObPbQbRbSbTbUbVbWbXbYbZb0b1b2b3b4b5b6b7b8b9b.b+cacbcccdcecfcgchcicjckclcmcncocpcqcrcsctcucvcwcxcyczcAcBcCcDcEcFcGcHcIcJcKcLcMcNcOcPcQcRcScTcUcVcWcXcYcZc0c1c2c3c4c5c6c7c8c9c.c+dadbdcdddedfdgdhdidjdkdldmdndodpdqdrdsdtdudvdwdxdydzdAdBdCdDdEdFdGdHdIdJdKdLdMdNdOdPdQdRdSdTdUdVdWdXdYdZd0d1d2d3d4d5d6d7d8d9d.d+eaebecedeeefegeheiejekelemeneoepeqereseteuevewexeyezeAeBeCeDeEeFeGeHeIeJeKeLeMeNeOePeQeReSeTeUeVeWeXeYeZe0e1e2e3e4e5e6e7e8e9e.e+fafbfcfdfefffgfhfifjfkflfmfnfofpfqfrfsftfufvfwfxfyfzfAfBfCfDfEfFfGfHfIfJfKfLfMfNfOfPfQfRfSfTfUfVfWfXfYfZf0f1f2f3f4f5f6f7f8f9f.f+gagbgcgdgegfggghgigjgkglgmgngogpgqgrgsgtgugvgwgxgygzgAgBgCgDgEgFgGgHgIgJgKgLgMgNgOgPgQgRgSgTgUgVgWgXgYgZg0g1g2g3g4g5g6g7g8g9g.g+hahbhchdhehfhghhhihjhkhlhmhnhohphqhrhshthuhvhwhxhyhzhAhBhChDhEhFhGhHhIhJhKhLhMhNhOhPhQhRhShThUhVhWhXhYhZh0h1h2h3h4h5h6h7h8h9h.h+",
"aaabacadaeafagahaiajakalamanaoapaqarasatauavawaxayazaAaBaCaDaEaFaGaHaIaJaKaLaMaNaOaPaQaRaSaTaUaVaWaXaYaZa0a1a2a3a4a5a6a7a8a9a.a+babbbcbdbebfbgbhbibjbkblbmbnbobpbqbrbsbtbubvbwbxbybzbAbBbCbDbEbFbGbHbIbJbKbLbMbNbObPbQbRbSbTbUbVbWbXbYbZb0b1b2b3b4b5b6b7b8b9b.b+cacbcccdcecfcgchcicjckclcmcncocpcqcrcsctcucvcwcxcyczcAcBcCcDcEcFcGcHcIcJcKcLcMcNcOcPcQcRcScTcUcVcWcXcYcZc0c1c2c3c4c5c6c7c8c9c.c+dadbdcdddedfdgdhdidjdkdldmdndodpdqdrdsdtdudvdwdxdydzdAdBdCdDdEdFdGdHdIdJdKdLdMdNdOdPdQdRdSdTdUdVdWdXdYdZd0d1d2d3d4d5d6d7d8d9d.d+eaebecedeeefegeheiejekelemeneoepeqereseteuevewexeyezeAeBeCeDeEeFeGeHeIeJeKeLeMeNeOePeQeReSeTeUeVeWeXeYeZe0e1e2e3e4e5e6e7e8e9e.e+fafbfcfdfefffgfhfifjfkflfmfnfofpfqfrfsftfufvfwfxfyfzfAfBfCfDfEfFfGfHfIfJfKfLfMfNfOfPfQfRfSfTfUfVfWfXfYfZf0f1f2f3f4f5f6f7f8f9f.f+gagbgcgdgegfggghgigjgkglgmgngogpgqgrgsgtgugvgwgxgygzgAgBgCgDgEgFgGgHgIgJgKgLgMgNgOgPgQgRgSgTgUgVgWgXgYgZg0g1g2g3g4g5g6g7g8g9g.g+hahbhchdhehfhghhhihjhkhlhmhnhohphqhrhshthuhvhwhxhyhzhAhBhChDhEhFhGhHhIhJhKhLhMhNhOhPhQhRhShThUhVhWhXhYhZh0h1h2h3h4h5h6h7h8h9h.h+",
"aaabacadaeafagahaiajakalamanaoapaqarasatauavawaxayazaAaBaCaDaEaFaGaHaIaJaKaLaMaNaOaPaQaRaSaTaUaVaWaXaYaZa0a1a2a3a4a5a6a7a8a9a.a+babbbcbdbebfbgbhbibjbkblbmbnbobpbqbrbsbtbubvbwbxbybzbAbBbCbDbEbFbGbHbIbJbKbLbMbNbObPbQbRbSbTbUbVbWbXbYbZb0b1b2b3b4b5b6b7b8b9b.b+cacbcccdcecfcgchcicjckclcmcncocpcqcrcsctcucvcwcxcyczcAcBcCcDcEcFcGcHcIcJcKcLcMcNcOcPcQcRcScTcUcVcWcXcYcZc0c1c2c3c4c5c6c7c8c9c.c+dadbdcdddedfdgdhdidjdkdldmdndodpdqdrdsdtdudvdwdxdydzdAdBdCdDdEdFdGdHdIdJdKdLdMdNdOdPdQdRdSdTdUdVdWdXdYdZd0d1d2d3d4d5d6d7d8d9d.d+eaebecedeeefegeheiejekelemeneoepeqereseteuevewexeyezeAeBeCeDeEeFeGeHeIeJeKeLeMeNeOePeQeReSeTeUeVeWeXeYeZe0e1e2e3e4e5e6e7e8e9e.e+fafbfcfdfefffgfhfifjfkflfmfnfofpfqfrfsftfufvfwfxfyfzfAfBfCfDfEfFfGfHfIfJfKfLfMfNfOfPfQfRfSfTfUfVfWfXfYfZf0f1f2f3f4f5f6f7f8f9f.f+gagbgcgdgegfggghgigjgkglgmgngogpgqgrgsgtgugvgwgxgygzgAgBgCgDgEgFgGgHgIgJgKgLgMgNgOgPgQgRgSgTgUgVgWgXgYgZg0g1g2g3g4g5g6g7g8g9g.g+hahbhchdhehfhghhhihjhkhlhmhnhohphqhrhshthuhvhwhxhyhzhAhBhChDhEhFhGhHhIhJhKhLhMhNhOhPhQhRhShThUhVhWhXhYhZh0h1h2h3h4h5h6h7h8h9h.h+",
"aaabacadaeafagahaiajakalamanaoapaqarasatauavawaxayazaAaBaCaDaEaFaGaHaIaJaKaLaMaNaOaPaQaRaSaTaUaVaWaXaYaZa0a1a2a3a4a5a6a7a8a9a.a+babbbcbdbebfbgbhbibjbkblbmbnbobpbqbrbsbtbubvbwbxbybzbAbBbCbDbEbFbGbHbIbJbKbLbMbNbObPbQbRbSbTbUbVbWbXbYbZb0b1b2b3b4b5b6b7b8b9b.b+cacbcccdcecfcgchcicjckclcmcncocpcqcrcsctcucvcwcxcyczcAcBcCcDcEcFcGcHcIcJcKcLcMcNcOcPcQcRcScTcUcVcWcXcYcZc0c1c2c3c4c5c6c7c8c9c.c+dadbdcdddedfdgdhdidjdkdldmdndodpdqdrdsdtdudvdwdxdydzdAdBdCdDdEdFdGdHdIdJdKdLdMdNdOdPdQdRdSdTdUdVdWdXdYdZd0d1d2d3d4d5d6d7d8d9d.d+eaebecedeeefegeheiejekelemeneoepeqereseteuevewexeyezeAeBeCeDeEeFeGeHeIeJeKeLeMeNeOePeQeReSeTeUeVeWeXeYeZe0e1e2e3e4e5e6e7e8e9e.e+fafbfcfdfefffgfhfifjfkflfmfnfofpfqfrfsftfufvfwfxfyfzfAfBfCfDfEfFfGfHfIfJfKfLfMfNfOfPfQfRfSfTfUfVfWfXfYfZf0f1f2f3f4f5f6f7f8f9f.f+gagbgcgdgegfggghgigjgkglgmgngogpgqgrgsgtgugvgwgxgygzgAgBgCgDgEgFgGgHgIgJgKgLgMgNgOgPgQgRgSgTgUgVgWgXgYgZg0g1g2g3g4g5g6g7g8g9g.g+hahbhchdhehfhghhhihjhkhlhmhnhohphqhrhshthuhvhwhxhyhzhAhBhChDhEhFhGhHhIhJhKhLhMhNhOhPhQhRhShThUhVhWhXhYhZh0h1h2h3h4h5h6h7h8h9h.h+",
"aaabacadaeafagahaiajakalamanaoapaqarasatauavawaxayazaAaBaCaDaEaFaGaHaIaJaKaLaMaNaOaPaQaRaSaTaUaVaWaXaYaZa0a1a2a3a4a5a6a7a8a9a.a+babbbcbdbebfbgbhbibjbkblbmbnbobpbqbrbsbtbubvbwbxbybzbAbBbCbDbEbFbGbHbIbJbKbLbMbNbObPbQbRbSbTbUbVbWbXbYbZb0b1b2b3b4b5b6b7b8b9b.b+cacbcccdcecfcgchcicjckclcmcncocpcqcrcsctcucvcwcxcyczcAcBcCcDcEcFcGcHcIcJcKcLcMcNcOcPcQcRcScTcUcVcWcXcYcZc0c1c2c3c4c5c6c7c8c9c.c+dadbdcdddedfdgdhdidjdkdldmdndodpdqdrdsdtdudvdwdxdydzdAdBdCdDdEdFdGdHdIdJdKdLdMdNdOdPdQdRdSdTdUdVdWdXdYdZd0d1d2d3d4d5d6d7d8d9d.d+eaebecedeeefegeheiejekelemeneoepeqereseteuevewexeyezeAeBeCeDeEeFeGeHeIeJeKeLeMeNeOePeQeReSeTeUeVeWeXeYeZe0e1e2e3e4e5e6e7e8e9e.e+fafbfcfdfefffgfhfifjfkflfmfnfofpfqfrfsftfufvfwfxfyfzfAfBfCfDfEfFfGfHfIfJfKfLfMfNfOfPfQfRfSfTfUfVfWfXfYfZf0f1f2f3f4f5f6f7f8f9f.f+gagbgcgdgegfggghgigjgkglgmgngogpgqgrgsgtgugvgwgxgygzgAgBgCgDgEgFgGgHgIgJgKgLgMgNgOgPgQgRgSgTgUgVgWgXgYgZg0g1g2g3g4g5g6g7g8g9g.g+hahbhchdhehfhghhhihjhkhlhmhnhohphqhrhshthuhvhwhxhyhzhAhBhChDhEhFhGhHhIhJhKhLhMhNhOhPhQhRhShThUhVhWhXhYhZh0h1h2h3h4h5h6h7h8h9h.h+",
"aaabacadaeafagahaiajakalamanaoapaqarasatauavawaxayazaAaBaCaDaEaFaGaHaIaJaKaLaMaNaOaPaQaRaSaTaUaVaWaXaYaZa0a1a2a3a4a5a6a7a8a9a.a+babbbcbdbebfbgbhbibjbkblbmbnbobpbqbrbsbtbubvbwbxbybzbAbBbCbDbEbFbGbHbIbJbKbLbMbNbObPbQbRbSbTbUbVbWbXbYbZb0b1b2b3b4b5b6b7b8b9b.b+cacbcccdcecfcgchcicjckclcmcncocpcqcrcsctcucvcwcxcyczcAcBcCcDcEcFcGcHcIcJcKcLcMcNcOcPcQcRcScTcUcVcWcXcYcZc0c1c2c3c4c5c6c7c8c9c.c+dadbdcdddedfdgdhdidjdkdldmdndodpdqdrdsdtdudvdwdxdydzdAdBdCdDdEdFdGdHdIdJdKdLdMdNdOdPdQdRdSdTdUdVdWdXdYdZd0d1d2d3d4d5d6d7d8d9d.d+eaebecedeeefegeheiejekelemeneoepeqereseteuevewexeyezeAeBeCeDeEeFeGeHeIeJeKeLeMeNeOePeQeReSeTeUeVeWeXeYeZe0e1e2e3e4e5e6e7e8e9e.e+fafbfcfdfefffgfhfifjfkflfmfnfofpfqfrfsftfufvfwfxfyfzfAfBfCfDfEfFfGfHfIfJfKfLfMfNfOfPfQfRfSfTfUfVfWfXfYfZf0f1f2f3f4f5f6f7f8f9f.f+gagbgcgdgegfggghgigjgkglgmgngogpgqgrgsgtgugvgwgxgygzgAgBgCgDgEgFgGgHgIgJgKgLgMgNgOgPgQgRgSgTgUgVgWgXgYgZg0g1g2g3g4g5g6g7g8g9g.g+hahbhchdhehfhghhhihjhkhlhmhnhohphqhrhshthuhvhwhxhyhzhAhBhChDhEhFhGhHhIhJhKhLhMhNhOhPhQhRhShThUhVhWhXhYhZh0h1h2h3h4h5h6h7h8h9h.h+",
"aaabacadaeafagahaiajakalamanaoapaqarasatauavawaxayazaAaBaCaDaEaFaGaHaIaJaKaLaMaNaOaPaQaRaSaTaUaVaWaXaYaZa0a1a2a3a4a5a6a7a8a9a.a+babbbcbdbebfbgbhbibjbkblbmbnbobpbqbrbsbtbubvbwbxbybzbAbBbCbDbEbFbGbHbIbJbKbLbMbNbObPbQbRbSbTbUbVbWbXbYbZb0b1b2b3b4b5b6b7b8b9b.b+cacbcccdcecfcgchcicjckclcmcncocpcqcrcsctcucvcwcxcyczcAcBcCcDcEcFcGcHcIcJcKcLcMcNcOcPcQcRcScTcUcVcWcXcYcZc0c1c2c3c4c5c6c7c8c9c.c+dadbdcdddedfdgdhdidjdkdldmdndodpdqdrdsdtdudvdwdxdydzdAdBdCdDdEdFdGdHdIdJdKdLdMdNdOdPdQdRdSdTdUdVdWdXdYdZd0d1d2d3d4d5d6d7d8d9d.d+eaebecedeeefegeheiejekelemeneoepeqereseteuevewexeyezeAeBeCeDeEeFeGeHeIeJeKeLeMeNeOePeQeReSeTeUeVeWeXeYeZe0e1e2e3e4e5e6e7e8e9e.e+fafbfcfdfefffgfhfifjfkflfmfnfofpfqfrfsftfufvfwfxfyfzfAfBfCfDfEfFfGfHfIfJfKfLfMfNfOfPfQfRfSfTfUfVfWfXfYfZf0f1f2f3f4f5f6f7f8f9f.f+gagbgcgdgegfggghgigjgkglgmgngogpgqgrgsgtgugvgwgxgygzgAgBgCgDgEgFgGgHgIgJgKgLgMgNgOgPgQgRgSgTgUgVgWgXgYgZg0g1g2g3g4g5g6g7g8g9g.g+hahbhchdhehfhghhhihjhkhlhmhnhohphqhrhshthuhvhwhxhyhzhAhBhChDhEhFhGhHhIhJhKhLhMhNhOhPhQhRhShThUhVhWhXhYhZh0h1h2h3h4h5h6h7h8h9h.h+",
"aaabacadaeafagahaiajakalamanaoapaqarasatauavawaxayazaAaBaCaDaEaFaGaHaIaJaKaLaMaNaOaPaQaRaSaTaUaVaWaXaYaZa0a1a2a3a4a5a6a7a8a9a.a+babbbcbdbebfbgbhbibjbkblbmbnbobpbqbrbsbtbubvbwbxbybzbAbBbCbDbEbFbGbHbIbJbKbLbMbNbObPbQbRbSbTbUbVbWbXbYbZb0b1b2b3b4b5b6b7b8b9b.b+cacbcccdcecfcgchcicjckclcmcncocpcqcrcsctcucvcwcxcyczcAcBcCcDcEcFcGcHcIcJcKcLcMcNcOcPcQcRcScTcUcVcWcXcYcZc0c1c2c3c4c5c6c7c8c9c.c+dadbdcdddedfdgdhdidjdkdldmdndodpdqdrdsdtdudvdwdxdydzdAdBdCdDdEdFdGdHdIdJdKdLdMdNdOdPdQdRdSdTdUdVdWdXdYdZd0d1d2d3d4d5d6d7d8d9d.d+eaebecedeeefegeheiejekelemeneoepeqereseteuevewexeyezeAeBeCeDeEeFeGeHeIeJeKeLeMeNeOePeQeReSeTeUeVeWeXeYeZe0e1e2e3e4e5e6e7e8e9e.e+fafbfcfdfefffgfhfifjfkflfmfnfofpfqfrfsftfufvfwfxfyfzfAfBfCfDfEfFfGfHfIfJfKfLfMfNfOfPfQfRfSfTfUfVfWfXfYfZf0f1f2f3f4f5f6f7f8f9f.f+gagbgcgdgegfggghgigjgkglgmgngogpgqgrgsgtgugvgwgxgygzgAgBgCgDgEgFgGgHgIgJgKgLgMgNgOgPgQgRgSgTgUgVgWgXgYgZg0g1g2g3g4g5g6g7g8g9g.g+hahbhchdhehfhghhhihjhkhlhmhnhohphqhrhshthuhvhwhxhyhzhAhBhChDhEhFhGhHhIhJhKhLhMhNhOhPhQhRhShThUhVhWhXhYhZh0h1h2h3h4h5h6h7h8h9h.h+",
"aaabacadaeafagahaiajakalamanaoapaqarasatauavawaxayazaAaBaCaDaEaFaGaHaIaJaKaLaMaNaOaPaQaRaSaTaUaVaWaXaYaZa0a1a2a3a4a5a6a7a8a9a.a+babbbcbdbebfbgbhbibjbkblbmbnbobpbqbrbsbtbubvbwbxbybzbAbBbCbDbEbFbGbHbIbJbKbLbMbNbObPbQbRbSbTbUbVbWbXbYbZb0b1b2b3b4b5b6b7b8b9b.b+cacbcccdcecfcgchcicjckclcmcncocpcqcrcsctcucvcwcxcyczcAcBcCcDcEcFcGcHcIcJcKcLcMcNcOcPcQcRcScTcUcVcWcXcYcZc0c1c2c3c4c5c6c7c8c9c.c+dadbdcdddedfdgdhdidjdkdldmdndodpdqdrdsdtdudvdwdxdydzdAdBdCdDdEdFdGdHdIdJdKdLdMdNdOdPdQdRdSdTdUdVdWdXdYdZd0d1d2d3d4d5d6d7d8d9d.d+eaebecedeeefegeheiejekelemeneoepeqereseteuevewexeyezeAeBeCeDeEeFeGeHeIeJeKeLeMeNeOePeQeReSeTeUeVeWeXeYeZe0e1e2e3e4e5e6e7e8e9e.e+fafbfcfdfefffgfhfifjfkflfmfnfofpfqfrfsftfufvfwfxfyfzfAfBfCfDfEfFfGfHfIfJfKfLfMfNfOfPfQfRfSfTfUfVfWfXfYfZf0f1f2f3f4f5f6f7f8f9f.f+gagbgcgdgegfggghgigjgkglgmgngogpgqgrgsgtgugvgwgxgygzgAgBgCgDgEgFgGgHgIgJgKgLgMgNgOgPgQgRgSgTgUgVgWgXgYgZg0g1g2g3g4g5g6g7g8g9g.g+hahbhchdhehfhghhhihjhkhlhmhnhohphqhrhshthuhvhwhxhyhzhAhBhChDhEhFhGhHhIhJhKhLhMhNhOhPhQhRhShThUhVhWhXhYhZh0h1h2h3h4h5h6h7h8h9h.h+",
"aaabacadaeafagahaiajakalamanaoapaqarasatauavawaxayazaAaBaCaDaEaFaGaHaIaJaKaLaMaNaOaPaQaRaSaTaUaVaWaXaYaZa0a1a2a3a4a5a6a7a8a9a.a+babbbcbdbebfbgbhbibjbkblbmbnbobpbqbrbsbtbubvbwbxbybzbAbBbCbDbEbFbGbHbIbJbKbLbMbNbObPbQbRbSbTbUbVbWbXbYbZb0b1b2b3b4b5b6b7b8b9b.b+cacbcccdcecfcgchcicjckclcmcncocpcqcrcsctcucvcwcxcyczcAcBcCcDcEcFcGcHcIcJcKcLcMcNcOcPcQcRcScTcUcVcWcXcYcZc0c1c2c3c4c5c6c7c8c9c.c+dadbdcdddedfdgdhdidjdkdldmdndodpdqdrdsdtdudvdwdxdydzdAdBdCdDdEdFdGdHdIdJdKdLdMdNdOdPdQdRdSdTdUdVdWdXdYdZd0d1d2d3d4d5d6d7d8d9d.d+eaebecedeeefegeheiejekelemeneoepeqereseteuevewexeyezeAeBeCeDeEeFeGeHeIeJeKeLeMeNeOePeQeReSeTeUeVeWeXeYeZe0e1e2e3e4e5e6e7e8e9e.e+fafbfcfdfefffgfhfifjfkflfmfnfofpfqfrfsftfufvfwfxfyfzfAfBfCfDfEfFfGfHfIfJfKfLfMfNfOfPfQfRfSfTfUfVfWfXfYfZf0f1f2f3f4f5f6f7f8f9f.f+gagbgcgdgegfggghgigjgkglgmgngogpgqgrgsgtgugvgwgxgygzgAgBgCgDgEgFgGgHgIgJgKgLgMgNgOgPgQgRgSgTgUgVgWgXgYgZg0g1g2g3g4g5g6g7g8g9g.g+hahbhchdhehfhghhhihjhkhlhmhnhohphqhrhshthuhvhwhxhyhzhAhBhChDhEhFhGhHhIhJhKhLhMhNhOhPhQhRhShThUhVhWhXhYhZh0h1h2h3h4h5h6h7h8h9h.h+",
"aaabacadaeafagahaiajakalamanaoapaqarasatauavawaxayazaAaBaCaDaEaFaGaHaIaJaKaLaMaNaOaPaQaRaSaTaUaVaWaXaYaZa0a1a2a3a4a5a6a7a8a9a.a+babbbcbdbebfbgbhbibjbkblbmbnbobpbqbrbsbtbubvbwbxbybzbAbBbCbDbEbFbGbHbIbJbKbLbMbNbObPbQbRbSbTbUbVbWbXbYbZb0b1b2b3b4b5b6b7b8b9b.b+cacbcccdcecfcgchcicjckclcmcncocpcqcrcsctcucvcwcxcyczcAcBcCcDcEcFcGcHcIcJcKcLcMcNcOcPcQcRcScTcUcVcWcXcYcZc0c1c2c3c4c5c6c7c8c9c.c+dadbdcdddedfdgdhdidjdkdldmdndodpdqdrdsdtdudvdwdxdydzdAdBdCdDdEdFdGdHdIdJdKdLdMdNdOdPdQdRdSdTdUdVdWdXdYdZd0d1d2d3d4d5d6d7d8d9d.d+eaebecedeeefegeheiejekelemeneoepeqereseteuevewexeyezeAeBeCeDeEeFeGeHeIeJeKeLeMeNeOePeQeReSeTeUeVeWeXeYeZe0e1e2e3e4e5e6e7e8e9e.e+fafbfcfdfefffgfhfifjfkflfmfnfofpfqfrfsftfufvfwfxfyfzfAfBfCfDfEfFfGfHfIfJfKfLfMfNfOfPfQfRfSfTfUfVfWfXfYfZf0f1f2f3f4f5f6f7f8f9f.f+gagbgcgdgegfggghgigjgkglgmgngogpgqgrgsgtgugvgwgxgygzgAgBgCgDgEgFgGgHgIgJgKgLgMgNgOgPgQgRgSgTgUgVgWgXgYgZg0g1g2g3g4g5g6g7g8g9g.g+hahbhchdhehfhghhhihjhkhlhmhnhohphqhrhshthuhvhwhxhyhzhAhBhChDhEhFhGhHhIhJhKhLhMhNhOhPhQhRhShThUhVhWhXhYhZh0h1h2h3h4h5h6h7h8h9h.h+",
"aaabacadaeafagahaiajakalamanaoapaqarasatauavawaxayazaAaBaCaDaEaFaGaHaIaJaKaLaMaNaOaPaQaRaSaTaUaVaWaXaYaZa0a1a2a3a4a5a6a7a8a9a.a+babbbcbdbebfbgbhbibjbkblbmbnbobpbqbrbsbtbubvbwbxbybzbAbBbCbDbEbFbGbHbIbJbKbLbMbNbObPbQbRbSbTbUbVbWbXbYbZb0b1b2b3b4b5b6b7b8b9b.b+cacbcccdcecfcgchcicjckclcmcncocpcqcrcsctcucvcwcxcyczcAcBcCcDcEcFcGcHcIcJcKcLcMcNcOcPcQcRcScTcUcVcWcXcYcZc0c1c2c3c4c5c6c7c8c9c.c+dadbdcdddedfdgdhdidjdkdldmdndodpdqdrdsdtdudvdwdxdydzdAdBdCdDdEdFdGdHdIdJdKdLdMdNdOdPdQdRdSdTdUdVdWdXdYdZd0d1d2d3d4d5d6d7d8d9d.d+eaebecedeeefegeheiejekelemeneoepeqereseteuevewexeyezeAeBeCeDeEeFeGeHeIeJeKeLeMeNeOePeQeReSeTeUeVeWeXeYeZe0e1e2e3e4e5e6e7e8e9e.e+fafbfcfdfefffgfhfifjfkflfmfnfofpfqfrfsftfufvfwfxfyfzfAfBfCfDfEfFfGfHfIfJfKfLfMfNfOfPfQfRfSfTfUfVfWfXfYfZf0f1f2f3f4f5f6f7f8f9f.f+gagbgcgdgegfggghgigjgkglgmgngogpgqgrgsgtgugvgwgxgygzgAgBgCgDgEgFgGgHgIgJgKgLgMgNgOgPgQgRgSgTgUgVgWgXgYgZg0g1g2g3g4g5g6g7g8g9g.g+hahbhchdhehfhghhhihjhkhlhmhnhohphqhrhshthuhvhwhxhyhzhAhBhChDhEhFhGhHhIhJhKhLhMhNhOhPhQhRhShThUhVhWhXhYhZh0h1h2h3h4h5h6h7h8h9h.h+",
"aaabacadaeafagahaiajakalamanaoapaqarasatauavawaxayazaAaBaCaDaEaFaGaHaIaJaKaLaMaNaOaPaQaRaSaTaUaVaWaXaYaZa0a1a2a3a4a5a6a7a8a9a.a+babbbcbdbebfbgbhbibjbkblbmbnbobpbqbrbsbtbubvbwbxbybzbAbBbCbDbEbFbGbHbIbJbKbLbMbNbObPbQbRbSbTbUbVbWbXbYbZb0b1b2b3b4b5b6b7b8b9b.b+cacbcccdcecfcgchcicjckclcmcncocpcqcrcsctcucvcwcxcyczcAcBcCcDcEcFcGcHcIcJcKcLcMcNcOcPcQcRcScTcUcVcWcXcYcZc0c1c2c3c4c5c6c7c8c9c.c+dadbdcdddedfdgdhdidjdkdldmdndodpdqdrdsdtdudvdwdxdydzdAdBdCdDdEdFdGdHdIdJdKdLdMdNdOdPdQdRdSdTdUdVdWdXdYdZd0d1d2d3d4d5d6d7d8d9d.d+eaebecedeeefegeheiejekelemeneoepeqereseteuevewexeyezeAeBeCeDeEeFeGeHeIeJeKeLeMeNeOePeQeReSeTeUeVeWeXeYeZe0e1e2e3e4e5e6e7e8e9e.e+fafbfcfdfefffgfhfifjfkflfmfnfofpfqfrfsftfufvfwfxfyfzfAfBfCfDfEfFfGfHfIfJfKfLfMfNfOfPfQfRfSfTfUfVfWfXfYfZf0f1f2f3f4f5f6f7f8f9f.f+gagbgcgdgegfggghgigjgkglgmgngogpgqgrgsgtgugvgwgxgygzgAgBgCgDgEgFgGgHgIgJgKgLgMgNgOgPgQgRgSgTgUgVgWgXgYgZg0g1g2g3g4g5g6g7g8g9g.g+hahbhchdhehfhghhhihjhkhlhmhnhohphqhrhshthuhvhwhxhyhzhAhBhChDhEhFhGhHhIhJhKhLhMhNhOhPhQhRhShThUhVhWhXhYhZh0h1h2h3h4h5h6h7h8h9h.h+",
"aaabacadaeafagahaiajakalamanaoapaqarasatauavawaxayazaAaBaCaDaEaFaGaHaIaJaKaLaMaNaOaPaQaRaSaTaUaVaWaXaYaZa0a1a2a3a4a5a6a7a8a9a.a+babbbcbdbebfbgbhbibjbkblbmbnbobpbqbrbsbtbubvbwbxbybzbAbBbCbDbEbFbGbHbIbJbKbLbMbNbObPbQbRbSbTbUbVbWbXbYbZb0b1b2b3b4b5b6b7b8b9b.b+cacbcccdcecfcgchcicjckclcmcncocpcqcrcsctcucvcwcxcyczcAcBcCcDcEcFcGcHcIcJcKcLcMcNcOcPcQcRcScTcUcVcWcXcYcZc0c1c2c3c4c5c6c7c8c9c.c+dadbdcdddedfdgdhdidjdkdldmdndodpdqdrdsdtdudvdwdxdydzdAdBdCdDdEdFdGdHdIdJdKdLdMdNdOdPdQdRdSdTdUdVdWdXdYdZd0d1d2d3d4d5d6d7d8d9d.d+eaebecedeeefegeheiejekelemeneoepeqereseteuevewexeyezeAeBeCeDeEeFeGeHeIeJeKeLeMeNeOePeQeReSeTeUeVeWeXeYeZe0e1e2e3e4e5e6e7e8e9e.e+fafbfcfdfefffgfhfifjfkflfmfnfofpfqfrfsftfufvfwfxfyfzfAfBfCfDfEfFfGfHfIfJfKfLfMfNfOfPfQfRfSfTfUfVfWfXfYfZf0f1f2f3f4f5f6f7f8f9f.f+gagbgcgdgegfggghgigjgkglgmgngogpgqgrgsgtgugvgwgxgygzgAgBgCgDgEgFgGgHgIgJgKgLgMgNgOgPgQgRgSgTgUgVgWgXgYgZg0g1g2g3g4g5g6g7g8g9g.g+hahbhchdhehfhghhhihjhkhlhmhnhohphqhrhshthuhvhwhxhyhzhAhBhChDhEhFhGhHhIhJhKhLhMhNhOhPhQhRhShThUhVhWhXhYhZh0h1h2h3h4h5h6h7h8h9h.h+",
"aaabacadaeafagahaiajakalamanaoapaqarasatauavawaxayazaAaBaCaDaEaFaGaHaIaJaKaLaMaNaOaPaQaRaSaTaUaVaWaXaYaZa0a1a2a3a4a5a6a7a8a9a.a+babbbcbdbebfbgbhbibjbkblbmbnbobpbqbrbsbtbubvbwbxbybzbAbBbCbDbEbFbGbHbIbJbKbLbMbNbObPbQbRbSbTbUbVbWbXbYbZb0b1b2b3b4b5b6b7b8b9b.b+cacbcccdcecfcgchcicjckclcmcncocpcqcrcsctcucvcwcxcyczcAcBcCcDcEcFcGcHcIcJcKcLcMcNcOcPcQcRcScTcUcVcWcXcYcZc0c1c2c3c4c5c6c7c8c9c.c+dadbdcdddedfdgdhdidjdkdldmdndodpdqdrdsdtdudvdwdxdydzdAdBdCdDdEdFdGdHdIdJdKdLdMdNdOdPdQdRdSdTdUdVdWdXdYdZd0d1d2d3d4d5d6d7d8d9d.d+eaebecedeeefegeheiejekelemeneoepeqereseteuevewexeyezeAeBeCeDeEeFeGeHeIeJeKeLeMeNeOePeQeReSeTeUeVeWeXeYeZe0e1e2e3e4e5e6e7e8e9e.e+fafbfcfdfefffgfhfifjfkflfmfnfofpfqfrfsftfufvfwfxfyfzfAfBfCfDfEfFfGfHfIfJfKfLfMfNfOfPfQfRfSfTfUfVfWfXfYfZf0f1f2f3f4f5f6f7f8f9f.f+gagbgcgdgegfggghgigjgkglgmgngogpgqgrgsgtgugvgwgxgygzgAgBgCgDgEgFgGgHgIgJgKgLgMgNgOgPgQgRgSgTgUgVgWgXgYgZg0g1g2g3g4g5g6g7g8g9g.g+hahbhchdhehfhghhhihjhkhlhmhnhohphqhrhshthuhvhwhxhyhzhAhBhChDhEhFhGhHhIhJhKhLhMhNhOhPhQhRhShThUhVhWhXhYhZh0h1h2h3h4h5h6h7h8h9h.h+",
"aaabacadaeafagahaiajakalamanaoapaqarasatauavawaxayazaAaBaCaDaEaFaGaHaIaJaKaLaMaNaOaPaQaRaSaTaUaVaWaXaYaZa0a1a2a3a4a5a6a7a8a9a.a+babbbcbdbebfbgbhbibjbkblbmbnbobpbqbrbsbtbubvbwbxbybzbAbBbCbDbEbFbGbHbIbJbKbLbMbNbObPbQbRbSbTbUbVbWbXbYbZb0b1b2b3b4b5b6b7b8b9b.b+cacbcccdcecfcgchcicjckclcmcncocpcqcrcsctcucvcwcxcyczcAcBcCcDcEcFcGcHcIcJcKcLcMcNcOcPcQcRcScTcUcVcWcXcYcZc0c1c2c3c4c5c6c7c8c9c.c+dadbdcdddedfdgdhdidjdkdldmdndodpdqdrdsdtdudvdwdxdydzdAdBdCdDdEdFdGdHdIdJdKdLdMdNdOdPdQdRdSdTdUdVdWdXdYdZd0d1d2d3d4d5d6d7d8d9d.d+eaebecedeeefegeheiejekelemeneoepeqereseteuevewexeyezeAeBeCeDeEeFeGeHeIeJeKeLeMeNeOePeQeReSeTeUeVeWeXeYeZe0e1e2e3e4e5e6e7e8e9e.e+fafbfcfdfefffgfhfifjfkflfmfnfofpfqfrfsftfufvfwfxfyfzfAfBfCfDfEfFfGfHfIfJfKfLfMfNfOfPfQfRfSfTfUfVfWfXfYfZf0f1f2f3f4f5f6f7f8f9f.f+gagbgcgdgegfggghgigjgkglgmgngogpgqgrgsgtgugvgwgxgygzgAgBgCgDgEgFgGgHgIgJgKgLgMgNgOgPgQgRgSgTgUgVgWgXgYgZg0g1g2g3g4g5g6g7g8g9g.g+hahbhchdhehfhghhhihjhkhlhmhnhohphqhrhshthuhvhwhxhyhzhAhBhChDhEhFhGhHhIhJhKhLhMhNhOhPhQhRhShThUhVhWhXhYhZh0h1h2h3h4h5h6h7h8h9h.h+",
"aaabacadaeafagahaiajakalamanaoapaqarasatauavawaxayazaAaBaCaDaEaFaGaHaIaJaKaLaMaNaOaPaQaRaSaTaUaVaWaXaYaZa0a1a2a3a4a5a6a7a8a9a.a+babbbcbdbebfbgbhbibjbkblbmbnbobpbqbrbsbtbubvbwbxbybzbAbBbCbDbEbFbGbHbIbJbKbLbMbNbObPbQbRbSbTbUbVbWbXbYbZb0b1b2b3b4b5b6b7b8b9b.b+cacbcccdcecfcgchcicjckclcmcncocpcqcrcsctcucvcwcxcyczcAcBcCcDcEcFcGcHcIcJcKcLcMcNcOcPcQcRcScTcUcVcWcXcYcZc0c1c2c3c4c5c6c7c8c9c.c+dadbdcdddedfdgdhdidjdkdldmdndodpdqdrdsdtdudvdwdxdydzdAdBdCdDdEdFdGdHdIdJdKdLdMdNdOdPdQdRdSdTdUdVdWdXdYdZd0d1d2d3d4d5d6d7d8d9d.d+eaebecedeeefegeheiejekelemeneoepeqereseteuevewexeyezeAeBeCeDeEeFeGeHeIeJeKeLeMeNeOePeQeReSeTeUeVeWeXeYeZe0e1e2e3e4e5e6e7e8e9e.e+fafbfcfdfefffgfhfifjfkflfmfnfofpfqfrfsftfufvfwfxfyfzfAfBfCfDfEfFfGfHfIfJfKfLfMfNfOfPfQfRfSfTfUfVfWfXfYfZf0f1f2f3f4f5f6f7f8f9f.f+gagbgcgdgegfggghgigjgkglgmgngogpgqgrgsgtgugvgwgxgygzgAgBgCgDgEgFgGgHgIgJgKgLgMgNgOgPgQgRgSgTgUgVgWgXgYgZg0g1g2g3g4g5g6g7g8g9g.g+hahbhchdhehfhghhhihjhkhlhmhnhohphqhrhshthuhvhwhxhyhzhAhBhChDhEhFhGhHhIhJhKhLhMhNhOhPhQhRhShThUhVhWhXhYhZh0h1h2h3h4h5h6h7h8h9h.h+",
"aaabacadaeafagahaiajakalamanaoapaqarasatauavawaxayazaAaBaCaDaEaFaGaHaIaJaKaLaMaNaOaPaQaRaSaTaUaVaWaXaYaZa0a1a2a3a4a5a6a7a8a9a.a+babbbcbdbebfbgbhbibjbkblbmbnbobpbqbrbsbtbubvbwbxbybzbAbBbCbDbEbFbGbHbIbJbKbLbMbNbObPbQbRbSbTbUbVbWbXbYbZb0b1b2b3b4b5b6b7b8b9b.b+cacbcccdcecfcgchcicjckclcmcncocpcqcrcsctcucvcwcxcyczcAcBcCcDcEcFcGcHcIcJcKcLcMcNcOcPcQcRcScTcUcVcWcXcYcZc0c1c2c3c4c5c6c7c8c9c.c+dadbdcdddedfdgdhdidjdkdldmdndodpdqdrdsdtdudvdwdxdydzdAdBdCdDdEdFdGdHdIdJdKdLdMdNdOdPdQdRdSdTdUdVdWdXdYdZd0d1d2d3d4d5d6d7d8d9d.d+eaebecedeeefegeheiejekelemeneoepeqereseteuevewexeyezeAeBeCeDeEeFeGeHeIeJeKeLeMeNeOePeQeReSeTeUeVeWeXeYeZe0e1e2e3e4e5e6e7e8e9e.e+fafbfcfdfefffgfhfifjfkflfmfnfofpfqfrfsftfufvfwfxfyfzfAfBfCfDfEfFfGfHfIfJfKfLfMfNfOfPfQfRfSfTfUfVfWfXfYfZf0f1f2f3f4f5f6f7f8f9f.f+gagbgcgdgegfggghgigjgkglgmgngogpgqgrgsgtgugvgwgxgygzgAgBgCgDgEgFgGgHgIgJgKgLgMgNgOgPgQgRgSgTgUgVgWgXgYgZg0g1g2g3g4g5g6g7g8g9g.g+hahbhchdhehfhghhhihjhkhlhmhnhohphqhrhshthuhvhwhxhyhzhAhBhChDhEhFhGhHhIhJhKhLhMhNhOhPhQhRhShThUhVhWhXhYhZh0h1h2h3h4h5h6h7h8h9h.h+",
"aaabacadaeafagahaiajakalamanaoapaqarasatauavawaxayazaAaBaCaDaEaFaGaHaIaJaKaLaMaNaOaPaQaRaSaTaUaVaWaXaYaZa0a1a2a3a4a5a6a7a8a9a.a+babbbcbdbebfbgbhbibjbkblbmbnbobpbqbrbsbtbubvbwbxbybzbAbBbCbDbEbFbGbHbIbJbKbLbMbNbObPbQbRbSbTbUbVbWbXbYbZb0b1b2b3b4b5b6b7b8b9b.b+cacbcccdcecfcgchcicjckclcmcncocpcqcrcsctcucvcwcxcyczcAcBcCcDcEcFcGcHcIcJcKcLcMcNcOcPcQcRcScTcUcVcWcXcYcZc0c1c2c3c4c5c6c7c8c9c.c+dadbdcdddedfdgdhdidjdkdldmdndodpdqdrdsdtdudvdwdxdydzdAdBdCdDdEdFdGdHdIdJdKdLdMdNdOdPdQdRdSdTdUdVdWdXdYdZd0d1d2d3d4d5d6d7d8d9d.d+eaebecedeeefegeheiejekelemeneoepeqereseteuevewexeyezeAeBeCeDeEeFeGeHeIeJeKeLeMeNeOePeQeReSeTeUeVeWeXeYeZe0e1e2e3e4e5e6e7e8e9e.e+fafbfcfdfefffgfhfifjfkflfmfnfofpfqfrfsftfufvfwfxfyfzfAfBfCfDfEfFfGfHfIfJfKfLfMfNfOfPfQfRfSfTfUfVfWfXfYfZf0f1f2f3f4f5f6f7f8f9f.f+gagbgcgdgegfggghgigjgkglgmgngogpgqgrgsgtgugvgwgxgygzgAgBgCgDgEgFgGgHgIgJgKgLgMgNgOgPgQgRgSgTgUgVgWgXgYgZg0g1g2g3g4g5g6g7g8g9g.g+hahbhchdhehfhghhhihjhkhlhmhnhohphqhrhshthuhvhwhxhyhzhAhBhChDhEhFhGhHhIhJhKhLhMhNhOhPhQhRhShThUhVhWhXhYhZh0h1h2h3h4h5h6h7h8h9h.h+",
"aaabacadaeafagahaiajakalamanaoapaqarasatauavawaxayazaAaBaCaDaEaFaGaHaIaJaKaLaMaNaOaPaQaRaSaTaUaVaWaXaYaZa0a1a2a3a4a5a6a7a8a9a.a+babbbcbdbebfbgbhbibjbkblbmbnbobpbqbrbsbtbubvbwbxbybzbAbBbCbDbEbFbGbHbIbJbKbLbMbNbObPbQbRbSbTbUbVbWbXbYbZb0b1b2b3b4b5b6b7b8b9b.b+cacbcccdcecfcgchcicjckclcmcncocpcqcrcsctcucvcwcxcyczcAcBcCcDcEcFcGcHcIcJcKcLcMcNcOcPcQcRcScTcUcVcWcXcYcZc0c1c2c3c4c5c6c7c8c9c.c+dadbdcdddedfdgdhdidjdkdldmdndodpdqdrdsdtdudvdwdxdydzdAdBdCdDdEdFdGdHdIdJdKdLdMdNdOdPdQdRdSdTdUdVdWdXdYdZd0d1d2d3d4d5d6d7d8d9d.d+eaebecedeeefegeheiejekelemeneoepeqereseteuevewexeyezeAeBeCeDeEeFeGeHeIeJeKeLeMeNeOePeQeReSeTeUeVeWeXeYeZe0e1e2e3e4e5e6e7e8e9e.e+fafbfcfdfefffgfhfifjfkflfmfnfofpfqfrfsftfufvfwfxfyfzfAfBfCfDfEfFfGfHfIfJfKfLfMfNfOfPfQfRfSfTfUfVfWfXfYfZf0f1f2f3f4f5f6f7f8f9f.f+gagbgcgdgegfggghgigjgkglgmgngogpgqgrgsgtgugvgwgxgygzgAgBgCgDgEgFgGgHgIgJgKgLgMgNgOgPgQgRgSgTgUgVgWgXgYgZg0g1g2g3g4g5g6g7g8g9g.g+hahbhchdhehfhghhhihjhkhlhmhnhohphqhrhshthuhvhwhxhyhzhAhBhChDhEhFhGhHhIhJhKhLhMhNhOhPhQhRhShThUhVhWhXhYhZh0h1h2h3h4h5h6h7h8h9h.h+",
"aaabacadaeafagahaiajakalamanaoapaqarasatauavawaxayazaAaBaCaDaEaFaGaHaIaJaKaLaMaNaOaPaQaRaSaTaUaVaWaXaYaZa0a1a2a3a4a5a6a7a8a9a.a+babbbcbdbebfbgbhbibjbkblbmbnbobpbqbrbsbtbubvbwbxbybzbAbBbCbDbEbFbGbHbIbJbKbLbMbNbObPbQbRbSbTbUbVbWbXbYbZb0b1b2b3b4b5b6b7b8b9b.b+cacbcccdcecfcgchcicjckclcmcncocpcqcrcsctcucvcwcxcyczcAcBcCcDcEcFcGcHcIcJcKcLcMcNcOcPcQcRcScTcUcVcWcXcYcZc0c1c2c3c4c5c6c7c8c9c.c+dadbdcdddedfdgdhdidjdkdldmdndodpdqdrdsdtdudvdwdxdydzdAdBdCdDdEdFdGdHdIdJdKdLdMdNdOdPdQdRdSdTdUdVdWdXdYdZd0d1d2d3d4d5d6d7d8d9d.d+eaebecedeeefegeheiejekelemeneoepeqereseteuevewexeyezeAeBeCeDeEeFeGeHeIeJeKeLeMeNeOePeQeReSeTeUeVeWeXeYeZe0e1e2e3e4e5e6e7e8e9e.e+fafbfcfdfefffgfhfifjfkflfmfnfofpfqfrfsftfufvfwfxfyfzfAfBfCfDfEfFfGfHfIfJfKfLfMfNfOfPfQfRfSfTfUfVfWfXfYfZf0f1f2f3f4f5f6f7f8f9f.f+gagbgcgdgegfggghgigjgkglgmgngogpgqgrgsgtgugvgwgxgygzgAgBgCgDgEgFgGgHgIgJgKgLgMgNgOgPgQgRgSgTgUgVgWgXgYgZg0g1g2g3g4g5g6g7g8g9g.g+hahbhchdhehfhghhhihjhkhlhmhnhohphqhrhshthuhvhwhxhyhzhAhBhChDhEhFhGhHhIhJhKhLhMhNhOhPhQhRhShThUhVhWhXhYhZh0h1h2h3h4h5h6h7h8h9h.h+",
"aaabacadaeafagahaiajakalamanaoapaqarasatauavawaxayazaAaBaCaDaEaFaGaHaIaJaKaLaMaNaOaPaQaRaSaTaUaVaWaXaYaZa0a1a2a3a4a5a6a7a8a9a.a+babbbcbdbebfbgbhbibjbkblbmbnbobpbqbrbsbtbubvbwbxbybzbAbBbCbDbEbFbGbHbIbJbKbLbMbNbObPbQbRbSbTbUbVbWbXbYbZb0b1b2b3b4b5b6b7b8b9b.b+cacbcccdcecfcgchcicjckclcmcncocpcqcrcsctcucvcwcxcyczcAcBcCcDcEcFcGcHcIcJcKcLcMcNcOcPcQcRcScTcUcVcWcXcYcZc0c1c2c3c4c5c6c7c8c9c.c+dadbdcdddedfdgdhdidjdkdldmdndodpdqdrdsdtdudvdwdxdydzdAdBdCdDdEdFdGdHdIdJdKdLdMdNdOdPdQdRdSdTdUdVdWdXdYdZd0d1d2d3d4d5d6d7d8d9d.d+eaebecedeeefegeheiejekelemeneoepeqereseteuevewexeyezeAeBeCeDeEeFeGeHeIeJeKeLeMeNeOePeQeReSeTeUeVeWeXeYeZe0e1e2e3e4e5e6e7e8e9e.e+fafbfcfdfefffgfhfifjfkflfmfnfofpfqfrfsftfufvfwfxfyfzfAfBfCfDfEfFfGfHfIfJfKfLfMfNfOfPfQfRfSfTfUfVfWfXfYfZf0f1f2f3f4f5f6f7f8f9f.f+gagbgcgdgegfggghgigjgkglgmgngogpgqgrgsgtgugvgwgxgygzgAgBgCgDgEgFgGgHgIgJgKgLgMgNgOgPgQgRgSgTgUgVgWgXgYgZg0g1g2g3g4g5g6g7g8g9g.g+hahbhchdhehfhghhhihjhkhlhmhnhohphqhrhshthuhvhwhxhyhzhAhBhChDhEhFhGhHhIhJhKhLhMhNhOhPhQhRhShThUhVhWhXhYhZh0h1h2h3h4h5h6h7h8h9h.h+",
"aaabacadaeafagahaiajakalamanaoapaqarasatauavawaxayazaAaBaCaDaEaFaGaHaIaJaKaLaMaNaOaPaQaRaSaTaUaVaWaXaYaZa0a1a2a3a4a5a6a7a8a9a.a+babbbcbdbebfbgbhbibjbkblbmbnbobpbqbrbsbtbubvbwbxbybzbAbBbCbDbEbFbGbHbIbJbKbLbMbNbObPbQbRbSbTbUbVbWbXbYbZb0b1b2b3b4b5b6b7b8b9b.b+cacbcccdcecfcgchcicjckclcmcncocpcqcrcsctcucvcwcxcyczcAcBcCcDcEcFcGcHcIcJcKcLcMcNcOcPcQcRcScTcUcVcWcXcYcZc0c1c2c3c4c5c6c7c8c9c.c+dadbdcdddedfdgdhdidjdkdldmdndodpdqdrdsdtdudvdwdxdydzdAdBdCdDdEdFdGdHdIdJdKdLdMdNdOdPdQdRdSdTdUdVdWdXdYdZd0d1d2d3d4d5d6d7d8d9d.d+eaebecedeeefegeheiejekelemeneoepeqereseteuevewexeyezeAeBeCeDeEeFeGeHeIeJeKeLeMeNeOePeQeReSeTeUeVeWeXeYeZe0e1e2e3e4e5e6e7e8e9e.e+fafbfcfdfefffgfhfifjfkflfmfnfofpfqfrfsftfufvfwfxfyfzfAfBfCfDfEfFfGfHfIfJfKfLfMfNfOfPfQfRfSfTfUfVfWfXfYfZf0f1f2f3f4f5f6f7f8f9f.f+gagbgcgdgegfggghgigjgkglgmgngogpgqgrgsgtgugvgwgxgygzgAgBgCgDgEgFgGgHgIgJgKgLgMgNgOgPgQgRgSgTgUgVgWgXgYgZg0g1g2g3g4g5g6g7g8g9g.g+hahbhchdhehfhghhhihjhkhlhmhnhohphqhrhshthuhvhwhxhyhzhAhBhChDhEhFhGhHhIhJhKhLhMhNhOhPhQhRhShThUhVhWhXhYhZh0h1h2h3h4h5h6h7h8h9h.h+",
"aaabacadaeafagahaiajakalamanaoapaqarasatauavawaxayazaAaBaCaDaEaFaGaHaIaJaKaLaMaNaOaPaQaRaSaTaUaVaWaXaYaZa0a1a2a3a4a5a6a7a8a9a.a+babbbcbdbebfbgbhbibjbkblbmbnbobpbqbrbsbtbubvbwbxbybzbAbBbCbDbEbFbGbHbIbJbKbLbMbNbObPbQbRbSbTbUbVbWbXbYbZb0b1b2b3b4b5b6b7b8b9b.b+cacbcccdcecfcgchcicjckclcmcncocpcqcrcsctcucvcwcxcyczcAcBcCcDcEcFcGcHcIcJcKcLcMcNcOcPcQcRcScTcUcVcWcXcYcZc0c1c2c3c4c5c6c7c8c9c.c+dadbdcdddedfdgdhdidjdkdldmdndodpdqdrdsdtdudvdwdxdydzdAdBdCdDdEdFdGdHdIdJdKdLdMdNdOdPdQdRdSdTdUdVdWdXdYdZd0d1d2d3d4d5d6d7d8d9d.d+eaebecedeeefegeheiejekelemeneoepeqereseteuevewexeyezeAeBeCeDeEeFeGeHeIeJeKeLeMeNeOePeQeReSeTeUeVeWeXeYeZe0e1e2e3e4e5e6e7e8e9e.e+fafbfcfdfefffgfhfifjfkflfmfnfofpfqfrfsftfufvfwfxfyfzfAfBfCfDfEfFfGfHfIfJfKfLfMfNfOfPfQfRfSfTfUfVfWfXfYfZf0f1f2f3f4f5f6f7f8f9f.f+gagbgcgdgegfggghgigjgkglgmgngogpgqgrgsgtgugvgwgxgygzgAgBgCgDgEgFgGgHgIgJgKgLgMgNgOgPgQgRgSgTgUgVgWgXgYgZg0g1g2g3g4g5g6g7g8g9g.g+hahbhchdhehfhghhhihjhkhlhmhnhohphqhrhshthuhvhwhxhyhzhAhBhChDhEhFhGhHhIhJhKhLhMhNhOhPhQhRhShThUhVhWhXhYhZh0h1h2h3h4h5h6h7h8h9h.h+",
"aaabacadaeafagahaiajakalamanaoapaqarasatauavawaxayazaAaBaCaDaEaFaGaHaIaJaKaLaMaNaOaPaQaRaSaTaUaVaWaXaYaZa0a1a2a3a4a5a6a7a8a9a.a+babbbcbdbebfbgbhbibjbkblbmbnbobpbqbrbsbtbubvbwbxbybzbAbBbCbDbEbFbGbHbIbJbKbLbMbNbObPbQbRbSbTbUbVbWbXbYbZb0b1b2b3b4b5b6b7b8b9b.b+cacbcccdcecfcgchcicjckclcmcncocpcqcrcsctcucvcwcxcyczcAcBcCcDcEcFcGcHcIcJcKcLcMcNcOcPcQcRcScTcUcVcWcXcYcZc0c1c2c3c4c5c6c7c8c9c.c+dadbdcdddedfdgdhdidjdkdldmdndodpdqdrdsdtdudvdwdxdydzdAdBdCdDdEdFdGdHdIdJdKdLdMdNdOdPdQdRdSdTdUdVdWdXdYdZd0d1d2d3d4d5d6d7d8d9d.d+eaebecedeeefegeheiejekelemeneoepeqereseteuevewexeyezeAeBeCeDeEeFeGeHeIeJeKeLeMeNeOePeQeReSeTeUeVeWeXeYeZe0e1e2e3e4e5e6e7e8e9e.e+fafbfcfdfefffgfhfifjfkflfmfnfofpfqfrfsftfufvfwfxfyfzfAfBfCfDfEfFfGfHfIfJfKfLfMfNfOfPfQfRfSfTfUfVfWfXfYfZf0f1f2f3f4f5f6f7f8f9f.f+gagbgcgdgegfggghgigjgkglgmgngogpgqgrgsgtgugvgwgxgygzgAgBgCgDgEgFgGgHgIgJgKgLgMgNgOgPgQgRgSgTgUgVgWgXgYgZg0g1g2g3g4g5g6g7g8g9g.g+hahbhchdhehfhghhhihjhkhlhmhnhohphqhrhshthuhvhwhxhyhzhAhBhChDhEhFhGhHhIhJhKhLhMhNhOhPhQhRhShThUhVhWhXhYhZh0h1h2h3h4h5h6h7h8h9h.h+",
"aaabacadaeafagahaiajakalamanaoapaqarasatauavawaxayazaAaBaCaDaEaFaGaHaIaJaKaLaMaNaOaPaQaRaSaTaUaVaWaXaYaZa0a1a2a3a4a5a6a7a8a9a.a+babbbcbdbebfbgbhbibjbkblbmbnbobpbqbrbsbtbubvbwbxbybzbAbBbCbDbEbFbGbHbIbJbKbLbMbNbObPbQbRbSbTbUbVbWbXbYbZb0b1b2b3b4b5b6b7b8b9b.b+cacbcccdcecfcgchcicjckclcmcncocpcqcrcsctcucvcwcxcyczcAcBcCcDcEcFcGcHcIcJcKcLcMcNcOcPcQcRcScTcUcVcWcXcYcZc0c1c2c3c4c5c6c7c8c9c.c+dadbdcdddedfdgdhdidjdkdldmdndodpdqdrdsdtdudvdwdxdydzdAdBdCdDdEdFdGdHdIdJdKdLdMdNdOdPdQdRdSdTdUdVdWdXdYdZd0d1d2d3d4d5d6d7d8d9d.d+eaebecedeeefegeheiejekelemeneoepeqereseteuevewexeyezeAeBeCeDeEeFeGeHeIeJeKeLeMeNeOePeQeReSeTeUeVeWeXeYeZe0e1e2e3e4e5e6e7e8e9e.e+fafbfcfdfefffgfhfifjfkflfmfnfofpfqfrfsftfufvfwfxfyfzfAfBfCfDfEfFfGfHfIfJfKfLfMfNfOfPfQfRfSfTfUfVfWfXfYfZf0f1f2f3f4f5f6f7f8f9f.f+gagbgcgdgegfggghgigjgkglgmgngogpgqgrgsgtgugvgwgxgygzgAgBgCgDgEgFgGgHgIgJgKgLgMgNgOgPgQgRgSgTgUgVgWgXgYgZg0g1g2g3g4g5g6g7g8g9g.g+hahbhchdhehfhghhhihjhkhlhmhnhohphqhrhshthuhvhwhxhyhzhAhBhChDhEhFhGhHhIhJhKhLhMhNhOhPhQhRhShThUhVhWhXhYhZh0h1h2h3h4h5h6h7h8h9h.h+",
"aaabacadaeafagahaiajakalamanaoapaqarasatauavawaxayazaAaBaCaDaEaFaGaHaIaJaKaLaMaNaOaPaQaRaSaTaUaVaWaXaYaZa0a1a2a3a4a5a6a7a8a9a.a+babbbcbdbebfbgbhbibjbkblbmbnbobpbqbrbsbtbubvbwbxbybzbAbBbCbDbEbFbGbHbIbJbKbLbMbNbObPbQbRbSbTbUbVbWbXbYbZb0b1b2b3b4b5b6b7b8b9b.b+cacbcccdcecfcgchcicjckclcmcncocpcqcrcsctcucvcwcxcyczcAcBcCcDcEcFcGcHcIcJcKcLcMcNcOcPcQcRcScTcUcVcWcXcYcZc0c1c2c3c4c5c6c7c8c9c.c+dadbdcdddedfdgdhdidjdkdldmdndodpdqdrdsdtdudvdwdxdydzdAdBdCdDdEdFdGdHdIdJdKdLdMdNdOdPdQdRdSdTdUdVdWdXdYdZd0d1d2d3d4d5d6d7d8d9d.d+eaebecedeeefegeheiejekelemeneoepeqereseteuevewexeyezeAeBeCeDeEeFeGeHeIeJeKeLeMeNeOePeQeReSeTeUeVeWeXeYeZe0e1e2e3e4e5e6e7e8e9e.e+fafbfcfdfefffgfhfifjfkflfmfnfofpfqfrfsftfufvfwfxfyfzfAfBfCfDfEfFfGfHfIfJfKfLfMfNfOfPfQfRfSfTfUfVfWfXfYfZf0f1f2f3f4f5f6f7f8f9f.f+gagbgcgdgegfggghgigjgkglgmgngogpgqgrgsgtgugvgwgxgygzgAgBgCgDgEgFgGgHgIgJgKgLgMgNgOgPgQgRgSgTgUgVgWgXgYgZg0g1g2g3g4g5g6g7g8g9g.g+hahbhchdhehfhghhhihjhkhlhmhnhohphqhrhshthuhvhwhxhyhzhAhBhChDhEhFhGhHhIhJhKhLhMhNhOhPhQhRhShThUhVhWhXhYhZh0h1h2h3h4h5h6h7h8h9h.h+",
"aaabacadaeafagahaiajakalamanaoapaqarasatauavawaxayazaAaBaCaDaEaFaGaHaIaJaKaLaMaNaOaPaQaRaSaTaUaVaWaXaYaZa0a1a2a3a4a5a6a7a8a9a.a+babbbcbdbebfbgbhbibjbkblbmbnbobpbqbrbsbtbubvbwbxbybzbAbBbCbDbEbFbGbHbIbJbKbLbMbNbObPbQbRbSbTbUbVbWbXbYbZb0b1b2b3b4b5b6b7b8b9b.b+cacbcccdcecfcgchcicjckclcmcncocpcqcrcsctcucvcwcxcyczcAcBcCcDcEcFcGcHcIcJcKcLcMcNcOcPcQcRcScTcUcVcWcXcYcZc0c1c2c3c4c5c6c7c8c9c.c+dadbdcdddedfdgdhdidjdkdldmdndodpdqdrdsdtdudvdwdxdydzdAdBdCdDdEdFdGdHdIdJdKdLdMdNdOdPdQdRdSdTdUdVdWdXdYdZd0d1d2d3d4d5d6d7d8d9d.d+eaebecedeeefegeheiejekelemeneoepeqereseteuevewexeyezeAeBeCeDeEeFeGeHeIeJeKeLeMeNeOePeQeReSeTeUeVeWeXeYeZe0e1e2e3e4e5e6e7e8e9e.e+fafbfcfdfefffgfhfifjfkflfmfnfofpfqfrfsftfufvfwfxfyfzfAfBfCfDfEfFfGfHfIfJfKfLfMfNfOfPfQfRfSfTfUfVfWfXfYfZf0f1f2f3f4f5f6f7f8f9f.f+gagbgcgdgegfggghgigjgkglgmgngogpgqgrgsgtgugvgwgxgygzgAgBgCgDgEgFgGgHgIgJgKgLgMgNgOgPgQgRgSgTgUgVgWgXgYgZg0g1g2g3g4g5g6g7g8g9g.g+hahbhchdhehfhghhhihjhkhlhmhnhohphqhrhshthuhvhwhxhyhzhAhBhChDhEhFhGhHhIhJhKhLhMhNhOhPhQhRhShThUhVhWhXhYhZh0h1h2h3h4h5h6h7h8h9h.h+",
"aaabacadaeafagahaiajakalamanaoapaqarasatauavawaxayazaAaBaCaDaEaFaGaHaIaJaKaLaMaNaOaPaQaRaSaTaUaVaWaXaYaZa0a1a2a3a4a5a6a7a8a9a.a+babbbcbdbebfbgbhbibjbkblbmbnbobpbqbrbsbtbubvbwbxbybzbAbBbCbDbEbFbGbHbIbJbKbLbMbNbObPbQbRbSbTbUbVbWbXbYbZb0b1b2b3b4b5b6b7b8b9b.b+cacbcccdcecfcgchcicjckclcmcncocpcqcrcsctcucvcwcxcyczcAcBcCcDcEcFcGcHcIcJcKcLcMcNcOcPcQcRcScTcUcVcWcXcYcZc0c1c2c3c4c5c6c7c8c9c.c+dadbdcdddedfdgdhdidjdkdldmdndodpdqdrdsdtdudvdwdxdydzdAdBdCdDdEdFdGdHdIdJdKdLdMdNdOdPdQdRdSdTdUdVdWdXdYdZd0d1d2d3d4d5d6d7d8d9d.d+eaebecedeeefegeheiejekelemeneoepeqereseteuevewexeyezeAeBeCeDeEeFeGeHeIeJeKeLeMeNeOePeQeReSeTeUeVeWeXeYeZe0e1e2e3e4e5e6e7e8e9e.e+fafbfcfdfefffgfhfifjfkflfmfnfofpfqfrfsftfufvfwfxfyfzfAfBfCfDfEfFfGfHfIfJfKfLfMfNfOfPfQfRfSfTfUfVfWfXfYfZf0f1f2f3f4f5f6f7f8f9f.f+gagbgcgdgegfggghgigjgkglgmgngogpgqgrgsgtgugvgwgxgygzgAgBgCgDgEgFgGgHgIgJgKgLgMgNgOgPgQgRgSgTgUgVgWgXgYgZg0g1g2g3g4g5g6g7g8g9g.g+hahbhchdhehfhghhhihjhkhlhmhnhohphqhrhshthuhvhwhxhyhzhAhBhChDhEhFhGhHhIhJhKhLhMhNhOhPhQhRhShThUhVhWhXhYhZh0h1h2h3h4h5h6h7h8h9h.h+",
"aaabacadaeafagahaiajakalamanaoapaqarasatauavawaxayazaAaBaCaDaEaFaGaHaIaJaKaLaMaNaOaPaQaRaSaTaUaVaWaXaYaZa0a1a2a3a4a5a6a7a8a9a.a+babbbcbdbebfbgbhbibjbkblbmbnbobpbqbrbsbtbubvbwbxbybzbAbBbCbDbEbFbGbHbIbJbKbLbMbNbObPbQbRbSbTbUbVbWbXbYbZb0b1b2b3b4b5b6b7b8b9b.b+cacbcccdcecfcgchcicjckclcmcncocpcqcrcsctcucvcwcxcyczcAcBcCcDcEcFcGcHcIcJcKcLcMcNcOcPcQcRcScTcUcVcWcXcYcZc0c1c2c3c4c5c6c7c8c9c.c+dadbdcdddedfdgdhdidjdkdldmdndodpdqdrdsdtdudvdwdxdydzdAdBdCdDdEdFdGdHdIdJdKdLdMdNdOdPdQdRdSdTdUdVdWdXdYdZd0d1d2d3d4d5d6d7d8d9d.d+eaebecedeeefegeheiejekelemeneoepeqereseteuevewexeyezeAeBeCeDeEeFeGeHeIeJeKeLeMeNeOePeQeReSeTeUeVeWeXeYeZe0e1e2e3e4e5e6e7e8e9e.e+fafbfcfdfefffgfhfifjfkflfmfnfofpfqfrfsftfufvfwfxfyfzfAfBfCfDfEfFfGfHfIfJfKfLfMfNfOfPfQfRfSfTfUfVfWfXfYfZf0f1f2f3f4f5f6f7f8f9f.f+gagbgcgdgegfggghgigjgkglgmgngogpgqgrgsgtgugvgwgxgygzgAgBgCgDgEgFgGgHgIgJgKgLgMgNgOgPgQgRgSgTgUgVgWgXgYgZg0g1g2g3g4g5g6g7g8g9g.g+hahbhchdhehfhghhhihjhkhlhmhnhohphqhrhshthuhvhwhxhyhzhAhBhChDhEhFhGhHhIhJhKhLhMhNhOhPhQhRhShThUhVhWhXhYhZh0h1h2h3h4h5h6h7h8h9h.h+",
"aaabacadaeafagahaiajakalamanaoapaqarasatauavawaxayazaAaBaCaDaEaFaGaHaIaJaKaLaMaNaOaPaQaRaSaTaUaVaWaXaYaZa0a1a2a3a4a5a6a7a8a9a.a+babbbcbdbebfbgbhbibjbkblbmbnbobpbqbrbsbtbubvbwbxbybzbAbBbCbDbEbFbGbHbIbJbKbLbMbNbObPbQbRbSbTbUbVbWbXbYbZb0b1b2b3b4b5b6b7b8b9b.b+cacbcccdcecfcgchcicjckclcmcncocpcqcrcsctcucvcwcxcyczcAcBcCcDcEcFcGcHcIcJcKcLcMcNcOcPcQcRcScTcUcVcWcXcYcZc0c1c2c3c4c5c6c7c8c9c.c+dadbdcdddedfdgdhdidjdkdldmdndodpdqdrdsdtdudvdwdxdydzdAdBdCdDdEdFdGdHdIdJdKdLdMdNdOdPdQdRdSdTdUdVdWdXdYdZd0d1d2d3d4d5d6d7d8d9d.d+eaebecedeeefegeheiejekelemeneoepeqereseteuevewexeyezeAeBeCeDeEeFeGeHeIeJeKeLeMeNeOePeQeReSeTeUeVeWeXeYeZe0e1e2e3e4e5e6e7e8e9e.e+fafbfcfdfefffgfhfifjfkflfmfnfofpfqfrfsftfufvfwfxfyfzfAfBfCfDfEfFfGfHfIfJfKfLfMfNfOfPfQfRfSfTfUfVfWfXfYfZf0f1f2f3f4f5f6f7f8f9f.f+gagbgcgdgegfggghgigjgkglgmgngogpgqgrgsgtgugvgwgxgygzgAgBgCgDgEgFgGgHgIgJgKgLgMgNgOgPgQgRgSgTgUgVgWgXgYgZg0g1g2g3g4g5g6g7g8g9g.g+hahbhchdhehfhghhhihjhkhlhmhnhohphqhrhshthuhvhwhxhyhzhAhBhChDhEhFhGhHhIhJhKhLhMhNhOhPhQhRhShThUhVhWhXhYhZh0h1h2h3h4h5h6h7h8h9h.h+",
"aaabacadaeafagahaiajakalamanaoapaqarasatauavawaxayazaAaBaCaDaEaFaGaHaIaJaKaLaMaNaOaPaQaRaSaTaUaVaWaXaYaZa0a1a2a3a4a5a6a7a8a9a.a+babbbcbdbebfbgbhbibjbkblbmbnbobpbqbrbsbtbubvbwbxbybzbAbBbCbDbEbFbGbHbIbJbKbLbMbNbObPbQbRbSbTbUbVbWbXbYbZb0b1b2b3b4b5b6b7b8b9b.b+cacbcccdcecfcgchcicjckclcmcncocpcqcrcsctcucvcwcxcyczcAcBcCcDcEcFcGcHcIcJcKcLcMcNcOcPcQcRcScTcUcVcWcXcYcZc0c1c2c3c4c5c6c7c8c9c.c+dadbdcdddedfdgdhdidjdkdldmdndodpdqdrdsdtdudvdwdxdydzdAdBdCdDdEdFdGdHdIdJdKdLdMdNdOdPdQdRdSdTdUdVdWdXdYdZd0d1d2d3d4d5d6d7d8d9d.d+eaebecedeeefegeheiejekelemeneoepeqereseteuevewexeyezeAeBeCeDeEeFeGeHeIeJeKeLeMeNeOePeQeReSeTeUeVeWeXeYeZe0e1e2e3e4e5e6e7e8e9e.e+fafbfcfdfefffgfhfifjfkflfmfnfofpfqfrfsftfufvfwfxfyfzfAfBfCfDfEfFfGfHfIfJfKfLfMfNfOfPfQfRfSfTfUfVfWfXfYfZf0f1f2f3f4f5f6f7f8f9f.f+gagbgcgdgegfggghgigjgkglgmgngogpgqgrgsgtgugvgwgxgygzgAgBgCgDgEgFgGgHgIgJgKgLgMgNgOgPgQgRgSgTgUgVgWgXgYgZg0g1g2g3g4g5g6g7g8g9g.g+hahbhchdhehfhghhhihjhkhlhmhnhohphqhrhshthuhvhwhxhyhzhAhBhChDhEhFhGhHhIhJhKhLhMhNhOhPhQhRhShThUhVhWhXhYhZh0h1h2h3h4h5h6h7h8h9h.h+",
"aaabacadaeafagahaiajakalamanaoapaqarasatauavawaxayazaAaBaCaDaEaFaGaHaIaJaKaLaMaNaOaPaQaRaSaTaUaVaWaXaYaZa0a1a2a3a4a5a6a7a8a9a.a+babbbcbdbebfbgbhbibjbkblbmbnbobpbqbrbsbtbubvbwbxbybzbAbBbCbDbEbFbGbHbIbJbKbLbMbNbObPbQbRbSbTbUbVbWbXbYbZb0b1b2b3b4b5b6b7b8b9b.b+cacbcccdcecfcgchcicjckclcmcncocpcqcrcsctcucvcwcxcyczcAcBcCcDcEcFcGcHcIcJcKcLcMcNcOcPcQcRcScTcUcVcWcXcYcZc0c1c2c3c4c5c6c7c8c9c.c+dadbdcdddedfdgdhdidjdkdldmdndodpdqdrdsdtdudvdwdxdydzdAdBdCdDdEdFdGdHdIdJdKdLdMdNdOdPdQdRdSdTdUdVdWdXdYdZd0d1d2d3d4d5d6d7d8d9d.d+eaebecedeeefegeheiejekelemeneoepeqereseteuevewexeyezeAeBeCeDeEeFeGeHeIeJeKeLeMeNeOePeQeReSeTeUeVeWeXeYeZe0e1e2e3e4e5e6e7e8e9e.e+fafbfcfdfefffgfhfifjfkflfmfnfofpfqfrfsftfufvfwfxfyfzfAfBfCfDfEfFfGfHfIfJfKfLfMfNfOfPfQfRfSfTfUfVfWfXfYfZf0f1f2f3f4f5f6f7f8f9f.f+gagbgcgdgegfggghgigjgkglgmgngogpgqgrgsgtgugvgwgxgygzgAgBgCgDgEgFgGgHgIgJgKgLgMgNgOgPgQgRgSgTgUgVgWgXgYgZg0g1g2g3g4g5g6g7g8g9g.g+hahbhchdhehfhghhhihjhkhlhmhnhohphqhrhshthuhvhwhxhyhzhAhBhChDhEhFhGhHhIhJhKhLhMhNhOhPhQhRhShThUhVhWhXhYhZh0h1h2h3h4h5h6h7h8h9h.h+",
"aaabacadaeafagahaiajakalamanaoapaqarasatauavawaxayazaAaBaCaDaEaFaGaHaIaJaKaLaMaNaOaPaQaRaSaTaUaVaWaXaYaZa0a1a2a3a4a5a6a7a8a9a.a+babbbcbdbebfbgbhbibjbkblbmbnbobpbqbrbsbtbubvbwbxbybzbAbBbCbDbEbFbGbHbIbJbKbLbMbNbObPbQbRbSbTbUbVbWbXbYbZb0b1b2b3b4b5b6b7b8b9b.b+cacbcccdcecfcgchcicjckclcmcncocpcqcrcsctcucvcwcxcyczcAcBcCcDcEcFcGcHcIcJcKcLcMcNcOcPcQcRcScTcUcVcWcXcYcZc0c1c2c3c4c5c6c7c8c9c.c+dadbdcdddedfdgdhdidjdkdldmdndodpdqdrdsdtdudvdwdxdydzdAdBdCdDdEdFdGdHdIdJdKdLdMdNdOdPdQdRdSdTdUdVdWdXdYdZd0d1d2d3d4d5d6d7d8d9d.d+eaebecedeeefegeheiejekelemeneoepeqereseteuevewexeyezeAeBeCeDeEeFeGeHeIeJeKeLeMeNeOePeQeReSeTeUeVeWeXeYeZe0e1e2e3e4e5e6e7e8e9e.e+fafbfcfdfefffgfhfifjfkflfmfnfofpfqfrfsftfufvfwfxfyfzfAfBfCfDfEfFfGfHfIfJfKfLfMfNfOfPfQfRfSfTfUfVfWfXfYfZf0f1f2f3f4f5f6f7f8f9f.f+gagbgcgdgegfggghgigjgkglgmgngogpgqgrgsgtgugvgwgxgygzgAgBgCgDgEgFgGgHgIgJgKgLgMgNgOgPgQgRgSgTgUgVgWgXgYgZg0g1g2g3g4g5g6g7g8g9g.g+hahbhchdhehfhghhhihjhkhlhmhnhohphqhrhshthuhvhwhxhyhzhAhBhChDhEhFhGhHhIhJhKhLhMhNhOhPhQhRhShThUhVhWhXhYhZh0h1h2h3h4h5h6h7h8h9h.h+",
"aaabacadaeafagahaiajakalamanaoapaqarasatauavawaxayazaAaBaCaDaEaFaGaHaIaJaKaLaMaNaOaPaQaRaSaTaUaVaWaXaYaZa0a1a2a3a4a5a6a7a8a9a.a+babbbcbdbebfbgbhbibjbkblbmbnbobpbqbrbsbtbubvbwbxbybzbAbBbCbDbEbFbGbHbIbJbKbLbMbNbObPbQbRbSbTbUbVbWbXbYbZb0b1b2b3b4b5b6b7b8b9b.b+cacbcccdcecfcgchcicjckclcmcncocpcqcrcsctcucvcwcxcyczcAcBcCcDcEcFcGcHcIcJcKcLcMcNcOcPcQcRcScTcUcVcWcXcYcZc0c1c2c3c4c5c6c7c8c9c.c+dadbdcdddedfdgdhdidjdkdldmdndodpdqdrdsdtdudvdwdxdydzdAdBdCdDdEdFdGdHdIdJdKdLdMdNdOdPdQdRdSdTdUdVdWdXdYdZd0d1d2d3d4d5d6d7d8d9d.d+eaebecedeeefegeheiejekelemeneoepeqereseteuevewexeyezeAeBeCeDeEeFeGeHeIeJeKeLeMeNeOePeQeReSeTeUeVeWeXeYeZe0e1e2e3e4e5e6e7e8e9e.e+fafbfcfdfefffgfhfifjfkflfmfnfofpfqfrfsftfufvfwfxfyfzfAfBfCfDfEfFfGfHfIfJfKfLfMfNfOfPfQfRfSfTfUfVfWfXfYfZf0f1f2f3f4f5f6f7f8f9f.f+gagbgcgdgegfggghgigjgkglgmgngogpgqgrgsgtgugvgwgxgygzgAgBgCgDgEgFgGgHgIgJgKgLgMgNgOgPgQgRgSgTgUgVgWgXgYgZg0g1g2g3g4g5g6g7g8g9g.g+hahbhchdhehfhghhhihjhkhlhmhnhohphqhrhshthuhvhwhxhyhzhAhBhChDhEhFhGhHhIhJhKhLhMhNhOhPhQhRhShThUhVhWhXhYhZh0h1h2h3h4h5h6h7h8h9h.h+",
"aaabacadaeafagahaiajakalamanaoapaqarasatauavawaxayazaAaBaCaDaEaFaGaHaIaJaKaLaMaNaOaPaQaRaSaTaUaVaWaXaYaZa0a1a2a3a4a5a6a7a8a9a.a+babbbcbdbebfbgbhbibjbkblbmbnbobpbqbrbsbtbubvbwbxbybzbAbBbCbDbEbFbGbHbIbJbKbLbMbNbObPbQbRbSbTbUbVbWbXbYbZb0b1b2b3b4b5b6b7b8b9b.b+cacbcccdcecfcgchcicjckclcmcncocpcqcrcsctcucvcwcxcyczcAcBcCcDcEcFcGcHcIcJcKcLcMcNcOcPcQcRcScTcUcVcWcXcYcZc0c1c2c3c4c5c6c7c8c9c.c+dadbdcdddedfdgdhdidjdkdldmdndodpdqdrdsdtdudvdwdxdydzdAdBdCdDdEdFdGdHdIdJdKdLdMdNdOdPdQdRdSdTdUdVdWdXdYdZd0d1d2d3d4d5d6d7d8d9d.d+eaebecedeeefegeheiejekelemeneoepeqereseteuevewexeyezeAeBeCeDeEeFeGeHeIeJeKeLeMeNeOePeQeReSeTeUeVeWeXeYeZe0e1e2e3e4e5e6e7e8e9e.e+fafbfcfdfefffgfhfifjfkflfmfnfofpfqfrfsftfufvfwfxfyfzfAfBfCfDfEfFfGfHfIfJfKfLfMfNfOfPfQfRfSfTfUfVfWfXfYfZf0f1f2f3f4f5f6f7f8f9f.f+gagbgcgdgegfggghgigjgkglgmgngogpgqgrgsgtgugvgwgxgygzgAgBgCgDgEgFgGgHgIgJgKgLgMgNgOgPgQgRgSgTgUgVgWgXgYgZg0g1g2g3g4g5g6g7g8g9g.g+hahbhchdhehfhghhhihjhkhlhmhnhohphqhrhshthuhvhwhxhyhzhAhBhChDhEhFhGhHhIhJhKhLhMhNhOhPhQhRhShThUhVhWhXhYhZh0h1h2h3h4h5h6h7h8h9h.h+",
"aaabacadaeafagahaiajakalamanaoapaqarasatauavawaxayazaAaBaCaDaEaFaGaHaIaJaKaLaMaNaOaPaQaRaSaTaUaVaWaXaYaZa0a1a2a3a4a5a6a7a8a9a.a+babbbcbdbebfbgbhbibjbkblbmbnbobpbqbrbsbtbubvbwbxbybzbAbBbCbDbEbFbGbHbIbJbKbLbMbNbObPbQbRbSbTbUbVbWbXbYbZb0b1b2b3b4b5b6b7b8b9b.b+cacbcccdcecfcgchcicjckclcmcncocpcqcrcsctcucvcwcxcyczcAcBcCcDcEcFcGcHcIcJcKcLcMcNcOcPcQcRcScTcUcVcWcXcYcZc0c1c2c3c4c5c6c7c8c9c.c+dadbdcdddedfdgdhdidjdkdldmdndodpdqdrdsdtdudvdwdxdydzdAdBdCdDdEdFdGdHdIdJdKdLdMdNdOdPdQdRdSdTdUdVdWdXdYdZd0d1d2d3d4d5d6d7d8d9d.d+eaebecedeeefegeheiejekelemeneoepeqereseteuevewexeyezeAeBeCeDeEeFeGeHeIeJeKeLeMeNeOePeQeReSeTeUeVeWeXeYeZe0e1e2e3e4e5e6e7e8e9e.e+fafbfcfdfefffgfhfifjfkflfmfnfofpfqfrfsftfufvfwfxfyfzfAfBfCfDfEfFfGfHfIfJfKfLfMfNfOfPfQfRfSfTfUfVfWfXfYfZf0f1f2f3f4f5f6f7f8f9f.f+gagbgcgdgegfggghgigjgkglgmgngogpgqgrgsgtgugvgwgxgygzgAgBgCgDgEgFgGgHgIgJgKgLgMgNgOgPgQgRgSgTgUgVgWgXgYgZg0g1g2g3g4g5g6g7g8g9g.g+hahbhchdhehfhghhhihjhkhlhmhnhohphqhrhshthuhvhwhxhyhzhAhBhChDhEhFhGhHhIhJhKhLhMhNhOhPhQhRhShThUhVhWhXhYhZh0h1h2h3h4h5h6h7h8h9h.h+",
"aaabacadaeafagahaiajakalamanaoapaqarasatauavawaxayazaAaBaCaDaEaFaGaHaIaJaKaLaMaNaOaPaQaRaSaTaUaVaWaXaYaZa0a1a2a3a4a5a6a7a8a9a.a+babbbcbdbebfbgbhbibjbkblbmbnbobpbqbrbsbtbubvbwbxbybzbAbBbCbDbEbFbGbHbIbJbKbLbMbNbObPbQbRbSbTbUbVbWbXbYbZb0b1b2b3b4b5b6b7b8b9b.b+cacbcccdcecfcgchcicjckclcmcncocpcqcrcsctcucvcwcxcyczcAcBcCcDcEcFcGcHcIcJcKcLcMcNcOcPcQcRcScTcUcVcWcXcYcZc0c1c2c3c4c5c6c7c8c9c.c+dadbdcdddedfdgdhdidjdkdldmdndodpdqdrdsdtdudvdwdxdydzdAdBdCdDdEdFdGdHdIdJdKdLdMdNdOdPdQdRdSdTdUdVdWdXdYdZd0d1d2d3d4d5d6d7d8d9d.d+eaebecedeeefegeheiejekelemeneoepeqereseteuevewexeyezeAeBeCeDeEeFeGeHeIeJeKeLeMeNeOePeQeReSeTeUeVeWeXeYeZe0e1e2e3e4e5e6e7e8e9e.e+fafbfcfdfefffgfhfifjfkflfmfnfofpfqfrfsftfufvfwfxfyfzfAfBfCfDfEfFfGfHfIfJfKfLfMfNfOfPfQfRfSfTfUfVfWfXfYfZf0f1f2f3f4f5f6f7f8f9f.f+gagbgcgdgegfggghgigjgkglgmgngogpgqgrgsgtgugvgwgxgygzgAgBgCgDgEgFgGgHgIgJgKgLgMgNgOgPgQgRgSgTgUgVgWgXgYgZg0g1g2g3g4g5g6g7g8g9g.g+hahbhchdhehfhghhhihjhkhlhmhnhohphqhrhshthuhvhwhxhyhzhAhBhChDhEhFhGhHhIhJhKhLhMhNhOhPhQhRhShThUhVhWhXhYhZh0h1h2h3h4h5h6h7h8h9h.h+",
"aaabacadaeafagahaiajakalamanaoapaqarasatauavawaxayazaAaBaCaDaEaFaGaHaIaJaKaLaMaNaOaPaQaRaSaTaUaVaWaXaYaZa0a1a2a3a4a5a6a7a8a9a.a+babbbcbdbebfbgbhbibjbkblbmbnbobpbqbrbsbtbubvbwbxbybzbAbBbCbDbEbFbGbHbIbJbKbLbMbNbObPbQbRbSbTbUbVbWbXbYbZb0b1b2b3b4b5b6b7b8b9b.b+cacbcccdcecfcgchcicjckclcmcncocpcqcrcsctcucvcwcxcyczcAcBcCcDcEcFcGcHcIcJcKcLcMcNcOcPcQcRcScTcUcVcWcXcYcZc0c1c2c3c4c5c6c7c8c9c.c+dadbdcdddedfdgdhdidjdkdldmdndodpdqdrdsdtdudvdwdxdydzdAdBdCdDdEdFdGdHdIdJdKdLdMdNdOdPdQdRdSdTdUdVdWdXdYdZd0d1d2d3d4d5d6d7d8d9d.d+eaebecedeeefegeheiejekelemeneoepeqereseteuevewexeyezeAeBeCeDeEeFeGeHeIeJeKeLeMeNeOePeQeReSeTeUeVeWeXeYeZe0e1e2e3e4e5e6e7e8e9e.e+fafbfcfdfefffgfhfifjfkflfmfnfofpfqfrfsftfufvfwfxfyfzfAfBfCfDfEfFfGfHfIfJfKfLfMfNfOfPfQfRfSfTfUfVfWfXfYfZf0f1f2f3f4f5f6f7f8f9f.f+gagbgcgdgegfggghgigjgkglgmgngogpgqgrgsgtgugvgwgxgygzgAgBgCgDgEgFgGgHgIgJgKgLgMgNgOgPgQgRgSgTgUgVgWgXgYgZg0g1g2g3g4g5g6g7g8g9g.g+hahbhchdhehfhghhhihjhkhlhmhnhohphqhrhshthuhvhwhxhyhzhAhBhChDhEhFhGhHhIhJhKhLhMhNhOhPhQhRhShThUhVhWhXhYhZh0h1h2h3h4h5h6h7h8h9h.h+",
"aaabacadaeafagahaiajakalamanaoapaqarasatauavawaxayazaAaBaCaDaEaFaGaHaIaJaKaLaMaNaOaPaQaRaSaTaUaVaWaXaYaZa0a1a2a3a4a5a6a7a8a9a.a+babbbcbdbebfbgbhbibjbkblbmbnbobpbqbrbsbtbubvbwbxbybzbAbBbCbDbEbFbGbHbIbJbKbLbMbNbObPbQbRbSbTbUbVbWbXbYbZb0b1b2b3b4b5b6b7b8b9b.b+cacbcccdcecfcgchcicjckclcmcncocpcqcrcsctcucvcwcxcyczcAcBcCcDcEcFcGcHcIcJcKcLcMcNcOcPcQcRcScTcUcVcWcXcYcZc0c1c2c3c4c5c6c7c8c9c.c+dadbdcdddedfdgdhdidjdkdldmdndodpdqdrdsdtdudvdwdxdydzdAdBdCdDdEdFdGdHdIdJdKdLdMdNdOdPdQdRdSdTdUdVdWdXdYdZd0d1d2d3d4d5d6d7d8d9d.d+eaebecedeeefegeheiejekelemeneoepeqereseteuevewexeyezeAeBeCeDeEeFeGeHeIeJeKeLeMeNeOePeQeReSeTeUeVeWeXeYeZe0e1e2e3e4e5e6e7e8e9e.e+fafbfcfdfefffgfhfifjfkflfmfnfofpfqfrfsftfufvfwfxfyfzfAfBfCfDfEfFfGfHfIfJfKfLfMfNfOfPfQfRfSfTfUfVfWfXfYfZf0f1f2f3f4f5f6f7f8f9f.f+gagbgcgdgegfggghgigjgkglgmgngogpgqgrgsgtgugvgwgxgygzgAgBgCgDgEgFgGgHgIgJgKgLgMgNgOgPgQgRgSgTgUgVgWgXgYgZg0g1g2g3g4g5g6g7g8g9g.g+hahbhchdhehfhghhhihjhkhlhmhnhohphqhrhshthuhvhwhxhyhzhAhBhChDhEhFhGhHhIhJhKhLhMhNhOhPhQhRhShThUhVhWhXhYhZh0h1h2h3h4h5h6h7h8h9h.h+",
"aaabacadaeafagahaiajakalamanaoapaqarasatauavawaxayazaAaBaCaDaEaFaGaHaIaJaKaLaMaNaOaPaQaRaSaTaUaVaWaXaYaZa0a1a2a3a4a5a6a7a8a9a.a+babbbcbdbebfbgbhbibjbkblbmbnbobpbqbrbsbtbubvbwbxbybzbAbBbCbDbEbFbGbHbIbJbKbLbMbNbObPbQbRbSbTbUbVbWbXbYbZb0b1b2b3b4b5b6b7b8b9b.b+cacbcccdcecfcgchcicjckclcmcncocpcqcrcsctcucvcwcxcyczcAcBcCcDcEcFcGcHcIcJcKcLcMcNcOcPcQcRcScTcUcVcWcXcYcZc0c1c2c3c4c5c6c7c8c9c.c+dadbdcdddedfdgdhdidjdkdldmdndodpdqdrdsdtdudvdwdxdydzdAdBdCdDdEdFdGdHdIdJdKdLdMdNdOdPdQdRdSdTdUdVdWdXdYdZd0d1d2d3d4d5d6d7d8d9d.d+eaebecedeeefegeheiejekelemeneoepeqereseteuevewexeyezeAeBeCeDeEeFeGeHeIeJeKeLeMeNeOePeQeReSeTeUeVeWeXeYeZe0e1e2e3e4e5e6e7e8e9e.e+fafbfcfdfefffgfhfifjfkflfmfnfofpfqfrfsftfufvfwfxfyfzfAfBfCfDfEfFfGfHfIfJfKfLfMfNfOfPfQfRfSfTfUfVfWfXfYfZf0f1f2f3f4f5f6f7f8f9f.f+gagbgcgdgegfggghgigjgkglgmgngogpgqgrgsgtgugvgwgxgygzgAgBgCgDgEgFgGgHgIgJgKgLgMgNgOgPgQgRgSgTgUgVgWgXgYgZg0g1g2g3g4g5g6g7g8g9g.g+hahbhchdhehfhghhhihjhkhlhmhnhohphqhrhshthuhvhwhxhyhzhAhBhChDhEhFhGhHhIhJhKhLhMhNhOhPhQhRhShThUhVhWhXhYhZh0h1h2h3h4h5h6h7h8h9h.h+",
"aaabacadaeafagahaiajakalamanaoapaqarasatauavawaxayazaAaBaCaDaEaFaGaHaIaJaKaLaMaNaOaPaQaRaSaTaUaVaWaXaYaZa0a1a2a3a4a5a6a7a8a9a.a+babbbcbdbebfbgbhbibjbkblbmbnbobpbqbrbsbtbubvbwbxbybzbAbBbCbDbEbFbGbHbIbJbKbLbMbNbObPbQbRbSbTbUbVbWbXbYbZb0b1b2b3b4b5b6b7b8b9b.b+cacbcccdcecfcgchcicjckclcmcncocpcqcrcsctcucvcwcxcyczcAcBcCcDcEcFcGcHcIcJcKcLcMcNcOcPcQcRcScTcUcVcWcXcYcZc0c1c2c3c4c5c6c7c8c9c.c+dadbdcdddedfdgdhdidjdkdldmdndodpdqdrdsdtdudvdwdxdydzdAdBdCdDdEdFdGdHdIdJdKdLdMdNdOdPdQdRdSdTdUdVdWdXdYdZd0d1d2d3d4d5d6d7d8d9d.d+eaebecedeeefegeheiejekelemeneoepeqereseteuevewexeyezeAeBeCeDeEeFeGeHeIeJeKeLeMeNeOePeQeReSeTeUeVeWeXeYeZe0e1e2e3e4e5e6e7e8e9e.e+fafbfcfdfefffgfhfifjfkflfmfnfofpfqfrfsftfufvfwfxfyfzfAfBfCfDfEfFfGfHfIfJfKfLfMfNfOfPfQfRfSfTfUfVfWfXfYfZf0f1f2f3f4f5f6f7f8f9f.f+gagbgcgdgegfggghgigjgkglgmgngogpgqgrgsgtgugvgwgxgygzgAgBgCgDgEgFgGgHgIgJgKgLgMgNgOgPgQgRgSgTgUgVgWgXgYgZg0g1g2g3g4g5g6g7g8g9g.g+hahbhchdhehfhghhhihjhkhlhmhnhohphqhrhshthuhvhwhxhyhzhAhBhChDhEhFhGhHhIhJhKhLhMhNhOhPhQhRhShThUhVhWhXhYhZh0h1h2h3h4h5h6h7h8h9h.h+",
"aaabacadaeafagahaiajakalamanaoapaqarasatauavawaxayazaAaBaCaDaEaFaGaHaIaJaKaLaMaNaOaPaQaRaSaTaUaVaWaXaYaZa0a1a2a3a4a5a6a7a8a9a.a+babbbcbdbebfbgbhbibjbkblbmbnbobpbqbrbsbtbubvbwbxbybzbAbBbCbDbEbFbGbHbIbJbKbLbMbNbObPbQbRbSbTbUbVbWbXbYbZb0b1b2b3b4b5b6b7b8b9b.b+cacbcccdcecfcgchcicjckclcmcncocpcqcrcsctcucvcwcxcyczcAcBcCcDcEcFcGcHcIcJcKcLcMcNcOcPcQcRcScTcUcVcWcXcYcZc0c1c2c3c4c5c6c7c8c9c.c+dadbdcdddedfdgdhdidjdkdldmdndodpdqdrdsdtdudvdwdxdydzdAdBdCdDdEdFdGdHdIdJdKdLdMdNdOdPdQdRdSdTdUdVdWdXdYdZd0d1d2d3d4d5d6d7d8d9d.d+eaebecedeeefegeheiejekelemeneoepeqereseteuevewexeyezeAeBeCeDeEeFeGeHeIeJeKeLeMeNeOePeQeReSeTeUeVeWeXeYeZe0e1e2e3e4e5e6e7e8e9e.e+fafbfcfdfefffgfhfifjfkflfmfnfofpfqfrfsftfufvfwfxfyfzfAfBfCfDfEfFfGfHfIfJfKfLfMfNfOfPfQfRfSfTfUfVfWfXfYfZf0f1f2f3f4f5f6f7f8f9f.f+gagbgcgdgegfggghgigjgkglgmgngogpgqgrgsgtgugvgwgxgygzgAgBgCgDgEgFgGgHgIgJgKgLgMgNgOgPgQgRgSgTgUgVgWgXgYgZg0g1g2g3g4g5g6g7g8g9g.g+hahbhchdhehfhghhhihjhkhlhmhnhohphqhrhshthuhvhwhxhyhzhAhBhChDhEhFhGhHhIhJhKhLhMhNhOhPhQhRhShThUhVhWhXhYhZh0h1h2h3h4h5h6h7h8h9h.h+",
"aaabacadaeafagahaiajakalamanaoapaqarasatauavawaxayazaAaBaCaDaEaFaGaHaIaJaKaLaMaNaOaPaQaRaSaTaUaVaWaXaYaZa0a1a2a3a4a5a6a7a8a9a.a+babbbcbdbebfbgbhbibjbkblbmbnbobpbqbrbsbtbubvbwbxbybzbAbBbCbDbEbFbGbHbIbJbKbLbMbNbObPbQbRbSbTbUbVbWbXbYbZb0b1b2b3b4b5b6b7b8b9b.b+cacbcccdcecfcgchcicjckclcmcncocpcqcrcsctcucvcwcxcyczcAcBcCcDcEcFcGcHcIcJcKcLcMcNcOcPcQcRcScTcUcVcWcXcYcZc0c1c2c3c4c5c6c7c8c9c.c+dadbdcdddedfdgdhdidjdkdldmdndodpdqdrdsdtdudvdwdxdydzdAdBdCdDdEdFdGdHdIdJdKdLdMdNdOdPdQdRdSdTdUdVdWdXdYdZd0d1d2d3d4d5d6d7d8d9d.d+eaebecedeeefegeheiejekelemeneoepeqereseteuevewexeyezeAeBeCeDeEeFeGeHeIeJeKeLeMeNeOePeQeReSeTeUeVeWeXeYeZe0e1e2e3e4e5e6e7e8e9e.e+fafbfcfdfefffgfhfifjfkflfmfnfofpfqfrfsftfufvfwfxfyfzfAfBfCfDfEfFfGfHfIfJfKfLfMfNfOfPfQfRfSfTfUfVfWfXfYfZf0f1f2f3f4f5f6f7f8f9f.f+gagbgcgdgegfggghgigjgkglgmgngogpgqgrgsgtgugvgwgxgygzgAgBgCgDgEgFgGgHgIgJgKgLgMgNgOgPgQgRgSgTgUgVgWgXgYgZg0g1g2g3g4g5g6g7g8g9g.g+hahbhchdhehfhghhhihjhkhlhmhnhohphqhrhshthuhvhwhxhyhzhAhBhChDhEhFhGhHhIhJhKhLhMhNhOhPhQhRhShThUhVhWhXhYhZh0h1h2h3h4h5h6h7h8h9h.h+",
"aaabacadaeafagahaiajakalamanaoapaqarasatauavawaxayazaAaBaCaDaEaFaGaHaIaJaKaLaMaNaOaPaQaRaSaTaUaVaWaXaYaZa0a1a2a3a4a5a6a7a8a9a.a+babbbcbdbebfbgbhbibjbkblbmbnbobpbqbrbsbtbubvbwbxbybzbAbBbCbDbEbFbGbHbIbJbKbLbMbNbObPbQbRbSbTbUbVbWbXbYbZb0b1b2b3b4b5b6b7b8b9b.b+cacbcccdcecfcgchcicjckclcmcncocpcqcrcsctcucvcwcxcyczcAcBcCcDcEcFcGcHcIcJcKcLcMcNcOcPcQcRcScTcUcVcWcXcYcZc0c1c2c3c4c5c6c7c8c9c.c+dadbdcdddedfdgdhdidjdkdldmdndodpdqdrdsdtdudvdwdxdydzdAdBdCdDdEdFdGdHdIdJdKdLdMdNdOdPdQdRdSdTdUdVdWdXdYdZd0d1d2d3d4d5d6d7d8d9d.d+eaebecedeeefegeheiejekelemeneoepeqereseteuevewexeyezeAeBeCeDeEeFeGeHeIeJeKeLeMeNeOePeQeReSeTeUeVeWeXeYeZe0e1e2e3e4e5e6e7e8e9e.e+fafbfcfdfefffgfhfifjfkflfmfnfofpfqfrfsftfufvfwfxfyfzfAfBfCfDfEfFfGfHfIfJfKfLfMfNfOfPfQfRfSfTfUfVfWfXfYfZf0f1f2f3f4f5f6f7f8f9f.f+gagbgcgdgegfggghgigjgkglgmgngogpgqgrgsgtgugvgwgxgygzgAgBgCgDgEgFgGgHgIgJgKgLgMgNgOgPgQgRgSgTgUgVgWgXgYgZg0g1g2g3g4g5g6g7g8g9g.g+hahbhchdhehfhghhhihjhkhlhmhnhohphqhrhshthuhvhwhxhyhzhAhBhChDhEhFhGhHhIhJhKhLhMhNhOhPhQhRhShThUhVhWhXhYhZh0h1h2h3h4h5h6h7h8h9h.h+",
"aaabacadaeafagahaiajakalamanaoapaqarasatauavawaxayazaAaBaCaDaEaFaGaHaIaJaKaLaMaNaOaPaQaRaSaTaUaVaWaXaYaZa0a1a2a3a4a5a6a7a8a9a.a+babbbcbdbebfbgbhbibjbkblbmbnbobpbqbrbsbtbubvbwbxbybzbAbBbCbDbEbFbGbHbIbJbKbLbMbNbObPbQbRbSbTbUbVbWbXbYbZb0b1b2b3b4b5b6b7b8b9b.b+cacbcccdcecfcgchcicjckclcmcncocpcqcrcsctcucvcwcxcyczcAcBcCcDcEcFcGcHcIcJcKcLcMcNcOcPcQcRcScTcUcVcWcXcYcZc0c1c2c3c4c5c6c7c8c9c.c+dadbdcdddedfdgdhdidjdkdldmdndodpdqdrdsdtdudvdwdxdydzdAdBdCdDdEdFdGdHdIdJdKdLdMdNdOdPdQdRdSdTdUdVdWdXdYdZd0d1d2d3d4d5d6d7d8d9d.d+eaebecedeeefegeheiejekelemeneoepeqereseteuevewexeyezeAeBeCeDeEeFeGeHeIeJeKeLeMeNeOePeQeReSeTeUeVeWeXeYeZe0e1e2e3e4e5e6e7e8e9e.e+fafbfcfdfefffgfhfifjfkflfmfnfofpfqfrfsftfufvfwfxfyfzfAfBfCfDfEfFfGfHfIfJfKfLfMfNfOfPfQfRfSfTfUfVfWfXfYfZf0f1f2f3f4f5f6f7f8f9f.f+gagbgcgdgegfggghgigjgkglgmgngogpgqgrgsgtgugvgwgxgygzgAgBgCgDgEgFgGgHgIgJgKgLgMgNgOgPgQgRgSgTgUgVgWgXgYgZg0g1g2g3g4g5g6g7g8g9g.g+hahbhchdhehfhghhhihjhkhlhmhnhohphqhrhshthuhvhwhxhyhzhAhBhChDhEhFhGhHhIhJhKhLhMhNhOhPhQhRhShThUhVhWhXhYhZh0h1h2h3h4h5h6h7h8h9h.h+",
"aaabacadaeafagahaiajakalamanaoapaqarasatauavawaxayazaAaBaCaDaEaFaGaHaIaJaKaLaMaNaOaPaQaRaSaTaUaVaWaXaYaZa0a1a2a3a4a5a6a7a8a9a.a+babbbcbdbebfbgbhbibjbkblbmbnbobpbqbrbsbtbubvbwbxbybzbAbBbCbDbEbFbGbHbIbJbKbLbMbNbObPbQbRbSbTbUbVbWbXbYbZb0b1b2b3b4b5b6b7b8b9b.b+cacbcccdcecfcgchcicjckclcmcncocpcqcrcsctcucvcwcxcyczcAcBcCcDcEcFcGcHcIcJcKcLcMcNcOcPcQcRcScTcUcVcWcXcYcZc0c1c2c3c4c5c6c7c8c9c.c+dadbdcdddedfdgdhdidjdkdldmdndodpdqdrdsdtdudvdwdxdydzdAdBdCdDdEdFdGdHdIdJdKdLdMdNdOdPdQdRdSdTdUdVdWdXdYdZd0d1d2d3d4d5d6d7d8d9d.d+eaebecedeeefegeheiejekelemeneoepeqereseteuevewexeyezeAeBeCeDeEeFeGeHeIeJeKeLeMeNeOePeQeReSeTeUeVeWeXeYeZe0e1e2e3e4e5e6e7e8e9e.e+fafbfcfdfefffgfhfifjfkflfmfnfofpfqfrfsftfufvfwfxfyfzfAfBfCfDfEfFfGfHfIfJfKfLfMfNfOfPfQfRfSfTfUfVfWfXfYfZf0f1f2f3f4f5f6f7f8f9f.f+gagbgcgdgegfggghgigjgkglgmgngogpgqgrgsgtgugvgwgxgygzgAgBgCgDgEgFgGgHgIgJgKgLgMgNgOgPgQgRgSgTgUgVgWgXgYgZg0g1g2g3g4g5g6g7g8g9g.g+hahbhchdhehfhghhhihjhkhlhmhnhohphqhrhshthuhvhwhxhyhzhAhBhChDhEhFhGhHhIhJhKhLhMhNhOhPhQhRhShThUhVhWhXhYhZh0h1h2h3h4h5h6h7h8h9h.h+",
"aaabacadaeafagahaiajakalamanaoapaqarasatauavawaxayazaAaBaCaDaEaFaGaHaIaJaKaLaMaNaOaPaQaRaSaTaUaVaWaXaYaZa0a1a2a3a4a5a6a7a8a9a.a+babbbcbdbebfbgbhbibjbkblbmbnbobpbqbrbsbtbubvbwbxbybzbAbBbCbDbEbFbGbHbIbJbKbLbMbNbObPbQbRbSbTbUbVbWbXbYbZb0b1b2b3b4b5b6b7b8b9b.b+cacbcccdcecfcgchcicjckclcmcncocpcqcrcsctcucvcwcxcyczcAcBcCcDcEcFcGcHcIcJcKcLcMcNcOcPcQcRcScTcUcVcWcXcYcZc0c1c2c3c4c5c6c7c8c9c.c+dadbdcdddedfdgdhdidjdkdldmdndodpdqdrdsdtdudvdwdxdydzdAdBdCdDdEdFdGdHdIdJdKdLdMdNdOdPdQdRdSdTdUdVdWdXdYdZd0d1d2d3d4d5d6d7d8d9d.d+eaebecedeeefegeheiejekelemeneoepeqereseteuevewexeyezeAeBeCeDeEeFeGeHeIeJeKeLeMeNeOePeQeReSeTeUeVeWeXeYeZe0e1e2e3e4e5e6e7e8e9e.e+fafbfcfdfefffgfhfifjfkflfmfnfofpfqfrfsftfufvfwfxfyfzfAfBfCfDfEfFfGfHfIfJfKfLfMfNfOfPfQfRfSfTfUfVfWfXfYfZf0f1f2f3f4f5f6f7f8f9f.f+gagbgcgdgegfggghgigjgkglgmgngogpgqgrgsgtgugvgwgxgygzgAgBgCgDgEgFgGgHgIgJgKgLgMgNgOgPgQgRgSgTgUgVgWgXgYgZg0g1g2g3g4g5g6g7g8g9g.g+hahbhchdhehfhghhhihjhkhlhmhnhohphqhrhshthuhvhwhxhyhzhAhBhChDhEhFhGhHhIhJhKhLhMhNhOhPhQhRhShThUhVhWhXhYhZh0h1h2h3h4h5h6h7h8h9h.h+",
"aaabacadaeafagahaiajakalamanaoapaqarasatauavawaxayazaAaBaCaDaEaFaGaHaIaJaKaLaMaNaOaPaQaRaSaTaUaVaWaXaYaZa0a1a2a3a4a5a6a7a8a9a.a+babbbcbdbebfbgbhbibjbkblbmbnbobpbqbrbsbtbubvbwbxbybzbAbBbCbDbEbFbGbHbIbJbKbLbMbNbObPbQbRbSbTbUbVbWbXbYbZb0b1b2b3b4b5b6b7b8b9b.b+cacbcccdcecfcgchcicjckclcmcncocpcqcrcsctcucvcwcxcyczcAcBcCcDcEcFcGcHcIcJcKcLcMcNcOcPcQcRcScTcUcVcWcXcYcZc0c1c2c3c4c5c6c7c8c9c.c+dadbdcdddedfdgdhdidjdkdldmdndodpdqdrdsdtdudvdwdxdydzdAdBdCdDdEdFdGdHdIdJdKdLdMdNdOdPdQdRdSdTdUdVdWdXdYdZd0d1d2d3d4d5d6d7d8d9d.d+eaebecedeeefegeheiejekelemeneoepeqereseteuevewexeyezeAeBeCeDeEeFeGeHeIeJeKeLeMeNeOePeQeReSeTeUeVeWeXeYeZe0e1e2e3e4e5e6e7e8e9e.e+fafbfcfdfefffgfhfifjfkflfmfnfofpfqfrfsftfufvfwfxfyfzfAfBfCfDfEfFfGfHfIfJfKfLfMfNfOfPfQfRfSfTfUfVfWfXfYfZf0f1f2f3f4f5f6f7f8f9f.f+gagbgcgdgegfggghgigjgkglgmgngogpgqgrgsgtgugvgwgxgygzgAgBgCgDgEgFgGgHgIgJgKgLgMgNgOgPgQgRgSgTgUgVgWgXgYgZg0g1g2g3g4g5g6g7g8g9g.g+hahbhchdhehfhghhhihjhkhlhmhnhohphqhrhshthuhvhwhxhyhzhAhBhChDhEhFhGhHhIhJhKhLhMhNhOhPhQhRhShThUhVhWhXhYhZh0h1h2h3h4h5h6h7h8h9h.h+",
"aaabacadaeafagahaiajakalamanaoapaqarasatauavawaxayazaAaBaCaDaEaFaGaHaIaJaKaLaMaNaOaPaQaRaSaTaUaVaWaXaYaZa0a1a2a3a4a5a6a7a8a9a.a+babbbcbdbebfbgbhbibjbkblbmbnbobpbqbrbsbtbubvbwbxbybzbAbBbCbDbEbFbGbHbIbJbKbLbMbNbObPbQbRbSbTbUbVbWbXbYbZb0b1b2b3b4b5b6b7b8b9b.b+cacbcccdcecfcgchcicjckclcmcncocpcqcrcsctcucvcwcxcyczcAcBcCcDcEcFcGcHcIcJcKcLcMcNcOcPcQcRcScTcUcVcWcXcYcZc0c1c2c3c4c5c6c7c8c9c.c+dadbdcdddedfdgdhdidjdkdldmdndodpdqdrdsdtdudvdwdxdydzdAdBdCdDdEdFdGdHdIdJdKdLdMdNdOdPdQdRdSdTdUdVdWdXdYdZd0d1d2d3d4d5d6d7d8d9d.d+eaebecedeeefegeheiejekelemeneoepeqereseteuevewexeyezeAeBeCeDeEeFeGeHeIeJeKeLeMeNeOePeQeReSeTeUeVeWeXeYeZe0e1e2e3e4e5e6e7e8e9e.e+fafbfcfdfefffgfhfifjfkflfmfnfofpfqfrfsftfufvfwfxfyfzfAfBfCfDfEfFfGfHfIfJfKfLfMfNfOfPfQfRfSfTfUfVfWfXfYfZf0f1f2f3f4f5f6f7f8f9f.f+gagbgcgdgegfggghgigjgkglgmgngogpgqgrgsgtgugvgwgxgygzgAgBgCgDgEgFgGgHgIgJgKgLgMgNgOgPgQgRgSgTgUgVgWgXgYgZg0g1g2g3g4g5g6g7g8g9g.g+hahbhchdhehfhghhhihjhkhlhmhnhohphqhrhshthuhvhwhxhyhzhAhBhChDhEhFhGhHhIhJhKhLhMhNhOhPhQhRhShThUhVhWhXhYhZh0h1h2h3h4h5h6h7h8h9h.h+",
"aaabacadaeafagahaiajakalamanaoapaqarasatauavawaxayazaAaBaCaDaEaFaGaHaIaJaKaLaMaNaOaPaQaRaSaTaUaVaWaXaYaZa0a1a2a3a4a5a6a7a8a9a.a+babbbcbdbebfbgbhbibjbkblbmbnbobpbqbrbsbtbubvbwbxbybzbAbBbCbDbEbFbGbHbIbJbKbLbMbNbObPbQbRbSbTbUbVbWbXbYbZb0b1b2b3b4b5b6b7b8b9b.b+cacbcccdcecfcgchcicjckclcmcncocpcqcrcsctcucvcwcxcyczcAcBcCcDcEcFcGcHcIcJcKcLcMcNcOcPcQcRcScTcUcVcWcXcYcZc0c1c2c3c4c5c6c7c8c9c.c+dadbdcdddedfdgdhdidjdkdldmdndodpdqdrdsdtdudvdwdxdydzdAdBdCdDdEdFdGdHdIdJdKdLdMdNdOdPdQdRdSdTdUdVdWdXdYdZd0d1d2d3d4d5d6d7d8d9d.d+eaebecedeeefegeheiejekelemeneoepeqereseteuevewexeyezeAeBeCeDeEeFeGeHeIeJeKeLeMeNeOePeQeReSeTeUeVeWeXeYeZe0e1e2e3e4e5e6e7e8e9e.e+fafbfcfdfefffgfhfifjfkflfmfnfofpfqfrfsftfufvfwfxfyfzfAfBfCfDfEfFfGfHfIfJfKfLfMfNfOfPfQfRfSfTfUfVfWfXfYfZf0f1f2f3f4f5f6f7f8f9f.f+gagbgcgdgegfggghgigjgkglgmgngogpgqgrgsgtgugvgwgxgygzgAgBgCgDgEgFgGgHgIgJgKgLgMgNgOgPgQgRgSgTgUgVgWgXgYgZg0g1g2g3g4g5g6g7g8g9g.g+hahbhchdhehfhghhhihjhkhlhmhnhohphqhrhshthuhvhwhxhyhzhAhBhChDhEhFhGhHhIhJhKhLhMhNhOhPhQhRhShThUhVhWhXhYhZh0h1h2h3h4h5h6h7h8h9h.h+",
"aaabacadaeafagahaiajakalamanaoapaqarasatauavawaxayazaAaBaCaDaEaFaGaHaIaJaKaLaMaNaOaPaQaRaSaTaUaVaWaXaYaZa0a1a2a3a4a5a6a7a8a9a.a+babbbcbdbebfbgbhbibjbkblbmbnbobpbqbrbsbtbubvbwbxbybzbAbBbCbDbEbFbGbHbIbJbKbLbMbNbObPbQbRbSbTbUbVbWbXbYbZb0b1b2b3b4b5b6b7b8b9b.b+cacbcccdcecfcgchcicjckclcmcncocpcqcrcsctcucvcwcxcyczcAcBcCcDcEcFcGcHcIcJcKcLcMcNcOcPcQcRcScTcUcVcWcXcYcZc0c1c2c3c4c5c6c7c8c9c.c+dadbdcdddedfdgdhdidjdkdldmdndodpdqdrdsdtdudvdwdxdydzdAdBdCdDdEdFdGdHdIdJdKdLdMdNdOdPdQdRdSdTdUdVdWdXdYdZd0d1d2d3d4d5d6d7d8d9d.d+eaebecedeeefegeheiejekelemeneoepeqereseteuevewexeyezeAeBeCeDeEeFeGeHeIeJeKeLeMeNeOePeQeReSeTeUeVeWeXeYeZe0e1e2e3e4e5e6e7e8e9e.e+fafbfcfdfefffgfhfifjfkflfmfnfofpfqfrfsftfufvfwfxfyfzfAfBfCfDfEfFfGfHfIfJfKfLfMfNfOfPfQfRfSfTfUfVfWfXfYfZf0f1f2f3f4f5f6f7f8f9f.f+gagbgcgdgegfggghgigjgkglgmgngogpgqgrgsgtgugvgwgxgygzgAgBgCgDgEgFgGgHgIgJgKgLgMgNgOgPgQgRgSgTgUgVgWgXgYgZg0g1g2g3g4g5g6g7g8g9g.g+hahbhchdhehfhghhhihjhkhlhmhnhohphqhrhshthuhvhwhxhyhzhAhBhChDhEhFhGhHhIhJhKhLhMhNhOhPhQhRhShThUhVhWhXhYhZh0h1h2h3h4h5h6h7h8h9h.h+",
"aaabacadaeafagahaiajakalamanaoapaqarasatauavawaxayazaAaBaCaDaEaFaGaHaIaJaKaLaMaNaOaPaQaRaSaTaUaVaWaXaYaZa0a1a2a3a4a5a6a7a8a9a.a+babbbcbdbebfbgbhbibjbkblbmbnbobpbqbrbsbtbubvbwbxbybzbAbBbCbDbEbFbGbHbIbJbKbLbMbNbObPbQbRbSbTbUbVbWbXbYbZb0b1b2b3b4b5b6b7b8b9b.b+cacbcccdcecfcgchcicjckclcmcncocpcqcrcsctcucvcwcxcyczcAcBcCcDcEcFcGcHcIcJcKcLcMcNcOcPcQcRcScTcUcVcWcXcYcZc0c1c2c3c4c5c6c7c8c9c.c+dadbdcdddedfdgdhdidjdkdldmdndodpdqdrdsdtdudvdwdxdydzdAdBdCdDdEdFdGdHdIdJdKdLdMdNdOdPdQdRdSdTdUdVdWdXdYdZd0d1d2d3d4d5d6d7d8d9d.d+eaebecedeeefegeheiejekelemeneoepeqereseteuevewexeyezeAeBeCeDeEeFeGeHeIeJeKeLeMeNeOePeQeReSeTeUeVeWeXeYeZe0e1e2e3e4e5e6e7e8e9e.e+fafbfcfdfefffgfhfifjfkflfmfnfofpfqfrfsftfufvfwfxfyfzfAfBfCfDfEfFfGfHfIfJfKfLfMfNfOfPfQfRfSfTfUfVfWfXfYfZf0f1f2f3f4f5f6f7f8f9f.f+gagbgcgdgegfggghgigjgkglgmgngogpgqgrgsgtgugvgwgxgygzgAgBgCgDgEgFgGgHgIgJgKgLgMgNgOgPgQgRgSgTgUgVgWgXgYgZg0g1g2g3g4g5g6g7g8g9g.g+hahbhchdhehfhghhhihjhkhlhmhnhohphqhrhshthuhvhwhxhyhzhAhBhChDhEhFhGhHhIhJhKhLhMhNhOhPhQhRhShThUhVhWhXhYhZh0h1h2h3h4h5h6h7h8h9h.h+",
"aaabacadaeafagahaiajakalamanaoapaqarasatauavawaxayazaAaBaCaDaEaFaGaHaIaJaKaLaMaNaOaPaQaRaSaTaUaVaWaXaYaZa0a1a2a3a4a5a6a7a8a9a.a+babbbcbdbebfbgbhbibjbkblbmbnbobpbqbrbsbtbubvbwbxbybzbAbBbCbDbEbFbGbHbIbJbKbLbMbNbObPbQbRbSbTbUbVbWbXbYbZb0b1b2b3b4b5b6b7b8b9b.b+cacbcccdcecfcgchcicjckclcmcncocpcqcrcsctcucvcwcxcyczcAcBcCcDcEcFcGcHcIcJcKcLcMcNcOcPcQcRcScTcUcVcWcXcYcZc0c1c2c3c4c5c6c7c8c9c.c+dadbdcdddedfdgdhdidjdkdldmdndodpdqdrdsdtdudvdwdxdydzdAdBdCdDdEdFdGdHdIdJdKdLdMdNdOdPdQdRdSdTdUdVdWdXdYdZd0d1d2d3d4d5d6d7d8d9d.d+eaebecedeeefegeheiejekelemeneoepeqereseteuevewexeyezeAeBeCeDeEeFeGeHeIeJeKeLeMeNeOePeQeReSeTeUeVeWeXeYeZe0e1e2e3e4e5e6e7e8e9e.e+fafbfcfdfefffgfhfifjfkflfmfnfofpfqfrfsftfufvfwfxfyfzfAfBfCfDfEfFfGfHfIfJfKfLfMfNfOfPfQfRfSfTfUfVfWfXfYfZf0f1f2f3f4f5f6f7f8f9f.f+gagbgcgdgegfggghgigjgkglgmgngogpgqgrgsgtgugvgwgxgygzgAgBgCgDgEgFgGgHgIgJgKgLgMgNgOgPgQgRgSgTgUgVgWgXgYgZg0g1g2g3g4g5g6g7g8g9g.g+hahbhchdhehfhghhhihjhkhlhmhnhohphqhrhshthuhvhwhxhyhzhAhBhChDhEhFhGhHhIhJhKhLhMhNhOhPhQhRhShThUhVhWhXhYhZh0h1h2h3h4h5h6h7h8h9h.h+",
"aaabacadaeafagahaiajakalamanaoapaqarasatauavawaxayazaAaBaCaDaEaFaGaHaIaJaKaLaMaNaOaPaQaRaSaTaUaVaWaXaYaZa0a1a2a3a4a5a6a7a8a9a.a+babbbcbdbebfbgbhbibjbkblbmbnbobpbqbrbsbtbubvbwbxbybzbAbBbCbDbEbFbGbHbIbJbKbLbMbNbObPbQbRbSbTbUbVbWbXbYbZb0b1b2b3b4b5b6b7b8b9b.b+cacbcccdcecfcgchcicjckclcmcncocpcqcrcsctcucvcwcxcyczcAcBcCcDcEcFcGcHcIcJcKcLcMcNcOcPcQcRcScTcUcVcWcXcYcZc0c1c2c3c4c5c6c7c8c9c.c+dadbdcdddedfdgdhdidjdkdldmdndodpdqdrdsdtdudvdwdxdydzdAdBdCdDdEdFdGdHdIdJdKdLdMdNdOdPdQdRdSdTdUdVdWdXdYdZd0d1d2d3d4d5d6d7d8d9d.d+eaebecedeeefegeheiejekelemeneoepeqereseteuevewexeyezeAeBeCeDeEeFeGeHeIeJeKeLeMeNeOePeQeReSeTeUeVeWeXeYeZe0e1e2e3e4e5e6e7e8e9e.e+fafbfcfdfefffgfhfifjfkflfmfnfofpfqfrfsftfufvfwfxfyfzfAfBfCfDfEfFfGfHfIfJfKfLfMfNfOfPfQfRfSfTfUfVfWfXfYfZf0f1f2f3f4f5f6f7f8f9f.f+gagbgcgdgegfggghgigjgkglgmgngogpgqgrgsgtgugvgwgxgygzgAgBgCgDgEgFgGgHgIgJgKgLgMgNgOgPgQgRgSgTgUgVgWgXgYgZg0g1g2g3g4g5g6g7g8g9g.g+hahbhchdhehfhghhhihjhkhlhmhnhohphqhrhshthuhvhwhxhyhzhAhBhChDhEhFhGhHhIhJhKhLhMhNhOhPhQhRhShThUhVhWhXhYhZh0h1h2h3h4h5h6h7h8h9h.h+",
"aaabacadaeafagahaiajakalamanaoapaqarasatauavawaxayazaAaBaCaDaEaFaGaHaIaJaKaLaMaNaOaPaQaRaSaTaUaVaWaXaYaZa0a1a2a3a4a5a6a7a8a9a.a+babbbcbdbebfbgbhbibjbkblbmbnbobpbqbrbsbtbubvbwbxbybzbAbBbCbDbEbFbGbHbIbJbKbLbMbNbObPbQbRbSbTbUbVbWbXbYbZb0b1b2b3b4b5b6b7b8b9b.b+cacbcccdcecfcgchcicjckclcmcncocpcqcrcsctcucvcwcxcyczcAcBcCcDcEcFcGcHcIcJcKcLcMcNcOcPcQcRcScTcUcVcWcXcYcZc0c1c2c3c4c5c6c7c8c9c.c+dadbdcdddedfdgdhdidjdkdldmdndodpdqdrdsdtdudvdwdxdydzdAdBdCdDdEdFdGdHdIdJdKdLdMdNdOdPdQdRdSdTdUdVdWdXdYdZd0d1d2d3d4d5d6d7d8d9d.d+eaebecedeeefegeheiejekelemeneoepeqereseteuevewexeyezeAeBeCeDeEeFeGeHeIeJeKeLeMeNeOePeQeReSeTeUeVeWeXeYeZe0e1e2e3e4e5e6e7e8e9e.e+fafbfcfdfefffgfhfifjfkflfmfnfofpfqfrfsftfufvfwfxfyfzfAfBfCfDfEfFfGfHfIfJfKfLfMfNfOfPfQfRfSfTfUfVfWfXfYfZf0f1f2f3f4f5f6f7f8f9f.f+gagbgcgdgegfggghgigjgkglgmgngogpgqgrgsgtgugvgwgxgygzgAgBgCgDgEgFgGgHgIgJgKgLgMgNgOgPgQgRgSgTgUgVgWgXgYgZg0g1g2g3g4g5g6g7g8g9g.g+hahbhchdhehfhghhhihjhkhlhmhnhohphqhrhshthuhvhwhxhyhzhAhBhChDhEhFhGhHhIhJhKhLhMhNhOhPhQhRhShThUhVhWhXhYhZh0h1h2h3h4h5h6h7h8h9h.h+",
"aaabacadaeafagahaiajakalamanaoapaqarasatauavawaxayazaAaBaCaDaEaFaGaHaIaJaKaLaMaNaOaPaQaRaSaTaUaVaWaXaYaZa0a1a2a3a4a5a6a7a8a9a.a+babbbcbdbebfbgbhbibjbkblbmbnbobpbqbrbsbtbubvbwbxbybzbAbBbCbDbEbFbGbHbIbJbKbLbMbNbObPbQbRbSbTbUbVbWbXbYbZb0b1b2b3b4b5b6b7b8b9b.b+cacbcccdcecfcgchcicjckclcmcncocpcqcrcsctcucvcwcxcyczcAcBcCcDcEcFcGcHcIcJcKcLcMcNcOcPcQcRcScTcUcVcWcXcYcZc0c1c2c3c4c5c6c7c8c9c.c+dadbdcdddedfdgdhdidjdkdldmdndodpdqdrdsdtdudvdwdxdydzdAdBdCdDdEdFdGdHdIdJdKdLdMdNdOdPdQdRdSdTdUdVdWdXdYdZd0d1d2d3d4d5d6d7d8d9d.d+eaebecedeeefegeheiejekelemeneoepeqereseteuevewexeyezeAeBeCeDeEeFeGeHeIeJeKeLeMeNeOePeQeReSeTeUeVeWeXeYeZe0e1e2e3e4e5e6e7e8e9e.e+fafbfcfdfefffgfhfifjfkflfmfnfofpfqfrfsftfufvfwfxfyfzfAfBfCfDfEfFfGfHfIfJfKfLfMfNfOfPfQfRfSfTfUfVfWfXfYfZf0f1f2f3f4f5f6f7f8f9f.f+gagbgcgdgegfggghgigjgkglgmgngogpgqgrgsgtgugvgwgxgygzgAgBgCgDgEgFgGgHgIgJgKgLgMgNgOgPgQgRgSgTgUgVgWgXgYgZg0g1g2g3g4g5g6g7g8g9g.g+hahbhchdhehfhghhhihjhkhlhmhnhohphqhrhshthuhvhwhxhyhzhAhBhChDhEhFhGhHhIhJhKhLhMhNhOhPhQhRhShThUhVhWhXhYhZh0h1h2h3h4h5h6h7h8h9h.h+",
"aaabacadaeafagahaiajakalamanaoapaqarasatauavawaxayazaAaBaCaDaEaFaGaHaIaJaKaLaMaNaOaPaQaRaSaTaUaVaWaXaYaZa0a1a2a3a4a5a6a7a8a9a.a+babbbcbdbebfbgbhbibjbkblbmbnbobpbqbrbsbtbubvbwbxbybzbAbBbCbDbEbFbGbHbIbJbKbLbMbNbObPbQbRbSbTbUbVbWbXbYbZb0b1b2b3b4b5b6b7b8b9b.b+cacbcccdcecfcgchcicjckclcmcncocpcqcrcsctcucvcwcxcyczcAcBcCcDcEcFcGcHcIcJcKcLcMcNcOcPcQcRcScTcUcVcWcXcYcZc0c1c2c3c4c5c6c7c8c9c.c+dadbdcdddedfdgdhdidjdkdldmdndodpdqdrdsdtdudvdwdxdydzdAdBdCdDdEdFdGdHdIdJdKdLdMdNdOdPdQdRdSdTdUdVdWdXdYdZd0d1d2d3d4d5d6d7d8d9d.d+eaebecedeeefegeheiejekelemeneoepeqereseteuevewexeyezeAeBeCeDeEeFeGeHeIeJeKeLeMeNeOePeQeReSeTeUeVeWeXeYeZe0e1e2e3e4e5e6e7e8e9e.e+fafbfcfdfefffgfhfifjfkflfmfnfofpfqfrfsftfufvfwfxfyfzfAfBfCfDfEfFfGfHfIfJfKfLfMfNfOfPfQfRfSfTfUfVfWfXfYfZf0f1f2f3f4f5f6f7f8f9f.f+gagbgcgdgegfggghgigjgkglgmgngogpgqgrgsgtgugvgwgxgygzgAgBgCgDgEgFgGgHgIgJgKgLgMgNgOgPgQgRgSgTgUgVgWgXgYgZg0g1g2g3g4g5g6g7g8g9g.g+hahbhchdhehfhghhhihjhkhlhmhnhohphqhrhshthuhvhwhxhyhzhAhBhChDhEhFhGhHhIhJhKhLhMhNhOhPhQhRhShThUhVhWhXhYhZh0h1h2h3h4h5h6h7h8h9h.h+",
"aaabacadaeafagahaiajakalamanaoapaqarasatauavawaxayazaAaBaCaDaEaFaGaHaIaJaKaLaMaNaOaPaQaRaSaTaUaVaWaXaYaZa0a1a2a3a4a5a6a7a8a9a.a+babbbcbdbebfbgbhbibjbkblbmbnbobpbqbrbsbtbubvbwbxbybzbAbBbCbDbEbFbGbHbIbJbKbLbMbNbObPbQbRbSbTbUbVbWbXbYbZb0b1b2b3b4b5b6b7b8b9b.b+cacbcccdcecfcgchcicjckclcmcncocpcqcrcsctcucvcwcxcyczcAcBcCcDcEcFcGcHcIcJcKcLcMcNcOcPcQcRcScTcUcVcWcXcYcZc0c1c2c3c4c5c6c7c8c9c.c+dadbdcdddedfdgdhdidjdkdldmdndodpdqdrdsdtdudvdwdxdydzdAdBdCdDdEdFdGdHdIdJdKdLdMdNdOdPdQdRdSdTdUdVdWdXdYdZd0d1d2d3d4d5d6d7d8d9d.d+eaebecedeeefegeheiejekelemeneoepeqereseteuevewexeyezeAeBeCeDeEeFeGeHeIeJeKeLeMeNeOePeQeReSeTeUeVeWeXeYeZe0e1e2e3e4e5e6e7e8e9e.e+fafbfcfdfefffgfhfifjfkflfmfnfofpfqfrfsftfufvfwfxfyfzfAfBfCfDfEfFfGfHfIfJfKfLfMfNfOfPfQfRfSfTfUfVfWfXfYfZf0f1f2f3f4f5f6f7f8f9f.f+gagbgcgdgegfggghgigjgkglgmgngogpgqgrgsgtgugvgwgxgygzgAgBgCgDgEgFgGgHgIgJgKgLgMgNgOgPgQgRgSgTgUgVgWgXgYgZg0g1g2g3g4g5g6g7g8g9g.g+hahbhchdhehfhghhhihjhkhlhmhnhohphqhrhshthuhvhwhxhyhzhAhBhChDhEhFhGhHhIhJhKhLhMhNhOhPhQhRhShThUhVhWhXhYhZh0h1h2h3h4h5h6h7h8h9h.h+",
"aaabacadaeafagahaiajakalamanaoapaqarasatauavawaxayazaAaBaCaDaEaFaGaHaIaJaKaLaMaNaOaPaQaRaSaTaUaVaWaXaYaZa0a1a2a3a4a5a6a7a8a9a.a+babbbcbdbebfbgbhbibjbkblbmbnbobpbqbrbsbtbubvbwbxbybzbAbBbCbDbEbFbGbHbIbJbKbLbMbNbObPbQbRbSbTbUbVbWbXbYbZb0b1b2b3b4b5b6b7b8b9b.b+cacbcccdcecfcgchcicjckclcmcncocpcqcrcsctcucvcwcxcyczcAcBcCcDcEcFcGcHcIcJcKcLcMcNcOcPcQcRcScTcUcVcWcXcYcZc0c1c2c3c4c5c6c7c8c9c.c+dadbdcdddedfdgdhdidjdkdldmdndodpdqdrdsdtdudvdwdxdydzdAdBdCdDdEdFdGdHdIdJdKdLdMdNdOdPdQdRdSdTdUdVdWdXdYdZd0d1d2d3d4d5d6d7d8d9d.d+eaebecedeeefegeheiejekelemeneoepeqereseteuevewexeyezeAeBeCeDeEeFeGeHeIeJeKeLeMeNeOePeQeReSeTeUeVeWeXeYeZe0e1e2e3e4e5e6e7e8e9e.e+fafbfcfdfefffgfhfifjfkflfmfnfofpfqfrfsftfufvfwfxfyfzfAfBfCfDfEfFfGfHfIfJfKfLfMfNfOfPfQfRfSfTfUfVfWfXfYfZf0f1f2f3f4f5f6f7f8f9f.f+gagbgcgdgegfggghgigjgkglgmgngogpgqgrgsgtgugvgwgxgygzgAgBgCgDgEgFgGgHgIgJgKgLgMgNgOgPgQgRgSgTgUgVgWgXgYgZg0g1g2g3g4g5g6g7g8g9g.g+hahbhchdhehfhghhhihjhkhlhmhnhohphqhrhshthuhvhwhxhyhzhAhBhChDhEhFhGhHhIhJhKhLhMhNhOhPhQhRhShThUhVhWhXhYhZh0h1h2h3h4h5h6h7h8h9h.h+",
"aaabacadaeafagahaiajakalamanaoapaqarasatauavawaxayazaAaBaCaDaEaFaGaHaIaJaKaLaMaNaOaPaQaRaSaTaUaVaWaXaYaZa0a1a2a3a4a5a6a7a8a9a.a+babbbcbdbebfbgbhbibjbkblbmbnbobpbqbrbsbtbubvbwbxbybzbAbBbCbDbEbFbGbHbIbJbKbLbMbNbObPbQbRbSbTbUbVbWbXbYbZb0b1b2b3b4b5b6b7b8b9b.b+cacbcccdcecfcgchcicjckclcmcncocpcqcrcsctcucvcwcxcyczcAcBcCcDcEcFcGcHcIcJcKcLcMcNcOcPcQcRcScTcUcVcWcXcYcZc0c1c2c3c4c5c6c7c8c9c.c+dadbdcdddedfdgdhdidjdkdldmdndodpdqdrdsdtdudvdwdxdydzdAdBdCdDdEdFdGdHdIdJdKdLdMdNdOdPdQdRdSdTdUdVdWdXdYdZd0d1d2d3d4d5d6d7d8d9d.d+eaebecedeeefegeheiejekelemeneoepeqereseteuevewexeyezeAeBeCeDeEeFeGeHeIeJeKeLeMeNeOePeQeReSeTeUeVeWeXeYeZe0e1e2e3e4e5e6e7e8e9e.e+fafbfcfdfefffgfhfifjfkflfmfnfofpfqfrfsftfufvfwfxfyfzfAfBfCfDfEfFfGfHfIfJfKfLfMfNfOfPfQfRfSfTfUfVfWfXfYfZf0f1f2f3f4f5f6f7f8f9f.f+gagbgcgdgegfggghgigjgkglgmgngogpgqgrgsgtgugvgwgxgygzgAgBgCgDgEgFgGgHgIgJgKgLgMgNgOgPgQgRgSgTgUgVgWgXgYgZg0g1g2g3g4g5g6g7g8g9g.g+hahbhchdhehfhghhhihjhkhlhmhnhohphqhrhshthuhvhwhxhyhzhAhBhChDhEhFhGhHhIhJhKhLhMhNhOhPhQhRhShThUhVhWhXhYhZh0h1h2h3h4h5h6h7h8h9h.h+",
"aaabacadaeafagahaiajakalamanaoapaqarasatauavawaxayazaAaBaCaDaEaFaGaHaIaJaKaLaMaNaOaPaQaRaSaTaUaVaWaXaYaZa0a1a2a3a4a5a6a7a8a9a.a+babbbcbdbebfbgbhbibjbkblbmbnbobpbqbrbsbtbubvbwbxbybzbAbBbCbDbEbFbGbHbIbJbKbLbMbNbObPbQbRbSbTbUbVbWbXbYbZb0b1b2b3b4b5b6b7b8b9b.b+cacbcccdcecfcgchcicjckclcmcncocpcqcrcsctcucvcwcxcyczcAcBcCcDcEcFcGcHcIcJcKcLcMcNcOcPcQcRcScTcUcVcWcXcYcZc0c1c2c3c4c5c6c7c8c9c.c+dadbdcdddedfdgdhdidjdkdldmdndodpdqdrdsdtdudvdwdxdydzdAdBdCdDdEdFdGdHdIdJdKdLdMdNdOdPdQdRdSdTdUdVdWdXdYdZd0d1d2d3d4d5d6d7d8d9d.d+eaebecedeeefegeheiejekelemeneoepeqereseteuevewexeyezeAeBeCeDeEeFeGeHeIeJeKeLeMeNeOePeQeReSeTeUeVeWeXeYeZe0e1e2e3e4e5e6e7e8e9e.e+fafbfcfdfefffgfhfifjfkflfmfnfofpfqfrfsftfufvfwfxfyfzfAfBfCfDfEfFfGfHfIfJfKfLfMfNfOfPfQfRfSfTfUfVfWfXfYfZf0f1f2f3f4f5f6f7f8f9f.f+gagbgcgdgegfggghgigjgkglgmgngogpgqgrgsgtgugvgwgxgygzgAgBgCgDgEgFgGgHgIgJgKgLgMgNgOgPgQgRgSgTgUgVgWgXgYgZg0g1g2g3g4g5g6g7g8g9g.g+hahbhchdhehfhghhhihjhkhlhmhnhohphqhrhshthuhvhwhxhyhzhAhBhChDhEhFhGhHhIhJhKhLhMhNhOhPhQhRhShThUhVhWhXhYhZh0h1h2h3h4h5h6h7h8h9h.h+",
"aaabacadaeafagahaiajakalamanaoapaqarasatauavawaxayazaAaBaCaDaEaFaGaHaIaJaKaLaMaNaOaPaQaRaSaTaUaVaWaXaYaZa0a1a2a3a4a5a6a7a8a9a.a+babbbcbdbebfbgbhbibjbkblbmbnbobpbqbrbsbtbubvbwbxbybzbAbBbCbDbEbFbGbHbIbJbKbLbMbNbObPbQbRbSbTbUbVbWbXbYbZb0b1b2b3b4b5b6b7b8b9b.b+cacbcccdcecfcgchcicjckclcmcncocpcqcrcsctcucvcwcxcyczcAcBcCcDcEcFcGcHcIcJcKcLcMcNcOcPcQcRcScTcUcVcWcXcYcZc0c1c2c3c4c5c6c7c8c9c.c+dadbdcdddedfdgdhdidjdkdldmdndodpdqdrdsdtdudvdwdxdydzdAdBdCdDdEdFdGdHdIdJdKdLdMdNdOdPdQdRdSdTdUdVdWdXdYdZd0d1d2d3d4d5d6d7d8d9d.d+eaebecedeeefegeheiejekelemeneoepeqereseteuevewexeyezeAeBeCeDeEeFeGeHeIeJeKeLeMeNeOePeQeReSeTeUeVeWeXeYeZe0e1e2e3e4e5e6e7e8e9e.e+fafbfcfdfefffgfhfifjfkflfmfnfofpfqfrfsftfufvfwfxfyfzfAfBfCfDfEfFfGfHfIfJfKfLfMfNfOfPfQfRfSfTfUfVfWfXfYfZf0f1f2f3f4f5f6f7f8f9f.f+gagbgcgdgegfggghgigjgkglgmgngogpgqgrgsgtgugvgwgxgygzgAgBgCgDgEgFgGgHgIgJgKgLgMgNgOgPgQgRgSgTgUgVgWgXgYgZg0g1g2g3g4g5g6g7g8g9g.g+hahbhchdhehfhghhhihjhkhlhmhnhohphqhrhshthuhvhwhxhyhzhAhBhChDhEhFhGhHhIhJhKhLhMhNhOhPhQhRhShThUhVhWhXhYhZh0h1h2h3h4h5h6h7h8h9h.h+",
"aaabacadaeafagahaiajakalamanaoapaqarasatauavawaxayazaAaBaCaDaEaFaGaHaIaJaKaLaMaNaOaPaQaRaSaTaUaVaWaXaYaZa0a1a2a3a4a5a6a7a8a9a.a+babbbcbdbebfbgbhbibjbkblbmbnbobpbqbrbsbtbubvbwbxbybzbAbBbCbDbEbFbGbHbIbJbKbLbMbNbObPbQbRbSbTbUbVbWbXbYbZb0b1b2b3b4b5b6b7b8b9b.b+cacbcccdcecfcgchcicjckclcmcncocpcqcrcsctcucvcwcxcyczcAcBcCcDcEcFcGcHcIcJcKcLcMcNcOcPcQcRcScTcUcVcWcXcYcZc0c1c2c3c4c5c6c7c8c9c.c+dadbdcdddedfdgdhdidjdkdldmdndodpdqdrdsdtdudvdwdxdydzdAdBdCdDdEdFdGdHdIdJdKdLdMdNdOdPdQdRdSdTdUdVdWdXdYdZd0d1d2d3d4d5d6d7d8d9d.d+eaebecedeeefegeheiejekelemeneoepeqereseteuevewexeyezeAeBeCeDeEeFeGeHeIeJeKeLeMeNeOePeQeReSeTeUeVeWeXeYeZe0e1e2e3e4e5e6e7e8e9e.e+fafbfcfdfefffgfhfifjfkflfmfnfofpfqfrfsftfufvfwfxfyfzfAfBfCfDfEfFfGfHfIfJfKfLfMfNfOfPfQfRfSfTfUfVfWfXfYfZf0f1f2f3f4f5f6f7f8f9f.f+gagbgcgdgegfggghgigjgkglgmgngogpgqgrgsgtgugvgwgxgygzgAgBgCgDgEgFgGgHgIgJgKgLgMgNgOgPgQgRgSgTgUgVgWgXgYgZg0g1g2g3g4g5g6g7g8g9g.g+hahbhchdhehfhghhhihjhkhlhmhnhohphqhrhshthuhvhwhxhyhzhAhBhChDhEhFhGhHhIhJhKhLhMhNhOhPhQhRhShThUhVhWhXhYhZh0h1h2h3h4h5h6h7h8h9h.h+",
"aaabacadaeafagahaiajakalamanaoapaqarasatauavawaxayazaAaBaCaDaEaFaGaHaIaJaKaLaMaNaOaPaQaRaSaTaUaVaWaXaYaZa0a1a2a3a4a5a6a7a8a9a.a+babbbcbdbebfbgbhbibjbkblbmbnbobpbqbrbsbtbubvbwbxbybzbAbBbCbDbEbFbGbHbIbJbKbLbMbNbObPbQbRbSbTbUbVbWbXbYbZb0b1b2b3b4b5b6b7b8b9b.b+cacbcccdcecfcgchcicjckclcmcncocpcqcrcsctcucvcwcxcyczcAcBcCcDcEcFcGcHcIcJcKcLcMcNcOcPcQcRcScTcUcVcWcXcYcZc0c1c2c3c4c5c6c7c8c9c.c+dadbdcdddedfdgdhdidjdkdldmdndodpdqdrdsdtdudvdwdxdydzdAdBdCdDdEdFdGdHdIdJdKdLdMdNdOdPdQdRdSdTdUdVdWdXdYdZd0d1d2d3d4d5d6d7d8d9d.d+eaebecedeeefegeheiejekelemeneoepeqereseteuevewexeyezeAeBeCeDeEeFeGeHeIeJeKeLeMeNeOePeQeReSeTeUeVeWeXeYeZe0e1e2e3e4e5e6e7e8e9e.e+fafbfcfdfefffgfhfifjfkflfmfnfofpfqfrfsftfufvfwfxfyfzfAfBfCfDfEfFfGfHfIfJfKfLfMfNfOfPfQfRfSfTfUfVfWfXfYfZf0f1f2f3f4f5f6f7f8f9f.f+gagbgcgdgegfggghgigjgkglgmgngogpgqgrgsgtgugvgwgxgygzgAgBgCgDgEgFgGgHgIgJgKgLgMgNgOgPgQgRgSgTgUgVgWgXgYgZg0g1g2g3g4g5g6g7g8g9g.g+hahbhchdhehfhghhhihjhkhlhmhnhohphqhrhshthuhvhwhxhyhzhAhBhChDhEhFhGhHhIhJhKhLhMhNhOhPhQhRhShThUhVhWhXhYhZh0h1h2h3h4h5h6h7h8h9h.h+",
"aaabacadaeafagahaiajakalamanaoapaqarasatauavawaxayazaAaBaCaDaEaFaGaHaIaJaKaLaMaNaOaPaQaRaSaTaUaVaWaXaYaZa0a1a2a3a4a5a6a7a8a9a.a+babbbcbdbebfbgbhbibjbkblbmbnbobpbqbrbsbtbubvbwbxbybzbAbBbCbDbEbFbGbHbIbJbKbLbMbNbObPbQbRbSbTbUbVbWbXbYbZb0b1b2b3b4b5b6b7b8b9b.b+cacbcccdcecfcgchcicjckclcmcncocpcqcrcsctcucvcwcxcyczcAcBcCcDcEcFcGcHcIcJcKcLcMcNcOcPcQcRcScTcUcVcWcXcYcZc0c1c2c3c4c5c6c7c8c9c.c+dadbdcdddedfdgdhdidjdkdldmdndodpdqdrdsdtdudvdwdxdydzdAdBdCdDdEdFdGdHdIdJdKdLdMdNdOdPdQdRdSdTdUdVdWdXdYdZd0d1d2d3d4d5d6d7d8d9d.d+eaebecedeeefegeheiejekelemeneoepeqereseteuevewexeyezeAeBeCeDeEeFeGeHeIeJeKeLeMeNeOePeQeReSeTeUeVeWeXeYeZe0e1e2e3e4e5e6e7e8e9e.e+fafbfcfdfefffgfhfifjfkflfmfnfofpfqfrfsftfufvfwfxfyfzfAfBfCfDfEfFfGfHfIfJfKfLfMfNfOfPfQfRfSfTfUfVfWfXfYfZf0f1f2f3f4f5f6f7f8f9f.f+gagbgcgdgegfggghgigjgkglgmgngogpgqgrgsgtgugvgwgxgygzgAgBgCgDgEgFgGgHgIgJgKgLgMgNgOgPgQgRgSgTgUgVgWgXgYgZg0g1g2g3g4g5g6g7g8g9g.g+hahbhchdhehfhghhhihjhkhlhmhnhohphqhrhshthuhvhwhxhyhzhAhBhChDhEhFhGhHhIhJhKhLhMhNhOhPhQhRhShThUhVhWhXhYhZh0h1h2h3h4h5h6h7h8h9h.h+",
"aaabacadaeafagahaiajakalamanaoapaqarasatauavawaxayazaAaBaCaDaEaFaGaHaIaJaKaLaMaNaOaPaQaRaSaTaUaVaWaXaYaZa0a1a2a3a4a5a6a7a8a9a.a+babbbcbdbebfbgbhbibjbkblbmbnbobpbqbrbsbtbubvbwbxbybzbAbBbCbDbEbFbGbHbIbJbKbLbMbNbObPbQbRbSbTbUbVbWbXbYbZb0b1b2b3b4b5b6b7b8b9b.b+cacbcccdcecfcgchcicjckclcmcncocpcqcrcsctcucvcwcxcyczcAcBcCcDcEcFcGcHcIcJcKcLcMcNcOcPcQcRcScTcUcVcWcXcYcZc0c1c2c3c4c5c6c7c8c9c.c+dadbdcdddedfdgdhdidjdkdldmdndodpdqdrdsdtdudvdwdxdydzdAdBdCdDdEdFdGdHdIdJdKdLdMdNdOdPdQdRdSdTdUdVdWdXdYdZd0d1d2d3d4d5d6d7d8d9d.d+eaebecedeeefegeheiejekelemeneoepeqereseteuevewexeyezeAeBeCeDeEeFeGeHeIeJeKeLeMeNeOePeQeReSeTeUeVeWeXeYeZe0e1e2e3e4e5e6e7e8e9e.e+fafbfcfdfefffgfhfifjfkflfmfnfofpfqfrfsftfufvfwfxfyfzfAfBfCfDfEfFfGfHfIfJfKfLfMfNfOfPfQfRfSfTfUfVfWfXfYfZf0f1f2f3f4f5f6f7f8f9f.f+gagbgcgdgegfggghgigjgkglgmgngogpgqgrgsgtgugvgwgxgygzgAgBgCgDgEgFgGgHgIgJgKgLgMgNgOgPgQgRgSgTgUgVgWgXgYgZg0g1g2g3g4g5g6g7g8g9g.g+hahbhchdhehfhghhhihjhkhlhmhnhohphqhrhshthuhvhwhxhyhzhAhBhChDhEhFhGhHhIhJhKhLhMhNhOhPhQhRhShThUhVhWhXhYhZh0h1h2h3h4h5h6h7h8h9h.h+",
"aaabacadaeafagahaiajakalamanaoapaqarasatauavawaxayazaAaBaCaDaEaFaGaHaIaJaKaLaMaNaOaPaQaRaSaTaUaVaWaXaYaZa0a1a2a3a4a5a6a7a8a9a.a+babbbcbdbebfbgbhbibjbkblbmbnbobpbqbrbsbtbubvbwbxbybzbAbBbCbDbEbFbGbHbIbJbKbLbMbNbObPbQbRbSbTbUbVbWbXbYbZb0b1b2b3b4b5b6b7b8b9b.b+cacbcccdcecfcgchcicjckclcmcncocpcqcrcsctcucvcwcxcyczcAcBcCcDcEcFcGcHcIcJcKcLcMcNcOcPcQcRcScTcUcVcWcXcYcZc0c1c2c3c4c5c6c7c8c9c.c+dadbdcdddedfdgdhdidjdkdldmdndodpdqdrdsdtdudvdwdxdydzdAdBdCdDdEdFdGdHdIdJdKdLdMdNdOdPdQdRdSdTdUdVdWdXdYdZd0d1d2d3d4d5d6d7d8d9d.d+eaebecedeeefegeheiejekelemeneoepeqereseteuevewexeyezeAeBeCeDeEeFeGeHeIeJeKeLeMeNeOePeQeReSeTeUeVeWeXeYeZe0e1e2e3e4e5e6e7e8e9e.e+fafbfcfdfefffgfhfifjfkflfmfnfofpfqfrfsftfufvfwfxfyfzfAfBfCfDfEfFfGfHfIfJfKfLfMfNfOfPfQfRfSfTfUfVfWfXfYfZf0f1f2f3f4f5f6f7f8f9f.f+gagbgcgdgegfggghgigjgkglgmgngogpgqgrgsgtgugvgwgxgygzgAgBgCgDgEgFgGgHgIgJgKgLgMgNgOgPgQgRgSgTgUgVgWgXgYgZg0g1g2g3g4g5g6g7g8g9g.g+hahbhchdhehfhghhhihjhkhlhmhnhohphqhrhshthuhvhwhxhyhzhAhBhChDhEhFhGhHhIhJhKhLhMhNhOhPhQhRhShThUhVhWhXhYhZh0h1h2h3h4h5h6h7h8h9h.h+",
"aaabacadaeafagahaiajakalamanaoapaqarasatauavawaxayazaAaBaCaDaEaFaGaHaIaJaKaLaMaNaOaPaQaRaSaTaUaVaWaXaYaZa0a1a2a3a4a5a6a7a8a9a.a+babbbcbdbebfbgbhbibjbkblbmbnbobpbqbrbsbtbubvbwbxbybzbAbBbCbDbEbFbGbHbIbJbKbLbMbNbObPbQbRbSbTbUbVbWbXbYbZb0b1b2b3b4b5b6b7b8b9b.b+cacbcccdcecfcgchcicjckclcmcncocpcqcrcsctcucvcwcxcyczcAcBcCcDcEcFcGcHcIcJcKcLcMcNcOcPcQcRcScTcUcVcWcXcYcZc0c1c2c3c4c5c6c7c8c9c.c+dadbdcdddedfdgdhdidjdkdldmdndodpdqdrdsdtdudvdwdxdydzdAdBdCdDdEdFdGdHdIdJdKdLdMdNdOdPdQdRdSdTdUdVdWdXdYdZd0d1d2d3d4d5d6d7d8d9d.d+eaebecedeeefegeheiejekelemeneoepeqereseteuevewexeyezeAeBeCeDeEeFeGeHeIeJeKeLeMeNeOePeQeReSeTeUeVeWeXeYeZe0e1e2e3e4e5e6e7e8e9e.e+fafbfcfdfefffgfhfifjfkflfmfnfofpfqfrfsftfufvfwfxfyfzfAfBfCfDfEfFfGfHfIfJfKfLfMfNfOfPfQfRfSfTfUfVfWfXfYfZf0f1f2f3f4f5f6f7f8f9f.f+gagbgcgdgegfggghgigjgkglgmgngogpgqgrgsgtgugvgwgxgygzgAgBgCgDgEgFgGgHgIgJgKgLgMgNgOgPgQgRgSgTgUgVgWgXgYgZg0g1g2g3g4g5g6g7g8g9g.g+hahbhchdhehfhghhhihjhkhlhmhnhohphqhrhshthuhvhwhxhyhzhAhBhChDhEhFhGhHhIhJhKhLhMhNhOhPhQhRhShThUhVhWhXhYhZh0h1h2h3h4h5h6h7h8h9h.h+",
"aaabacadaeafagahaiajakalamanaoapaqarasatauavawaxayazaAaBaCaDaEaFaGaHaIaJaKaLaMaNaOaPaQaRaSaTaUaVaWaXaYaZa0a1a2a3a4a5a6a7a8a9a.a+babbbcbdbebfbgbhbibjbkblbmbnbobpbqbrbsbtbubvbwbxbybzbAbBbCbDbEbFbGbHbIbJbKbLbMbNbObPbQbRbSbTbUbVbWbXbYbZb0b1b2b3b4b5b6b7b8b9b.b+cacbcccdcecfcgchcicjckclcmcncocpcqcrcsctcucvcwcxcyczcAcBcCcDcEcFcGcHcIcJcKcLcMcNcOcPcQcRcScTcUcVcWcXcYcZc0c1c2c3c4c5c6c7c8c9c.c+dadbdcdddedfdgdhdidjdkdldmdndodpdqdrdsdtdudvdwdxdydzdAdBdCdDdEdFdGdHdIdJdKdLdMdNdOdPdQdRdSdTdUdVdWdXdYdZd0d1d2d3d4d5d6d7d8d9d.d+eaebecedeeefegeheiejekelemeneoepeqereseteuevewexeyezeAeBeCeDeEeFeGeHeIeJeKeLeMeNeOePeQeReSeTeUeVeWeXeYeZe0e1e2e3e4e5e6e7e8e9e.e+fafbfcfdfefffgfhfifjfkflfmfnfofpfqfrfsftfufvfwfxfyfzfAfBfCfDfEfFfGfHfIfJfKfLfMfNfOfPfQfRfSfTfUfVfWfXfYfZf0f1f2f3f4f5f6f7f8f9f.f+gagbgcgdgegfggghgigjgkglgmgngogpgqgrgsgtgugvgwgxgygzgAgBgCgDgEgFgGgHgIgJgKgLgMgNgOgPgQgRgSgTgUgVgWgXgYgZg0g1g2g3g4g5g6g7g8g9g.g+hahbhchdhehfhghhhihjhkhlhmhnhohphqhrhshthuhvhwhxhyhzhAhBhChDhEhFhGhHhIhJhKhLhMhNhOhPhQhRhShThUhVhWhXhYhZh0h1h2h3h4h5h6h7h8h9h.h+",
"aaabacadaeafagahaiajakalamanaoapaqarasatauavawaxayazaAaBaCaDaEaFaGaHaIaJaKaLaMaNaOaPaQaRaSaTaUaVaWaXaYaZa0a1a2a3a4a5a6a7a8a9a.a+babbbcbdbebfbgbhbibjbkblbmbnbobpbqbrbsbtbubvbwbxbybzbAbBbCbDbEbFbGbHbIbJbKbLbMbNbObPbQbRbSbTbUbVbWbXbYbZb0b1b2b3b4b5b6b7b8b9b.b+cacbcccdcecfcgchcicjckclcmcncocpcqcrcsctcucvcwcxcyczcAcBcCcDcEcFcGcHcIcJcKcLcMcNcOcPcQcRcScTcUcVcWcXcYcZc0c1c2c3c4c5c6c7c8c9c.c+dadbdcdddedfdgdhdidjdkdldmdndodpdqdrdsdtdudvdwdxdydzdAdBdCdDdEdFdGdHdIdJdKdLdMdNdOdPdQdRdSdTdUdVdWdXdYdZd0d1d2d3d4d5d6d7d8d9d.d+eaebecedeeefegeheiejekelemeneoepeqereseteuevewexeyezeAeBeCeDeEeFeGeHeIeJeKeLeMeNeOePeQeReSeTeUeVeWeXeYeZe0e1e2e3e4e5e6e7e8e9e.e+fafbfcfdfefffgfhfifjfkflfmfnfofpfqfrfsftfufvfwfxfyfzfAfBfCfDfEfFfGfHfIfJfKfLfMfNfOfPfQfRfSfTfUfVfWfXfYfZf0f1f2f3f4f5f6f7f8f9f.f+gagbgcgdgegfggghgigjgkglgmgngogpgqgrgsgtgugvgwgxgygzgAgBgCgDgEgFgGgHgIgJgKgLgMgNgOgPgQgRgSgTgUgVgWgXgYgZg0g1g2g3g4g5g6g7g8g9g.g+hahbhchdhehfhghhhihjhkhlhmhnhohphqhrhshthuhvhwhxhyhzhAhBhChDhEhFhGhHhIhJhKhLhMhNhOhPhQhRhShThUhVhWhXhYhZh0h1h2h3h4h5h6h7h8h9h.h+",
"aaabacadaeafagahaiajakalamanaoapaqarasatauavawaxayazaAaBaCaDaEaFaGaHaIaJaKaLaMaNaOaPaQaRaSaTaUaVaWaXaYaZa0a1a2a3a4a5a6a7a8a9a.a+babbbcbdbebfbgbhbibjbkblbmbnbobpbqbrbsbtbubvbwbxbybzbAbBbCbDbEbFbGbHbIbJbKbLbMbNbObPbQbRbSbTbUbVbWbXbYbZb0b1b2b3b4b5b6b7b8b9b.b+cacbcccdcecfcgchcicjckclcmcncocpcqcrcsctcucvcwcxcyczcAcBcCcDcEcFcGcHcIcJcKcLcMcNcOcPcQcRcScTcUcVcWcXcYcZc0c1c2c3c4c5c6c7c8c9c.c+dadbdcdddedfdgdhdidjdkdldmdndodpdqdrdsdtdudvdwdxdydzdAdBdCdDdEdFdGdHdIdJdKdLdMdNdOdPdQdRdSdTdUdVdWdXdYdZd0d1d2d3d4d5d6d7d8d9d.d+eaebecedeeefegeheiejekelemeneoepeqereseteuevewexeyezeAeBeCeDeEeFeGeHeIeJeKeLeMeNeOePeQeReSeTeUeVeWeXeYeZe0e1e2e3e4e5e6e7e8e9e.e+fafbfcfdfefffgfhfifjfkflfmfnfofpfqfrfsftfufvfwfxfyfzfAfBfCfDfEfFfGfHfIfJfKfLfMfNfOfPfQfRfSfTfUfVfWfXfYfZf0f1f2f3f4f5f6f7f8f9f.f+gagbgcgdgegfggghgigjgkglgmgngogpgqgrgsgtgugvgwgxgygzgAgBgCgDgEgFgGgHgIgJgKgLgMgNgOgPgQgRgSgTgUgVgWgXgYgZg0g1g2g3g4g5g6g7g8g9g.g+hahbhchdhehfhghhhihjhkhlhmhnhohphqhrhshthuhvhwhxhyhzhAhBhChDhEhFhGhHhIhJhKhLhMhNhOhPhQhRhShThUhVhWhXhYhZh0h1h2h3h4h5h6h7h8h9h.h+",
"aaabacadaeafagahaiajakalamanaoapaqarasatauavawaxayazaAaBaCaDaEaFaGaHaIaJaKaLaMaNaOaPaQaRaSaTaUaVaWaXaYaZa0a1a2a3a4a5a6a7a8a9a.a+babbbcbdbebfbgbhbibjbkblbmbnbobpbqbrbsbtbubvbwbxbybzbAbBbCbDbEbFbGbHbIbJbKbLbMbNbObPbQbRbSbTbUbVbWbXbYbZb0b1b2b3b4b5b6b7b8b9b.b+cacbcccdcecfcgchcicjckclcmcncocpcqcrcsctcucvcwcxcyczcAcBcCcDcEcFcGcHcIcJcKcLcMcNcOcPcQcRcScTcUcVcWcXcYcZc0c1c2c3c4c5c6c7c8c9c.c+dadbdcdddedfdgdhdidjdkdldmdndodpdqdrdsdtdudvdwdxdydzdAdBdCdDdEdFdGdHdIdJdKdLdMdNdOdPdQdRdSdTdUdVdWdXdYdZd0d1d2d3d4d5d6d7d8d9d.d+eaebecedeeefegeheiejekelemeneoepeqereseteuevewexeyezeAeBeCeDeEeFeGeHeIeJeKeLeMeNeOePeQeReSeTeUeVeWeXeYeZe0e1e2e3e4e5e6e7e8e9e.e+fafbfcfdfefffgfhfifjfkflfmfnfofpfqfrfsftfufvfwfxfyfzfAfBfCfDfEfFfGfHfIfJfKfLfMfNfOfPfQfRfSfTfUfVfWfXfYfZf0f1f2f3f4f5f6f7f8f9f.f+gagbgcgdgegfggghgigjgkglgmgngogpgqgrgsgtgugvgwgxgygzgAgBgCgDgEgFgGgHgIgJgKgLgMgNgOgPgQgRgSgTgUgVgWgXgYgZg0g1g2g3g4g5g6g7g8g9g.g+hahbhchdhehfhghhhihjhkhlhmhnhohphqhrhshthuhvhwhxhyhzhAhBhChDhEhFhGhHhIhJhKhLhMhNhOhPhQhRhShThUhVhWhXhYhZh0h1h2h3h4h5h6h7h8h9h.h+",
"aaabacadaeafagahaiajakalamanaoapaqarasatauavawaxayazaAaBaCaDaEaFaGaHaIaJaKaLaMaNaOaPaQaRaSaTaUaVaWaXaYaZa0a1a2a3a4a5a6a7a8a9a.a+babbbcbdbebfbgbhbibjbkblbmbnbobpbqbrbsbtbubvbwbxbybzbAbBbCbDbEbFbGbHbIbJbKbLbMbNbObPbQbRbSbTbUbVbWbXbYbZb0b1b2b3b4b5b6b7b8b9b.b+cacbcccdcecfcgchcicjckclcmcncocpcqcrcsctcucvcwcxcyczcAcBcCcDcEcFcGcHcIcJcKcLcMcNcOcPcQcRcScTcUcVcWcXcYcZc0c1c2c3c4c5c6c7c8c9c.c+dadbdcdddedfdgdhdidjdkdldmdndodpdqdrdsdtdudvdwdxdydzdAdBdCdDdEdFdGdHdIdJdKdLdMdNdOdPdQdRdSdTdUdVdWdXdYdZd0d1d2d3d4d5d6d7d8d9d.d+eaebecedeeefegeheiejekelemeneoepeqereseteuevewexeyezeAeBeCeDeEeFeGeHeIeJeKeLeMeNeOePeQeReSeTeUeVeWeXeYeZe0e1e2e3e4e5e6e7e8e9e.e+fafbfcfdfefffgfhfifjfkflfmfnfofpfqfrfsftfufvfwfxfyfzfAfBfCfDfEfFfGfHfIfJfKfLfMfNfOfPfQfRfSfTfUfVfWfXfYfZf0f1f2f3f4f5f6f7f8f9f.f+gagbgcgdgegfggghgigjgkglgmgngogpgqgrgsgtgugvgwgxgygzgAgBgCgDgEgFgGgHgIgJgKgLgMgNgOgPgQgRgSgTgUgVgWgXgYgZg0g1g2g3g4g5g6g7g8g9g.g+hahbhchdhehfhghhhihjhkhlhmhnhohphqhrhshthuhvhwhxhyhzhAhBhChDhEhFhGhHhIhJhKhLhMhNhOhPhQhRhShThUhVhWhXhYhZh0h1h2h3h4h5h6h7h8h9h.h+",
"aaabacadaeafagahaiajakalamanaoapaqarasatauavawaxayazaAaBaCaDaEaFaGaHaIaJaKaLaMaNaOaPaQaRaSaTaUaVaWaXaYaZa0a1a2a3a4a5a6a7a8a9a.a+babbbcbdbebfbgbhbibjbkblbmbnbobpbqbrbsbtbubvbwbxbybzbAbBbCbDbEbFbGbHbIbJbKbLbMbNbObPbQbRbSbTbUbVbWbXbYbZb0b1b2b3b4b5b6b7b8b9b.b+cacbcccdcecfcgchcicjckclcmcncocpcqcrcsctcucvcwcxcyczcAcBcCcDcEcFcGcHcIcJcKcLcMcNcOcPcQcRcScTcUcVcWcXcYcZc0c1c2c3c4c5c6c7c8c9c.c+dadbdcdddedfdgdhdidjdkdldmdndodpdqdrdsdtdudvdwdxdydzdAdBdCdDdEdFdGdHdIdJdKdLdMdNdOdPdQdRdSdTdUdVdWdXdYdZd0d1d2d3d4d5d6d7d8d9d.d+eaebecedeeefegeheiejekelemeneoepeqereseteuevewexeyezeAeBeCeDeEeFeGeHeIeJeKeLeMeNeOePeQeReSeTeUeVeWeXeYeZe0e1e2e3e4e5e6e7e8e9e.e+fafbfcfdfefffgfhfifjfkflfmfnfofpfqfrfsftfufvfwfxfyfzfAfBfCfDfEfFfGfHfIfJfKfLfMfNfOfPfQfRfSfTfUfVfWfXfYfZf0f1f2f3f4f5f6f7f8f9f.f+gagbgcgdgegfggghgigjgkglgmgngogpgqgrgsgtgugvgwgxgygzgAgBgCgDgEgFgGgHgIgJgKgLgMgNgOgPgQgRgSgTgUgVgWgXgYgZg0g1g2g3g4g5g6g7g8g9g.g+hahbhchdhehfhghhhihjhkhlhmhnhohphqhrhshthuhvhwhxhyhzhAhBhChDhEhFhGhHhIhJhKhLhMhNhOhPhQhRhShThUhVhWhXhYhZh0h1h2h3h4h5h6h7h8h9h.h+",
"aaabacadaeafagahaiajakalamanaoapaqarasatauavawaxayazaAaBaCaDaEaFaGaHaIaJaKaLaMaNaOaPaQaRaSaTaUaVaWaXaYaZa0a1a2a3a4a5a6a7a8a9a.a+babbbcbdbebfbgbhbibjbkblbmbnbobpbqbrbsbtbubvbwbxbybzbAbBbCbDbEbFbGbHbIbJbKbLbMbNbObPbQbRbSbTbUbVbWbXbYbZb0b1b2b3b4b5b6b7b8b9b.b+cacbcccdcecfcgchcicjckclcmcncocpcqcrcsctcucvcwcxcyczcAcBcCcDcEcFcGcHcIcJcKcLcMcNcOcPcQcRcScTcUcVcWcXcYcZc0c1c2c3c4c5c6c7c8c9c.c+dadbdcdddedfdgdhdidjdkdldmdndodpdqdrdsdtdudvdwdxdydzdAdBdCdDdEdFdGdHdIdJdKdLdMdNdOdPdQdRdSdTdUdVdWdXdYdZd0d1d2d3d4d5d6d7d8d9d.d+eaebecedeeefegeheiejekelemeneoepeqereseteuevewexeyezeAeBeCeDeEeFeGeHeIeJeKeLeMeNeOePeQeReSeTeUeVeWeXeYeZe0e1e2e3e4e5e6e7e8e9e.e+fafbfcfdfefffgfhfifjfkflfmfnfofpfqfrfsftfufvfwfxfyfzfAfBfCfDfEfFfGfHfIfJfKfLfMfNfOfPfQfRfSfTfUfVfWfXfYfZf0f1f2f3f4f5f6f7f8f9f.f+gagbgcgdgegfggghgigjgkglgmgngogpgqgrgsgtgugvgwgxgygzgAgBgCgDgEgFgGgHgIgJgKgLgMgNgOgPgQgRgSgTgUgVgWgXgYgZg0g1g2g3g4g5g6g7g8g9g.g+hahbhchdhehfhghhhihjhkhlhmhnhohphqhrhshthuhvhwhxhyhzhAhBhChDhEhFhGhHhIhJhKhLhMhNhOhPhQhRhShThUhVhWhXhYhZh0h1h2h3h4h5h6h7h8h9h.h+",
"aaabacadaeafagahaiajakalamanaoapaqarasatauavawaxayazaAaBaCaDaEaFaGaHaIaJaKaLaMaNaOaPaQaRaSaTaUaVaWaXaYaZa0a1a2a3a4a5a6a7a8a9a.a+babbbcbdbebfbgbhbibjbkblbmbnbobpbqbrbsbtbubvbwbxbybzbAbBbCbDbEbFbGbHbIbJbKbLbMbNbObPbQbRbSbTbUbVbWbXbYbZb0b1b2b3b4b5b6b7b8b9b.b+cacbcccdcecfcgchcicjckclcmcncocpcqcrcsctcucvcwcxcyczcAcBcCcDcEcFcGcHcIcJcKcLcMcNcOcPcQcRcScTcUcVcWcXcYcZc0c1c2c3c4c5c6c7c8c9c.c+dadbdcdddedfdgdhdidjdkdldmdndodpdqdrdsdtdudvdwdxdydzdAdBdCdDdEdFdGdHdIdJdKdLdMdNdOdPdQdRdSdTdUdVdWdXdYdZd0d1d2d3d4d5d6d7d8d9d.d+eaebecedeeefegeheiejekelemeneoepeqereseteuevewexeyezeAeBeCeDeEeFeGeHeIeJeKeLeMeNeOePeQeReSeTeUeVeWeXeYeZe0e1e2e3e4e5e6e7e8e9e.e+fafbfcfdfefffgfhfifjfkflfmfnfofpfqfrfsftfufvfwfxfyfzfAfBfCfDfEfFfGfHfIfJfKfLfMfNfOfPfQfRfSfTfUfVfWfXfYfZf0f1f2f3f4f5f6f7f8f9f.f+gagbgcgdgegfggghgigjgkglgmgngogpgqgrgsgtgugvgwgxgygzgAgBgCgDgEgFgGgHgIgJgKgLgMgNgOgPgQgRgSgTgUgVgWgXgYgZg0g1g2g3g4g5g6g7g8g9g.g+hahbhchdhehfhghhhihjhkhlhmhnhohphqhrhshthuhvhwhxhyhzhAhBhChDhEhFhGhHhIhJhKhLhMhNhOhPhQhRhShThUhVhWhXhYhZh0h1h2h3h4h5h6h7h8h9h.h+",
"aaabacadaeafagahaiajakalamanaoapaqarasatauavawaxayazaAaBaCaDaEaFaGaHaIaJaKaLaMaNaOaPaQaRaSaTaUaVaWaXaYaZa0a1a2a3a4a5a6a7a8a9a.a+babbbcbdbebfbgbhbibjbkblbmbnbobpbqbrbsbtbubvbwbxbybzbAbBbCbDbEbFbGbHbIbJbKbLbMbNbObPbQbRbSbTbUbVbWbXbYbZb0b1b2b3b4b5b6b7b8b9b.b+cacbcccdcecfcgchcicjckclcmcncocpcqcrcsctcucvcwcxcyczcAcBcCcDcEcFcGcHcIcJcKcLcMcNcOcPcQcRcScTcUcVcWcXcYcZc0c1c2c3c4c5c6c7c8c9c.c+dadbdcdddedfdgdhdidjdkdldmdndodpdqdrdsdtdudvdwdxdydzdAdBdCdDdEdFdGdHdIdJdKdLdMdNdOdPdQdRdSdTdUdVdWdXdYdZd0d1d2d3d4d5d6d7d8d9d.d+eaebecedeeefegeheiejekelemeneoepeqereseteuevewexeyezeAeBeCeDeEeFeGeHeIeJeKeLeMeNeOePeQeReSeTeUeVeWeXeYeZe0e1e2e3e4e5e6e7e8e9e.e+fafbfcfdfefffgfhfifjfkflfmfnfofpfqfrfsftfufvfwfxfyfzfAfBfCfDfEfFfGfHfIfJfKfLfMfNfOfPfQfRfSfTfUfVfWfXfYfZf0f1f2f3f4f5f6f7f8f9f.f+gagbgcgdgegfggghgigjgkglgmgngogpgqgrgsgtgugvgwgxgygzgAgBgCgDgEgFgGgHgIgJgKgLgMgNgOgPgQgRgSgTgUgVgWgXgYgZg0g1g2g3g4g5g6g7g8g9g.g+hahbhchdhehfhghhhihjhkhlhmhnhohphqhrhshthuhvhwhxhyhzhAhBhChDhEhFhGhHhIhJhKhLhMhNhOhPhQhRhShThUhVhWhXhYhZh0h1h2h3h4h5h6h7h8h9h.h+",
"aaabacadaeafagahaiajakalamanaoapaqarasatauavawaxayazaAaBaCaDaEaFaGaHaIaJaKaLaMaNaOaPaQaRaSaTaUaVaWaXaYaZa0a1a2a3a4a5a6a7a8a9a.a+babbbcbdbebfbgbhbibjbkblbmbnbobpbqbrbsbtbubvbwbxbybzbAbBbCbDbEbFbGbHbIbJbKbLbMbNbObPbQbRbSbTbUbVbWbXbYbZb0b1b2b3b4b5b6b7b8b9b.b+cacbcccdcecfcgchcicjckclcmcncocpcqcrcsctcucvcwcxcyczcAcBcCcDcEcFcGcHcIcJcKcLcMcNcOcPcQcRcScTcUcVcWcXcYcZc0c1c2c3c4c5c6c7c8c9c.c+dadbdcdddedfdgdhdidjdkdldmdndodpdqdrdsdtdudvdwdxdydzdAdBdCdDdEdFdGdHdIdJdKdLdMdNdOdPdQdRdSdTdUdVdWdXdYdZd0d1d2d3d4d5d6d7d8d9d.d+eaebecedeeefegeheiejekelemeneoepeqereseteuevewexeyezeAeBeCeDeEeFeGeHeIeJeKeLeMeNeOePeQeReSeTeUeVeWeXeYeZe0e1e2e3e4e5e6e7e8e9e.e+fafbfcfdfefffgfhfifjfkflfmfnfofpfqfrfsftfufvfwfxfyfzfAfBfCfDfEfFfGfHfIfJfKfLfMfNfOfPfQfRfSfTfUfVfWfXfYfZf0f1f2f3f4f5f6f7f8f9f.f+gagbgcgdgegfggghgigjgkglgmgngogpgqgrgsgtgugvgwgxgygzgAgBgCgDgEgFgGgHgIgJgKgLgMgNgOgPgQgRgSgTgUgVgWgXgYgZg0g1g2g3g4g5g6g7g8g9g.g+hahbhchdhehfhghhhihjhkhlhmhnhohphqhrhshthuhvhwhxhyhzhAhBhChDhEhFhGhHhIhJhKhLhMhNhOhPhQhRhShThUhVhWhXhYhZh0h1h2h3h4h5h6h7h8h9h.h+",
"aaabacadaeafagahaiajakalamanaoapaqarasatauavawaxayazaAaBaCaDaEaFaGaHaIaJaKaLaMaNaOaPaQaRaSaTaUaVaWaXaYaZa0a1a2a3a4a5a6a7a8a9a.a+babbbcbdbebfbgbhbibjbkblbmbnbobpbqbrbsbtbubvbwbxbybzbAbBbCbDbEbFbGbHbIbJbKbLbMbNbObPbQbRbSbTbUbVbWbXbYbZb0b1b2b3b4b5b6b7b8b9b.b+cacbcccdcecfcgchcicjckclcmcncocpcqcrcsctcucvcwcxcyczcAcBcCcDcEcFcGcHcIcJcKcLcMcNcOcPcQcRcScTcUcVcWcXcYcZc0c1c2c3c4c5c6c7c8c9c.c+dadbdcdddedfdgdhdidjdkdldmdndodpdqdrdsdtdudvdwdxdydzdAdBdCdDdEdFdGdHdIdJdKdLdMdNdOdPdQdRdSdTdUdVdWdXdYdZd0d1d2d3d4d5d6d7d8d9d.d+eaebecedeeefegeheiejekelemeneoepeqereseteuevewexeyezeAeBeCeDeEeFeGeHeIeJeKeLeMeNeOePeQeReSeTeUeVeWeXeYeZe0e1e2e3e4e5e6e7e8e9e.e+fafbfcfdfefffgfhfifjfkflfmfnfofpfqfrfsftfufvfwfxfyfzfAfBfCfDfEfFfGfHfIfJfKfLfMfNfOfPfQfRfSfTfUfVfWfXfYfZf0f1f2f3f4f5f6f7f8f9f.f+gagbgcgdgegfggghgigjgkglgmgngogpgqgrgsgtgugvgwgxgygzgAgBgCgDgEgFgGgHgIgJgKgLgMgNgOgPgQgRgSgTgUgVgWgXgYgZg0g1g2g3g4g5g6g7g8g9g.g+hahbhchdhehfhghhhihjhkhlhmhnhohphqhrhshthuhvhwhxhyhzhAhBhChDhEhFhGhHhIhJhKhLhMhNhOhPhQhRhShThUhVhWhXhYhZh0h1h2h3h4h5h6h7h8h9h.h+",
"aaabacadaeafagahaiajakalamanaoapaqarasatauavawaxayazaAaBaCaDaEaFaGaHaIaJaKaLaMaNaOaPaQaRaSaTaUaVaWaXaYaZa0a1a2a3a4a5a6a7a8a9a.a+babbbcbdbebfbgbhbibjbkblbmbnbobpbqbrbsbtbubvbwbxbybzbAbBbCbDbEbFbGbHbIbJbKbLbMbNbObPbQbRbSbTbUbVbWbXbYbZb0b1b2b3b4b5b6b7b8b9b.b+cacbcccdcecfcgchcicjckclcmcncocpcqcrcsctcucvcwcxcyczcAcBcCcDcEcFcGcHcIcJcKcLcMcNcOcPcQcRcScTcUcVcWcXcYcZc0c1c2c3c4c5c6c7c8c9c.c+dadbdcdddedfdgdhdidjdkdldmdndodpdqdrdsdtdudvdwdxdydzdAdBdCdDdEdFdGdHdIdJdKdLdMdNdOdPdQdRdSdTdUdVdWdXdYdZd0d1d2d3d4d5d6d7d8d9d.d+eaebecedeeefegeheiejekelemeneoepeqereseteuevewexeyezeAeBeCeDeEeFeGeHeIeJeKeLeMeNeOePeQeReSeTeUeVeWeXeYeZe0e1e2e3e4e5e6e7e8e9e.e+fafbfcfdfefffgfhfifjfkflfmfnfofpfqfrfsftfufvfwfxfyfzfAfBfCfDfEfFfGfHfIfJfKfLfMfNfOfPfQfRfSfTfUfVfWfXfYfZf0f1f2f3f4f5f6f7f8f9f.f+gagbgcgdgegfggghgigjgkglgmgngogpgqgrgsgtgugvgwgxgygzgAgBgCgDgEgFgGgHgIgJgKgLgMgNgOgPgQgRgSgTgUgVgWgXgYgZg0g1g2g3g4g5g6g7g8g9g.g+hahbhchdhehfhghhhihjhkhlhmhnhohphqhrhshthuhvhwhxhyhzhAhBhChDhEhFhGhHhIhJhKhLhMhNhOhPhQhRhShThUhVhWhXhYhZh0h1h2h3h4h5h6h7h8h9h.h+",
"aaabacadaeafagahaiajakalamanaoapaqarasatauavawaxayazaAaBaCaDaEaFaGaHaIaJaKaLaMaNaOaPaQaRaSaTaUaVaWaXaYaZa0a1a2a3a4a5a6a7a8a9a.a+babbbcbdbebfbgbhbibjbkblbmbnbobpbqbrbsbtbubvbwbxbybzbAbBbCbDbEbFbGbHbIbJbKbLbMbNbObPbQbRbSbTbUbVbWbXbYbZb0b1b2b3b4b5b6b7b8b9b.b+cacbcccdcecfcgchcicjckclcmcncocpcqcrcsctcucvcwcxcyczcAcBcCcDcEcFcGcHcIcJcKcLcMcNcOcPcQcRcScTcUcVcWcXcYcZc0c1c2c3c4c5c6c7c8c9c.c+dadbdcdddedfdgdhdidjdkdldmdndodpdqdrdsdtdudvdwdxdydzdAdBdCdDdEdFdGdHdIdJdKdLdMdNdOdPdQdRdSdTdUdVdWdXdYdZd0d1d2d3d4d5d6d7d8d9d.d+eaebecedeeefegeheiejekelemeneoepeqereseteuevewexeyezeAeBeCeDeEeFeGeHeIeJeKeLeMeNeOePeQeReSeTeUeVeWeXeYeZe0e1e2e3e4e5e6e7e8e9e.e+fafbfcfdfefffgfhfifjfkflfmfnfofpfqfrfsftfufvfwfxfyfzfAfBfCfDfEfFfGfHfIfJfKfLfMfNfOfPfQfRfSfTfUfVfWfXfYfZf0f1f2f3f4f5f6f7f8f9f.f+gagbgcgdgegfggghgigjgkglgmgngogpgqgrgsgtgugvgwgxgygzgAgBgCgDgEgFgGgHgIgJgKgLgMgNgOgPgQgRgSgTgUgVgWgXgYgZg0g1g2g3g4g5g6g7g8g9g.g+hahbhchdhehfhghhhihjhkhlhmhnhohphqhrhshthuhvhwhxhyhzhAhBhChDhEhFhGhHhIhJhKhLhMhNhOhPhQhRhShThUhVhWhXhYhZh0h1h2h3h4h5h6h7h8h9h.h+",
"aaabacadaeafagahaiajakalamanaoapaqarasatauavawaxayazaAaBaCaDaEaFaGaHaIaJaKaLaMaNaOaPaQaRaSaTaUaVaWaXaYaZa0a1a2a3a4a5a6a7a8a9a.a+babbbcbdbebfbgbhbibjbkblbmbnbobpbqbrbsbtbubvbwbxbybzbAbBbCbDbEbFbGbHbIbJbKbLbMbNbObPbQbRbSbTbUbVbWbXbYbZb0b1b2b3b4b5b6b7b8b9b.b+cacbcccdcecfcgchcicjckclcmcncocpcqcrcsctcucvcwcxcyczcAcBcCcDcEcFcGcHcIcJcKcLcMcNcOcPcQcRcScTcUcVcWcXcYcZc0c1c2c3c4c5c6c7c8c9c.c+dadbdcdddedfdgdhdidjdkdldmdndodpdqdrdsdtdudvdwdxdydzdAdBdCdDdEdFdGdHdIdJdKdLdMdNdOdPdQdRdSdTdUdVdWdXdYdZd0d1d2d3d4d5d6d7d8d9d.d+eaebecedeeefegeheiejekelemeneoepeqereseteuevewexeyezeAeBeCeDeEeFeGeHeIeJeKeLeMeNeOePeQeReSeTeUeVeWeXeYeZe0e1e2e3e4e5e6e7e8e9e.e+fafbfcfdfefffgfhfifjfkflfmfnfofpfqfrfsftfufvfwfxfyfzfAfBfCfDfEfFfGfHfIfJfKfLfMfNfOfPfQfRfSfTfUfVfWfXfYfZf0f1f2f3f4f5f6f7f8f9f.f+gagbgcgdgegfggghgigjgkglgmgngogpgqgrgsgtgugvgwgxgygzgAgBgCgDgEgFgGgHgIgJgKgLgMgNgOgPgQgRgSgTgUgVgWgXgYgZg0g1g2g3g4g5g6g7g8g9g.g+hahbhchdhehfhghhhihjhkhlhmhnhohphqhrhshthuhvhwhxhyhzhAhBhChDhEhFhGhHhIhJhKhLhMhNhOhPhQhRhShThUhVhWhXhYhZh0h1h2h3h4h5h6h7h8h9h.h+",
"aaabacadaeafagahaiajakalamanaoapaqarasatauavawaxayazaAaBaCaDaEaFaGaHaIaJaKaLaMaNaOaPaQaRaSaTaUaVaWaXaYaZa0a1a2a3a4a5a6a7a8a9a.a+babbbcbdbebfbgbhbibjbkblbmbnbobpbqbrbsbtbubvbwbxbybzbAbBbCbDbEbFbGbHbIbJbKbLbMbNbObPbQbRbSbTbUbVbWbXbYbZb0b1b2b3b4b5b6b7b8b9b.b+cacbcccdcecfcgchcicjckclcmcncocpcqcrcsctcucvcwcxcyczcAcBcCcDcEcFcGcHcIcJcKcLcMcNcOcPcQcRcScTcUcVcWcXcYcZc0c1c2c3c4c5c6c7c8c9c.c+dadbdcdddedfdgdhdidjdkdldmdndodpdqdrdsdtdudvdwdxdydzdAdBdCdDdEdFdGdHdIdJdKdLdMdNdOdPdQdRdSdTdUdVdWdXdYdZd0d1d2d3d4d5d6d7d8d9d.d+eaebecedeeefegeheiejekelemeneoepeqereseteuevewexeyezeAeBeCeDeEeFeGeHeIeJeKeLeMeNeOePeQeReSeTeUeVeWeXeYeZe0e1e2e3e4e5e6e7e8e9e.e+fafbfcfdfefffgfhfifjfkflfmfnfofpfqfrfsftfufvfwfxfyfzfAfBfCfDfEfFfGfHfIfJfKfLfMfNfOfPfQfRfSfTfUfVfWfXfYfZf0f1f2f3f4f5f6f7f8f9f.f+gagbgcgdgegfggghgigjgkglgmgngogpgqgrgsgtgugvgwgxgygzgAgBgCgDgEgFgGgHgIgJgKgLgMgNgOgPgQgRgSgTgUgVgWgXgYgZg0g1g2g3g4g5g6g7g8g9g.g+hahbhchdhehfhghhhihjhkhlhmhnhohphqhrhshthuhvhwhxhyhzhAhBhChDhEhFhGhHhIhJhKhLhMhNhOhPhQhRhShThUhVhWhXhYhZh0h1h2h3h4h5h6h7h8h9h.h+",
"aaabacadaeafagahaiajakalamanaoapaqarasatauavawaxayazaAaBaCaDaEaFaGaHaIaJaKaLaMaNaOaPaQaRaSaTaUaVaWaXaYaZa0a1a2a3a4a5a6a7a8a9a.a+babbbcbdbebfbgbhbibjbkblbmbnbobpbqbrbsbtbubvbwbxbybzbAbBbCbDbEbFbGbHbIbJbKbLbMbNbObPbQbRbSbTbUbVbWbXbYbZb0b1b2b3b4b5b6b7b8b9b.b+cacbcccdcecfcgchcicjckclcmcncocpcqcrcsctcucvcwcxcyczcAcBcCcDcEcFcGcHcIcJcKcLcMcNcOcPcQcRcScTcUcVcWcXcYcZc0c1c2c3c4c5c6c7c8c9c.c+dadbdcdddedfdgdhdidjdkdldmdndodpdqdrdsdtdudvdwdxdydzdAdBdCdDdEdFdGdHdIdJdKdLdMdNdOdPdQdRdSdTdUdVdWdXdYdZd0d1d2d3d4d5d6d7d8d9d.d+eaebecedeeefegeheiejekelemeneoepeqereseteuevewexeyezeAeBeCeDeEeFeGeHeIeJeKeLeMeNeOePeQeReSeTeUeVeWeXeYeZe0e1e2e3e4e5e6e7e8e9e.e+fafbfcfdfefffgfhfifjfkflfmfnfofpfqfrfsftfufvfwfxfyfzfAfBfCfDfEfFfGfHfIfJfKfLfMfNfOfPfQfRfSfTfUfVfWfXfYfZf0f1f2f3f4f5f6f7f8f9f.f+gagbgcgdgegfggghgigjgkglgmgngogpgqgrgsgtgugvgwgxgygzgAgBgCgDgEgFgGgHgIgJgKgLgMgNgOgPgQgRgSgTgUgVgWgXgYgZg0g1g2g3g4g5g6g7g8g9g.g+hahbhchdhehfhghhhihjhkhlhmhnhohphqhrhshthuhvhwhxhyhzhAhBhChDhEhFhGhHhIhJhKhLhMhNhOhPhQhRhShThUhVhWhXhYhZh0h1h2h3h4h5h6h7h8h9h.h+",
"aaabacadaeafagahaiajakalamanaoapaqarasatauavawaxayazaAaBaCaDaEaFaGaHaIaJaKaLaMaNaOaPaQaRaSaTaUaVaWaXaYaZa0a1a2a3a4a5a6a7a8a9a.a+babbbcbdbebfbgbhbibjbkblbmbnbobpbqbrbsbtbubvbwbxbybzbAbBbCbDbEbFbGbHbIbJbKbLbMbNbObPbQbRbSbTbUbVbWbXbYbZb0b1b2b3b4b5b6b7b8b9b.b+cacbcccdcecfcgchcicjckclcmcncocpcqcrcsctcucvcwcxcyczcAcBcCcDcEcFcGcHcIcJcKcLcMcNcOcPcQcRcScTcUcVcWcXcYcZc0c1c2c3c4c5c6c7c8c9c.c+dadbdcdddedfdgdhdidjdkdldmdndodpdqdrdsdtdudvdwdxdydzdAdBdCdDdEdFdGdHdIdJdKdLdMdNdOdPdQdRdSdTdUdVdWdXdYdZd0d1d2d3d4d5d6d7d8d9d.d+eaebecedeeefegeheiejekelemeneoepeqereseteuevewexeyezeAeBeCeDeEeFeGeHeIeJeKeLeMeNeOePeQeReSeTeUeVeWeXeYeZe0e1e2e3e4e5e6e7e8e9e.e+fafbfcfdfefffgfhfifjfkflfmfnfofpfqfrfsftfufvfwfxfyfzfAfBfCfDfEfFfGfHfIfJfKfLfMfNfOfPfQfRfSfTfUfVfWfXfYfZf0f1f2f3f4f5f6f7f8f9f.f+gagbgcgdgegfggghgigjgkglgmgngogpgqgrgsgtgugvgwgxgygzgAgBgCgDgEgFgGgHgIgJgKgLgMgNgOgPgQgRgSgTgUgVgWgXgYgZg0g1g2g3g4g5g6g7g8g9g.g+hahbhchdhehfhghhhihjhkhlhmhnhohphqhrhshthuhvhwhxhyhzhAhBhChDhEhFhGhHhIhJhKhLhMhNhOhPhQhRhShThUhVhWhXhYhZh0h1h2h3h4h5h6h7h8h9h.h+",
"aaabacadaeafagahaiajakalamanaoapaqarasatauavawaxayazaAaBaCaDaEaFaGaHaIaJaKaLaMaNaOaPaQaRaSaTaUaVaWaXaYaZa0a1a2a3a4a5a6a7a8a9a.a+babbbcbdbebfbgbhbibjbkblbmbnbobpbqbrbsbtbubvbwbxbybzbAbBbCbDbEbFbGbHbIbJbKbLbMbNbObPbQbRbSbTbUbVbWbXbYbZb0b1b2b3b4b5b6b7b8b9b.b+cacbcccdcecfcgchcicjckclcmcncocpcqcrcsctcucvcwcxcyczcAcBcCcDcEcFcGcHcIcJcKcLcMcNcOcPcQcRcScTcUcVcWcXcYcZc0c1c2c3c4c5c6c7c8c9c.c+dadbdcdddedfdgdhdidjdkdldmdndodpdqdrdsdtdudvdwdxdydzdAdBdCdDdEdFdGdHdIdJdKdLdMdNdOdPdQdRdSdTdUdVdWdXdYdZd0d1d2d3d4d5d6d7d8d9d.d+eaebecedeeefegeheiejekelemeneoepeqereseteuevewexeyezeAeBeCeDeEeFeGeHeIeJeKeLeMeNeOePeQeReSeTeUeVeWeXeYeZe0e1e2e3e4e5e6e7e8e9e.e+fafbfcfdfefffgfhfifjfkflfmfnfofpfqfrfsftfufvfwfxfyfzfAfBfCfDfEfFfGfHfIfJfKfLfMfNfOfPfQfRfSfTfUfVfWfXfYfZf0f1f2f3f4f5f6f7f8f9f.f+gagbgcgdgegfggghgigjgkglgmgngogpgqgrgsgtgugvgwgxgygzgAgBgCgDgEgFgGgHgIgJgKgLgMgNgOgPgQgRgSgTgUgVgWgXgYgZg0g1g2g3g4g5g6g7g8g9g.g+hahbhchdhehfhghhhihjhkhlhmhnhohphqhrhshthuhvhwhxhyhzhAhBhChDhEhFhGhHhIhJhKhLhMhNhOhPhQhRhShThUhVhWhXhYhZh0h1h2h3h4h5h6h7h8h9h.h+",
"aaabacadaeafagahaiajakalamanaoapaqarasatauavawaxayazaAaBaCaDaEaFaGaHaIaJaKaLaMaNaOaPaQaRaSaTaUaVaWaXaYaZa0a1a2a3a4a5a6a7a8a9a.a+babbbcbdbebfbgbhbibjbkblbmbnbobpbqbrbsbtbubvbwbxbybzbAbBbCbDbEbFbGbHbIbJbKbLbMbNbObPbQbRbSbTbUbVbWbXbYbZb0b1b2b3b4b5b6b7b8b9b.b+cacbcccdcecfcgchcicjckclcmcncocpcqcrcsctcucvcwcxcyczcAcBcCcDcEcFcGcHcIcJcKcLcMcNcOcPcQcRcScTcUcVcWcXcYcZc0c1c2c3c4c5c6c7c8c9c.c+dadbdcdddedfdgdhdidjdkdldmdndodpdqdrdsdtdudvdwdxdydzdAdBdCdDdEdFdGdHdIdJdKdLdMdNdOdPdQdRdSdTdUdVdWdXdYdZd0d1d2d3d4d5d6d7d8d9d.d+eaebecedeeefegeheiejekelemeneoepeqereseteuevewexeyezeAeBeCeDeEeFeGeHeIeJeKeLeMeNeOePeQeReSeTeUeVeWeXeYeZe0e1e2e3e4e5e6e7e8e9e.e+fafbfcfdfefffgfhfifjfkflfmfnfofpfqfrfsftfufvfwfxfyfzfAfBfCfDfEfFfGfHfIfJfKfLfMfNfOfPfQfRfSfTfUfVfWfXfYfZf0f1f2f3f4f5f6f7f8f9f.f+gagbgcgdgegfggghgigjgkglgmgngogpgqgrgsgtgugvgwgxgygzgAgBgCgDgEgFgGgHgIgJgKgLgMgNgOgPgQgRgSgTgUgVgWgXgYgZg0g1g2g3g4g5g6g7g8g9g.g+hahbhchdhehfhghhhihjhkhlhmhnhohphqhrhshthuhvhwhxhyhzhAhBhChDhEhFhGhHhIhJhKhLhMhNhOhPhQhRhShThUhVhWhXhYhZh0h1h2h3h4h5h6h7h8h9h.h+",
"aaabacadaeafagahaiajakalamanaoapaqarasatauavawaxayazaAaBaCaDaEaFaGaHaIaJaKaLaMaNaOaPaQaRaSaTaUaVaWaXaYaZa0a1a2a3a4a5a6a7a8a9a.a+babbbcbdbebfbgbhbibjbkblbmbnbobpbqbrbsbtbubvbwbxbybzbAbBbCbDbEbFbGbHbIbJbKbLbMbNbObPbQbRbSbTbUbVbWbXbYbZb0b1b2b3b4b5b6b7b8b9b.b+cacbcccdcecfcgchcicjckclcmcncocpcqcrcsctcucvcwcxcyczcAcBcCcDcEcFcGcHcIcJcKcLcMcNcOcPcQcRcScTcUcVcWcXcYcZc0c1c2c3c4c5c6c7c8c9c.c+dadbdcdddedfdgdhdidjdkdldmdndodpdqdrdsdtdudvdwdxdydzdAdBdCdDdEdFdGdHdIdJdKdLdMdNdOdPdQdRdSdTdUdVdWdXdYdZd0d1d2d3d4d5d6d7d8d9d.d+eaebecedeeefegeheiejekelemeneoepeqereseteuevewexeyezeAeBeCeDeEeFeGeHeIeJeKeLeMeNeOePeQeReSeTeUeVeWeXeYeZe0e1e2e3e4e5e6e7e8e9e.e+fafbfcfdfefffgfhfifjfkflfmfnfofpfqfrfsftfufvfwfxfyfzfAfBfCfDfEfFfGfHfIfJfKfLfMfNfOfPfQfRfSfTfUfVfWfXfYfZf0f1f2f3f4f5f6f7f8f9f.f+gagbgcgdgegfggghgigjgkglgmgngogpgqgrgsgtgugvgwgxgygzgAgBgCgDgEgFgGgHgIgJgKgLgMgNgOgPgQgRgSgTgUgVgWgXgYgZg0g1g2g3g4g5g6g7g8g9g.g+hahbhchdhehfhghhhihjhkhlhmhnhohphqhrhshthuhvhwhxhyhzhAhBhChDhEhFhGhHhIhJhKhLhMhNhOhPhQhRhShThUhVhWhXhYhZh0h1h2h3h4h5h6h7h8h9h.h+",
"aaabacadaeafagahaiajakalamanaoapaqarasatauavawaxayazaAaBaCaDaEaFaGaHaIaJaKaLaMaNaOaPaQaRaSaTaUaVaWaXaYaZa0a1a2a3a4a5a6a7a8a9a.a+babbbcbdbebfbgbhbibjbkblbmbnbobpbqbrbsbtbubvbwbxbybzbAbBbCbDbEbFbGbHbIbJbKbLbMbNbObPbQbRbSbTbUbVbWbXbYbZb0b1b2b3b4b5b6b7b8b9b.b+cacbcccdcecfcgchcicjckclcmcncocpcqcrcsctcucvcwcxcyczcAcBcCcDcEcFcGcHcIcJcKcLcMcNcOcPcQcRcScTcUcVcWcXcYcZc0c1c2c3c4c5c6c7c8c9c.c+dadbdcdddedfdgdhdidjdkdldmdndodpdqdrdsdtdudvdwdxdydzdAdBdCdDdEdFdGdHdIdJdKdLdMdNdOdPdQdRdSdTdUdVdWdXdYdZd0d1d2d3d4d5d6d7d8d9d.d+eaebecedeeefegeheiejekelemeneoepeqereseteuevewexeyezeAeBeCeDeEeFeGeHeIeJeKeLeMeNeOePeQeReSeTeUeVeWeXeYeZe0e1e2e3e4e5e6e7e8e9e.e+fafbfcfdfefffgfhfifjfkflfmfnfofpfqfrfsftfufvfwfxfyfzfAfBfCfDfEfFfGfHfIfJfKfLfMfNfOfPfQfRfSfTfUfVfWfXfYfZf0f1f2f3f4f5f6f7f8f9f.f+gagbgcgdgegfggghgigjgkglgmgngogpgqgrgsgtgugvgwgxgygzgAgBgCgDgEgFgGgHgIgJgKgLgMgNgOgPgQgRgSgTgUgVgWgXgYgZg0g1g2g3g4g5g6g7g8g9g.g+hahbhchdhehfhghhhihjhkhlhmhnhohphqhrhshthuhvhwhxhyhzhAhBhChDhEhFhGhHhIhJhKhLhMhNhOhPhQhRhShThUhVhWhXhYhZh0h1h2h3h4h5h6h7h8h9h.h+",
"aaabacadaeafagahaiajakalamanaoapaqarasatauavawaxayazaAaBaCaDaEaFaGaHaIaJaKaLaMaNaOaPaQaRaSaTaUaVaWaXaYaZa0a1a2a3a4a5a6a7a8a9a.a+babbbcbdbebfbgbhbibjbkblbmbnbobpbqbrbsbtbubvbwbxbybzbAbBbCbDbEbFbGbHbIbJbKbLbMbNbObPbQbRbSbTbUbVbWbXbYbZb0b1b2b3b4b5b6b7b8b9b.b+cacbcccdcecfcgchcicjckclcmcncocpcqcrcsctcucvcwcxcyczcAcBcCcDcEcFcGcHcIcJcKcLcMcNcOcPcQcRcScTcUcVcWcXcYcZc0c1c2c3c4c5c6c7c8c9c.c+dadbdcdddedfdgdhdidjdkdldmdndodpdqdrdsdtdudvdwdxdydzdAdBdCdDdEdFdGdHdIdJdKdLdMdNdOdPdQdRdSdTdUdVdWdXdYdZd0d1d2d3d4d5d6d7d8d9d.d+eaebecedeeefegeheiejekelemeneoepeqereseteuevewexeyezeAeBeCeDeEeFeGeHeIeJeKeLeMeNeOePeQeReSeTeUeVeWeXeYeZe0e1e2e3e4e5e6e7e8e9e.e+fafbfcfdfefffgfhfifjfkflfmfnfofpfqfrfsftfufvfwfxfyfzfAfBfCfDfEfFfGfHfIfJfKfLfMfNfOfPfQfRfSfTfUfVfWfXfYfZf0f1f2f3f4f5f6f7f8f9f.f+gagbgcgdgegfggghgigjgkglgmgngogpgqgrgsgtgugvgwgxgygzgAgBgCgDgEgFgGgHgIgJgKgLgMgNgOgPgQgRgSgTgUgVgWgXgYgZg0g1g2g3g4g5g6g7g8g9g.g+hahbhchdhehfhghhhihjhkhlhmhnhohphqhrhshthuhvhwhxhyhzhAhBhChDhEhFhGhHhIhJhKhLhMhNhOhPhQhRhShThUhVhWhXhYhZh0h1h2h3h4h5h6h7h8h9h.h+",
"aaabacadaeafagahaiajakalamanaoapaqarasatauavawaxayazaAaBaCaDaEaFaGaHaIaJaKaLaMaNaOaPaQaRaSaTaUaVaWaXaYaZa0a1a2a3a4a5a6a7a8a9a.a+babbbcbdbebfbgbhbibjbkblbmbnbobpbqbrbsbtbubvbwbxbybzbAbBbCbDbEbFbGbHbIbJbKbLbMbNbObPbQbRbSbTbUbVbWbXbYbZb0b1b2b3b4b5b6b7b8b9b.b+cacbcccdcecfcgchcicjckclcmcncocpcqcrcsctcucvcwcxcyczcAcBcCcDcEcFcGcHcIcJcKcLcMcNcOcPcQcRcScTcUcVcWcXcYcZc0c1c2c3c4c5c6c7c8c9c.c+dadbdcdddedfdgdhdidjdkdldmdndodpdqdrdsdtdudvdwdxdydzdAdBdCdDdEdFdGdHdIdJdKdLdMdNdOdPdQdRdSdTdUdVdWdXdYdZd0d1d2d3d4d5d6d7d8d9d.d+eaebecedeeefegeheiejekelemeneoepeqereseteuevewexeyezeAeBeCeDeEeFeGeHeIeJeKeLeMeNeOePeQeReSeTeUeVeWeXeYeZe0e1e2e3e4e5e6e7e8e9e.e+fafbfcfdfefffgfhfifjfkflfmfnfofpfqfrfsftfufvfwfxfyfzfAfBfCfDfEfFfGfHfIfJfKfLfMfNfOfPfQfRfSfTfUfVfWfXfYfZf0f1f2f3f4f5f6f7f8f9f.f+gagbgcgdgegfggghgigjgkglgmgngogpgqgrgsgtgugvgwgxgygzgAgBgCgDgEgFgGgHgIgJgKgLgMgNgOgPgQgRgSgTgUgVgWgXgYgZg0g1g2g3g4g5g6g7g8g9g.g+hahbhchdhehfhghhhihjhkhlhmhnhohphqhrhshthuhvhwhxhyhzhAhBhChDhEhFhGhHhIhJhKhLhMhNhOhPhQhRhShThUhVhWhXhYhZh0h1h2h3h4h5h6h7h8h9h.h+",
"aaabacadaeafagahaiajakalamanaoapaqarasatauavawaxayazaAaBaCaDaEaFaGaHaIaJaKaLaMaNaOaPaQaRaSaTaUaVaWaXaYaZa0a1a2a3a4a5a6a7a8a9a.a+babbbcbdbebfbgbhbibjbkblbmbnbobpbqbrbsbtbubvbwbxbybzbAbBbCbDbEbFbGbHbIbJbKbLbMbNbObPbQbRbSbTbUbVbWbXbYbZb0b1b2b3b4b5b6b7b8b9b.b+cacbcccdcecfcgchcicjckclcmcncocpcqcrcsctcucvcwcxcyczcAcBcCcDcEcFcGcHcIcJcKcLcMcNcOcPcQcRcScTcUcVcWcXcYcZc0c1c2c3c4c5c6c7c8c9c.c+dadbdcdddedfdgdhdidjdkdldmdndodpdqdrdsdtdudvdwdxdydzdAdBdCdDdEdFdGdHdIdJdKdLdMdNdOdPdQdRdSdTdUdVdWdXdYdZd0d1d2d3d4d5d6d7d8d9d.d+eaebecedeeefegeheiejekelemeneoepeqereseteuevewexeyezeAeBeCeDeEeFeGeHeIeJeKeLeMeNeOePeQeReSeTeUeVeWeXeYeZe0e1e2e3e4e5e6e7e8e9e.e+fafbfcfdfefffgfhfifjfkflfmfnfofpfqfrfsftfufvfwfxfyfzfAfBfCfDfEfFfGfHfIfJfKfLfMfNfOfPfQfRfSfTfUfVfWfXfYfZf0f1f2f3f4f5f6f7f8f9f.f+gagbgcgdgegfggghgigjgkglgmgngogpgqgrgsgtgugvgwgxgygzgAgBgCgDgEgFgGgHgIgJgKgLgMgNgOgPgQgRgSgTgUgVgWgXgYgZg0g1g2g3g4g5g6g7g8g9g.g+hahbhchdhehfhghhhihjhkhlhmhnhohphqhrhshthuhvhwhxhyhzhAhBhChDhEhFhGhHhIhJhKhLhMhNhOhPhQhRhShThUhVhWhXhYhZh0h1h2h3h4h5h6h7h8h9h.h+",
"aaabacadaeafagahaiajakalamanaoapaqarasatauavawaxayazaAaBaCaDaEaFaGaHaIaJaKaLaMaNaOaPaQaRaSaTaUaVaWaXaYaZa0a1a2a3a4a5a6a7a8a9a.a+babbbcbdbebfbgbhbibjbkblbmbnbobpbqbrbsbtbubvbwbxbybzbAbBbCbDbEbFbGbHbIbJbKbLbMbNbObPbQbRbSbTbUbVbWbXbYbZb0b1b2b3b4b5b6b7b8b9b.b+cacbcccdcecfcgchcicjckclcmcncocpcqcrcsctcucvcwcxcyczcAcBcCcDcEcFcGcHcIcJcKcLcMcNcOcPcQcRcScTcUcVcWcXcYcZc0c1c2c3c4c5c6c7c8c9c.c+dadbdcdddedfdgdhdidjdkdldmdndodpdqdrdsdtdudvdwdxdydzdAdBdCdDdEdFdGdHdIdJdKdLdMdNdOdPdQdRdSdTdUdVdWdXdYdZd0d1d2d3d4d5d6d7d8d9d.d+eaebecedeeefegeheiejekelemeneoepeqereseteuevewexeyezeAeBeCeDeEeFeGeHeIeJeKeLeMeNeOePeQeReSeTeUeVeWeXeYeZe0e1e2e3e4e5e6e7e8e9e.e+fafbfcfdfefffgfhfifjfkflfmfnfofpfqfrfsftfufvfwfxfyfzfAfBfCfDfEfFfGfHfIfJfKfLfMfNfOfPfQfRfSfTfUfVfWfXfYfZf0f1f2f3f4f5f6f7f8f9f.f+gagbgcgdgegfggghgigjgkglgmgngogpgqgrgsgtgugvgwgxgygzgAgBgCgDgEgFgGgHgIgJgKgLgMgNgOgPgQgRgSgTgUgVgWgXgYgZg0g1g2g3g4g5g6g7g8g9g.g+hahbhchdhehfhghhhihjhkhlhmhnhohphqhrhshthuhvhwhxhyhzhAhBhChDhEhFhGhHhIhJhKhLhMhNhOhPhQhRhShThUhVhWhXhYhZh0h1h2h3h4h5h6h7h8h9h.h+",
"aaabacadaeafagahaiajakalamanaoapaqarasatauavawaxayazaAaBaCaDaEaFaGaHaIaJaKaLaMaNaOaPaQaRaSaTaUaVaWaXaYaZa0a1a2a3a4a5a6a7a8a9a.a+babbbcbdbebfbgbhbibjbkblbmbnbobpbqbrbsbtbubvbwbxbybzbAbBbCbDbEbFbGbHbIbJbKbLbMbNbObPbQbRbSbTbUbVbWbXbYbZb0b1b2b3b4b5b6b7b8b9b.b+cacbcccdcecfcgchcicjckclcmcncocpcqcrcsctcucvcwcxcyczcAcBcCcDcEcFcGcHcIcJcKcLcMcNcOcPcQcRcScTcUcVcWcXcYcZc0c1c2c3c4c5c6c7c8c9c.c+dadbdcdddedfdgdhdidjdkdldmdndodpdqdrdsdtdudvdwdxdydzdAdBdCdDdEdFdGdHdIdJdKdLdMdNdOdPdQdRdSdTdUdVdWdXdYdZd0d1d2d3d4d5d6d7d8d9d.d+eaebecedeeefegeheiejekelemeneoepeqereseteuevewexeyezeAeBeCeDeEeFeGeHeIeJeKeLeMeNeOePeQeReSeTeUeVeWeXeYeZe0e1e2e3e4e5e6e7e8e9e.e+fafbfcfdfefffgfhfifjfkflfmfnfofpfqfrfsftfufvfwfxfyfzfAfBfCfDfEfFfGfHfIfJfKfLfMfNfOfPfQfRfSfTfUfVfWfXfYfZf0f1f2f3f4f5f6f7f8f9f.f+gagbgcgdgegfggghgigjgkglgmgngogpgqgrgsgtgugvgwgxgygzgAgBgCgDgEgFgGgHgIgJgKgLgMgNgOgPgQgRgSgTgUgVgWgXgYgZg0g1g2g3g4g5g6g7g8g9g.g+hahbhchdhehfhghhhihjhkhlhmhnhohphqhrhshthuhvhwhxhyhzhAhBhChDhEhFhGhHhIhJhKhLhMhNhOhPhQhRhShThUhVhWhXhYhZh0h1h2h3h4h5h6h7h8h9h.h+",
"aaabacadaeafagahaiajakalamanaoapaqarasatauavawaxayazaAaBaCaDaEaFaGaHaIaJaKaLaMaNaOaPaQaRaSaTaUaVaWaXaYaZa0a1a2a3a4a5a6a7a8a9a.a+babbbcbdbebfbgbhbibjbkblbmbnbobpbqbrbsbtbubvbwbxbybzbAbBbCbDbEbFbGbHbIbJbKbLbMbNbObPbQbRbSbTbUbVbWbXbYbZb0b1b2b3b4b5b6b7b8b9b.b+cacbcccdcecfcgchcicjckclcmcncocpcqcrcsctcucvcwcxcyczcAcBcCcDcEcFcGcHcIcJcKcLcMcNcOcPcQcRcScTcUcVcWcXcYcZc0c1c2c3c4c5c6c7c8c9c.c+dadbdcdddedfdgdhdidjdkdldmdndodpdqdrdsdtdudvdwdxdydzdAdBdCdDdEdFdGdHdIdJdKdLdMdNdOdPdQdRdSdTdUdVdWdXdYdZd0d1d2d3d4d5d6d7d8d9d.d+eaebecedeeefegeheiejekelemeneoepeqereseteuevewexeyezeAeBeCeDeEeFeGeHeIeJeKeLeMeNeOePeQeReSeTeUeVeWeXeYeZe0e1e2e3e4e5e6e7e8e9e.e+fafbfcfdfefffgfhfifjfkflfmfnfofpfqfrfsftfufvfwfxfyfzfAfBfCfDfEfFfGfHfIfJfKfLfMfNfOfPfQfRfSfTfUfVfWfXfYfZf0f1f2f3f4f5f6f7f8f9f.f+gagbgcgdgegfggghgigjgkglgmgngogpgqgrgsgtgugvgwgxgygzgAgBgCgDgEgFgGgHgIgJgKgLgMgNgOgPgQgRgSgTgUgVgWgXgYgZg0g1g2g3g4g5g6g7g8g9g.g+hahbhchdhehfhghhhihjhkhlhmhnhohphqhrhshthuhvhwhxhyhzhAhBhChDhEhFhGhHhIhJhKhLhMhNhOhPhQhRhShThUhVhWhXhYhZh0h1h2h3h4h5h6h7h8h9h.h+",
"aaabacadaeafagahaiajakalamanaoapaqarasatauavawaxayazaAaBaCaDaEaFaGaHaIaJaKaLaMaNaOaPaQaRaSaTaUaVaWaXaYaZa0a1a2a3a4a5a6a7a8a9a.a+babbbcbdbebfbgbhbibjbkblbmbnbobpbqbrbsbtbubvbwbxbybzbAbBbCbDbEbFbGbHbIbJbKbLbMbNbObPbQbRbSbTbUbVbWbXbYbZb0b1b2b3b4b5b6b7b8b9b.b+cacbcccdcecfcgchcicjckclcmcncocpcqcrcsctcucvcwcxcyczcAcBcCcDcEcFcGcHcIcJcKcLcMcNcOcPcQcRcScTcUcVcWcXcYcZc0c1c2c3c4c5c6c7c8c9c.c+dadbdcdddedfdgdhdidjdkdldmdndodpdqdrdsdtdudvdwdxdydzdAdBdCdDdEdFdGdHdIdJdKdLdMdNdOdPdQdRdSdTdUdVdWdXdYdZd0d1d2d3d4d5d6d7d8d9d.d+eaebecedeeefegeheiejekelemeneoepeqereseteuevewexeyezeAeBeCeDeEeFeGeHeIeJeKeLeMeNeOePeQeReSeTeUeVeWeXeYeZe0e1e2e3e4e5e6e7e8e9e.e+fafbfcfdfefffgfhfifjfkflfmfnfofpfqfrfsftfufvfwfxfyfzfAfBfCfDfEfFfGfHfIfJfKfLfMfNfOfPfQfRfSfTfUfVfWfXfYfZf0f1f2f3f4f5f6f7f8f9f.f+gagbgcgdgegfggghgigjgkglgmgngogpgqgrgsgtgugvgwgxgygzgAgBgCgDgEgFgGgHgIgJgKgLgMgNgOgPgQgRgSgTgUgVgWgXgYgZg0g1g2g3g4g5g6g7g8g9g.g+hahbhchdhehfhghhhihjhkhlhmhnhohphqhrhshthuhvhwhxhyhzhAhBhChDhEhFhGhHhIhJhKhLhMhNhOhPhQhRhShThUhVhWhXhYhZh0h1h2h3h4h5h6h7h8h9h.h+",
"aaabacadaeafagahaiajakalamanaoapaqarasatauavawaxayazaAaBaCaDaEaFaGaHaIaJaKaLaMaNaOaPaQaRaSaTaUaVaWaXaYaZa0a1a2a3a4a5a6a7a8a9a.a+babbbcbdbebfbgbhbibjbkblbmbnbobpbqbrbsbtbubvbwbxbybzbAbBbCbDbEbFbGbHbIbJbKbLbMbNbObPbQbRbSbTbUbVbWbXbYbZb0b1b2b3b4b5b6b7b8b9b.b+cacbcccdcecfcgchcicjckclcmcncocpcqcrcsctcucvcwcxcyczcAcBcCcDcEcFcGcHcIcJcKcLcMcNcOcPcQcRcScTcUcVcWcXcYcZc0c1c2c3c4c5c6c7c8c9c.c+dadbdcdddedfdgdhdidjdkdldmdndodpdqdrdsdtdudvdwdxdydzdAdBdCdDdEdFdGdHdIdJdKdLdMdNdOdPdQdRdSdTdUdVdWdXdYdZd0d1d2d3d4d5d6d7d8d9d.d+eaebecedeeefegeheiejekelemeneoepeqereseteuevewexeyezeAeBeCeDeEeFeGeHeIeJeKeLeMeNeOePeQeReSeTeUeVeWeXeYeZe0e1e2e3e4e5e6e7e8e9e.e+fafbfcfdfefffgfhfifjfkflfmfnfofpfqfrfsftfufvfwfxfyfzfAfBfCfDfEfFfGfHfIfJfKfLfMfNfOfPfQfRfSfTfUfVfWfXfYfZf0f1f2f3f4f5f6f7f8f9f.f+gagbgcgdgegfggghgigjgkglgmgngogpgqgrgsgtgugvgwgxgygzgAgBgCgDgEgFgGgHgIgJgKgLgMgNgOgPgQgRgSgTgUgVgWgXgYgZg0g1g2g3g4g5g6g7g8g9g.g+hahbhchdhehfhghhhihjhkhlhmhnhohphqhrhshthuhvhwhxhyhzhAhBhChDhEhFhGhHhIhJhKhLhMhNhOhPhQhRhShThUhVhWhXhYhZh0h1h2h3h4h5h6h7h8h9h.h+",
"aaabacadaeafagahaiajakalamanaoapaqarasatauavawaxayazaAaBaCaDaEaFaGaHaIaJaKaLaMaNaOaPaQaRaSaTaUaVaWaXaYaZa0a1a2a3a4a5a6a7a8a9a.a+babbbcbdbebfbgbhbibjbkblbmbnbobpbqbrbsbtbubvbwbxbybzbAbBbCbDbEbFbGbHbIbJbKbLbMbNbObPbQbRbSbTbUbVbWbXbYbZb0b1b2b3b4b5b6b7b8b9b.b+cacbcccdcecfcgchcicjckclcmcncocpcqcrcsctcucvcwcxcyczcAcBcCcDcEcFcGcHcIcJcKcLcMcNcOcPcQcRcScTcUcVcWcXcYcZc0c1c2c3c4c5c6c7c8c9c.c+dadbdcdddedfdgdhdidjdkdldmdndodpdqdrdsdtdudvdwdxdydzdAdBdCdDdEdFdGdHdIdJdKdLdMdNdOdPdQdRdSdTdUdVdWdXdYdZd0d1d2d3d4d5d6d7d8d9d.d+eaebecedeeefegeheiejekelemeneoepeqereseteuevewexeyezeAeBeCeDeEeFeGeHeIeJeKeLeMeNeOePeQeReSeTeUeVeWeXeYeZe0e1e2e3e4e5e6e7e8e9e.e+fafbfcfdfefffgfhfifjfkflfmfnfofpfqfrfsftfufvfwfxfyfzfAfBfCfDfEfFfGfHfIfJfKfLfMfNfOfPfQfRfSfTfUfVfWfXfYfZf0f1f2f3f4f5f6f7f8f9f.f+gagbgcgdgegfggghgigjgkglgmgngogpgqgrgsgtgugvgwgxgygzgAgBgCgDgEgFgGgHgIgJgKgLgMgNgOgPgQgRgSgTgUgVgWgXgYgZg0g1g2g3g4g5g6g7g8g9g.g+hahbhchdhehfhghhhihjhkhlhmhnhohphqhrhshthuhvhwhxhyhzhAhBhChDhEhFhGhHhIhJhKhLhMhNhOhPhQhRhShThUhVhWhXhYhZh0h1h2h3h4h5h6h7h8h9h.h+",
"aaabacadaeafagahaiajakalamanaoapaqarasatauavawaxayazaAaBaCaDaEaFaGaHaIaJaKaLaMaNaOaPaQaRaSaTaUaVaWaXaYaZa0a1a2a3a4a5a6a7a8a9a.a+babbbcbdbebfbgbhbibjbkblbmbnbobpbqbrbsbtbubvbwbxbybzbAbBbCbDbEbFbGbHbIbJbKbLbMbNbObPbQbRbSbTbUbVbWbXbYbZb0b1b2b3b4b5b6b7b8b9b.b+cacbcccdcecfcgchcicjckclcmcncocpcqcrcsctcucvcwcxcyczcAcBcCcDcEcFcGcHcIcJcKcLcMcNcOcPcQcRcScTcUcVcWcXcYcZc0c1c2c3c4c5c6c7c8c9c.c+dadbdcdddedfdgdhdidjdkdldmdndodpdqdrdsdtdudvdwdxdydzdAdBdCdDdEdFdGdHdIdJdKdLdMdNdOdPdQdRdSdTdUdVdWdXdYdZd0d1d2d3d4d5d6d7d8d9d.d+eaebecedeeefegeheiejekelemeneoepeqereseteuevewexeyezeAeBeCeDeEeFeGeHeIeJeKeLeMeNeOePeQeReSeTeUeVeWeXeYeZe0e1e2e3e4e5e6e7e8e9e.e+fafbfcfdfefffgfhfifjfkflfmfnfofpfqfrfsftfufvfwfxfyfzfAfBfCfDfEfFfGfHfIfJfKfLfMfNfOfPfQfRfSfTfUfVfWfXfYfZf0f1f2f3f4f5f6f7f8f9f.f+gagbgcgdgegfggghgigjgkglgmgngogpgqgrgsgtgugvgwgxgygzgAgBgCgDgEgFgGgHgIgJgKgLgMgNgOgPgQgRgSgTgUgVgWgXgYgZg0g1g2g3g4g5g6g7g8g9g.g+hahbhchdhehfhghhhihjhkhlhmhnhohphqhrhshthuhvhwhxhyhzhAhBhChDhEhFhGhHhIhJhKhLhMhNhOhPhQhRhShThUhVhWhXhYhZh0h1h2h3h4h5h6h7h8h9h.h+",
"aaabacadaeafagahaiajakalamanaoapaqarasatauavawaxayazaAaBaCaDaEaFaGaHaIaJaKaLaMaNaOaPaQaRaSaTaUaVaWaXaYaZa0a1a2a3a4a5a6a7a8a9a.a+babbbcbdbebfbgbhbibjbkblbmbnbobpbqbrbsbtbubvbwbxbybzbAbBbCbDbEbFbGbHbIbJbKbLbMbNbObPbQbRbSbTbUbVbWbXbYbZb0b1b2b3b4b5b6b7b8b9b.b+cacbcccdcecfcgchcicjckclcmcncocpcqcrcsctcucvcwcxcyczcAcBcCcDcEcFcGcHcIcJcKcLcMcNcOcPcQcRcScTcUcVcWcXcYcZc0c1c2c3c4c5c6c7c8c9c.c+dadbdcdddedfdgdhdidjdkdldmdndodpdqdrdsdtdudvdwdxdydzdAdBdCdDdEdFdGdHdIdJdKdLdMdNdOdPdQdRdSdTdUdVdWdXdYdZd0d1d2d3d4d5d6d7d8d9d.d+eaebecedeeefegeheiejekelemeneoepeqereseteuevewexeyezeAeBeCeDeEeFeGeHeIeJeKeLeMeNeOePeQeReSeTeUeVeWeXeYeZe0e1e2e3e4e5e6e7e8e9e.e+fafbfcfdfefffgfhfifjfkflfmfnfofpfqfrfsftfufvfwfxfyfzfAfBfCfDfEfFfGfHfIfJfKfLfMfNfOfPfQfRfSfTfUfVfWfXfYfZf0f1f2f3f4f5f6f7f8f9f.f+gagbgcgdgegfggghgigjgkglgmgngogpgqgrgsgtgugvgwgxgygzgAgBgCgDgEgFgGgHgIgJgKgLgMgNgOgPgQgRgSgTgUgVgWgXgYgZg0g1g2g3g4g5g6g7g8g9g.g+hahbhchdhehfhghhhihjhkhlhmhnhohphqhrhshthuhvhwhxhyhzhAhBhChDhEhFhGhHhIhJhKhLhMhNhOhPhQhRhShThUhVhWhXhYhZh0h1h2h3h4h5h6h7h8h9h.h+",
"aaabacadaeafagahaiajakalamanaoapaqarasatauavawaxayazaAaBaCaDaEaFaGaHaIaJaKaLaMaNaOaPaQaRaSaTaUaVaWaXaYaZa0a1a2a3a4a5a6a7a8a9a.a+babbbcbdbebfbgbhbibjbkblbmbnbobpbqbrbsbtbubvbwbxbybzbAbBbCbDbEbFbGbHbIbJbKbLbMbNbObPbQbRbSbTbUbVbWbXbYbZb0b1b2b3b4b5b6b7b8b9b.b+cacbcccdcecfcgchcicjckclcmcncocpcqcrcsctcucvcwcxcyczcAcBcCcDcEcFcGcHcIcJcKcLcMcNcOcPcQcRcScTcUcVcWcXcYcZc0c1c2c3c4c5c6c7c8c9c.c+dadbdcdddedfdgdhdidjdkdldmdndodpdqdrdsdtdudvdwdxdydzdAdBdCdDdEdFdGdHdIdJdKdLdMdNdOdPdQdRdSdTdUdVdWdXdYdZd0d1d2d3d4d5d6d7d8d9d.d+eaebecedeeefegeheiejekelemeneoepeqereseteuevewexeyezeAeBeCeDeEeFeGeHeIeJeKeLeMeNeOePeQeReSeTeUeVeWeXeYeZe0e1e2e3e4e5e6e7e8e9e.e+fafbfcfdfefffgfhfifjfkflfmfnfofpfqfrfsftfufvfwfxfyfzfAfBfCfDfEfFfGfHfIfJfKfLfMfNfOfPfQfRfSfTfUfVfWfXfYfZf0f1f2f3f4f5f6f7f8f9f.f+gagbgcgdgegfggghgigjgkglgmgngogpgqgrgsgtgugvgwgxgygzgAgBgCgDgEgFgGgHgIgJgKgLgMgNgOgPgQgRgSgTgUgVgWgXgYgZg0g1g2g3g4g5g6g7g8g9g.g+hahbhchdhehfhghhhihjhkhlhmhnhohphqhrhshthuhvhwhxhyhzhAhBhChDhEhFhGhHhIhJhKhLhMhNhOhPhQhRhShThUhVhWhXhYhZh0h1h2h3h4h5h6h7h8h9h.h+",
"aaabacadaeafagahaiajakalamanaoapaqarasatauavawaxayazaAaBaCaDaEaFaGaHaIaJaKaLaMaNaOaPaQaRaSaTaUaVaWaXaYaZa0a1a2a3a4a5a6a7a8a9a.a+babbbcbdbebfbgbhbibjbkblbmbnbobpbqbrbsbtbubvbwbxbybzbAbBbCbDbEbFbGbHbIbJbKbLbMbNbObPbQbRbSbTbUbVbWbXbYbZb0b1b2b3b4b5b6b7b8b9b.b+cacbcccdcecfcgchcicjckclcmcncocpcqcrcsctcucvcwcxcyczcAcBcCcDcEcFcGcHcIcJcKcLcMcNcOcPcQcRcScTcUcVcWcXcYcZc0c1c2c3c4c5c6c7c8c9c.c+dadbdcdddedfdgdhdidjdkdldmdndodpdqdrdsdtdudvdwdxdydzdAdBdCdDdEdFdGdHdIdJdKdLdMdNdOdPdQdRdSdTdUdVdWdXdYdZd0d1d2d3d4d5d6d7d8d9d.d+eaebecedeeefegeheiejekelemeneoepeqereseteuevewexeyezeAeBeCeDeEeFeGeHeIeJeKeLeMeNeOePeQeReSeTeUeVeWeXeYeZe0e1e2e3e4e5e6e7e8e9e.e+fafbfcfdfefffgfhfifjfkflfmfnfofpfqfrfsftfufvfwfxfyfzfAfBfCfDfEfFfGfHfIfJfKfLfMfNfOfPfQfRfSfTfUfVfWfXfYfZf0f1f2f3f4f5f6f7f8f9f.f+gagbgcgdgegfggghgigjgkglgmgngogpgqgrgsgtgugvgwgxgygzgAgBgCgDgEgFgGgHgIgJgKgLgMgNgOgPgQgRgSgTgUgVgWgXgYgZg0g1g2g3g4g5g6g7g8g9g.g+hahbhchdhehfhghhhihjhkhlhmhnhohphqhrhshthuhvhwhxhyhzhAhBhChDhEhFhGhHhIhJhKhLhMhNhOhPhQhRhShThUhVhWhXhYhZh0h1h2h3h4h5h6h7h8h9h.h+",
"aaabacadaeafagahaiajakalamanaoapaqarasatauavawaxayazaAaBaCaDaEaFaGaHaIaJaKaLaMaNaOaPaQaRaSaTaUaVaWaXaYaZa0a1a2a3a4a5a6a7a8a9a.a+babbbcbdbebfbgbhbibjbkblbmbnbobpbqbrbsbtbubvbwbxbybzbAbBbCbDbEbFbGbHbIbJbKbLbMbNbObPbQbRbSbTbUbVbWbXbYbZb0b1b2b3b4b5b6b7b8b9b.b+cacbcccdcecfcgchcicjckclcmcncocpcqcrcsctcucvcwcxcyczcAcBcCcDcEcFcGcHcIcJcKcLcMcNcOcPcQcRcScTcUcVcWcXcYcZc0c1c2c3c4c5c6c7c8c9c.c+dadbdcdddedfdgdhdidjdkdldmdndodpdqdrdsdtdudvdwdxdydzdAdBdCdDdEdFdGdHdIdJdKdLdMdNdOdPdQdRdSdTdUdVdWdXdYdZd0d1d2d3d4d5d6d7d8d9d.d+eaebecedeeefegeheiejekelemeneoepeqereseteuevewexeyezeAeBeCeDeEeFeGeHeIeJeKeLeMeNeOePeQeReSeTeUeVeWeXeYeZe0e1e2e3e4e5e6e7e8e9e.e+fafbfcfdfefffgfhfifjfkflfmfnfofpfqfrfsftfufvfwfxfyfzfAfBfCfDfEfFfGfHfIfJfKfLfMfNfOfPfQfRfSfTfUfVfWfXfYfZf0f1f2f3f4f5f6f7f8f9f.f+gagbgcgdgegfggghgigjgkglgmgngogpgqgrgsgtgugvgwgxgygzgAgBgCgDgEgFgGgHgIgJgKgLgMgNgOgPgQgRgSgTgUgVgWgXgYgZg0g1g2g3g4g5g6g7g8g9g.g+hahbhchdhehfhghhhihjhkhlhmhnhohphqhrhshthuhvhwhxhyhzhAhBhChDhEhFhGhHhIhJhKhLhMhNhOhPhQhRhShThUhVhWhXhYhZh0h1h2h3h4h5h6h7h8h9h.h+",
"aaabacadaeafagahaiajakalamanaoapaqarasatauavawaxayazaAaBaCaDaEaFaGaHaIaJaKaLaMaNaOaPaQaRaSaTaUaVaWaXaYaZa0a1a2a3a4a5a6a7a8a9a.a+babbbcbdbebfbgbhbibjbkblbmbnbobpbqbrbsbtbubvbwbxbybzbAbBbCbDbEbFbGbHbIbJbKbLbMbNbObPbQbRbSbTbUbVbWbXbYbZb0b1b2b3b4b5b6b7b8b9b.b+cacbcccdcecfcgchcicjckclcmcncocpcqcrcsctcucvcwcxcyczcAcBcCcDcEcFcGcHcIcJcKcLcMcNcOcPcQcRcScTcUcVcWcXcYcZc0c1c2c3c4c5c6c7c8c9c.c+dadbdcdddedfdgdhdidjdkdldmdndodpdqdrdsdtdudvdwdxdydzdAdBdCdDdEdFdGdHdIdJdKdLdMdNdOdPdQdRdSdTdUdVdWdXdYdZd0d1d2d3d4d5d6d7d8d9d.d+eaebecedeeefegeheiejekelemeneoepeqereseteuevewexeyezeAeBeCeDeEeFeGeHeIeJeKeLeMeNeOePeQeReSeTeUeVeWeXeYeZe0e1e2e3e4e5e6e7e8e9e.e+fafbfcfdfefffgfhfifjfkflfmfnfofpfqfrfsftfufvfwfxfyfzfAfBfCfDfEfFfGfHfIfJfKfLfMfNfOfPfQfRfSfTfUfVfWfXfYfZf0f1f2f3f4f5f6f7f8f9f.f+gagbgcgdgegfggghgigjgkglgmgngogpgqgrgsgtgugvgwgxgygzgAgBgCgDgEgFgGgHgIgJgKgLgMgNgOgPgQgRgSgTgUgVgWgXgYgZg0g1g2g3g4g5g6g7g8g9g.g+hahbhchdhehfhghhhihjhkhlhmhnhohphqhrhshthuhvhwhxhyhzhAhBhChDhEhFhGhHhIhJhKhLhMhNhOhPhQhRhShThUhVhWhXhYhZh0h1h2h3h4h5h6h7h8h9h.h+",
"aaabacadaeafagahaiajakalamanaoapaqarasatauavawaxayazaAaBaCaDaEaFaGaHaIaJaKaLaMaNaOaPaQaRaSaTaUaVaWaXaYaZa0a1a2a3a4a5a6a7a8a9a.a+babbbcbdbebfbgbhbibjbkblbmbnbobpbqbrbsbtbubvbwbxbybzbAbBbCbDbEbFbGbHbIbJbKbLbMbNbObPbQbRbSbTbUbVbWbXbYbZb0b1b2b3b4b5b6b7b8b9b.b+cacbcccdcecfcgchcicjckclcmcncocpcqcrcsctcucvcwcxcyczcAcBcCcDcEcFcGcHcIcJcKcLcMcNcOcPcQcRcScTcUcVcWcXcYcZc0c1c2c3c4c5c6c7c8c9c.c+dadbdcdddedfdgdhdidjdkdldmdndodpdqdrdsdtdudvdwdxdydzdAdBdCdDdEdFdGdHdIdJdKdLdMdNdOdPdQdRdSdTdUdVdWdXdYdZd0d1d2d3d4d5d6d7d8d9d.d+eaebecedeeefegeheiejekelemeneoepeqereseteuevewexeyezeAeBeCeDeEeFeGeHeIeJeKeLeMeNeOePeQeReSeTeUeVeWeXeYeZe0e1e2e3e4e5e6e7e8e9e.e+fafbfcfdfefffgfhfifjfkflfmfnfofpfqfrfsftfufvfwfxfyfzfAfBfCfDfEfFfGfHfIfJfKfLfMfNfOfPfQfRfSfTfUfVfWfXfYfZf0f1f2f3f4f5f6f7f8f9f.f+gagbgcgdgegfggghgigjgkglgmgngogpgqgrgsgtgugvgwgxgygzgAgBgCgDgEgFgGgHgIgJgKgLgMgNgOgPgQgRgSgTgUgVgWgXgYgZg0g1g2g3g4g5g6g7g8g9g.g+hahbhchdhehfhghhhihjhkhlhmhnhohphqhrhshthuhvhwhxhyhzhAhBhChDhEhFhGhHhIhJhKhLhMhNhOhPhQhRhShThUhVhWhXhYhZh0h1h2h3h4h5h6h7h8h9h.h+",
"aaabacadaeafagahaiajakalamanaoapaqarasatauavawaxayazaAaBaCaDaEaFaGaHaIaJaKaLaMaNaOaPaQaRaSaTaUaVaWaXaYaZa0a1a2a3a4a5a6a7a8a9a.a+babbbcbdbebfbgbhbibjbkblbmbnbobpbqbrbsbtbubvbwbxbybzbAbBbCbDbEbFbGbHbIbJbKbLbMbNbObPbQbRbSbTbUbVbWbXbYbZb0b1b2b3b4b5b6b7b8b9b.b+cacbcccdcecfcgchcicjckclcmcncocpcqcrcsctcucvcwcxcyczcAcBcCcDcEcFcGcHcIcJcKcLcMcNcOcPcQcRcScTcUcVcWcXcYcZc0c1c2c3c4c5c6c7c8c9c.c+dadbdcdddedfdgdhdidjdkdldmdndodpdqdrdsdtdudvdwdxdydzdAdBdCdDdEdFdGdHdIdJdKdLdMdNdOdPdQdRdSdTdUdVdWdXdYdZd0d1d2d3d4d5d6d7d8d9d.d+eaebecedeeefegeheiejekelemeneoepeqereseteuevewexeyezeAeBeCeDeEeFeGeHeIeJeKeLeMeNeOePeQeReSeTeUeVeWeXeYeZe0e1e2e3e4e5e6e7e8e9e.e+fafbfcfdfefffgfhfifjfkflfmfnfofpfqfrfsftfufvfwfxfyfzfAfBfCfDfEfFfGfHfIfJfKfLfMfNfOfPfQfRfSfTfUfVfWfXfYfZf0f1f2f3f4f5f6f7f8f9f.f+gagbgcgdgegfggghgigjgkglgmgngogpgqgrgsgtgugvgwgxgygzgAgBgCgDgEgFgGgHgIgJgKgLgMgNgOgPgQgRgSgTgUgVgWgXgYgZg0g1g2g3g4g5g6g7g8g9g.g+hahbhchdhehfhghhhihjhkhlhmhnhohphqhrhshthuhvhwhxhyhzhAhBhChDhEhFhGhHhIhJhKhLhMhNhOhPhQhRhShThUhVhWhXhYhZh0h1h2h3h4h5h6h7h8h9h.h+",
"aaabacadaeafagahaiajakalamanaoapaqarasatauavawaxayazaAaBaCaDaEaFaGaHaIaJaKaLaMaNaOaPaQaRaSaTaUaVaWaXaYaZa0a1a2a3a4a5a6a7a8a9a.a+babbbcbdbebfbgbhbibjbkblbmbnbobpbqbrbsbtbubvbwbxbybzbAbBbCbDbEbFbGbHbIbJbKbLbMbNbObPbQbRbSbTbUbVbWbXbYbZb0b1b2b3b4b5b6b7b8b9b.b+cacbcccdcecfcgchcicjckclcmcncocpcqcrcsctcucvcwcxcyczcAcBcCcDcEcFcGcHcIcJcKcLcMcNcOcPcQcRcScTcUcVcWcXcYcZc0c1c2c3c4c5c6c7c8c9c.c+dadbdcdddedfdgdhdidjdkdldmdndodpdqdrdsdtdudvdwdxdydzdAdBdCdDdEdFdGdHdIdJdKdLdMdNdOdPdQdRdSdTdUdVdWdXdYdZd0d1d2d3d4d5d6d7d8d9d.d+eaebecedeeefegeheiejekelemeneoepeqereseteuevewexeyezeAeBeCeDeEeFeGeHeIeJeKeLeMeNeOePeQeReSeTeUeVeWeXeYeZe0e1e2e3e4e5e6e7e8e9e.e+fafbfcfdfefffgfhfifjfkflfmfnfofpfqfrfsftfufvfwfxfyfzfAfBfCfDfEfFfGfHfIfJfKfLfMfNfOfPfQfRfSfTfUfVfWfXfYfZf0f1f2f3f4f5f6f7f8f9f.f+gagbgcgdgegfggghgigjgkglgmgngogpgqgrgsgtgugvgwgxgygzgAgBgCgDgEgFgGgHgIgJgKgLgMgNgOgPgQgRgSgTgUgVgWgXgYgZg0g1g2g3g4g5g6g7g8g9g.g+hahbhchdhehfhghhhihjhkhlhmhnhohphqhrhshthuhvhwhxhyhzhAhBhChDhEhFhGhHhIhJhKhLhMhNhOhPhQhRhShThUhVhWhXhYhZh0h1h2h3h4h5h6h7h8h9h.h+",
"aaabacadaeafagahaiajakalamanaoapaqarasatauavawaxayazaAaBaCaDaEaFaGaHaIaJaKaLaMaNaOaPaQaRaSaTaUaVaWaXaYaZa0a1a2a3a4a5a6a7a8a9a.a+babbbcbdbebfbgbhbibjbkblbmbnbobpbqbrbsbtbubvbwbxbybzbAbBbCbDbEbFbGbHbIbJbKbLbMbNbObPbQbRbSbTbUbVbWbXbYbZb0b1b2b3b4b5b6b7b8b9b.b+cacbcccdcecfcgchcicjckclcmcncocpcqcrcsctcucvcwcxcyczcAcBcCcDcEcFcGcHcIcJcKcLcMcNcOcPcQcRcScTcUcVcWcXcYcZc0c1c2c3c4c5c6c7c8c9c.c+dadbdcdddedfdgdhdidjdkdldmdndodpdqdrdsdtdudvdwdxdydzdAdBdCdDdEdFdGdHdIdJdKdLdMdNdOdPdQdRdSdTdUdVdWdXdYdZd0d1d2d3d4d5d6d7d8d9d.d+eaebecedeeefegeheiejekelemeneoepeqereseteuevewexeyezeAeBeCeDeEeFeGeHeIeJeKeLeMeNeOePeQeReSeTeUeVeWeXeYeZe0e1e2e3e4e5e6e7e8e9e.e+fafbfcfdfefffgfhfifjfkflfmfnfofpfqfrfsftfufvfwfxfyfzfAfBfCfDfEfFfGfHfIfJfKfLfMfNfOfPfQfRfSfTfUfVfWfXfYfZf0f1f2f3f4f5f6f7f8f9f.f+gagbgcgdgegfggghgigjgkglgmgngogpgqgrgsgtgugvgwgxgygzgAgBgCgDgEgFgGgHgIgJgKgLgMgNgOgPgQgRgSgTgUgVgWgXgYgZg0g1g2g3g4g5g6g7g8g9g.g+hahbhchdhehfhghhhihjhkhlhmhnhohphqhrhshthuhvhwhxhyhzhAhBhChDhEhFhGhHhIhJhKhLhMhNhOhPhQhRhShThUhVhWhXhYhZh0h1h2h3h4h5h6h7h8h9h.h+",
"aaabacadaeafagahaiajakalamanaoapaqarasatauavawaxayazaAaBaCaDaEaFaGaHaIaJaKaLaMaNaOaPaQaRaSaTaUaVaWaXaYaZa0a1a2a3a4a5a6a7a8a9a.a+babbbcbdbebfbgbhbibjbkblbmbnbobpbqbrbsbtbubvbwbxbybzbAbBbCbDbEbFbGbHbIbJbKbLbMbNbObPbQbRbSbTbUbVbWbXbYbZb0b1b2b3b4b5b6b7b8b9b.b+cacbcccdcecfcgchcicjckclcmcncocpcqcrcsctcucvcwcxcyczcAcBcCcDcEcFcGcHcIcJcKcLcMcNcOcPcQcRcScTcUcVcWcXcYcZc0c1c2c3c4c5c6c7c8c9c.c+dadbdcdddedfdgdhdidjdkdldmdndodpdqdrdsdtdudvdwdxdydzdAdBdCdDdEdFdGdHdIdJdKdLdMdNdOdPdQdRdSdTdUdVdWdXdYdZd0d1d2d3d4d5d6d7d8d9d.d+eaebecedeeefegeheiejekelemeneoepeqereseteuevewexeyezeAeBeCeDeEeFeGeHeIeJeKeLeMeNeOePeQeReSeTeUeVeWeXeYeZe0e1e2e3e4e5e6e7e8e9e.e+fafbfcfdfefffgfhfifjfkflfmfnfofpfqfrfsftfufvfwfxfyfzfAfBfCfDfEfFfGfHfIfJfKfLfMfNfOfPfQfRfSfTfUfVfWfXfYfZf0f1f2f3f4f5f6f7f8f9f.f+gagbgcgdgegfggghgigjgkglgmgngogpgqgrgsgtgugvgwgxgygzgAgBgCgDgEgFgGgHgIgJgKgLgMgNgOgPgQgRgSgTgUgVgWgXgYgZg0g1g2g3g4g5g6g7g8g9g.g+hahbhchdhehfhghhhihjhkhlhmhnhohphqhrhshthuhvhwhxhyhzhAhBhChDhEhFhGhHhIhJhKhLhMhNhOhPhQhRhShThUhVhWhXhYhZh0h1h2h3h4h5h6h7h8h9h.h+",
"aaabacadaeafagahaiajakalamanaoapaqarasatauavawaxayazaAaBaCaDaEaFaGaHaIaJaKaLaMaNaOaPaQaRaSaTaUaVaWaXaYaZa0a1a2a3a4a5a6a7a8a9a.a+babbbcbdbebfbgbhbibjbkblbmbnbobpbqbrbsbtbubvbwbxbybzbAbBbCbDbEbFbGbHbIbJbKbLbMbNbObPbQbRbSbTbUbVbWbXbYbZb0b1b2b3b4b5b6b7b8b9b.b+cacbcccdcecfcgchcicjckclcmcncocpcqcrcsctcucvcwcxcyczcAcBcCcDcEcFcGcHcIcJcKcLcMcNcOcPcQcRcScTcUcVcWcXcYcZc0c1c2c3c4c5c6c7c8c9c.c+dadbdcdddedfdgdhdidjdkdldmdndodpdqdrdsdtdudvdwdxdydzdAdBdCdDdEdFdGdHdIdJdKdLdMdNdOdPdQdRdSdTdUdVdWdXdYdZd0d1d2d3d4d5d6d7d8d9d.d+eaebecedeeefegeheiejekelemeneoepeqereseteuevewexeyezeAeBeCeDeEeFeGeHeIeJeKeLeMeNeOePeQeReSeTeUeVeWeXeYeZe0e1e2e3e4e5e6e7e8e9e.e+fafbfcfdfefffgfhfifjfkflfmfnfofpfqfrfsftfufvfwfxfyfzfAfBfCfDfEfFfGfHfIfJfKfLfMfNfOfPfQfRfSfTfUfVfWfXfYfZf0f1f2f3f4f5f6f7f8f9f.f+gagbgcgdgegfggghgigjgkglgmgngogpgqgrgsgtgugvgwgxgygzgAgBgCgDgEgFgGgHgIgJgKgLgMgNgOgPgQgRgSgTgUgVgWgXgYgZg0g1g2g3g4g5g6g7g8g9g.g+hahbhchdhehfhghhhihjhkhlhmhnhohphqhrhshthuhvhwhxhyhzhAhBhChDhEhFhGhHhIhJhKhLhMhNhOhPhQhRhShThUhVhWhXhYhZh0h1h2h3h4h5h6h7h8h9h.h+",
"aaabacadaeafagahaiajakalamanaoapaqarasatauavawaxayazaAaBaCaDaEaFaGaHaIaJaKaLaMaNaOaPaQaRaSaTaUaVaWaXaYaZa0a1a2a3a4a5a6a7a8a9a.a+babbbcbdbebfbgbhbibjbkblbmbnbobpbqbrbsbtbubvbwbxbybzbAbBbCbDbEbFbGbHbIbJbKbLbMbNbObPbQbRbSbTbUbVbWbXbYbZb0b1b2b3b4b5b6b7b8b9b.b+cacbcccdcecfcgchcicjckclcmcncocpcqcrcsctcucvcwcxcyczcAcBcCcDcEcFcGcHcIcJcKcLcMcNcOcPcQcRcScTcUcVcWcXcYcZc0c1c2c3c4c5c6c7c8c9c.c+dadbdcdddedfdgdhdidjdkdldmdndodpdqdrdsdtdudvdwdxdydzdAdBdCdDdEdFdGdHdIdJdKdLdMdNdOdPdQdRdSdTdUdVdWdXdYdZd0d1d2d3d4d5d6d7d8d9d.d+eaebecedeeefegeheiejekelemeneoepeqereseteuevewexeyezeAeBeCeDeEeFeGeHeIeJeKeLeMeNeOePeQeReSeTeUeVeWeXeYeZe0e1e2e3e4e5e6e7e8e9e.e+fafbfcfdfefffgfhfifjfkflfmfnfofpfqfrfsftfufvfwfxfyfzfAfBfCfDfEfFfGfHfIfJfKfLfMfNfOfPfQfRfSfTfUfVfWfXfYfZf0f1f2f3f4f5f6f7f8f9f.f+gagbgcgdgegfggghgigjgkglgmgngogpgqgrgsgtgugvgwgxgygzgAgBgCgDgEgFgGgHgIgJgKgLgMgNgOgPgQgRgSgTgUgVgWgXgYgZg0g1g2g3g4g5g6g7g8g9g.g+hahbhchdhehfhghhhihjhkhlhmhnhohphqhrhshthuhvhwhxhyhzhAhBhChDhEhFhGhHhIhJhKhLhMhNhOhPhQhRhShThUhVhWhXhYhZh0h1h2h3h4h5h6h7h8h9h.h+",
"aaabacadaeafagahaiajakalamanaoapaqarasatauavawaxayazaAaBaCaDaEaFaGaHaIaJaKaLaMaNaOaPaQaRaSaTaUaVaWaXaYaZa0a1a2a3a4a5a6a7a8a9a.a+babbbcbdbebfbgbhbibjbkblbmbnbobpbqbrbsbtbubvbwbxbybzbAbBbCbDbEbFbGbHbIbJbKbLbMbNbObPbQbRbSbTbUbVbWbXbYbZb0b1b2b3b4b5b6b7b8b9b.b+cacbcccdcecfcgchcicjckclcmcncocpcqcrcsctcucvcwcxcyczcAcBcCcDcEcFcGcHcIcJcKcLcMcNcOcPcQcRcScTcUcVcWcXcYcZc0c1c2c3c4c5c6c7c8c9c.c+dadbdcdddedfdgdhdidjdkdldmdndodpdqdrdsdtdudvdwdxdydzdAdBdCdDdEdFdGdHdIdJdKdLdMdNdOdPdQdRdSdTdUdVdWdXdYdZd0d1d2d3d4d5d6d7d8d9d.d+eaebecedeeefegeheiejekelemeneoepeqereseteuevewexeyezeAeBeCeDeEeFeGeHeIeJeKeLeMeNeOePeQeReSeTeUeVeWeXeYeZe0e1e2e3e4e5e6e7e8e9e.e+fafbfcfdfefffgfhfifjfkflfmfnfofpfqfrfsftfufvfwfxfyfzfAfBfCfDfEfFfGfHfIfJfKfLfMfNfOfPfQfRfSfTfUfVfWfXfYfZf0f1f2f3f4f5f6f7f8f9f.f+gagbgcgdgegfggghgigjgkglgmgngogpgqgrgsgtgugvgwgxgygzgAgBgCgDgEgFgGgHgIgJgKgLgMgNgOgPgQgRgSgTgUgVgWgXgYgZg0g1g2g3g4g5g6g7g8g9g.g+hahbhchdhehfhghhhihjhkhlhmhnhohphqhrhshthuhvhwhxhyhzhAhBhChDhEhFhGhHhIhJhKhLhMhNhOhPhQhRhShThUhVhWhXhYhZh0h1h2h3h4h5h6h7h8h9h.h+",
"aaabacadaeafagahaiajakalamanaoapaqarasatauavawaxayazaAaBaCaDaEaFaGaHaIaJaKaLaMaNaOaPaQaRaSaTaUaVaWaXaYaZa0a1a2a3a4a5a6a7a8a9a.a+babbbcbdbebfbgbhbibjbkblbmbnbobpbqbrbsbtbubvbwbxbybzbAbBbCbDbEbFbGbHbIbJbKbLbMbNbObPbQbRbSbTbUbVbWbXbYbZb0b1b2b3b4b5b6b7b8b9b.b+cacbcccdcecfcgchcicjckclcmcncocpcqcrcsctcucvcwcxcyczcAcBcCcDcEcFcGcHcIcJcKcLcMcNcOcPcQcRcScTcUcVcWcXcYcZc0c1c2c3c4c5c6c7c8c9c.c+dadbdcdddedfdgdhdidjdkdldmdndodpdqdrdsdtdudvdwdxdydzdAdBdCdDdEdFdGdHdIdJdKdLdMdNdOdPdQdRdSdTdUdVdWdXdYdZd0d1d2d3d4d5d6d7d8d9d.d+eaebecedeeefegeheiejekelemeneoepeqereseteuevewexeyezeAeBeCeDeEeFeGeHeIeJeKeLeMeNeOePeQeReSeTeUeVeWeXeYeZe0e1e2e3e4e5e6e7e8e9e.e+fafbfcfdfefffgfhfifjfkflfmfnfofpfqfrfsftfufvfwfxfyfzfAfBfCfDfEfFfGfHfIfJfKfLfMfNfOfPfQfRfSfTfUfVfWfXfYfZf0f1f2f3f4f5f6f7f8f9f.f+gagbgcgdgegfggghgigjgkglgmgngogpgqgrgsgtgugvgwgxgygzgAgBgCgDgEgFgGgHgIgJgKgLgMgNgOgPgQgRgSgTgUgVgWgXgYgZg0g1g2g3g4g5g6g7g8g9g.g+hahbhchdhehfhghhhihjhkhlhmhnhohphqhrhshthuhvhwhxhyhzhAhBhChDhEhFhGhHhIhJhKhLhMhNhOhPhQhRhShThUhVhWhXhYhZh0h1h2h3h4h5h6h7h8h9h.h+",
"aaabacadaeafagahaiajakalamanaoapaqarasatauavawaxayazaAaBaCaDaEaFaGaHaIaJaKaLaMaNaOaPaQaRaSaTaUaVaWaXaYaZa0a1a2a3a4a5a6a7a8a9a.a+babbbcbdbebfbgbhbibjbkblbmbnbobpbqbrbsbtbubvbwbxbybzbAbBbCbDbEbFbGbHbIbJbKbLbMbNbObPbQbRbSbTbUbVbWbXbYbZb0b1b2b3b4b5b6b7b8b9b.b+cacbcccdcecfcgchcicjckclcmcncocpcqcrcsctcucvcwcxcyczcAcBcCcDcEcFcGcHcIcJcKcLcMcNcOcPcQcRcScTcUcVcWcXcYcZc0c1c2c3c4c5c6c7c8c9c.c+dadbdcdddedfdgdhdidjdkdldmdndodpdqdrdsdtdudvdwdxdydzdAdBdCdDdEdFdGdHdIdJdKdLdMdNdOdPdQdRdSdTdUdVdWdXdYdZd0d1d2d3d4d5d6d7d8d9d.d+eaebecedeeefegeheiejekelemeneoepeqereseteuevewexeyezeAeBeCeDeEeFeGeHeIeJeKeLeMeNeOePeQeReSeTeUeVeWeXeYeZe0e1e2e3e4e5e6e7e8e9e.e+fafbfcfdfefffgfhfifjfkflfmfnfofpfqfrfsftfufvfwfxfyfzfAfBfCfDfEfFfGfHfIfJfKfLfMfNfOfPfQfRfSfTfUfVfWfXfYfZf0f1f2f3f4f5f6f7f8f9f.f+gagbgcgdgegfggghgigjgkglgmgngogpgqgrgsgtgugvgwgxgygzgAgBgCgDgEgFgGgHgIgJgKgLgMgNgOgPgQgRgSgTgUgVgWgXgYgZg0g1g2g3g4g5g6g7g8g9g.g+hahbhchdhehfhghhhihjhkhlhmhnhohphqhrhshthuhvhwhxhyhzhAhBhChDhEhFhGhHhIhJhKhLhMhNhOhPhQhRhShThUhVhWhXhYhZh0h1h2h3h4h5h6h7h8h9h.h+",
"aaabacadaeafagahaiajakalamanaoapaqarasatauavawaxayazaAaBaCaDaEaFaGaHaIaJaKaLaMaNaOaPaQaRaSaTaUaVaWaXaYaZa0a1a2a3a4a5a6a7a8a9a.a+babbbcbdbebfbgbhbibjbkblbmbnbobpbqbrbsbtbubvbwbxbybzbAbBbCbDbEbFbGbHbIbJbKbLbMbNbObPbQbRbSbTbUbVbWbXbYbZb0b1b2b3b4b5b6b7b8b9b.b+cacbcccdcecfcgchcicjckclcmcncocpcqcrcsctcucvcwcxcyczcAcBcCcDcEcFcGcHcIcJcKcLcMcNcOcPcQcRcScTcUcVcWcXcYcZc0c1c2c3c4c5c6c7c8c9c.c+dadbdcdddedfdgdhdidjdkdldmdndodpdqdrdsdtdudvdwdxdydzdAdBdCdDdEdFdGdHdIdJdKdLdMdNdOdPdQdRdSdTdUdVdWdXdYdZd0d1d2d3d4d5d6d7d8d9d.d+eaebecedeeefegeheiejekelemeneoepeqereseteuevewexeyezeAeBeCeDeEeFeGeHeIeJeKeLeMeNeOePeQeReSeTeUeVeWeXeYeZe0e1e2e3e4e5e6e7e8e9e.e+fafbfcfdfefffgfhfifjfkflfmfnfofpfqfrfsftfufvfwfxfyfzfAfBfCfDfEfFfGfHfIfJfKfLfMfNfOfPfQfRfSfTfUfVfWfXfYfZf0f1f2f3f4f5f6f7f8f9f.f+gagbgcgdgegfggghgigjgkglgmgngogpgqgrgsgtgugvgwgxgygzgAgBgCgDgEgFgGgHgIgJgKgLgMgNgOgPgQgRgSgTgUgVgWgXgYgZg0g1g2g3g4g5g6g7g8g9g.g+hahbhchdhehfhghhhihjhkhlhmhnhohphqhrhshthuhvhwhxhyhzhAhBhChDhEhFhGhHhIhJhKhLhMhNhOhPhQhRhShThUhVhWhXhYhZh0h1h2h3h4h5h6h7h8h9h.h+",
"aaabacadaeafagahaiajakalamanaoapaqarasatauavawaxayazaAaBaCaDaEaFaGaHaIaJaKaLaMaNaOaPaQaRaSaTaUaVaWaXaYaZa0a1a2a3a4a5a6a7a8a9a.a+babbbcbdbebfbgbhbibjbkblbmbnbobpbqbrbsbtbubvbwbxbybzbAbBbCbDbEbFbGbHbIbJbKbLbMbNbObPbQbRbSbTbUbVbWbXbYbZb0b1b2b3b4b5b6b7b8b9b.b+cacbcccdcecfcgchcicjckclcmcncocpcqcrcsctcucvcwcxcyczcAcBcCcDcEcFcGcHcIcJcKcLcMcNcOcPcQcRcScTcUcVcWcXcYcZc0c1c2c3c4c5c6c7c8c9c.c+dadbdcdddedfdgdhdidjdkdldmdndodpdqdrdsdtdudvdwdxdydzdAdBdCdDdEdFdGdHdIdJdKdLdMdNdOdPdQdRdSdTdUdVdWdXdYdZd0d1d2d3d4d5d6d7d8d9d.d+eaebecedeeefegeheiejekelemeneoepeqereseteuevewexeyezeAeBeCeDeEeFeGeHeIeJeKeLeMeNeOePeQeReSeTeUeVeWeXeYeZe0e1e2e3e4e5e6e7e8e9e.e+fafbfcfdfefffgfhfifjfkflfmfnfofpfqfrfsftfufvfwfxfyfzfAfBfCfDfEfFfGfHfIfJfKfLfMfNfOfPfQfRfSfTfUfVfWfXfYfZf0f1f2f3f4f5f6f7f8f9f.f+gagbgcgdgegfggghgigjgkglgmgngogpgqgrgsgtgugvgwgxgygzgAgBgCgDgEgFgGgHgIgJgKgLgMgNgOgPgQgRgSgTgUgVgWgXgYgZg0g1g2g3g4g5g6g7g8g9g.g+hahbhchdhehfhghhhihjhkhlhmhnhohphqhrhshthuhvhwhxhyhzhAhBhChDhEhFhGhHhIhJhKhLhMhNhOhPhQhRhShThUhVhWhXhYhZh0h1h2h3h4h5h6h7h8h9h.h+",
"aaabacadaeafagahaiajakalamanaoapaqarasatauavawaxayazaAaBaCaDaEaFaGaHaIaJaKaLaMaNaOaPaQaRaSaTaUaVaWaXaYaZa0a1a2a3a4a5a6a7a8a9a.a+babbbcbdbebfbgbhbibjbkblbmbnbobpbqbrbsbtbubvbwbxbybzbAbBbCbDbEbFbGbHbIbJbKbLbMbNbObPbQbRbSbTbUbVbWbXbYbZb0b1b2b3b4b5b6b7b8b9b.b+cacbcccdcecfcgchcicjckclcmcncocpcqcrcsctcucvcwcxcyczcAcBcCcDcEcFcGcHcIcJcKcLcMcNcOcPcQcRcScTcUcVcWcXcYcZc0c1c2c3c4c5c6c7c8c9c.c+dadbdcdddedfdgdhdidjdkdldmdndodpdqdrdsdtdudvdwdxdydzdAdBdCdDdEdFdGdHdIdJdKdLdMdNdOdPdQdRdSdTdUdVdWdXdYdZd0d1d2d3d4d5d6d7d8d9d.d+eaebecedeeefegeheiejekelemeneoepeqereseteuevewexeyezeAeBeCeDeEeFeGeHeIeJeKeLeMeNeOePeQeReSeTeUeVeWeXeYeZe0e1e2e3e4e5e6e7e8e9e.e+fafbfcfdfefffgfhfifjfkflfmfnfofpfqfrfsftfufvfwfxfyfzfAfBfCfDfEfFfGfHfIfJfKfLfMfNfOfPfQfRfSfTfUfVfWfXfYfZf0f1f2f3f4f5f6f7f8f9f.f+gagbgcgdgegfggghgigjgkglgmgngogpgqgrgsgtgugvgwgxgygzgAgBgCgDgEgFgGgHgIgJgKgLgMgNgOgPgQgRgSgTgUgVgWgXgYgZg0g1g2g3g4g5g6g7g8g9g.g+hahbhchdhehfhghhhihjhkhlhmhnhohphqhrhshthuhvhwhxhyhzhAhBhChDhEhFhGhHhIhJhKhLhMhNhOhPhQhRhShThUhVhWhXhYhZh0h1h2h3h4h5h6h7h8h9h.h+",
"aaabacadaeafagahaiajakalamanaoapaqarasatauavawaxayazaAaBaCaDaEaFaGaHaIaJaKaLaMaNaOaPaQaRaSaTaUaVaWaXaYaZa0a1a2a3a4a5a6a7a8a9a.a+babbbcbdbebfbgbhbibjbkblbmbnbobpbqbrbsbtbubvbwbxbybzbAbBbCbDbEbFbGbHbIbJbKbLbMbNbObPbQbRbSbTbUbVbWbXbYbZb0b1b2b3b4b5b6b7b8b9b.b+cacbcccdcecfcgchcicjckclcmcncocpcqcrcsctcucvcwcxcyczcAcBcCcDcEcFcGcHcIcJcKcLcMcNcOcPcQcRcScTcUcVcWcXcYcZc0c1c2c3c4c5c6c7c8c9c.c+dadbdcdddedfdgdhdidjdkdldmdndodpdqdrdsdtdudvdwdxdydzdAdBdCdDdEdFdGdHdIdJdKdLdMdNdOdPdQdRdSdTdUdVdWdXdYdZd0d1d2d3d4d5d6d7d8d9d.d+eaebecedeeefegeheiejekelemeneoepeqereseteuevewexeyezeAeBeCeDeEeFeGeHeIeJeKeLeMeNeOePeQeReSeTeUeVeWeXeYeZe0e1e2e3e4e5e6e7e8e9e.e+fafbfcfdfefffgfhfifjfkflfmfnfofpfqfrfsftfufvfwfxfyfzfAfBfCfDfEfFfGfHfIfJfKfLfMfNfOfPfQfRfSfTfUfVfWfXfYfZf0f1f2f3f4f5f6f7f8f9f.f+gagbgcgdgegfggghgigjgkglgmgngogpgqgrgsgtgugvgwgxgygzgAgBgCgDgEgFgGgHgIgJgKgLgMgNgOgPgQgRgSgTgUgVgWgXgYgZg0g1g2g3g4g5g6g7g8g9g.g+hahbhchdhehfhghhhihjhkhlhmhnhohphqhrhshthuhvhwhxhyhzhAhBhChDhEhFhGhHhIhJhKhLhMhNhOhPhQhRhShThUhVhWhXhYhZh0h1h2h3h4h5h6h7h8h9h.h+",
"aaabacadaeafagahaiajakalamanaoapaqarasatauavawaxayazaAaBaCaDaEaFaGaHaIaJaKaLaMaNaOaPaQaRaSaTaUaVaWaXaYaZa0a1a2a3a4a5a6a7a8a9a.a+babbbcbdbebfbgbhbibjbkblbmbnbobpbqbrbsbtbubvbwbxbybzbAbBbCbDbEbFbGbHbIbJbKbLbMbNbObPbQbRbSbTbUbVbWbXbYbZb0b1b2b3b4b5b6b7b8b9b.b+cacbcccdcecfcgchcicjckclcmcncocpcqcrcsctcucvcwcxcyczcAcBcCcDcEcFcGcHcIcJcKcLcMcNcOcPcQcRcScTcUcVcWcXcYcZc0c1c2c3c4c5c6c7c8c9c.c+dadbdcdddedfdgdhdidjdkdldmdndodpdqdrdsdtdudvdwdxdydzdAdBdCdDdEdFdGdHdIdJdKdLdMdNdOdPdQdRdSdTdUdVdWdXdYdZd0d1d2d3d4d5d6d7d8d9d.d+eaebecedeeefegeheiejekelemeneoepeqereseteuevewexeyezeAeBeCeDeEeFeGeHeIeJeKeLeMeNeOePeQeReSeTeUeVeWeXeYeZe0e1e2e3e4e5e6e7e8e9e.e+fafbfcfdfefffgfhfifjfkflfmfnfofpfqfrfsftfufvfwfxfyfzfAfBfCfDfEfFfGfHfIfJfKfLfMfNfOfPfQfRfSfTfUfVfWfXfYfZf0f1f2f3f4f5f6f7f8f9f.f+gagbgcgdgegfggghgigjgkglgmgngogpgqgrgsgtgugvgwgxgygzgAgBgCgDgEgFgGgHgIgJgKgLgMgNgOgPgQgRgSgTgUgVgWgXgYgZg0g1g2g3g4g5g6g7g8g9g.g+hahbhchdhehfhghhhihjhkhlhmhnhohphqhrhshthuhvhwhxhyhzhAhBhChDhEhFhGhHhIhJhKhLhMhNhOhPhQhRhShThUhVhWhXhYhZh0h1h2h3h4h5h6h7h8h9h.h+",
"aaabacadaeafagahaiajakalamanaoapaqarasatauavawaxayazaAaBaCaDaEaFaGaHaIaJaKaLaMaNaOaPaQaRaSaTaUaVaWaXaYaZa0a1a2a3a4a5a6a7a8a9a.a+babbbcbdbebfbgbhbibjbkblbmbnbobpbqbrbsbtbubvbwbxbybzbAbBbCbDbEbFbGbHbIbJbKbLbMbNbObPbQbRbSbTbUbVbWbXbYbZb0b1b2b3b4b5b6b7b8b9b.b+cacbcccdcecfcgchcicjckclcmcncocpcqcrcsctcucvcwcxcyczcAcBcCcDcEcFcGcHcIcJcKcLcMcNcOcPcQcRcScTcUcVcWcXcYcZc0c1c2c3c4c5c6c7c8c9c.c+dadbdcdddedfdgdhdidjdkdldmdndodpdqdrdsdtdudvdwdxdydzdAdBdCdDdEdFdGdHdIdJdKdLdMdNdOdPdQdRdSdTdUdVdWdXdYdZd0d1d2d3d4d5d6d7d8d9d.d+eaebecedeeefegeheiejekelemeneoepeqereseteuevewexeyezeAeBeCeDeEeFeGeHeIeJeKeLeMeNeOePeQeReSeTeUeVeWeXeYeZe0e1e2e3e4e5e6e7e8e9e.e+fafbfcfdfefffgfhfifjfkflfmfnfofpfqfrfsftfufvfwfxfyfzfAfBfCfDfEfFfGfHfIfJfKfLfMfNfOfPfQfRfSfTfUfVfWfXfYfZf0f1f2f3f4f5f6f7f8f9f.f+gagbgcgdgegfggghgigjgkglgmgngogpgqgrgsgtgugvgwgxgygzgAgBgCgDgEgFgGgHgIgJgKgLgMgNgOgPgQgRgSgTgUgVgWgXgYgZg0g1g2g3g4g5g6g7g8g9g.g+hahbhchdhehfhghhhihjhkhlhmhnhohphqhrhshthuhvhwhxhyhzhAhBhChDhEhFhGhHhIhJhKhLhMhNhOhPhQhRhShThUhVhWhXhYhZh0h1h2h3h4h5h6h7h8h9h.h+",
"aaabacadaeafagahaiajakalamanaoapaqarasatauavawaxayazaAaBaCaDaEaFaGaHaIaJaKaLaMaNaOaPaQaRaSaTaUaVaWaXaYaZa0a1a2a3a4a5a6a7a8a9a.a+babbbcbdbebfbgbhbibjbkblbmbnbobpbqbrbsbtbubvbwbxbybzbAbBbCbDbEbFbGbHbIbJbKbLbMbNbObPbQbRbSbTbUbVbWbXbYbZb0b1b2b3b4b5b6b7b8b9b.b+cacbcccdcecfcgchcicjckclcmcncocpcqcrcsctcucvcwcxcyczcAcBcCcDcEcFcGcHcIcJcKcLcMcNcOcPcQcRcScTcUcVcWcXcYcZc0c1c2c3c4c5c6c7c8c9c.c+dadbdcdddedfdgdhdidjdkdldmdndodpdqdrdsdtdudvdwdxdydzdAdBdCdDdEdFdGdHdIdJdKdLdMdNdOdPdQdRdSdTdUdVdWdXdYdZd0d1d2d3d4d5d6d7d8d9d.d+eaebecedeeefegeheiejekelemeneoepeqereseteuevewexeyezeAeBeCeDeEeFeGeHeIeJeKeLeMeNeOePeQeReSeTeUeVeWeXeYeZe0e1e2e3e4e5e6e7e8e9e.e+fafbfcfdfefffgfhfifjfkflfmfnfofpfqfrfsftfufvfwfxfyfzfAfBfCfDfEfFfGfHfIfJfKfLfMfNfOfPfQfRfSfTfUfVfWfXfYfZf0f1f2f3f4f5f6f7f8f9f.f+gagbgcgdgegfggghgigjgkglgmgngogpgqgrgsgtgugvgwgxgygzgAgBgCgDgEgFgGgHgIgJgKgLgMgNgOgPgQgRgSgTgUgVgWgXgYgZg0g1g2g3g4g5g6g7g8g9g.g+hahbhchdhehfhghhhihjhkhlhmhnhohphqhrhshthuhvhwhxhyhzhAhBhChDhEhFhGhHhIhJhKhLhMhNhOhPhQhRhShThUhVhWhXhYhZh0h1h2h3h4h5h6h7h8h9h.h+",
"aaabacadaeafagahaiajakalamanaoapaqarasatauavawaxayazaAaBaCaDaEaFaGaHaIaJaKaLaMaNaOaPaQaRaSaTaUaVaWaXaYaZa0a1a2a3a4a5a6a7a8a9a.a+babbbcbdbebfbgbhbibjbkblbmbnbobpbqbrbsbtbubvbwbxbybzbAbBbCbDbEbFbGbHbIbJbKbLbMbNbObPbQbRbSbTbUbVbWbXbYbZb0b1b2b3b4b5b6b7b8b9b.b+cacbcccdcecfcgchcicjckclcmcncocpcqcrcsctcucvcwcxcyczcAcBcCcDcEcFcGcHcIcJcKcLcMcNcOcPcQcRcScTcUcVcWcXcYcZc0c1c2c3c4c5c6c7c8c9c.c+dadbdcdddedfdgdhdidjdkdldmdndodpdqdrdsdtdudvdwdxdydzdAdBdCdDdEdFdGdHdIdJdKdLdMdNdOdPdQdRdSdTdUdVdWdXdYdZd0d1d2d3d4d5d6d7d8d9d.d+eaebecedeeefegeheiejekelemeneoepeqereseteuevewexeyezeAeBeCeDeEeFeGeHeIeJeKeLeMeNeOePeQeReSeTeUeVeWeXeYeZe0e1e2e3e4e5e6e7e8e9e.e+fafbfcfdfefffgfhfifjfkflfmfnfofpfqfrfsftfufvfwfxfyfzfAfBfCfDfEfFfGfHfIfJfKfLfMfNfOfPfQfRfSfTfUfVfWfXfYfZf0f1f2f3f4f5f6f7f8f9f.f+gagbgcgdgegfggghgigjgkglgmgngogpgqgrgsgtgugvgwgxgygzgAgBgCgDgEgFgGgHgIgJgKgLgMgNgOgPgQgRgSgTgUgVgWgXgYgZg0g1g2g3g4g5g6g7g8g9g.g+hahbhchdhehfhghhhihjhkhlhmhnhohphqhrhshthuhvhwhxhyhzhAhBhChDhEhFhGhHhIhJhKhLhMhNhOhPhQhRhShThUhVhWhXhYhZh0h1h2h3h4h5h6h7h8h9h.h+",
"aaabacadaeafagahaiajakalamanaoapaqarasatauavawaxayazaAaBaCaDaEaFaGaHaIaJaKaLaMaNaOaPaQaRaSaTaUaVaWaXaYaZa0a1a2a3a4a5a6a7a8a9a.a+babbbcbdbebfbgbhbibjbkblbmbnbobpbqbrbsbtbubvbwbxbybzbAbBbCbDbEbFbGbHbIbJbKbLbMbNbObPbQbRbSbTbUbVbWbXbYbZb0b1b2b3b4b5b6b7b8b9b.b+cacbcccdcecfcgchcicjckclcmcncocpcqcrcsctcucvcwcxcyczcAcBcCcDcEcFcGcHcIcJcKcLcMcNcOcPcQcRcScTcUcVcWcXcYcZc0c1c2c3c4c5c6c7c8c9c.c+dadbdcdddedfdgdhdidjdkdldmdndodpdqdrdsdtdudvdwdxdydzdAdBdCdDdEdFdGdHdIdJdKdLdMdNdOdPdQdRdSdTdUdVdWdXdYdZd0d1d2d3d4d5d6d7d8d9d.d+eaebecedeeefegeheiejekelemeneoepeqereseteuevewexeyezeAeBeCeDeEeFeGeHeIeJeKeLeMeNeOePeQeReSeTeUeVeWeXeYeZe0e1e2e3e4e5e6e7e8e9e.e+fafbfcfdfefffgfhfifjfkflfmfnfofpfqfrfsftfufvfwfxfyfzfAfBfCfDfEfFfGfHfIfJfKfLfMfNfOfPfQfRfSfTfUfVfWfXfYfZf0f1f2f3f4f5f6f7f8f9f.f+gagbgcgdgegfggghgigjgkglgmgngogpgqgrgsgtgugvgwgxgygzgAgBgCgDgEgFgGgHgIgJgKgLgMgNgOgPgQgRgSgTgUgVgWgXgYgZg0g1g2g3g4g5g6g7g8g9g.g+hahbhchdhehfhghhhihjhkhlhmhnhohphqhrhshthuhvhwhxhyhzhAhBhChDhEhFhGhHhIhJhKhLhMhNhOhPhQhRhShThUhVhWhXhYhZh0h1h2h3h4h5h6h7h8h9h.h+",
"aaabacadaeafagahaiajakalamanaoapaqarasatauavawaxayazaAaBaCaDaEaFaGaHaIaJaKaLaMaNaOaPaQaRaSaTaUaVaWaXaYaZa0a1a2a3a4a5a6a7a8a9a.a+babbbcbdbebfbgbhbibjbkblbmbnbobpbqbrbsbtbubvbwbxbybzbAbBbCbDbEbFbGbHbIbJbKbLbMbNbObPbQbRbSbTbUbVbWbXbYbZb0b1b2b3b4b5b6b7b8b9b.b+cacbcccdcecfcgchcicjckclcmcncocpcqcrcsctcucvcwcxcyczcAcBcCcDcEcFcGcHcIcJcKcLcMcNcOcPcQcRcScTcUcVcWcXcYcZc0c1c2c3c4c5c6c7c8c9c.c+dadbdcdddedfdgdhdidjdkdldmdndodpdqdrdsdtdudvdwdxdydzdAdBdCdDdEdFdGdHdIdJdKdLdMdNdOdPdQdRdSdTdUdVdWdXdYdZd0d1d2d3d4d5d6d7d8d9d.d+eaebecedeeefegeheiejekelemeneoepeqereseteuevewexeyezeAeBeCeDeEeFeGeHeIeJeKeLeMeNeOePeQeReSeTeUeVeWeXeYeZe0e1e2e3e4e5e6e7e8e9e.e+fafbfcfdfefffgfhfifjfkflfmfnfofpfqfrfsftfufvfwfxfyfzfAfBfCfDfEfFfGfHfIfJfKfLfMfNfOfPfQfRfSfTfUfVfWfXfYfZf0f1f2f3f4f5f6f7f8f9f.f+gagbgcgdgegfggghgigjgkglgmgngogpgqgrgsgtgugvgwgxgygzgAgBgCgDgEgFgGgHgIgJgKgLgMgNgOgPgQgRgSgTgUgVgWgXgYgZg0g1g2g3g4g5g6g7g8g9g.g+hahbhchdhehfhghhhihjhkhlhmhnhohphqhrhshthuhvhwhxhyhzhAhBhChDhEhFhGhHhIhJhKhLhMhNhOhPhQhRhShThUhVhWhXhYhZh0h1h2h3h4h5h6h7h8h9h.h+",
"aaabacadaeafagahaiajakalamanaoapaqarasatauavawaxayazaAaBaCaDaEaFaGaHaIaJaKaLaMaNaOaPaQaRaSaTaUaVaWaXaYaZa0a1a2a3a4a5a6a7a8a9a.a+babbbcbdbebfbgbhbibjbkblbmbnbobpbqbrbsbtbubvbwbxbybzbAbBbCbDbEbFbGbHbIbJbKbLbMbNbObPbQbRbSbTbUbVbWbXbYbZb0b1b2b3b4b5b6b7b8b9b.b+cacbcccdcecfcgchcicjckclcmcncocpcqcrcsctcucvcwcxcyczcAcBcCcDcEcFcGcHcIcJcKcLcMcNcOcPcQcRcScTcUcVcWcXcYcZc0c1c2c3c4c5c6c7c8c9c.c+dadbdcdddedfdgdhdidjdkdldmdndodpdqdrdsdtdudvdwdxdydzdAdBdCdDdEdFdGdHdIdJdKdLdMdNdOdPdQdRdSdTdUdVdWdXdYdZd0d1d2d3d4d5d6d7d8d9d.d+eaebecedeeefegeheiejekelemeneoepeqereseteuevewexeyezeAeBeCeDeEeFeGeHeIeJeKeLeMeNeOePeQeReSeTeUeVeWeXeYeZe0e1e2e3e4e5e6e7e8e9e.e+fafbfcfdfefffgfhfifjfkflfmfnfofpfqfrfsftfufvfwfxfyfzfAfBfCfDfEfFfGfHfIfJfKfLfMfNfOfPfQfRfSfTfUfVfWfXfYfZf0f1f2f3f4f5f6f7f8f9f.f+gagbgcgdgegfggghgigjgkglgmgngogpgqgrgsgtgugvgwgxgygzgAgBgCgDgEgFgGgHgIgJgKgLgMgNgOgPgQgRgSgTgUgVgWgXgYgZg0g1g2g3g4g5g6g7g8g9g.g+hahbhchdhehfhghhhihjhkhlhmhnhohphqhrhshthuhvhwhxhyhzhAhBhChDhEhFhGhHhIhJhKhLhMhNhOhPhQhRhShThUhVhWhXhYhZh0h1h2h3h4h5h6h7h8h9h.h+",
"aaabacadaeafagahaiajakalamanaoapaqarasatauavawaxayazaAaBaCaDaEaFaGaHaIaJaKaLaMaNaOaPaQaRaSaTaUaVaWaXaYaZa0a1a2a3a4a5a6a7a8a9a.a+babbbcbdbebfbgbhbibjbkblbmbnbobpbqbrbsbtbubvbwbxbybzbAbBbCbDbEbFbGbHbIbJbKbLbMbNbObPbQbRbSbTbUbVbWbXbYbZb0b1b2b3b4b5b6b7b8b9b.b+cacbcccdcecfcgchcicjckclcmcncocpcqcrcsctcucvcwcxcyczcAcBcCcDcEcFcGcHcIcJcKcLcMcNcOcPcQcRcScTcUcVcWcXcYcZc0c1c2c3c4c5c6c7c8c9c.c+dadbdcdddedfdgdhdidjdkdldmdndodpdqdrdsdtdudvdwdxdydzdAdBdCdDdEdFdGdHdIdJdKdLdMdNdOdPdQdRdSdTdUdVdWdXdYdZd0d1d2d3d4d5d6d7d8d9d.d+eaebecedeeefegeheiejekelemeneoepeqereseteuevewexeyezeAeBeCeDeEeFeGeHeIeJeKeLeMeNeOePeQeReSeTeUeVeWeXeYeZe0e1e2e3e4e5e6e7e8e9e.e+fafbfcfdfefffgfhfifjfkflfmfnfofpfqfrfsftfufvfwfxfyfzfAfBfCfDfEfFfGfHfIfJfKfLfMfNfOfPfQfRfSfTfUfVfWfXfYfZf0f1f2f3f4f5f6f7f8f9f.f+gagbgcgdgegfggghgigjgkglgmgngogpgqgrgsgtgugvgwgxgygzgAgBgCgDgEgFgGgHgIgJgKgLgMgNgOgPgQgRgSgTgUgVgWgXgYgZg0g1g2g3g4g5g6g7g8g9g.g+hahbhchdhehfhghhhihjhkhlhmhnhohphqhrhshthuhvhwhxhyhzhAhBhChDhEhFhGhHhIhJhKhLhMhNhOhPhQhRhShThUhVhWhXhYhZh0h1h2h3h4h5h6h7h8h9h.h+",
"aaabacadaeafagahaiajakalamanaoapaqarasatauavawaxayazaAaBaCaDaEaFaGaHaIaJaKaLaMaNaOaPaQaRaSaTaUaVaWaXaYaZa0a1a2a3a4a5a6a7a8a9a.a+babbbcbdbebfbgbhbibjbkblbmbnbobpbqbrbsbtbubvbwbxbybzbAbBbCbDbEbFbGbHbIbJbKbLbMbNbObPbQbRbSbTbUbVbWbXbYbZb0b1b2b3b4b5b6b7b8b9b.b+cacbcccdcecfcgchcicjckclcmcncocpcqcrcsctcucvcwcxcyczcAcBcCcDcEcFcGcHcIcJcKcLcMcNcOcPcQcRcScTcUcVcWcXcYcZc0c1c2c3c4c5c6c7c8c9c.c+dadbdcdddedfdgdhdidjdkdldmdndodpdqdrdsdtdudvdwdxdydzdAdBdCdDdEdFdGdHdIdJdKdLdMdNdOdPdQdRdSdTdUdVdWdXdYdZd0d1d2d3d4d5d6d7d8d9d.d+eaebecedeeefegeheiejekelemeneoepeqereseteuevewexeyezeAeBeCeDeEeFeGeHeIeJeKeLeMeNeOePeQeReSeTeUeVeWeXeYeZe0e1e2e3e4e5e6e7e8e9e.e+fafbfcfdfefffgfhfifjfkflfmfnfofpfqfrfsftfufvfwfxfyfzfAfBfCfDfEfFfGfHfIfJfKfLfMfNfOfPfQfRfSfTfUfVfWfXfYfZf0f1f2f3f4f5f6f7f8f9f.f+gagbgcgdgegfggghgigjgkglgmgngogpgqgrgsgtgugvgwgxgygzgAgBgCgDgEgFgGgHgIgJgKgLgMgNgOgPgQgRgSgTgUgVgWgXgYgZg0g1g2g3g4g5g6g7g8g9g.g+hahbhchdhehfhghhhihjhkhlhmhnhohphqhrhshthuhvhwhxhyhzhAhBhChDhEhFhGhHhIhJhKhLhMhNhOhPhQhRhShThUhVhWhXhYhZh0h1h2h3h4h5h6h7h8h9h.h+",
"aaabacadaeafagahaiajakalamanaoapaqarasatauavawaxayazaAaBaCaDaEaFaGaHaIaJaKaLaMaNaOaPaQaRaSaTaUaVaWaXaYaZa0a1a2a3a4a5a6a7a8a9a.a+babbbcbdbebfbgbhbibjbkblbmbnbobpbqbrbsbtbubvbwbxbybzbAbBbCbDbEbFbGbHbIbJbKbLbMbNbObPbQbRbSbTbUbVbWbXbYbZb0b1b2b3b4b5b6b7b8b9b.b+cacbcccdcecfcgchcicjckclcmcncocpcqcrcsctcucvcwcxcyczcAcBcCcDcEcFcGcHcIcJcKcLcMcNcOcPcQcRcScTcUcVcWcXcYcZc0c1c2c3c4c5c6c7c8c9c.c+dadbdcdddedfdgdhdidjdkdldmdndodpdqdrdsdtdudvdwdxdydzdAdBdCdDdEdFdGdHdIdJdKdLdMdNdOdPdQdRdSdTdUdVdWdXdYdZd0d1d2d3d4d5d6d7d8d9d.d+eaebecedeeefegeheiejekelemeneoepeqereseteuevewexeyezeAeBeCeDeEeFeGeHeIeJeKeLeMeNeOePeQeReSeTeUeVeWeXeYeZe0e1e2e3e4e5e6e7e8e9e.e+fafbfcfdfefffgfhfifjfkflfmfnfofpfqfrfsftfufvfwfxfyfzfAfBfCfDfEfFfGfHfIfJfKfLfMfNfOfPfQfRfSfTfUfVfWfXfYfZf0f1f2f3f4f5f6f7f8f9f.f+gagbgcgdgegfggghgigjgkglgmgngogpgqgrgsgtgugvgwgxgygzgAgBgCgDgEgFgGgHgIgJgKgLgMgNgOgPgQgRgSgTgUgVgWgXgYgZg0g1g2g3g4g5g6g7g8g9g.g+hahbhchdhehfhghhhihjhkhlhmhnhohphqhrhshthuhvhwhxhyhzhAhBhChDhEhFhGhHhIhJhKhLhMhNhOhPhQhRhShThUhVhWhXhYhZh0h1h2h3h4h5h6h7h8h9h.h+",
"aaabacadaeafagahaiajakalamanaoapaqarasatauavawaxayazaAaBaCaDaEaFaGaHaIaJaKaLaMaNaOaPaQaRaSaTaUaVaWaXaYaZa0a1a2a3a4a5a6a7a8a9a.a+babbbcbdbebfbgbhbibjbkblbmbnbobpbqbrbsbtbubvbwbxbybzbAbBbCbDbEbFbGbHbIbJbKbLbMbNbObPbQbRbSbTbUbVbWbXbYbZb0b1b2b3b4b5b6b7b8b9b.b+cacbcccdcecfcgchcicjckclcmcncocpcqcrcsctcucvcwcxcyczcAcBcCcDcEcFcGcHcIcJcKcLcMcNcOcPcQcRcScTcUcVcWcXcYcZc0c1c2c3c4c5c6c7c8c9c.c+dadbdcdddedfdgdhdidjdkdldmdndodpdqdrdsdtdudvdwdxdydzdAdBdCdDdEdFdGdHdIdJdKdLdMdNdOdPdQdRdSdTdUdVdWdXdYdZd0d1d2d3d4d5d6d7d8d9d.d+eaebecedeeefegeheiejekelemeneoepeqereseteuevewexeyezeAeBeCeDeEeFeGeHeIeJeKeLeMeNeOePeQeReSeTeUeVeWeXeYeZe0e1e2e3e4e5e6e7e8e9e.e+fafbfcfdfefffgfhfifjfkflfmfnfofpfqfrfsftfufvfwfxfyfzfAfBfCfDfEfFfGfHfIfJfKfLfMfNfOfPfQfRfSfTfUfVfWfXfYfZf0f1f2f3f4f5f6f7f8f9f.f+gagbgcgdgegfggghgigjgkglgmgngogpgqgrgsgtgugvgwgxgygzgAgBgCgDgEgFgGgHgIgJgKgLgMgNgOgPgQgRgSgTgUgVgWgXgYgZg0g1g2g3g4g5g6g7g8g9g.g+hahbhchdhehfhghhhihjhkhlhmhnhohphqhrhshthuhvhwhxhyhzhAhBhChDhEhFhGhHhIhJhKhLhMhNhOhPhQhRhShThUhVhWhXhYhZh0h1h2h3h4h5h6h7h8h9h.h+",
"aaabacadaeafagahaiajakalamanaoapaqarasatauavawaxayazaAaBaCaDaEaFaGaHaIaJaKaLaMaNaOaPaQaRaSaTaUaVaWaXaYaZa0a1a2a3a4a5a6a7a8a9a.a+babbbcbdbebfbgbhbibjbkblbmbnbobpbqbrbsbtbubvbwbxbybzbAbBbCbDbEbFbGbHbIbJbKbLbMbNbObPbQbRbSbTbUbVbWbXbYbZb0b1b2b3b4b5b6b7b8b9b.b+cacbcccdcecfcgchcicjckclcmcncocpcqcrcsctcucvcwcxcyczcAcBcCcDcEcFcGcHcIcJcKcLcMcNcOcPcQcRcScTcUcVcWcXcYcZc0c1c2c3c4c5c6c7c8c9c.c+dadbdcdddedfdgdhdidjdkdldmdndodpdqdrdsdtdudvdwdxdydzdAdBdCdDdEdFdGdHdIdJdKdLdMdNdOdPdQdRdSdTdUdVdWdXdYdZd0d1d2d3d4d5d6d7d8d9d.d+eaebecedeeefegeheiejekelemeneoepeqereseteuevewexeyezeAeBeCeDeEeFeGeHeIeJeKeLeMeNeOePeQeReSeTeUeVeWeXeYeZe0e1e2e3e4e5e6e7e8e9e.e+fafbfcfdfefffgfhfifjfkflfmfnfofpfqfrfsftfufvfwfxfyfzfAfBfCfDfEfFfGfHfIfJfKfLfMfNfOfPfQfRfSfTfUfVfWfXfYfZf0f1f2f3f4f5f6f7f8f9f.f+gagbgcgdgegfggghgigjgkglgmgngogpgqgrgsgtgugvgwgxgygzgAgBgCgDgEgFgGgHgIgJgKgLgMgNgOgPgQgRgSgTgUgVgWgXgYgZg0g1g2g3g4g5g6g7g8g9g.g+hahbhchdhehfhghhhihjhkhlhmhnhohphqhrhshthuhvhwhxhyhzhAhBhChDhEhFhGhHhIhJhKhLhMhNhOhPhQhRhShThUhVhWhXhYhZh0h1h2h3h4h5h6h7h8h9h.h+",
"aaabacadaeafagahaiajakalamanaoapaqarasatauavawaxayazaAaBaCaDaEaFaGaHaIaJaKaLaMaNaOaPaQaRaSaTaUaVaWaXaYaZa0a1a2a3a4a5a6a7a8a9a.a+babbbcbdbebfbgbhbibjbkblbmbnbobpbqbrbsbtbubvbwbxbybzbAbBbCbDbEbFbGbHbIbJbKbLbMbNbObPbQbRbSbTbUbVbWbXbYbZb0b1b2b3b4b5b6b7b8b9b.b+cacbcccdcecfcgchcicjckclcmcncocpcqcrcsctcucvcwcxcyczcAcBcCcDcEcFcGcHcIcJcKcLcMcNcOcPcQcRcScTcUcVcWcXcYcZc0c1c2c3c4c5c6c7c8c9c.c+dadbdcdddedfdgdhdidjdkdldmdndodpdqdrdsdtdudvdwdxdydzdAdBdCdDdEdFdGdHdIdJdKdLdMdNdOdPdQdRdSdTdUdVdWdXdYdZd0d1d2d3d4d5d6d7d8d9d.d+eaebecedeeefegeheiejekelemeneoepeqereseteuevewexeyezeAeBeCeDeEeFeGeHeIeJeKeLeMeNeOePeQeReSeTeUeVeWeXeYeZe0e1e2e3e4e5e6e7e8e9e.e+fafbfcfdfefffgfhfifjfkflfmfnfofpfqfrfsftfufvfwfxfyfzfAfBfCfDfEfFfGfHfIfJfKfLfMfNfOfPfQfRfSfTfUfVfWfXfYfZf0f1f2f3f4f5f6f7f8f9f.f+gagbgcgdgegfggghgigjgkglgmgngogpgqgrgsgtgugvgwgxgygzgAgBgCgDgEgFgGgHgIgJgKgLgMgNgOgPgQgRgSgTgUgVgWgXgYgZg0g1g2g3g4g5g6g7g8g9g.g+hahbhchdhehfhghhhihjhkhlhmhnhohphqhrhshthuhvhwhxhyhzhAhBhChDhEhFhGhHhIhJhKhLhMhNhOhPhQhRhShThUhVhWhXhYhZh0h1h2h3h4h5h6h7h8h9h.h+",
"aaabacadaeafagahaiajakalamanaoapaqarasatauavawaxayazaAaBaCaDaEaFaGaHaIaJaKaLaMaNaOaPaQaRaSaTaUaVaWaXaYaZa0a1a2a3a4a5a6a7a8a9a.a+babbbcbdbebfbgbhbibjbkblbmbnbobpbqbrbsbtbubvbwbxbybzbAbBbCbDbEbFbGbHbIbJbKbLbMbNbObPbQbRbSbTbUbVbWbXbYbZb0b1b2b3b4b5b6b7b8b9b.b+cacbcccdcecfcgchcicjckclcmcncocpcqcrcsctcucvcwcxcyczcAcBcCcDcEcFcGcHcIcJcKcLcMcNcOcPcQcRcScTcUcVcWcXcYcZc0c1c2c3c4c5c6c7c8c9c.c+dadbdcdddedfdgdhdidjdkdldmdndodpdqdrdsdtdudvdwdxdydzdAdBdCdDdEdFdGdHdIdJdKdLdMdNdOdPdQdRdSdTdUdVdWdXdYdZd0d1d2d3d4d5d6d7d8d9d.d+eaebecedeeefegeheiejekelemeneoepeqereseteuevewexeyezeAeBeCeDeEeFeGeHeIeJeKeLeMeNeOePeQeReSeTeUeVeWeXeYeZe0e1e2e3e4e5e6e7e8e9e.e+fafbfcfdfefffgfhfifjfkflfmfnfofpfqfrfsftfufvfwfxfyfzfAfBfCfDfEfFfGfHfIfJfKfLfMfNfOfPfQfRfSfTfUfVfWfXfYfZf0f1f2f3f4f5f6f7f8f9f.f+gagbgcgdgegfggghgigjgkglgmgngogpgqgrgsgtgugvgwgxgygzgAgBgCgDgEgFgGgHgIgJgKgLgMgNgOgPgQgRgSgTgUgVgWgXgYgZg0g1g2g3g4g5g6g7g8g9g.g+hahbhchdhehfhghhhihjhkhlhmhnhohphqhrhshthuhvhwhxhyhzhAhBhChDhEhFhGhHhIhJhKhLhMhNhOhPhQhRhShThUhVhWhXhYhZh0h1h2h3h4h5h6h7h8h9h.h+",
"aaabacadaeafagahaiajakalamanaoapaqarasatauavawaxayazaAaBaCaDaEaFaGaHaIaJaKaLaMaNaOaPaQaRaSaTaUaVaWaXaYaZa0a1a2a3a4a5a6a7a8a9a.a+babbbcbdbebfbgbhbibjbkblbmbnbobpbqbrbsbtbubvbwbxbybzbAbBbCbDbEbFbGbHbIbJbKbLbMbNbObPbQbRbSbTbUbVbWbXbYbZb0b1b2b3b4b5b6b7b8b9b.b+cacbcccdcecfcgchcicjckclcmcncocpcqcrcsctcucvcwcxcyczcAcBcCcDcEcFcGcHcIcJcKcLcMcNcOcPcQcRcScTcUcVcWcXcYcZc0c1c2c3c4c5c6c7c8c9c.c+dadbdcdddedfdgdhdidjdkdldmdndodpdqdrdsdtdudvdwdxdydzdAdBdCdDdEdFdGdHdIdJdKdLdMdNdOdPdQdRdSdTdUdVdWdXdYdZd0d1d2d3d4d5d6d7d8d9d.d+eaebecedeeefegeheiejekelemeneoepeqereseteuevewexeyezeAeBeCeDeEeFeGeHeIeJeKeLeMeNeOePeQeReSeTeUeVeWeXeYeZe0e1e2e3e4e5e6e7e8e9e.e+fafbfcfdfefffgfhfifjfkflfmfnfofpfqfrfsftfufvfwfxfyfzfAfBfCfDfEfFfGfHfIfJfKfLfMfNfOfPfQfRfSfTfUfVfWfXfYfZf0f1f2f3f4f5f6f7f8f9f.f+gagbgcgdgegfggghgigjgkglgmgngogpgqgrgsgtgugvgwgxgygzgAgBgCgDgEgFgGgHgIgJgKgLgMgNgOgPgQgRgSgTgUgVgWgXgYgZg0g1g2g3g4g5g6g7g8g9g.g+hahbhchdhehfhghhhihjhkhlhmhnhohphqhrhshthuhvhwhxhyhzhAhBhChDhEhFhGhHhIhJhKhLhMhNhOhPhQhRhShThUhVhWhXhYhZh0h1h2h3h4h5h6h7h8h9h.h+",
"aaabacadaeafagahaiajakalamanaoapaqarasatauavawaxayazaAaBaCaDaEaFaGaHaIaJaKaLaMaNaOaPaQaRaSaTaUaVaWaXaYaZa0a1a2a3a4a5a6a7a8a9a.a+babbbcbdbebfbgbhbibjbkblbmbnbobpbqbrbsbtbubvbwbxbybzbAbBbCbDbEbFbGbHbIbJbKbLbMbNbObPbQbRbSbTbUbVbWbXbYbZb0b1b2b3b4b5b6b7b8b9b.b+cacbcccdcecfcgchcicjckclcmcncocpcqcrcsctcucvcwcxcyczcAcBcCcDcEcFcGcHcIcJcKcLcMcNcOcPcQcRcScTcUcVcWcXcYcZc0c1c2c3c4c5c6c7c8c9c.c+dadbdcdddedfdgdhdidjdkdldmdndodpdqdrdsdtdudvdwdxdydzdAdBdCdDdEdFdGdHdIdJdKdLdMdNdOdPdQdRdSdTdUdVdWdXdYdZd0d1d2d3d4d5d6d7d8d9d.d+eaebecedeeefegeheiejekelemeneoepeqereseteuevewexeyezeAeBeCeDeEeFeGeHeIeJeKeLeMeNeOePeQeReSeTeUeVeWeXeYeZe0e1e2e3e4e5e6e7e8e9e.e+fafbfcfdfefffgfhfifjfkflfmfnfofpfqfrfsftfufvfwfxfyfzfAfBfCfDfEfFfGfHfIfJfKfLfMfNfOfPfQfRfSfTfUfVfWfXfYfZf0f1f2f3f4f5f6f7f8f9f.f+gagbgcgdgegfggghgigjgkglgmgngogpgqgrgsgtgugvgwgxgygzgAgBgCgDgEgFgGgHgIgJgKgLgMgNgOgPgQgRgSgTgUgVgWgXgYgZg0g1g2g3g4g5g6g7g8g9g.g+hahbhchdhehfhghhhihjhkhlhmhnhohphqhrhshthuhvhwhxhyhzhAhBhChDhEhFhGhHhIhJhKhLhMhNhOhPhQhRhShThUhVhWhXhYhZh0h1h2h3h4h5h6h7h8h9h.h+",
"aaabacadaeafagahaiajakalamanaoapaqarasatauavawaxayazaAaBaCaDaEaFaGaHaIaJaKaLaMaNaOaPaQaRaSaTaUaVaWaXaYaZa0a1a2a3a4a5a6a7a8a9a.a+babbbcbdbebfbgbhbibjbkblbmbnbobpbqbrbsbtbubvbwbxbybzbAbBbCbDbEbFbGbHbIbJbKbLbMbNbObPbQbRbSbTbUbVbWbXbYbZb0b1b2b3b4b5b6b7b8b9b.b+cacbcccdcecfcgchcicjckclcmcncocpcqcrcsctcucvcwcxcyczcAcBcCcDcEcFcGcHcIcJcKcLcMcNcOcPcQcRcScTcUcVcWcXcYcZc0c1c2c3c4c5c6c7c8c9c.c+dadbdcdddedfdgdhdidjdkdldmdndodpdqdrdsdtdudvdwdxdydzdAdBdCdDdEdFdGdHdIdJdKdLdMdNdOdPdQdRdSdTdUdVdWdXdYdZd0d1d2d3d4d5d6d7d8d9d.d+eaebecedeeefegeheiejekelemeneoepeqereseteuevewexeyezeAeBeCeDeEeFeGeHeIeJeKeLeMeNeOePeQeReSeTeUeVeWeXeYeZe0e1e2e3e4e5e6e7e8e9e.e+fafbfcfdfefffgfhfifjfkflfmfnfofpfqfrfsftfufvfwfxfyfzfAfBfCfDfEfFfGfHfIfJfKfLfMfNfOfPfQfRfSfTfUfVfWfXfYfZf0f1f2f3f4f5f6f7f8f9f.f+gagbgcgdgegfggghgigjgkglgmgngogpgqgrgsgtgugvgwgxgygzgAgBgCgDgEgFgGgHgIgJgKgLgMgNgOgPgQgRgSgTgUgVgWgXgYgZg0g1g2g3g4g5g6g7g8g9g.g+hahbhchdhehfhghhhihjhkhlhmhnhohphqhrhshthuhvhwhxhyhzhAhBhChDhEhFhGhHhIhJhKhLhMhNhOhPhQhRhShThUhVhWhXhYhZh0h1h2h3h4h5h6h7h8h9h.h+",
"aaabacadaeafagahaiajakalamanaoapaqarasatauavawaxayazaAaBaCaDaEaFaGaHaIaJaKaLaMaNaOaPaQaRaSaTaUaVaWaXaYaZa0a1a2a3a4a5a6a7a8a9a.a+babbbcbdbebfbgbhbibjbkblbmbnbobpbqbrbsbtbubvbwbxbybzbAbBbCbDbEbFbGbHbIbJbKbLbMbNbObPbQbRbSbTbUbVbWbXbYbZb0b1b2b3b4b5b6b7b8b9b.b+cacbcccdcecfcgchcicjckclcmcncocpcqcrcsctcucvcwcxcyczcAcBcCcDcEcFcGcHcIcJcKcLcMcNcOcPcQcRcScTcUcVcWcXcYcZc0c1c2c3c4c5c6c7c8c9c.c+dadbdcdddedfdgdhdidjdkdldmdndodpdqdrdsdtdudvdwdxdydzdAdBdCdDdEdFdGdHdIdJdKdLdMdNdOdPdQdRdSdTdUdVdWdXdYdZd0d1d2d3d4d5d6d7d8d9d.d+eaebecedeeefegeheiejekelemeneoepeqereseteuevewexeyezeAeBeCeDeEeFeGeHeIeJeKeLeMeNeOePeQeReSeTeUeVeWeXeYeZe0e1e2e3e4e5e6e7e8e9e.e+fafbfcfdfefffgfhfifjfkflfmfnfofpfqfrfsftfufvfwfxfyfzfAfBfCfDfEfFfGfHfIfJfKfLfMfNfOfPfQfRfSfTfUfVfWfXfYfZf0f1f2f3f4f5f6f7f8f9f.f+gagbgcgdgegfggghgigjgkglgmgngogpgqgrgsgtgugvgwgxgygzgAgBgCgDgEgFgGgHgIgJgKgLgMgNgOgPgQgRgSgTgUgVgWgXgYgZg0g1g2g3g4g5g6g7g8g9g.g+hahbhchdhehfhghhhihjhkhlhmhnhohphqhrhshthuhvhwhxhyhzhAhBhChDhEhFhGhHhIhJhKhLhMhNhOhPhQhRhShThUhVhWhXhYhZh0h1h2h3h4h5h6h7h8h9h.h+",
"aaabacadaeafagahaiajakalamanaoapaqarasatauavawaxayazaAaBaCaDaEaFaGaHaIaJaKaLaMaNaOaPaQaRaSaTaUaVaWaXaYaZa0a1a2a3a4a5a6a7a8a9a.a+babbbcbdbebfbgbhbibjbkblbmbnbobpbqbrbsbtbubvbwbxbybzbAbBbCbDbEbFbGbHbIbJbKbLbMbNbObPbQbRbSbTbUbVbWbXbYbZb0b1b2b3b4b5b6b7b8b9b.b+cacbcccdcecfcgchcicjckclcmcncocpcqcrcsctcucvcwcxcyczcAcBcCcDcEcFcGcHcIcJcKcLcMcNcOcPcQcRcScTcUcVcWcXcYcZc0c1c2c3c4c5c6c7c8c9c.c+dadbdcdddedfdgdhdidjdkdldmdndodpdqdrdsdtdudvdwdxdydzdAdBdCdDdEdFdGdHdIdJdKdLdMdNdOdPdQdRdSdTdUdVdWdXdYdZd0d1d2d3d4d5d6d7d8d9d.d+eaebecedeeefegeheiejekelemeneoepeqereseteuevewexeyezeAeBeCeDeEeFeGeHeIeJeKeLeMeNeOePeQeReSeTeUeVeWeXeYeZe0e1e2e3e4e5e6e7e8e9e.e+fafbfcfdfefffgfhfifjfkflfmfnfofpfqfrfsftfufvfwfxfyfzfAfBfCfDfEfFfGfHfIfJfKfLfMfNfOfPfQfRfSfTfUfVfWfXfYfZf0f1f2f3f4f5f6f7f8f9f.f+gagbgcgdgegfggghgigjgkglgmgngogpgqgrgsgtgugvgwgxgygzgAgBgCgDgEgFgGgHgIgJgKgLgMgNgOgPgQgRgSgTgUgVgWgXgYgZg0g1g2g3g4g5g6g7g8g9g.g+hahbhchdhehfhghhhihjhkhlhmhnhohphqhrhshthuhvhwhxhyhzhAhBhChDhEhFhGhHhIhJhKhLhMhNhOhPhQhRhShThUhVhWhXhYhZh0h1h2h3h4h5h6h7h8h9h.h+",
"aaabacadaeafagahaiajakalamanaoapaqarasatauavawaxayazaAaBaCaDaEaFaGaHaIaJaKaLaMaNaOaPaQaRaSaTaUaVaWaXaYaZa0a1a2a3a4a5a6a7a8a9a.a+babbbcbdbebfbgbhbibjbkblbmbnbobpbqbrbsbtbubvbwbxbybzbAbBbCbDbEbFbGbHbIbJbKbLbMbNbObPbQbRbSbTbUbVbWbXbYbZb0b1b2b3b4b5b6b7b8b9b.b+cacbcccdcecfcgchcicjckclcmcncocpcqcrcsctcucvcwcxcyczcAcBcCcDcEcFcGcHcIcJcKcLcMcNcOcPcQcRcScTcUcVcWcXcYcZc0c1c2c3c4c5c6c7c8c9c.c+dadbdcdddedfdgdhdidjdkdldmdndodpdqdrdsdtdudvdwdxdydzdAdBdCdDdEdFdGdHdIdJdKdLdMdNdOdPdQdRdSdTdUdVdWdXdYdZd0d1d2d3d4d5d6d7d8d9d.d+eaebecedeeefegeheiejekelemeneoepeqereseteuevewexeyezeAeBeCeDeEeFeGeHeIeJeKeLeMeNeOePeQeReSeTeUeVeWeXeYeZe0e1e2e3e4e5e6e7e8e9e.e+fafbfcfdfefffgfhfifjfkflfmfnfofpfqfrfsftfufvfwfxfyfzfAfBfCfDfEfFfGfHfIfJfKfLfMfNfOfPfQfRfSfTfUfVfWfXfYfZf0f1f2f3f4f5f6f7f8f9f.f+gagbgcgdgegfggghgigjgkglgmgngogpgqgrgsgtgugvgwgxgygzgAgBgCgDgEgFgGgHgIgJgKgLgMgNgOgPgQgRgSgTgUgVgWgXgYgZg0g1g2g3g4g5g6g7g8g9g.g+hahbhchdhehfhghhhihjhkhlhmhnhohphqhrhshthuhvhwhxhyhzhAhBhChDhEhFhGhHhIhJhKhLhMhNhOhPhQhRhShThUhVhWhXhYhZh0h1h2h3h4h5h6h7h8h9h.h+",
"aaabacadaeafagahaiajakalamanaoapaqarasatauavawaxayazaAaBaCaDaEaFaGaHaIaJaKaLaMaNaOaPaQaRaSaTaUaVaWaXaYaZa0a1a2a3a4a5a6a7a8a9a.a+babbbcbdbebfbgbhbibjbkblbmbnbobpbqbrbsbtbubvbwbxbybzbAbBbCbDbEbFbGbHbIbJbKbLbMbNbObPbQbRbSbTbUbVbWbXbYbZb0b1b2b3b4b5b6b7b8b9b.b+cacbcccdcecfcgchcicjckclcmcncocpcqcrcsctcucvcwcxcyczcAcBcCcDcEcFcGcHcIcJcKcLcMcNcOcPcQcRcScTcUcVcWcXcYcZc0c1c2c3c4c5c6c7c8c9c.c+dadbdcdddedfdgdhdidjdkdldmdndodpdqdrdsdtdudvdwdxdydzdAdBdCdDdEdFdGdHdIdJdKdLdMdNdOdPdQdRdSdTdUdVdWdXdYdZd0d1d2d3d4d5d6d7d8d9d.d+eaebecedeeefegeheiejekelemeneoepeqereseteuevewexeyezeAeBeCeDeEeFeGeHeIeJeKeLeMeNeOePeQeReSeTeUeVeWeXeYeZe0e1e2e3e4e5e6e7e8e9e.e+fafbfcfdfefffgfhfifjfkflfmfnfofpfqfrfsftfufvfwfxfyfzfAfBfCfDfEfFfGfHfIfJfKfLfMfNfOfPfQfRfSfTfUfVfWfXfYfZf0f1f2f3f4f5f6f7f8f9f.f+gagbgcgdgegfggghgigjgkglgmgngogpgqgrgsgtgugvgwgxgygzgAgBgCgDgEgFgGgHgIgJgKgLgMgNgOgPgQgRgSgTgUgVgWgXgYgZg0g1g2g3g4g5g6g7g8g9g.g+hahbhchdhehfhghhhihjhkhlhmhnhohphqhrhshthuhvhwhxhyhzhAhBhChDhEhFhGhHhIhJhKhLhMhNhOhPhQhRhShThUhVhWhXhYhZh0h1h2h3h4h5h6h7h8h9h.h+",
"aaabacadaeafagahaiajakalamanaoapaqarasatauavawaxayazaAaBaCaDaEaFaGaHaIaJaKaLaMaNaOaPaQaRaSaTaUaVaWaXaYaZa0a1a2a3a4a5a6a7a8a9a.a+babbbcbdbebfbgbhbibjbkblbmbnbobpbqbrbsbtbubvbwbxbybzbAbBbCbDbEbFbGbHbIbJbKbLbMbNbObPbQbRbSbTbUbVbWbXbYbZb0b1b2b3b4b5b6b7b8b9b.b+cacbcccdcecfcgchcicjckclcmcncocpcqcrcsctcucvcwcxcyczcAcBcCcDcEcFcGcHcIcJcKcLcMcNcOcPcQcRcScTcUcVcWcXcYcZc0c1c2c3c4c5c6c7c8c9c.c+dadbdcdddedfdgdhdidjdkdldmdndodpdqdrdsdtdudvdwdxdydzdAdBdCdDdEdFdGdHdIdJdKdLdMdNdOdPdQdRdSdTdUdVdWdXdYdZd0d1d2d3d4d5d6d7d8d9d.d+eaebecedeeefegeheiejekelemeneoepeqereseteuevewexeyezeAeBeCeDeEeFeGeHeIeJeKeLeMeNeOePeQeReSeTeUeVeWeXeYeZe0e1e2e3e4e5e6e7e8e9e.e+fafbfcfdfefffgfhfifjfkflfmfnfofpfqfrfsftfufvfwfxfyfzfAfBfCfDfEfFfGfHfIfJfKfLfMfNfOfPfQfRfSfTfUfVfWfXfYfZf0f1f2f3f4f5f6f7f8f9f.f+gagbgcgdgegfggghgigjgkglgmgngogpgqgrgsgtgugvgwgxgygzgAgBgCgDgEgFgGgHgIgJgKgLgMgNgOgPgQgRgSgTgUgVgWgXgYgZg0g1g2g3g4g5g6g7g8g9g.g+hahbhchdhehfhghhhihjhkhlhmhnhohphqhrhshthuhvhwhxhyhzhAhBhChDhEhFhGhHhIhJhKhLhMhNhOhPhQhRhShThUhVhWhXhYhZh0h1h2h3h4h5h6h7h8h9h.h+",
"aaabacadaeafagahaiajakalamanaoapaqarasatauavawaxayazaAaBaCaDaEaFaGaHaIaJaKaLaMaNaOaPaQaRaSaTaUaVaWaXaYaZa0a1a2a3a4a5a6a7a8a9a.a+babbbcbdbebfbgbhbibjbkblbmbnbobpbqbrbsbtbubvbwbxbybzbAbBbCbDbEbFbGbHbIbJbKbLbMbNbObPbQbRbSbTbUbVbWbXbYbZb0b1b2b3b4b5b6b7b8b9b.b+cacbcccdcecfcgchcicjckclcmcncocpcqcrcsctcucvcwcxcyczcAcBcCcDcEcFcGcHcIcJcKcLcMcNcOcPcQcRcScTcUcVcWcXcYcZc0c1c2c3c4c5c6c7c8c9c.c+dadbdcdddedfdgdhdidjdkdldmdndodpdqdrdsdtdudvdwdxdydzdAdBdCdDdEdFdGdHdIdJdKdLdMdNdOdPdQdRdSdTdUdVdWdXdYdZd0d1d2d3d4d5d6d7d8d9d.d+eaebecedeeefegeheiejekelemeneoepeqereseteuevewexeyezeAeBeCeDeEeFeGeHeIeJeKeLeMeNeOePeQeReSeTeUeVeWeXeYeZe0e1e2e3e4e5e6e7e8e9e.e+fafbfcfdfefffgfhfifjfkflfmfnfofpfqfrfsftfufvfwfxfyfzfAfBfCfDfEfFfGfHfIfJfKfLfMfNfOfPfQfRfSfTfUfVfWfXfYfZf0f1f2f3f4f5f6f7f8f9f.f+gagbgcgdgegfggghgigjgkglgmgngogpgqgrgsgtgugvgwgxgygzgAgBgCgDgEgFgGgHgIgJgKgLgMgNgOgPgQgRgSgTgUgVgWgXgYgZg0g1g2g3g4g5g6g7g8g9g.g+hahbhchdhehfhghhhihjhkhlhmhnhohphqhrhshthuhvhwhxhyhzhAhBhChDhEhFhGhHhIhJhKhLhMhNhOhPhQhRhShThUhVhWhXhYhZh0h1h2h3h4h5h6h7h8h9h.h+",
"aaabacadaeafagahaiajakalamanaoapaqarasatauavawaxayazaAaBaCaDaEaFaGaHaIaJaKaLaMaNaOaPaQaRaSaTaUaVaWaXaYaZa0a1a2a3a4a5a6a7a8a9a.a+babbbcbdbebfbgbhbibjbkblbmbnbobpbqbrbsbtbubvbwbxbybzbAbBbCbDbEbFbGbHbIbJbKbLbMbNbObPbQbRbSbTbUbVbWbXbYbZb0b1b2b3b4b5b6b7b8b9b.b+cacbcccdcecfcgchcicjckclcmcncocpcqcrcsctcucvcwcxcyczcAcBcCcDcEcFcGcHcIcJcKcLcMcNcOcPcQcRcScTcUcVcWcXcYcZc0c1c2c3c4c5c6c7c8c9c.c+dadbdcdddedfdgdhdidjdkdldmdndodpdqdrdsdtdudvdwdxdydzdAdBdCdDdEdFdGdHdIdJdKdLdMdNdOdPdQdRdSdTdUdVdWdXdYdZd0d1d2d3d4d5d6d7d8d9d.d+eaebecedeeefegeheiejekelemeneoepeqereseteuevewexeyezeAeBeCeDeEeFeGeHeIeJeKeLeMeNeOePeQeReSeTeUeVeWeXeYeZe0e1e2e3e4e5e6e7e8e9e.e+fafbfcfdfefffgfhfifjfkflfmfnfofpfqfrfsftfufvfwfxfyfzfAfBfCfDfEfFfGfHfIfJfKfLfMfNfOfPfQfRfSfTfUfVfWfXfYfZf0f1f2f3f4f5f6f7f8f9f.f+gagbgcgdgegfggghgigjgkglgmgngogpgqgrgsgtgugvgwgxgygzgAgBgCgDgEgFgGgHgIgJgKgLgMgNgOgPgQgRgSgTgUgVgWgXgYgZg0g1g2g3g4g5g6g7g8g9g.g+hahbhchdhehfhghhhihjhkhlhmhnhohphqhrhshthuhvhwhxhyhzhAhBhChDhEhFhGhHhIhJhKhLhMhNhOhPhQhRhShThUhVhWhXhYhZh0h1h2h3h4h5h6h7h8h9h.h+",
"aaabacadaeafagahaiajakalamanaoapaqarasatauavawaxayazaAaBaCaDaEaFaGaHaIaJaKaLaMaNaOaPaQaRaSaTaUaVaWaXaYaZa0a1a2a3a4a5a6a7a8a9a.a+babbbcbdbebfbgbhbibjbkblbmbnbobpbqbrbsbtbubvbwbxbybzbAbBbCbDbEbFbGbHbIbJbKbLbMbNbObPbQbRbSbTbUbVbWbXbYbZb0b1b2b3b4b5b6b7b8b9b.b+cacbcccdcecfcgchcicjckclcmcncocpcqcrcsctcucvcwcxcyczcAcBcCcDcEcFcGcHcIcJcKcLcMcNcOcPcQcRcScTcUcVcWcXcYcZc0c1c2c3c4c5c6c7c8c9c.c+dadbdcdddedfdgdhdidjdkdldmdndodpdqdrdsdtdudvdwdxdydzdAdBdCdDdEdFdGdHdIdJdKdLdMdNdOdPdQdRdSdTdUdVdWdXdYdZd0d1d2d3d4d5d6d7d8d9d.d+eaebecedeeefegeheiejekelemeneoepeqereseteuevewexeyezeAeBeCeDeEeFeGeHeIeJeKeLeMeNeOePeQeReSeTeUeVeWeXeYeZe0e1e2e3e4e5e6e7e8e9e.e+fafbfcfdfefffgfhfifjfkflfmfnfofpfqfrfsftfufvfwfxfyfzfAfBfCfDfEfFfGfHfIfJfKfLfMfNfOfPfQfRfSfTfUfVfWfXfYfZf0f1f2f3f4f5f6f7f8f9f.f+gagbgcgdgegfggghgigjgkglgmgngogpgqgrgsgtgugvgwgxgygzgAgBgCgDgEgFgGgHgIgJgKgLgMgNgOgPgQgRgSgTgUgVgWgXgYgZg0g1g2g3g4g5g6g7g8g9g.g+hahbhchdhehfhghhhihjhkhlhmhnhohphqhrhshthuhvhwhxhyhzhAhBhChDhEhFhGhHhIhJhKhLhMhNhOhPhQhRhShThUhVhWhXhYhZh0h1h2h3h4h5h6h7h8h9h.h+",
"aaabacadaeafagahaiajakalamanaoapaqarasatauavawaxayazaAaBaCaDaEaFaGaHaIaJaKaLaMaNaOaPaQaRaSaTaUaVaWaXaYaZa0a1a2a3a4a5a6a7a8a9a.a+babbbcbdbebfbgbhbibjbkblbmbnbobpbqbrbsbtbubvbwbxbybzbAbBbCbDbEbFbGbHbIbJbKbLbMbNbObPbQbRbSbTbUbVbWbXbYbZb0b1b2b3b4b5b6b7b8b9b.b+cacbcccdcecfcgchcicjckclcmcncocpcqcrcsctcucvcwcxcyczcAcBcCcDcEcFcGcHcIcJcKcLcMcNcOcPcQcRcScTcUcVcWcXcYcZc0c1c2c3c4c5c6c7c8c9c.c+dadbdcdddedfdgdhdidjdkdldmdndodpdqdrdsdtdudvdwdxdydzdAdBdCdDdEdFdGdHdIdJdKdLdMdNdOdPdQdRdSdTdUdVdWdXdYdZd0d1d2d3d4d5d6d7d8d9d.d+eaebecedeeefegeheiejekelemeneoepeqereseteuevewexeyezeAeBeCeDeEeFeGeHeIeJeKeLeMeNeOePeQeReSeTeUeVeWeXeYeZe0e1e2e3e4e5e6e7e8e9e.e+fafbfcfdfefffgfhfifjfkflfmfnfofpfqfrfsftfufvfwfxfyfzfAfBfCfDfEfFfGfHfIfJfKfLfMfNfOfPfQfRfSfTfUfVfWfXfYfZf0f1f2f3f4f5f6f7f8f9f.f+gagbgcgdgegfggghgigjgkglgmgngogpgqgrgsgtgugvgwgxgygzgAgBgCgDgEgFgGgHgIgJgKgLgMgNgOgPgQgRgSgTgUgVgWgXgYgZg0g1g2g3g4g5g6g7g8g9g.g+hahbhchdhehfhghhhihjhkhlhmhnhohphqhrhshthuhvhwhxhyhzhAhBhChDhEhFhGhHhIhJhKhLhMhNhOhPhQhRhShThUhVhWhXhYhZh0h1h2h3h4h5h6h7h8h9h.h+",
"aaabacadaeafagahaiajakalamanaoapaqarasatauavawaxayazaAaBaCaDaEaFaGaHaIaJaKaLaMaNaOaPaQaRaSaTaUaVaWaXaYaZa0a1a2a3a4a5a6a7a8a9a.a+babbbcbdbebfbgbhbibjbkblbmbnbobpbqbrbsbtbubvbwbxbybzbAbBbCbDbEbFbGbHbIbJbKbLbMbNbObPbQbRbSbTbUbVbWbXbYbZb0b1b2b3b4b5b6b7b8b9b.b+cacbcccdcecfcgchcicjckclcmcncocpcqcrcsctcucvcwcxcyczcAcBcCcDcEcFcGcHcIcJcKcLcMcNcOcPcQcRcScTcUcVcWcXcYcZc0c1c2c3c4c5c6c7c8c9c.c+dadbdcdddedfdgdhdidjdkdldmdndodpdqdrdsdtdudvdwdxdydzdAdBdCdDdEdFdGdHdIdJdKdLdMdNdOdPdQdRdSdTdUdVdWdXdYdZd0d1d2d3d4d5d6d7d8d9d.d+eaebecedeeefegeheiejekelemeneoepeqereseteuevewexeyezeAeBeCeDeEeFeGeHeIeJeKeLeMeNeOePeQeReSeTeUeVeWeXeYeZe0e1e2e3e4e5e6e7e8e9e.e+fafbfcfdfefffgfhfifjfkflfmfnfofpfqfrfsftfufvfwfxfyfzfAfBfCfDfEfFfGfHfIfJfKfLfMfNfOfPfQfRfSfTfUfVfWfXfYfZf0f1f2f3f4f5f6f7f8f9f.f+gagbgcgdgegfggghgigjgkglgmgngogpgqgrgsgtgugvgwgxgygzgAgBgCgDgEgFgGgHgIgJgKgLgMgNgOgPgQgRgSgTgUgVgWgXgYgZg0g1g2g3g4g5g6g7g8g9g.g+hahbhchdhehfhghhhihjhkhlhmhnhohphqhrhshthuhvhwhxhyhzhAhBhChDhEhFhGhHhIhJhKhLhMhNhOhPhQhRhShThUhVhWhXhYhZh0h1h2h3h4h5h6h7h8h9h.h+",
"aaabacadaeafagahaiajakalamanaoapaqarasatauavawaxayazaAaBaCaDaEaFaGaHaIaJaKaLaMaNaOaPaQaRaSaTaUaVaWaXaYaZa0a1a2a3a4a5a6a7a8a9a.a+babbbcbdbebfbgbhbibjbkblbmbnbobpbqbrbsbtbubvbwbxbybzbAbBbCbDbEbFbGbHbIbJbKbLbMbNbObPbQbRbSbTbUbVbWbXbYbZb0b1b2b3b4b5b6b7b8b9b.b+cacbcccdcecfcgchcicjckclcmcncocpcqcrcsctcucvcwcxcyczcAcBcCcDcEcFcGcHcIcJcKcLcMcNcOcPcQcRcScTcUcVcWcXcYcZc0c1c2c3c4c5c6c7c8c9c.c+dadbdcdddedfdgdhdidjdkdldmdndodpdqdrdsdtdudvdwdxdydzdAdBdCdDdEdFdGdHdIdJdKdLdMdNdOdPdQdRdSdTdUdVdWdXdYdZd0d1d2d3d4d5d6d7d8d9d.d+eaebecedeeefegeheiejekelemeneoepeqereseteuevewexeyezeAeBeCeDeEeFeGeHeIeJeKeLeMeNeOePeQeReSeTeUeVeWeXeYeZe0e1e2e3e4e5e6e7e8e9e.e+fafbfcfdfefffgfhfifjfkflfmfnfofpfqfrfsftfufvfwfxfyfzfAfBfCfDfEfFfGfHfIfJfKfLfMfNfOfPfQfRfSfTfUfVfWfXfYfZf0f1f2f3f4f5f6f7f8f9f.f+gagbgcgdgegfggghgigjgkglgmgngogpgqgrgsgtgugvgwgxgygzgAgBgCgDgEgFgGgHgIgJgKgLgMgNgOgPgQgRgSgTgUgVgWgXgYgZg0g1g2g3g4g5g6g7g8g9g.g+hahbhchdhehfhghhhihjhkhlhmhnhohphqhrhshthuhvhwhxhyhzhAhBhChDhEhFhGhHhIhJhKhLhMhNhOhPhQhRhShThUhVhWhXhYhZh0h1h2h3h4h5h6h7h8h9h.h+",
"aaabacadaeafagahaiajakalamanaoapaqarasatauavawaxayazaAaBaCaDaEaFaGaHaIaJaKaLaMaNaOaPaQaRaSaTaUaVaWaXaYaZa0a1a2a3a4a5a6a7a8a9a.a+babbbcbdbebfbgbhbibjbkblbmbnbobpbqbrbsbtbubvbwbxbybzbAbBbCbDbEbFbGbHbIbJbKbLbMbNbObPbQbRbSbTbUbVbWbXbYbZb0b1b2b3b4b5b6b7b8b9b.b+cacbcccdcecfcgchcicjckclcmcncocpcqcrcsctcucvcwcxcyczcAcBcCcDcEcFcGcHcIcJcKcLcMcNcOcPcQcRcScTcUcVcWcXcYcZc0c1c2c3c4c5c6c7c8c9c.c+dadbdcdddedfdgdhdidjdkdldmdndodpdqdrdsdtdudvdwdxdydzdAdBdCdDdEdFdGdHdIdJdKdLdMdNdOdPdQdRdSdTdUdVdWdXdYdZd0d1d2d3d4d5d6d7d8d9d.d+eaebecedeeefegeheiejekelemeneoepeqereseteuevewexeyezeAeBeCeDeEeFeGeHeIeJeKeLeMeNeOePeQeReSeTeUeVeWeXeYeZe0e1e2e3e4e5e6e7e8e9e.e+fafbfcfdfefffgfhfifjfkflfmfnfofpfqfrfsftfufvfwfxfyfzfAfBfCfDfEfFfGfHfIfJfKfLfMfNfOfPfQfRfSfTfUfVfWfXfYfZf0f1f2f3f4f5f6f7f8f9f.f+gagbgcgdgegfggghgigjgkglgmgngogpgqgrgsgtgugvgwgxgygzgAgBgCgDgEgFgGgHgIgJgKgLgMgNgOgPgQgRgSgTgUgVgWgXgYgZg0g1g2g3g4g5g6g7g8g9g.g+hahbhchdhehfhghhhihjhkhlhmhnhohphqhrhshthuhvhwhxhyhzhAhBhChDhEhFhGhHhIhJhKhLhMhNhOhPhQhRhShThUhVhWhXhYhZh0h1h2h3h4h5h6h7h8h9h.h+",
"aaabacadaeafagahaiajakalamanaoapaqarasatauavawaxayazaAaBaCaDaEaFaGaHaIaJaKaLaMaNaOaPaQaRaSaTaUaVaWaXaYaZa0a1a2a3a4a5a6a7a8a9a.a+babbbcbdbebfbgbhbibjbkblbmbnbobpbqbrbsbtbubvbwbxbybzbAbBbCbDbEbFbGbHbIbJbKbLbMbNbObPbQbRbSbTbUbVbWbXbYbZb0b1b2b3b4b5b6b7b8b9b.b+cacbcccdcecfcgchcicjckclcmcncocpcqcrcsctcucvcwcxcyczcAcBcCcDcEcFcGcHcIcJcKcLcMcNcOcPcQcRcScTcUcVcWcXcYcZc0c1c2c3c4c5c6c7c8c9c.c+dadbdcdddedfdgdhdidjdkdldmdndodpdqdrdsdtdudvdwdxdydzdAdBdCdDdEdFdGdHdIdJdKdLdMdNdOdPdQdRdSdTdUdVdWdXdYdZd0d1d2d3d4d5d6d7d8d9d.d+eaebecedeeefegeheiejekelemeneoepeqereseteuevewexeyezeAeBeCeDeEeFeGeHeIeJeKeLeMeNeOePeQeReSeTeUeVeWeXeYeZe0e1e2e3e4e5e6e7e8e9e.e+fafbfcfdfefffgfhfifjfkflfmfnfofpfqfrfsftfufvfwfxfyfzfAfBfCfDfEfFfGfHfIfJfKfLfMfNfOfPfQfRfSfTfUfVfWfXfYfZf0f1f2f3f4f5f6f7f8f9f.f+gagbgcgdgegfggghgigjgkglgmgngogpgqgrgsgtgugvgwgxgygzgAgBgCgDgEgFgGgHgIgJgKgLgMgNgOgPgQgRgSgTgUgVgWgXgYgZg0g1g2g3g4g5g6g7g8g9g.g+hahbhchdhehfhghhhihjhkhlhmhnhohphqhrhshthuhvhwhxhyhzhAhBhChDhEhFhGhHhIhJhKhLhMhNhOhPhQhRhShThUhVhWhXhYhZh0h1h2h3h4h5h6h7h8h9h.h+",
"aaabacadaeafagahaiajakalamanaoapaqarasatauavawaxayazaAaBaCaDaEaFaGaHaIaJaKaLaMaNaOaPaQaRaSaTaUaVaWaXaYaZa0a1a2a3a4a5a6a7a8a9a.a+babbbcbdbebfbgbhbibjbkblbmbnbobpbqbrbsbtbubvbwbxbybzbAbBbCbDbEbFbGbHbIbJbKbLbMbNbObPbQbRbSbTbUbVbWbXbYbZb0b1b2b3b4b5b6b7b8b9b.b+cacbcccdcecfcgchcicjckclcmcncocpcqcrcsctcucvcwcxcyczcAcBcCcDcEcFcGcHcIcJcKcLcMcNcOcPcQcRcScTcUcVcWcXcYcZc0c1c2c3c4c5c6c7c8c9c.c+dadbdcdddedfdgdhdidjdkdldmdndodpdqdrdsdtdudvdwdxdydzdAdBdCdDdEdFdGdHdIdJdKdLdMdNdOdPdQdRdSdTdUdVdWdXdYdZd0d1d2d3d4d5d6d7d8d9d.d+eaebecedeeefegeheiejekelemeneoepeqereseteuevewexeyezeAeBeCeDeEeFeGeHeIeJeKeLeMeNeOePeQeReSeTeUeVeWeXeYeZe0e1e2e3e4e5e6e7e8e9e.e+fafbfcfdfefffgfhfifjfkflfmfnfofpfqfrfsftfufvfwfxfyfzfAfBfCfDfEfFfGfHfIfJfKfLfMfNfOfPfQfRfSfTfUfVfWfXfYfZf0f1f2f3f4f5f6f7f8f9f.f+gagbgcgdgegfggghgigjgkglgmgngogpgqgrgsgtgugvgwgxgygzgAgBgCgDgEgFgGgHgIgJgKgLgMgNgOgPgQgRgSgTgUgVgWgXgYgZg0g1g2g3g4g5g6g7g8g9g.g+hahbhchdhehfhghhhihjhkhlhmhnhohphqhrhshthuhvhwhxhyhzhAhBhChDhEhFhGhHhIhJhKhLhMhNhOhPhQhRhShThUhVhWhXhYhZh0h1h2h3h4h5h6h7h8h9h.h+",
"aaabacadaeafagahaiajakalamanaoapaqarasatauavawaxayazaAaBaCaDaEaFaGaHaIaJaKaLaMaNaOaPaQaRaSaTaUaVaWaXaYaZa0a1a2a3a4a5a6a7a8a9a.a+babbbcbdbebfbgbhbibjbkblbmbnbobpbqbrbsbtbubvbwbxbybzbAbBbCbDbEbFbGbHbIbJbKbLbMbNbObPbQbRbSbTbUbVbWbXbYbZb0b1b2b3b4b5b6b7b8b9b.b+cacbcccdcecfcgchcicjckclcmcncocpcqcrcsctcucvcwcxcyczcAcBcCcDcEcFcGcHcIcJcKcLcMcNcOcPcQcRcScTcUcVcWcXcYcZc0c1c2c3c4c5c6c7c8c9c.c+dadbdcdddedfdgdhdidjdkdldmdndodpdqdrdsdtdudvdwdxdydzdAdBdCdDdEdFdGdHdIdJdKdLdMdNdOdPdQdRdSdTdUdVdWdXdYdZd0d1d2d3d4d5d6d7d8d9d.d+eaebecedeeefegeheiejekelemeneoepeqereseteuevewexeyezeAeBeCeDeEeFeGeHeIeJeKeLeMeNeOePeQeReSeTeUeVeWeXeYeZe0e1e2e3e4e5e6e7e8e9e.e+fafbfcfdfefffgfhfifjfkflfmfnfofpfqfrfsftfufvfwfxfyfzfAfBfCfDfEfFfGfHfIfJfKfLfMfNfOfPfQfRfSfTfUfVfWfXfYfZf0f1f2f3f4f5f6f7f8f9f.f+gagbgcgdgegfggghgigjgkglgmgngogpgqgrgsgtgugvgwgxgygzgAgBgCgDgEgFgGgHgIgJgKgLgMgNgOgPgQgRgSgTgUgVgWgXgYgZg0g1g2g3g4g5g6g7g8g9g.g+hahbhchdhehfhghhhihjhkhlhmhnhohphqhrhshthuhvhwhxhyhzhAhBhChDhEhFhGhHhIhJhKhLhMhNhOhPhQhRhShThUhVhWhXhYhZh0h1h2h3h4h5h6h7h8h9h.h+",
"aaabacadaeafagahaiajakalamanaoapaqarasatauavawaxayazaAaBaCaDaEaFaGaHaIaJaKaLaMaNaOaPaQaRaSaTaUaVaWaXaYaZa0a1a2a3a4a5a6a7a8a9a.a+babbbcbdbebfbgbhbibjbkblbmbnbobpbqbrbsbtbubvbwbxbybzbAbBbCbDbEbFbGbHbIbJbKbLbMbNbObPbQbRbSbTbUbVbWbXbYbZb0b1b2b3b4b5b6b7b8b9b.b+cacbcccdcecfcgchcicjckclcmcncocpcqcrcsctcucvcwcxcyczcAcBcCcDcEcFcGcHcIcJcKcLcMcNcOcPcQcRcScTcUcVcWcXcYcZc0c1c2c3c4c5c6c7c8c9c.c+dadbdcdddedfdgdhdidjdkdldmdndodpdqdrdsdtdudvdwdxdydzdAdBdCdDdEdFdGdHdIdJdKdLdMdNdOdPdQdRdSdTdUdVdWdXdYdZd0d1d2d3d4d5d6d7d8d9d.d+eaebecedeeefegeheiejekelemeneoepeqereseteuevewexeyezeAeBeCeDeEeFeGeHeIeJeKeLeMeNeOePeQeReSeTeUeVeWeXeYeZe0e1e2e3e4e5e6e7e8e9e.e+fafbfcfdfefffgfhfifjfkflfmfnfofpfqfrfsftfufvfwfxfyfzfAfBfCfDfEfFfGfHfIfJfKfLfMfNfOfPfQfRfSfTfUfVfWfXfYfZf0f1f2f3f4f5f6f7f8f9f.f+gagbgcgdgegfggghgigjgkglgmgngogpgqgrgsgtgugvgwgxgygzgAgBgCgDgEgFgGgHgIgJgKgLgMgNgOgPgQgRgSgTgUgVgWgXgYgZg0g1g2g3g4g5g6g7g8g9g.g+hahbhchdhehfhghhhihjhkhlhmhnhohphqhrhshthuhvhwhxhyhzhAhBhChDhEhFhGhHhIhJhKhLhMhNhOhPhQhRhShThUhVhWhXhYhZh0h1h2h3h4h5h6h7h8h9h.h+",
"aaabacadaeafagahaiajakalamanaoapaqarasatauavawaxayazaAaBaCaDaEaFaGaHaIaJaKaLaMaNaOaPaQaRaSaTaUaVaWaXaYaZa0a1a2a3a4a5a6a7a8a9a.a+babbbcbdbebfbgbhbibjbkblbmbnbobpbqbrbsbtbubvbwbxbybzbAbBbCbDbEbFbGbHbIbJbKbLbMbNbObPbQbRbSbTbUbVbWbXbYbZb0b1b2b3b4b5b6b7b8b9b.b+cacbcccdcecfcgchcicjckclcmcncocpcqcrcsctcucvcwcxcyczcAcBcCcDcEcFcGcHcIcJcKcLcMcNcOcPcQcRcScTcUcVcWcXcYcZc0c1c2c3c4c5c6c7c8c9c.c+dadbdcdddedfdgdhdidjdkdldmdndodpdqdrdsdtdudvdwdxdydzdAdBdCdDdEdFdGdHdIdJdKdLdMdNdOdPdQdRdSdTdUdVdWdXdYdZd0d1d2d3d4d5d6d7d8d9d.d+eaebecedeeefegeheiejekelemeneoepeqereseteuevewexeyezeAeBeCeDeEeFeGeHeIeJeKeLeMeNeOePeQeReSeTeUeVeWeXeYeZe0e1e2e3e4e5e6e7e8e9e.e+fafbfcfdfefffgfhfifjfkflfmfnfofpfqfrfsftfufvfwfxfyfzfAfBfCfDfEfFfGfHfIfJfKfLfMfNfOfPfQfRfSfTfUfVfWfXfYfZf0f1f2f3f4f5f6f7f8f9f.f+gagbgcgdgegfggghgigjgkglgmgngogpgqgrgsgtgugvgwgxgygzgAgBgCgDgEgFgGgHgIgJgKgLgMgNgOgPgQgRgSgTgUgVgWgXgYgZg0g1g2g3g4g5g6g7g8g9g.g+hahbhchdhehfhghhhihjhkhlhmhnhohphqhrhshthuhvhwhxhyhzhAhBhChDhEhFhGhHhIhJhKhLhMhNhOhPhQhRhShThUhVhWhXhYhZh0h1h2h3h4h5h6h7h8h9h.h+",
"aaabacadaeafagahaiajakalamanaoapaqarasatauavawaxayazaAaBaCaDaEaFaGaHaIaJaKaLaMaNaOaPaQaRaSaTaUaVaWaXaYaZa0a1a2a3a4a5a6a7a8a9a.a+babbbcbdbebfbgbhbibjbkblbmbnbobpbqbrbsbtbubvbwbxbybzbAbBbCbDbEbFbGbHbIbJbKbLbMbNbObPbQbRbSbTbUbVbWbXbYbZb0b1b2b3b4b5b6b7b8b9b.b+cacbcccdcecfcgchcicjckclcmcncocpcqcrcsctcucvcwcxcyczcAcBcCcDcEcFcGcHcIcJcKcLcMcNcOcPcQcRcScTcUcVcWcXcYcZc0c1c2c3c4c5c6c7c8c9c.c+dadbdcdddedfdgdhdidjdkdldmdndodpdqdrdsdtdudvdwdxdydzdAdBdCdDdEdFdGdHdIdJdKdLdMdNdOdPdQdRdSdTdUdVdWdXdYdZd0d1d2d3d4d5d6d7d8d9d.d+eaebecedeeefegeheiejekelemeneoepeqereseteuevewexeyezeAeBeCeDeEeFeGeHeIeJeKeLeMeNeOePeQeReSeTeUeVeWeXeYeZe0e1e2e3e4e5e6e7e8e9e.e+fafbfcfdfefffgfhfifjfkflfmfnfofpfqfrfsftfufvfwfxfyfzfAfBfCfDfEfFfGfHfIfJfKfLfMfNfOfPfQfRfSfTfUfVfWfXfYfZf0f1f2f3f4f5f6f7f8f9f.f+gagbgcgdgegfggghgigjgkglgmgngogpgqgrgsgtgugvgwgxgygzgAgBgCgDgEgFgGgHgIgJgKgLgMgNgOgPgQgRgSgTgUgVgWgXgYgZg0g1g2g3g4g5g6g7g8g9g.g+hahbhchdhehfhghhhihjhkhlhmhnhohphqhrhshthuhvhwhxhyhzhAhBhChDhEhFhGhHhIhJhKhLhMhNhOhPhQhRhShThUhVhWhXhYhZh0h1h2h3h4h5h6h7h8h9h.h+",
"aaabacadaeafagahaiajakalamanaoapaqarasatauavawaxayazaAaBaCaDaEaFaGaHaIaJaKaLaMaNaOaPaQaRaSaTaUaVaWaXaYaZa0a1a2a3a4a5a6a7a8a9a.a+babbbcbdbebfbgbhbibjbkblbmbnbobpbqbrbsbtbubvbwbxbybzbAbBbCbDbEbFbGbHbIbJbKbLbMbNbObPbQbRbSbTbUbVbWbXbYbZb0b1b2b3b4b5b6b7b8b9b.b+cacbcccdcecfcgchcicjckclcmcncocpcqcrcsctcucvcwcxcyczcAcBcCcDcEcFcGcHcIcJcKcLcMcNcOcPcQcRcScTcUcVcWcXcYcZc0c1c2c3c4c5c6c7c8c9c.c+dadbdcdddedfdgdhdidjdkdldmdndodpdqdrdsdtdudvdwdxdydzdAdBdCdDdEdFdGdHdIdJdKdLdMdNdOdPdQdRdSdTdUdVdWdXdYdZd0d1d2d3d4d5d6d7d8d9d.d+eaebecedeeefegeheiejekelemeneoepeqereseteuevewexeyezeAeBeCeDeEeFeGeHeIeJeKeLeMeNeOePeQeReSeTeUeVeWeXeYeZe0e1e2e3e4e5e6e7e8e9e.e+fafbfcfdfefffgfhfifjfkflfmfnfofpfqfrfsftfufvfwfxfyfzfAfBfCfDfEfFfGfHfIfJfKfLfMfNfOfPfQfRfSfTfUfVfWfXfYfZf0f1f2f3f4f5f6f7f8f9f.f+gagbgcgdgegfggghgigjgkglgmgngogpgqgrgsgtgugvgwgxgygzgAgBgCgDgEgFgGgHgIgJgKgLgMgNgOgPgQgRgSgTgUgVgWgXgYgZg0g1g2g3g4g5g6g7g8g9g.g+hahbhchdhehfhghhhihjhkhlhmhnhohphqhrhshthuhvhwhxhyhzhAhBhChDhEhFhGhHhIhJhKhLhMhNhOhPhQhRhShThUhVhWhXhYhZh0h1h2h3h4h5h6h7h8h9h.h+",
"aaabacadaeafagahaiajakalamanaoapaqarasatauavawaxayazaAaBaCaDaEaFaGaHaIaJaKaLaMaNaOaPaQaRaSaTaUaVaWaXaYaZa0a1a2a3a4a5a6a7a8a9a.a+babbbcbdbebfbgbhbibjbkblbmbnbobpbqbrbsbtbubvbwbxbybzbAbBbCbDbEbFbGbHbIbJbKbLbMbNbObPbQbRbSbTbUbVbWbXbYbZb0b1b2b3b4b5b6b7b8b9b.b+cacbcccdcecfcgchcicjckclcmcncocpcqcrcsctcucvcwcxcyczcAcBcCcDcEcFcGcHcIcJcKcLcMcNcOcPcQcRcScTcUcVcWcXcYcZc0c1c2c3c4c5c6c7c8c9c.c+dadbdcdddedfdgdhdidjdkdldmdndodpdqdrdsdtdudvdwdxdydzdAdBdCdDdEdFdGdHdIdJdKdLdMdNdOdPdQdRdSdTdUdVdWdXdYdZd0d1d2d3d4d5d6d7d8d9d.d+eaebecedeeefegeheiejekelemeneoepeqereseteuevewexeyezeAeBeCeDeEeFeGeHeIeJeKeLeMeNeOePeQeReSeTeUeVeWeXeYeZe0e1e2e3e4e5e6e7e8e9e.e+fafbfcfdfefffgfhfifjfkflfmfnfofpfqfrfsftfufvfwfxfyfzfAfBfCfDfEfFfGfHfIfJfKfLfMfNfOfPfQfRfSfTfUfVfWfXfYfZf0f1f2f3f4f5f6f7f8f9f.f+gagbgcgdgegfggghgigjgkglgmgngogpgqgrgsgtgugvgwgxgygzgAgBgCgDgEgFgGgHgIgJgKgLgMgNgOgPgQgRgSgTgUgVgWgXgYgZg0g1g2g3g4g5g6g7g8g9g.g+hahbhchdhehfhghhhihjhkhlhmhnhohphqhrhshthuhvhwhxhyhzhAhBhChDhEhFhGhHhIhJhKhLhMhNhOhPhQhRhShThUhVhWhXhYhZh0h1h2h3h4h5h6h7h8h9h.h+",
"aaabacadaeafagahaiajakalamanaoapaqarasatauavawaxayazaAaBaCaDaEaFaGaHaIaJaKaLaMaNaOaPaQaRaSaTaUaVaWaXaYaZa0a1a2a3a4a5a6a7a8a9a.a+babbbcbdbebfbgbhbibjbkblbmbnbobpbqbrbsbtbubvbwbxbybzbAbBbCbDbEbFbGbHbIbJbKbLbMbNbObPbQbRbSbTbUbVbWbXbYbZb0b1b2b3b4b5b6b7b8b9b.b+cacbcccdcecfcgchcicjckclcmcncocpcqcrcsctcucvcwcxcyczcAcBcCcDcEcFcGcHcIcJcKcLcMcNcOcPcQcRcScTcUcVcWcXcYcZc0c1c2c3c4c5c6c7c8c9c.c+dadbdcdddedfdgdhdidjdkdldmdndodpdqdrdsdtdudvdwdxdydzdAdBdCdDdEdFdGdHdIdJdKdLdMdNdOdPdQdRdSdTdUdVdWdXdYdZd0d1d2d3d4d5d6d7d8d9d.d+eaebecedeeefegeheiejekelemeneoepeqereseteuevewexeyezeAeBeCeDeEeFeGeHeIeJeKeLeMeNeOePeQeReSeTeUeVeWeXeYeZe0e1e2e3e4e5e6e7e8e9e.e+fafbfcfdfefffgfhfifjfkflfmfnfofpfqfrfsftfufvfwfxfyfzfAfBfCfDfEfFfGfHfIfJfKfLfMfNfOfPfQfRfSfTfUfVfWfXfYfZf0f1f2f3f4f5f6f7f8f9f.f+gagbgcgdgegfggghgigjgkglgmgngogpgqgrgsgtgugvgwgxgygzgAgBgCgDgEgFgGgHgIgJgKgLgMgNgOgPgQgRgSgTgUgVgWgXgYgZg0g1g2g3g4g5g6g7g8g9g.g+hahbhchdhehfhghhhihjhkhlhmhnhohphqhrhshthuhvhwhxhyhzhAhBhChDhEhFhGhHhIhJhKhLhMhNhOhPhQhRhShThUhVhWhXhYhZh0h1h2h3h4h5h6h7h8h9h.h+",
"aaabacadaeafagahaiajakalamanaoapaqarasatauavawaxayazaAaBaCaDaEaFaGaHaIaJaKaLaMaNaOaPaQaRaSaTaUaVaWaXaYaZa0a1a2a3a4a5a6a7a8a9a.a+babbbcbdbebfbgbhbibjbkblbmbnbobpbqbrbsbtbubvbwbxbybzbAbBbCbDbEbFbGbHbIbJbKbLbMbNbObPbQbRbSbTbUbVbWbXbYbZb0b1b2b3b4b5b6b7b8b9b.b+cacbcccdcecfcgchcicjckclcmcncocpcqcrcsctcucvcwcxcyczcAcBcCcDcEcFcGcHcIcJcKcLcMcNcOcPcQcRcScTcUcVcWcXcYcZc0c1c2c3c4c5c6c7c8c9c.c+dadbdcdddedfdgdhdidjdkdldmdndodpdqdrdsdtdudvdwdxdydzdAdBdCdDdEdFdGdHdIdJdKdLdMdNdOdPdQdRdSdTdUdVdWdXdYdZd0d1d2d3d4d5d6d7d8d9d.d+eaebecedeeefegeheiejekelemeneoepeqereseteuevewexeyezeAeBeCeDeEeFeGeHeIeJeKeLeMeNeOePeQeReSeTeUeVeWeXeYeZe0e1e2e3e4e5e6e7e8e9e.e+fafbfcfdfefffgfhfifjfkflfmfnfofpfqfrfsftfufvfwfxfyfzfAfBfCfDfEfFfGfHfIfJfKfLfMfNfOfPfQfRfSfTfUfVfWfXfYfZf0f1f2f3f4f5f6f7f8f9f.f+gagbgcgdgegfggghgigjgkglgmgngogpgqgrgsgtgugvgwgxgygzgAgBgCgDgEgFgGgHgIgJgKgLgMgNgOgPgQgRgSgTgUgVgWgXgYgZg0g1g2g3g4g5g6g7g8g9g.g+hahbhchdhehfhghhhihjhkhlhmhnhohphqhrhshthuhvhwhxhyhzhAhBhChDhEhFhGhHhIhJhKhLhMhNhOhPhQhRhShThUhVhWhXhYhZh0h1h2h3h4h5h6h7h8h9h.h+",
"aaabacadaeafagahaiajakalamanaoapaqarasatauavawaxayazaAaBaCaDaEaFaGaHaIaJaKaLaMaNaOaPaQaRaSaTaUaVaWaXaYaZa0a1a2a3a4a5a6a7a8a9a.a+babbbcbdbebfbgbhbibjbkblbmbnbobpbqbrbsbtbubvbwbxbybzbAbBbCbDbEbFbGbHbIbJbKbLbMbNbObPbQbRbSbTbUbVbWbXbYbZb0b1b2b3b4b5b6b7b8b9b.b+cacbcccdcecfcgchcicjckclcmcncocpcqcrcsctcucvcwcxcyczcAcBcCcDcEcFcGcHcIcJcKcLcMcNcOcPcQcRcScTcUcVcWcXcYcZc0c1c2c3c4c5c6c7c8c9c.c+dadbdcdddedfdgdhdidjdkdldmdndodpdqdrdsdtdudvdwdxdydzdAdBdCdDdEdFdGdHdIdJdKdLdMdNdOdPdQdRdSdTdUdVdWdXdYdZd0d1d2d3d4d5d6d7d8d9d.d+eaebecedeeefegeheiejekelemeneoepeqereseteuevewexeyezeAeBeCeDeEeFeGeHeIeJeKeLeMeNeOePeQeReSeTeUeVeWeXeYeZe0e1e2e3e4e5e6e7e8e9e.e+fafbfcfdfefffgfhfifjfkflfmfnfofpfqfrfsftfufvfwfxfyfzfAfBfCfDfEfFfGfHfIfJfKfLfMfNfOfPfQfRfSfTfUfVfWfXfYfZf0f1f2f3f4f5f6f7f8f9f.f+gagbgcgdgegfggghgigjgkglgmgngogpgqgrgsgtgugvgwgxgygzgAgBgCgDgEgFgGgHgIgJgKgLgMgNgOgPgQgRgSgTgUgVgWgXgYgZg0g1g2g3g4g5g6g7g8g9g.g+hahbhchdhehfhghhhihjhkhlhmhnhohphqhrhshthuhvhwhxhyhzhAhBhChDhEhFhGhHhIhJhKhLhMhNhOhPhQhRhShThUhVhWhXhYhZh0h1h2h3h4h5h6h7h8h9h.h+",
"aaabacadaeafagahaiajakalamanaoapaqarasatauavawaxayazaAaBaCaDaEaFaGaHaIaJaKaLaMaNaOaPaQaRaSaTaUaVaWaXaYaZa0a1a2a3a4a5a6a7a8a9a.a+babbbcbdbebfbgbhbibjbkblbmbnbobpbqbrbsbtbubvbwbxbybzbAbBbCbDbEbFbGbHbIbJbKbLbMbNbObPbQbRbSbTbUbVbWbXbYbZb0b1b2b3b4b5b6b7b8b9b.b+cacbcccdcecfcgchcicjckclcmcncocpcqcrcsctcucvcwcxcyczcAcBcCcDcEcFcGcHcIcJcKcLcMcNcOcPcQcRcScTcUcVcWcXcYcZc0c1c2c3c4c5c6c7c8c9c.c+dadbdcdddedfdgdhdidjdkdldmdndodpdqdrdsdtdudvdwdxdydzdAdBdCdDdEdFdGdHdIdJdKdLdMdNdOdPdQdRdSdTdUdVdWdXdYdZd0d1d2d3d4d5d6d7d8d9d.d+eaebecedeeefegeheiejekelemeneoepeqereseteuevewexeyezeAeBeCeDeEeFeGeHeIeJeKeLeMeNeOePeQeReSeTeUeVeWeXeYeZe0e1e2e3e4e5e6e7e8e9e.e+fafbfcfdfefffgfhfifjfkflfmfnfofpfqfrfsftfufvfwfxfyfzfAfBfCfDfEfFfGfHfIfJfKfLfMfNfOfPfQfRfSfTfUfVfWfXfYfZf0f1f2f3f4f5f6f7f8f9f.f+gagbgcgdgegfggghgigjgkglgmgngogpgqgrgsgtgugvgwgxgygzgAgBgCgDgEgFgGgHgIgJgKgLgMgNgOgPgQgRgSgTgUgVgWgXgYgZg0g1g2g3g4g5g6g7g8g9g.g+hahbhchdhehfhghhhihjhkhlhmhnhohphqhrhshthuhvhwhxhyhzhAhBhChDhEhFhGhHhIhJhKhLhMhNhOhPhQhRhShThUhVhWhXhYhZh0h1h2h3h4h5h6h7h8h9h.h+",
"aaabacadaeafagahaiajakalamanaoapaqarasatauavawaxayazaAaBaCaDaEaFaGaHaIaJaKaLaMaNaOaPaQaRaSaTaUaVaWaXaYaZa0a1a2a3a4a5a6a7a8a9a.a+babbbcbdbebfbgbhbibjbkblbmbnbobpbqbrbsbtbubvbwbxbybzbAbBbCbDbEbFbGbHbIbJbKbLbMbNbObPbQbRbSbTbUbVbWbXbYbZb0b1b2b3b4b5b6b7b8b9b.b+cacbcccdcecfcgchcicjckclcmcncocpcqcrcsctcucvcwcxcyczcAcBcCcDcEcFcGcHcIcJcKcLcMcNcOcPcQcRcScTcUcVcWcXcYcZc0c1c2c3c4c5c6c7c8c9c.c+dadbdcdddedfdgdhdidjdkdldmdndodpdqdrdsdtdudvdwdxdydzdAdBdCdDdEdFdGdHdIdJdKdLdMdNdOdPdQdRdSdTdUdVdWdXdYdZd0d1d2d3d4d5d6d7d8d9d.d+eaebecedeeefegeheiejekelemeneoepeqereseteuevewexeyezeAeBeCeDeEeFeGeHeIeJeKeLeMeNeOePeQeReSeTeUeVeWeXeYeZe0e1e2e3e4e5e6e7e8e9e.e+fafbfcfdfefffgfhfifjfkflfmfnfofpfqfrfsftfufvfwfxfyfzfAfBfCfDfEfFfGfHfIfJfKfLfMfNfOfPfQfRfSfTfUfVfWfXfYfZf0f1f2f3f4f5f6f7f8f9f.f+gagbgcgdgegfggghgigjgkglgmgngogpgqgrgsgtgugvgwgxgygzgAgBgCgDgEgFgGgHgIgJgKgLgMgNgOgPgQgRgSgTgUgVgWgXgYgZg0g1g2g3g4g5g6g7g8g9g.g+hahbhchdhehfhghhhihjhkhlhmhnhohphqhrhshthuhvhwhxhyhzhAhBhChDhEhFhGhHhIhJhKhLhMhNhOhPhQhRhShThUhVhWhXhYhZh0h1h2h3h4h5h6h7h8h9h.h+",
"aaabacadaeafagahaiajakalamanaoapaqarasatauavawaxayazaAaBaCaDaEaFaGaHaIaJaKaLaMaNaOaPaQaRaSaTaUaVaWaXaYaZa0a1a2a3a4a5a6a7a8a9a.a+babbbcbdbebfbgbhbibjbkblbmbnbobpbqbrbsbtbubvbwbxbybzbAbBbCbDbEbFbGbHbIbJbKbLbMbNbObPbQbRbSbTbUbVbWbXbYbZb0b1b2b3b4b5b6b7b8b9b.b+cacbcccdcecfcgchcicjckclcmcncocpcqcrcsctcucvcwcxcyczcAcBcCcDcEcFcGcHcIcJcKcLcMcNcOcPcQcRcScTcUcVcWcXcYcZc0c1c2c3c4c5c6c7c8c9c.c+dadbdcdddedfdgdhdidjdkdldmdndodpdqdrdsdtdudvdwdxdydzdAdBdCdDdEdFdGdHdIdJdKdLdMdNdOdPdQdRdSdTdUdVdWdXdYdZd0d1d2d3d4d5d6d7d8d9d.d+eaebecedeeefegeheiejekelemeneoepeqereseteuevewexeyezeAeBeCeDeEeFeGeHeIeJeKeLeMeNeOePeQeReSeTeUeVeWeXeYeZe0e1e2e3e4e5e6e7e8e9e.e+fafbfcfdfefffgfhfifjfkflfmfnfofpfqfrfsftfufvfwfxfyfzfAfBfCfDfEfFfGfHfIfJfKfLfMfNfOfPfQfRfSfTfUfVfWfXfYfZf0f1f2f3f4f5f6f7f8f9f.f+gagbgcgdgegfggghgigjgkglgmgngogpgqgrgsgtgugvgwgxgygzgAgBgCgDgEgFgGgHgIgJgKgLgMgNgOgPgQgRgSgTgUgVgWgXgYgZg0g1g2g3g4g5g6g7g8g9g.g+hahbhchdhehfhghhhihjhkhlhmhnhohphqhrhshthuhvhwhxhyhzhAhBhChDhEhFhGhHhIhJhKhLhMhNhOhPhQhRhShThUhVhWhXhYhZh0h1h2h3h4h5h6h7h8h9h.h+",
"aaabacadaeafagahaiajakalamanaoapaqarasatauavawaxayazaAaBaCaDaEaFaGaHaIaJaKaLaMaNaOaPaQaRaSaTaUaVaWaXaYaZa0a1a2a3a4a5a6a7a8a9a.a+babbbcbdbebfbgbhbibjbkblbmbnbobpbqbrbsbtbubvbwbxbybzbAbBbCbDbEbFbGbHbIbJbKbLbMbNbObPbQbRbSbTbUbVbWbXbYbZb0b1b2b3b4b5b6b7b8b9b.b+cacbcccdcecfcgchcicjckclcmcncocpcqcrcsctcucvcwcxcyczcAcBcCcDcEcFcGcHcIcJcKcLcMcNcOcPcQcRcScTcUcVcWcXcYcZc0c1c2c3c4c5c6c7c8c9c.c+dadbdcdddedfdgdhdidjdkdldmdndodpdqdrdsdtdudvdwdxdydzdAdBdCdDdEdFdGdHdIdJdKdLdMdNdOdPdQdRdSdTdUdVdWdXdYdZd0d1d2d3d4d5d6d7d8d9d.d+eaebecedeeefegeheiejekelemeneoepeqereseteuevewexeyezeAeBeCeDeEeFeGeHeIeJeKeLeMeNeOePeQeReSeTeUeVeWeXeYeZe0e1e2e3e4e5e6e7e8e9e.e+fafbfcfdfefffgfhfifjfkflfmfnfofpfqfrfsftfufvfwfxfyfzfAfBfCfDfEfFfGfHfIfJfKfLfMfNfOfPfQfRfSfTfUfVfWfXfYfZf0f1f2f3f4f5f6f7f8f9f.f+gagbgcgdgegfggghgigjgkglgmgngogpgqgrgsgtgugvgwgxgygzgAgBgCgDgEgFgGgHgIgJgKgLgMgNgOgPgQgRgSgTgUgVgWgXgYgZg0g1g2g3g4g5g6g7g8g9g.g+hahbhchdhehfhghhhihjhkhlhmhnhohphqhrhshthuhvhwhxhyhzhAhBhChDhEhFhGhHhIhJhKhLhMhNhOhPhQhRhShThUhVhWhXhYhZh0h1h2h3h4h5h6h7h8h9h.h+",
"aaabacadaeafagahaiajakalamanaoapaqarasatauavawaxayazaAaBaCaDaEaFaGaHaIaJaKaLaMaNaOaPaQaRaSaTaUaVaWaXaYaZa0a1a2a3a4a5a6a7a8a9a.a+babbbcbdbebfbgbhbibjbkblbmbnbobpbqbrbsbtbubvbwbxbybzbAbBbCbDbEbFbGbHbIbJbKbLbMbNbObPbQbRbSbTbUbVbWbXbYbZb0b1b2b3b4b5b6b7b8b9b.b+cacbcccdcecfcgchcicjckclcmcncocpcqcrcsctcucvcwcxcyczcAcBcCcDcEcFcGcHcIcJcKcLcMcNcOcPcQcRcScTcUcVcWcXcYcZc0c1c2c3c4c5c6c7c8c9c.c+dadbdcdddedfdgdhdidjdkdldmdndodpdqdrdsdtdudvdwdxdydzdAdBdCdDdEdFdGdHdIdJdKdLdMdNdOdPdQdRdSdTdUdVdWdXdYdZd0d1d2d3d4d5d6d7d8d9d.d+eaebecedeeefegeheiejekelemeneoepeqereseteuevewexeyezeAeBeCeDeEeFeGeHeIeJeKeLeMeNeOePeQeReSeTeUeVeWeXeYeZe0e1e2e3e4e5e6e7e8e9e.e+fafbfcfdfefffgfhfifjfkflfmfnfofpfqfrfsftfufvfwfxfyfzfAfBfCfDfEfFfGfHfIfJfKfLfMfNfOfPfQfRfSfTfUfVfWfXfYfZf0f1f2f3f4f5f6f7f8f9f.f+gagbgcgdgegfggghgigjgkglgmgngogpgqgrgsgtgugvgwgxgygzgAgBgCgDgEgFgGgHgIgJgKgLgMgNgOgPgQgRgSgTgUgVgWgXgYgZg0g1g2g3g4g5g6g7g8g9g.g+hahbhchdhehfhghhhihjhkhlhmhnhohphqhrhshthuhvhwhxhyhzhAhBhChDhEhFhGhHhIhJhKhLhMhNhOhPhQhRhShThUhVhWhXhYhZh0h1h2h3h4h5h6h7h8h9h.h+",
"aaabacadaeafagahaiajakalamanaoapaqarasatauavawaxayazaAaBaCaDaEaFaGaHaIaJaKaLaMaNaOaPaQaRaSaTaUaVaWaXaYaZa0a1a2a3a4a5a6a7a8a9a.a+babbbcbdbebfbgbhbibjbkblbmbnbobpbqbrbsbtbubvbwbxbybzbAbBbCbDbEbFbGbHbIbJbKbLbMbNbObPbQbRbSbTbUbVbWbXbYbZb0b1b2b3b4b5b6b7b8b9b.b+cacbcccdcecfcgchcicjckclcmcncocpcqcrcsctcucvcwcxcyczcAcBcCcDcEcFcGcHcIcJcKcLcMcNcOcPcQcRcScTcUcVcWcXcYcZc0c1c2c3c4c5c6c7c8c9c.c+dadbdcdddedfdgdhdidjdkdldmdndodpdqdrdsdtdudvdwdxdydzdAdBdCdDdEdFdGdHdIdJdKdLdMdNdOdPdQdRdSdTdUdVdWdXdYdZd0d1d2d3d4d5d6d7d8d9d.d+eaebecedeeefegeheiejekelemeneoepeqereseteuevewexeyezeAeBeCeDeEeFeGeHeIeJeKeLeMeNeOePeQeReSeTeUeVeWeXeYeZe0e1e2e3e4e5e6e7e8e9e.e+fafbfcfdfefffgfhfifjfkflfmfnfofpfqfrfsftfufvfwfxfyfzfAfBfCfDfEfFfGfHfIfJfKfLfMfNfOfPfQfRfSfTfUfVfWfXfYfZf0f1f2f3f4f5f6f7f8f9f.f+gagbgcgdgegfggghgigjgkglgmgngogpgqgrgsgtgugvgwgxgygzgAgBgCgDgEgFgGgHgIgJgKgLgMgNgOgPgQgRgSgTgUgVgWgXgYgZg0g1g2g3g4g5g6g7g8g9g.g+hahbhchdhehfhghhhihjhkhlhmhnhohphqhrhshthuhvhwhxhyhzhAhBhChDhEhFhGhHhIhJhKhLhMhNhOhPhQhRhShThUhVhWhXhYhZh0h1h2h3h4h5h6h7h8h9h.h+",
"aaabacadaeafagahaiajakalamanaoapaqarasatauavawaxayazaAaBaCaDaEaFaGaHaIaJaKaLaMaNaOaPaQaRaSaTaUaVaWaXaYaZa0a1a2a3a4a5a6a7a8a9a.a+babbbcbdbebfbgbhbibjbkblbmbnbobpbqbrbsbtbubvbwbxbybzbAbBbCbDbEbFbGbHbIbJbKbLbMbNbObPbQbRbSbTbUbVbWbXbYbZb0b1b2b3b4b5b6b7b8b9b.b+cacbcccdcecfcgchcicjckclcmcncocpcqcrcsctcucvcwcxcyczcAcBcCcDcEcFcGcHcIcJcKcLcMcNcOcPcQcRcScTcUcVcWcXcYcZc0c1c2c3c4c5c6c7c8c9c.c+dadbdcdddedfdgdhdidjdkdldmdndodpdqdrdsdtdudvdwdxdydzdAdBdCdDdEdFdGdHdIdJdKdLdMdNdOdPdQdRdSdTdUdVdWdXdYdZd0d1d2d3d4d5d6d7d8d9d.d+eaebecedeeefegeheiejekelemeneoepeqereseteuevewexeyezeAeBeCeDeEeFeGeHeIeJeKeLeMeNeOePeQeReSeTeUeVeWeXeYeZe0e1e2e3e4e5e6e7e8e9e.e+fafbfcfdfefffgfhfifjfkflfmfnfofpfqfrfsftfufvfwfxfyfzfAfBfCfDfEfFfGfHfIfJfKfLfMfNfOfPfQfRfSfTfUfVfWfXfYfZf0f1f2f3f4f5f6f7f8f9f.f+gagbgcgdgegfggghgigjgkglgmgngogpgqgrgsgtgugvgwgxgygzgAgBgCgDgEgFgGgHgIgJgKgLgMgNgOgPgQgRgSgTgUgVgWgXgYgZg0g1g2g3g4g5g6g7g8g9g.g+hahbhchdhehfhghhhihjhkhlhmhnhohphqhrhshthuhvhwhxhyhzhAhBhChDhEhFhGhHhIhJhKhLhMhNhOhPhQhRhShThUhVhWhXhYhZh0h1h2h3h4h5h6h7h8h9h.h+",
"aaabacadaeafagahaiajakalamanaoapaqarasatauavawaxayazaAaBaCaDaEaFaGaHaIaJaKaLaMaNaOaPaQaRaSaTaUaVaWaXaYaZa0a1a2a3a4a5a6a7a8a9a.a+babbbcbdbebfbgbhbibjbkblbmbnbobpbqbrbsbtbubvbwbxbybzbAbBbCbDbEbFbGbHbIbJbKbLbMbNbObPbQbRbSbTbUbVbWbXbYbZb0b1b2b3b4b5b6b7b8b9b.b+cacbcccdcecfcgchcicjckclcmcncocpcqcrcsctcucvcwcxcyczcAcBcCcDcEcFcGcHcIcJcKcLcMcNcOcPcQcRcScTcUcVcWcXcYcZc0c1c2c3c4c5c6c7c8c9c.c+dadbdcdddedfdgdhdidjdkdldmdndodpdqdrdsdtdudvdwdxdydzdAdBdCdDdEdFdGdHdIdJdKdLdMdNdOdPdQdRdSdTdUdVdWdXdYdZd0d1d2d3d4d5d6d7d8d9d.d+eaebecedeeefegeheiejekelemeneoepeqereseteuevewexeyezeAeBeCeDeEeFeGeHeIeJeKeLeMeNeOePeQeReSeTeUeVeWeXeYeZe0e1e2e3e4e5e6e7e8e9e.e+fafbfcfdfefffgfhfifjfkflfmfnfofpfqfrfsftfufvfwfxfyfzfAfBfCfDfEfFfGfHfIfJfKfLfMfNfOfPfQfRfSfTfUfVfWfXfYfZf0f1f2f3f4f5f6f7f8f9f.f+gagbgcgdgegfggghgigjgkglgmgngogpgqgrgsgtgugvgwgxgygzgAgBgCgDgEgFgGgHgIgJgKgLgMgNgOgPgQgRgSgTgUgVgWgXgYgZg0g1g2g3g4g5g6g7g8g9g.g+hahbhchdhehfhghhhihjhkhlhmhnhohphqhrhshthuhvhwhxhyhzhAhBhChDhEhFhGhHhIhJhKhLhMhNhOhPhQhRhShThUhVhWhXhYhZh0h1h2h3h4h5h6h7h8h9h.h+",
"aaabacadaeafagahaiajakalamanaoapaqarasatauavawaxayazaAaBaCaDaEaFaGaHaIaJaKaLaMaNaOaPaQaRaSaTaUaVaWaXaYaZa0a1a2a3a4a5a6a7a8a9a.a+babbbcbdbebfbgbhbibjbkblbmbnbobpbqbrbsbtbubvbwbxbybzbAbBbCbDbEbFbGbHbIbJbKbLbMbNbObPbQbRbSbTbUbVbWbXbYbZb0b1b2b3b4b5b6b7b8b9b.b+cacbcccdcecfcgchcicjckclcmcncocpcqcrcsctcucvcwcxcyczcAcBcCcDcEcFcGcHcIcJcKcLcMcNcOcPcQcRcScTcUcVcWcXcYcZc0c1c2c3c4c5c6c7c8c9c.c+dadbdcdddedfdgdhdidjdkdldmdndodpdqdrdsdtdudvdwdxdydzdAdBdCdDdEdFdGdHdIdJdKdLdMdNdOdPdQdRdSdTdUdVdWdXdYdZd0d1d2d3d4d5d6d7d8d9d.d+eaebecedeeefegeheiejekelemeneoepeqereseteuevewexeyezeAeBeCeDeEeFeGeHeIeJeKeLeMeNeOePeQeReSeTeUeVeWeXeYeZe0e1e2e3e4e5e6e7e8e9e.e+fafbfcfdfefffgfhfifjfkflfmfnfofpfqfrfsftfufvfwfxfyfzfAfBfCfDfEfFfGfHfIfJfKfLfMfNfOfPfQfRfSfTfUfVfWfXfYfZf0f1f2f3f4f5f6f7f8f9f.f+gagbgcgdgegfggghgigjgkglgmgngogpgqgrgsgtgugvgwgxgygzgAgBgCgDgEgFgGgHgIgJgKgLgMgNgOgPgQgRgSgTgUgVgWgXgYgZg0g1g2g3g4g5g6g7g8g9g.g+hahbhchdhehfhghhhihjhkhlhmhnhohphqhrhshthuhvhwhxhyhzhAhBhChDhEhFhGhHhIhJhKhLhMhNhOhPhQhRhShThUhVhWhXhYhZh0h1h2h3h4h5h6h7h8h9h.h+",
"aaabacadaeafagahaiajakalamanaoapaqarasatauavawaxayazaAaBaCaDaEaFaGaHaIaJaKaLaMaNaOaPaQaRaSaTaUaVaWaXaYaZa0a1a2a3a4a5a6a7a8a9a.a+babbbcbdbebfbgbhbibjbkblbmbnbobpbqbrbsbtbubvbwbxbybzbAbBbCbDbEbFbGbHbIbJbKbLbMbNbObPbQbRbSbTbUbVbWbXbYbZb0b1b2b3b4b5b6b7b8b9b.b+cacbcccdcecfcgchcicjckclcmcncocpcqcrcsctcucvcwcxcyczcAcBcCcDcEcFcGcHcIcJcKcLcMcNcOcPcQcRcScTcUcVcWcXcYcZc0c1c2c3c4c5c6c7c8c9c.c+dadbdcdddedfdgdhdidjdkdldmdndodpdqdrdsdtdudvdwdxdydzdAdBdCdDdEdFdGdHdIdJdKdLdMdNdOdPdQdRdSdTdUdVdWdXdYdZd0d1d2d3d4d5d6d7d8d9d.d+eaebecedeeefegeheiejekelemeneoepeqereseteuevewexeyezeAeBeCeDeEeFeGeHeIeJeKeLeMeNeOePeQeReSeTeUeVeWeXeYeZe0e1e2e3e4e5e6e7e8e9e.e+fafbfcfdfefffgfhfifjfkflfmfnfofpfqfrfsftfufvfwfxfyfzfAfBfCfDfEfFfGfHfIfJfKfLfMfNfOfPfQfRfSfTfUfVfWfXfYfZf0f1f2f3f4f5f6f7f8f9f.f+gagbgcgdgegfggghgigjgkglgmgngogpgqgrgsgtgugvgwgxgygzgAgBgCgDgEgFgGgHgIgJgKgLgMgNgOgPgQgRgSgTgUgVgWgXgYgZg0g1g2g3g4g5g6g7g8g9g.g+hahbhchdhehfhghhhihjhkhlhmhnhohphqhrhshthuhvhwhxhyhzhAhBhChDhEhFhGhHhIhJhKhLhMhNhOhPhQhRhShThUhVhWhXhYhZh0h1h2h3h4h5h6h7h8h9h.h+",
"aaabacadaeafagahaiajakalamanaoapaqarasatauavawaxayazaAaBaCaDaEaFaGaHaIaJaKaLaMaNaOaPaQaRaSaTaUaVaWaXaYaZa0a1a2a3a4a5a6a7a8a9a.a+babbbcbdbebfbgbhbibjbkblbmbnbobpbqbrbsbtbubvbwbxbybzbAbBbCbDbEbFbGbHbIbJbKbLbMbNbObPbQbRbSbTbUbVbWbXbYbZb0b1b2b3b4b5b6b7b8b9b.b+cacbcccdcecfcgchcicjckclcmcncocpcqcrcsctcucvcwcxcyczcAcBcCcDcEcFcGcHcIcJcKcLcMcNcOcPcQcRcScTcUcVcWcXcYcZc0c1c2c3c4c5c6c7c8c9c.c+dadbdcdddedfdgdhdidjdkdldmdndodpdqdrdsdtdudvdwdxdydzdAdBdCdDdEdFdGdHdIdJdKdLdMdNdOdPdQdRdSdTdUdVdWdXdYdZd0d1d2d3d4d5d6d7d8d9d.d+eaebecedeeefegeheiejekelemeneoepeqereseteuevewexeyezeAeBeCeDeEeFeGeHeIeJeKeLeMeNeOePeQeReSeTeUeVeWeXeYeZe0e1e2e3e4e5e6e7e8e9e.e+fafbfcfdfefffgfhfifjfkflfmfnfofpfqfrfsftfufvfwfxfyfzfAfBfCfDfEfFfGfHfIfJfKfLfMfNfOfPfQfRfSfTfUfVfWfXfYfZf0f1f2f3f4f5f6f7f8f9f.f+gagbgcgdgegfggghgigjgkglgmgngogpgqgrgsgtgugvgwgxgygzgAgBgCgDgEgFgGgHgIgJgKgLgMgNgOgPgQgRgSgTgUgVgWgXgYgZg0g1g2g3g4g5g6g7g8g9g.g+hahbhchdhehfhghhhihjhkhlhmhnhohphqhrhshthuhvhwhxhyhzhAhBhChDhEhFhGhHhIhJhKhLhMhNhOhPhQhRhShThUhVhWhXhYhZh0h1h2h3h4h5h6h7h8h9h.h+",
"aaabacadaeafagahaiajakalamanaoapaqarasatauavawaxayazaAaBaCaDaEaFaGaHaIaJaKaLaMaNaOaPaQaRaSaTaUaVaWaXaYaZa0a1a2a3a4a5a6a7a8a9a.a+babbbcbdbebfbgbhbibjbkblbmbnbobpbqbrbsbtbubvbwbxbybzbAbBbCbDbEbFbGbHbIbJbKbLbMbNbObPbQbRbSbTbUbVbWbXbYbZb0b1b2b3b4b5b6b7b8b9b.b+cacbcccdcecfcgchcicjckclcmcncocpcqcrcsctcucvcwcxcyczcAcBcCcDcEcFcGcHcIcJcKcLcMcNcOcPcQcRcScTcUcVcWcXcYcZc0c1c2c3c4c5c6c7c8c9c.c+dadbdcdddedfdgdhdidjdkdldmdndodpdqdrdsdtdudvdwdxdydzdAdBdCdDdEdFdGdHdIdJdKdLdMdNdOdPdQdRdSdTdUdVdWdXdYdZd0d1d2d3d4d5d6d7d8d9d.d+eaebecedeeefegeheiejekelemeneoepeqereseteuevewexeyezeAeBeCeDeEeFeGeHeIeJeKeLeMeNeOePeQeReSeTeUeVeWeXeYeZe0e1e2e3e4e5e6e7e8e9e.e+fafbfcfdfefffgfhfifjfkflfmfnfofpfqfrfsftfufvfwfxfyfzfAfBfCfDfEfFfGfHfIfJfKfLfMfNfOfPfQfRfSfTfUfVfWfXfYfZf0f1f2f3f4f5f6f7f8f9f.f+gagbgcgdgegfggghgigjgkglgmgngogpgqgrgsgtgugvgwgxgygzgAgBgCgDgEgFgGgHgIgJgKgLgMgNgOgPgQgRgSgTgUgVgWgXgYgZg0g1g2g3g4g5g6g7g8g9g.g+hahbhchdhehfhghhhihjhkhlhmhnhohphqhrhshthuhvhwhxhyhzhAhBhChDhEhFhGhHhIhJhKhLhMhNhOhPhQhRhShThUhVhWhXhYhZh0h1h2h3h4h5h6h7h8h9h.h+",
"aaabacadaeafagahaiajakalamanaoapaqarasatauavawaxayazaAaBaCaDaEaFaGaHaIaJaKaLaMaNaOaPaQaRaSaTaUaVaWaXaYaZa0a1a2a3a4a5a6a7a8a9a.a+babbbcbdbebfbgbhbibjbkblbmbnbobpbqbrbsbtbubvbwbxbybzbAbBbCbDbEbFbGbHbIbJbKbLbMbNbObPbQbRbSbTbUbVbWbXbYbZb0b1b2b3b4b5b6b7b8b9b.b+cacbcccdcecfcgchcicjckclcmcncocpcqcrcsctcucvcwcxcyczcAcBcCcDcEcFcGcHcIcJcKcLcMcNcOcPcQcRcScTcUcVcWcXcYcZc0c1c2c3c4c5c6c7c8c9c.c+dadbdcdddedfdgdhdidjdkdldmdndodpdqdrdsdtdudvdwdxdydzdAdBdCdDdEdFdGdHdIdJdKdLdMdNdOdPdQdRdSdTdUdVdWdXdYdZd0d1d2d3d4d5d6d7d8d9d.d+eaebecedeeefegeheiejekelemeneoepeqereseteuevewexeyezeAeBeCeDeEeFeGeHeIeJeKeLeMeNeOePeQeReSeTeUeVeWeXeYeZe0e1e2e3e4e5e6e7e8e9e.e+fafbfcfdfefffgfhfifjfkflfmfnfofpfqfrfsftfufvfwfxfyfzfAfBfCfDfEfFfGfHfIfJfKfLfMfNfOfPfQfRfSfTfUfVfWfXfYfZf0f1f2f3f4f5f6f7f8f9f.f+gagbgcgdgegfggghgigjgkglgmgngogpgqgrgsgtgugvgwgxgygzgAgBgCgDgEgFgGgHgIgJgKgLgMgNgOgPgQgRgSgTgUgVgWgXgYgZg0g1g2g3g4g5g6g7g8g9g.g+hahbhchdhehfhghhhihjhkhlhmhnhohphqhrhshthuhvhwhxhyhzhAhBhChDhEhFhGhHhIhJhKhLhMhNhOhPhQhRhShThUhVhWhXhYhZh0h1h2h3h4h5h6h7h8h9h.h+",
"aaabacadaeafagahaiajakalamanaoapaqarasatauavawaxayazaAaBaCaDaEaFaGaHaIaJaKaLaMaNaOaPaQaRaSaTaUaVaWaXaYaZa0a1a2a3a4a5a6a7a8a9a.a+babbbcbdbebfbgbhbibjbkblbmbnbobpbqbrbsbtbubvbwbxbybzbAbBbCbDbEbFbGbHbIbJbKbLbMbNbObPbQbRbSbTbUbVbWbXbYbZb0b1b2b3b4b5b6b7b8b9b.b+cacbcccdcecfcgchcicjckclcmcncocpcqcrcsctcucvcwcxcyczcAcBcCcDcEcFcGcHcIcJcKcLcMcNcOcPcQcRcScTcUcVcWcXcYcZc0c1c2c3c4c5c6c7c8c9c.c+dadbdcdddedfdgdhdidjdkdldmdndodpdqdrdsdtdudvdwdxdydzdAdBdCdDdEdFdGdHdIdJdKdLdMdNdOdPdQdRdSdTdUdVdWdXdYdZd0d1d2d3d4d5d6d7d8d9d.d+eaebecedeeefegeheiejekelemeneoepeqereseteuevewexeyezeAeBeCeDeEeFeGeHeIeJeKeLeMeNeOePeQeReSeTeUeVeWeXeYeZe0e1e2e3e4e5e6e7e8e9e.e+fafbfcfdfefffgfhfifjfkflfmfnfofpfqfrfsftfufvfwfxfyfzfAfBfCfDfEfFfGfHfIfJfKfLfMfNfOfPfQfRfSfTfUfVfWfXfYfZf0f1f2f3f4f5f6f7f8f9f.f+gagbgcgdgegfggghgigjgkglgmgngogpgqgrgsgtgugvgwgxgygzgAgBgCgDgEgFgGgHgIgJgKgLgMgNgOgPgQgRgSgTgUgVgWgXgYgZg0g1g2g3g4g5g6g7g8g9g.g+hahbhchdhehfhghhhihjhkhlhmhnhohphqhrhshthuhvhwhxhyhzhAhBhChDhEhFhGhHhIhJhKhLhMhNhOhPhQhRhShThUhVhWhXhYhZh0h1h2h3h4h5h6h7h8h9h.h+",
"aaabacadaeafagahaiajakalamanaoapaqarasatauavawaxayazaAaBaCaDaEaFaGaHaIaJaKaLaMaNaOaPaQaRaSaTaUaVaWaXaYaZa0a1a2a3a4a5a6a7a8a9a.a+babbbcbdbebfbgbhbibjbkblbmbnbobpbqbrbsbtbubvbwbxbybzbAbBbCbDbEbFbGbHbIbJbKbLbMbNbObPbQbRbSbTbUbVbWbXbYbZb0b1b2b3b4b5b6b7b8b9b.b+cacbcccdcecfcgchcicjckclcmcncocpcqcrcsctcucvcwcxcyczcAcBcCcDcEcFcGcHcIcJcKcLcMcNcOcPcQcRcScTcUcVcWcXcYcZc0c1c2c3c4c5c6c7c8c9c.c+dadbdcdddedfdgdhdidjdkdldmdndodpdqdrdsdtdudvdwdxdydzdAdBdCdDdEdFdGdHdIdJdKdLdMdNdOdPdQdRdSdTdUdVdWdXdYdZd0d1d2d3d4d5d6d7d8d9d.d+eaebecedeeefegeheiejekelemeneoepeqereseteuevewexeyezeAeBeCeDeEeFeGeHeIeJeKeLeMeNeOePeQeReSeTeUeVeWeXeYeZe0e1e2e3e4e5e6e7e8e9e.e+fafbfcfdfefffgfhfifjfkflfmfnfofpfqfrfsftfufvfwfxfyfzfAfBfCfDfEfFfGfHfIfJfKfLfMfNfOfPfQfRfSfTfUfVfWfXfYfZf0f1f2f3f4f5f6f7f8f9f.f+gagbgcgdgegfggghgigjgkglgmgngogpgqgrgsgtgugvgwgxgygzgAgBgCgDgEgFgGgHgIgJgKgLgMgNgOgPgQgRgSgTgUgVgWgXgYgZg0g1g2g3g4g5g6g7g8g9g.g+hahbhchdhehfhghhhihjhkhlhmhnhohphqhrhshthuhvhwhxhyhzhAhBhChDhEhFhGhHhIhJhKhLhMhNhOhPhQhRhShThUhVhWhXhYhZh0h1h2h3h4h5h6h7h8h9h.h+",
"aaabacadaeafagahaiajakalamanaoapaqarasatauavawaxayazaAaBaCaDaEaFaGaHaIaJaKaLaMaNaOaPaQaRaSaTaUaVaWaXaYaZa0a1a2a3a4a5a6a7a8a9a.a+babbbcbdbebfbgbhbibjbkblbmbnbobpbqbrbsbtbubvbwbxbybzbAbBbCbDbEbFbGbHbIbJbKbLbMbNbObPbQbRbSbTbUbVbWbXbYbZb0b1b2b3b4b5b6b7b8b9b.b+cacbcccdcecfcgchcicjckclcmcncocpcqcrcsctcucvcwcxcyczcAcBcCcDcEcFcGcHcIcJcKcLcMcNcOcPcQcRcScTcUcVcWcXcYcZc0c1c2c3c4c5c6c7c8c9c.c+dadbdcdddedfdgdhdidjdkdldmdndodpdqdrdsdtdudvdwdxdydzdAdBdCdDdEdFdGdHdIdJdKdLdMdNdOdPdQdRdSdTdUdVdWdXdYdZd0d1d2d3d4d5d6d7d8d9d.d+eaebecedeeefegeheiejekelemeneoepeqereseteuevewexeyezeAeBeCeDeEeFeGeHeIeJeKeLeMeNeOePeQeReSeTeUeVeWeXeYeZe0e1e2e3e4e5e6e7e8e9e.e+fafbfcfdfefffgfhfifjfkflfmfnfofpfqfrfsftfufvfwfxfyfzfAfBfCfDfEfFfGfHfIfJfKfLfMfNfOfPfQfRfSfTfUfVfWfXfYfZf0f1f2f3f4f5f6f7f8f9f.f+gagbgcgdgegfggghgigjgkglgmgngogpgqgrgsgtgugvgwgxgygzgAgBgCgDgEgFgGgHgIgJgKgLgMgNgOgPgQgRgSgTgUgVgWgXgYgZg0g1g2g3g4g5g6g7g8g9g.g+hahbhchdhehfhghhhihjhkhlhmhnhohphqhrhshthuhvhwhxhyhzhAhBhChDhEhFhGhHhIhJhKhLhMhNhOhPhQhRhShThUhVhWhXhYhZh0h1h2h3h4h5h6h7h8h9h.h+",
"aaabacadaeafagahaiajakalamanaoapaqarasatauavawaxayazaAaBaCaDaEaFaGaHaIaJaKaLaMaNaOaPaQaRaSaTaUaVaWaXaYaZa0a1a2a3a4a5a6a7a8a9a.a+babbbcbdbebfbgbhbibjbkblbmbnbobpbqbrbsbtbubvbwbxbybzbAbBbCbDbEbFbGbHbIbJbKbLbMbNbObPbQbRbSbTbUbVbWbXbYbZb0b1b2b3b4b5b6b7b8b9b.b+cacbcccdcecfcgchcicjckclcmcncocpcqcrcsctcucvcwcxcyczcAcBcCcDcEcFcGcHcIcJcKcLcMcNcOcPcQcRcScTcUcVcWcXcYcZc0c1c2c3c4c5c6c7c8c9c.c+dadbdcdddedfdgdhdidjdkdldmdndodpdqdrdsdtdudvdwdxdydzdAdBdCdDdEdFdGdHdIdJdKdLdMdNdOdPdQdRdSdTdUdVdWdXdYdZd0d1d2d3d4d5d6d7d8d9d.d+eaebecedeeefegeheiejekelemeneoepeqereseteuevewexeyezeAeBeCeDeEeFeGeHeIeJeKeLeMeNeOePeQeReSeTeUeVeWeXeYeZe0e1e2e3e4e5e6e7e8e9e.e+fafbfcfdfefffgfhfifjfkflfmfnfofpfqfrfsftfufvfwfxfyfzfAfBfCfDfEfFfGfHfIfJfKfLfMfNfOfPfQfRfSfTfUfVfWfXfYfZf0f1f2f3f4f5f6f7f8f9f.f+gagbgcgdgegfggghgigjgkglgmgngogpgqgrgsgtgugvgwgxgygzgAgBgCgDgEgFgGgHgIgJgKgLgMgNgOgPgQgRgSgTgUgVgWgXgYgZg0g1g2g3g4g5g6g7g8g9g.g+hahbhchdhehfhghhhihjhkhlhmhnhohphqhrhshthuhvhwhxhyhzhAhBhChDhEhFhGhHhIhJhKhLhMhNhOhPhQhRhShThUhVhWhXhYhZh0h1h2h3h4h5h6h7h8h9h.h+",
"aaabacadaeafagahaiajakalamanaoapaqarasatauavawaxayazaAaBaCaDaEaFaGaHaIaJaKaLaMaNaOaPaQaRaSaTaUaVaWaXaYaZa0a1a2a3a4a5a6a7a8a9a.a+babbbcbdbebfbgbhbibjbkblbmbnbobpbqbrbsbtbubvbwbxbybzbAbBbCbDbEbFbGbHbIbJbKbLbMbNbObPbQbRbSbTbUbVbWbXbYbZb0b1b2b3b4b5b6b7b8b9b.b+cacbcccdcecfcgchcicjckclcmcncocpcqcrcsctcucvcwcxcyczcAcBcCcDcEcFcGcHcIcJcKcLcMcNcOcPcQcRcScTcUcVcWcXcYcZc0c1c2c3c4c5c6c7c8c9c.c+dadbdcdddedfdgdhdidjdkdldmdndodpdqdrdsdtdudvdwdxdydzdAdBdCdDdEdFdGdHdIdJdKdLdMdNdOdPdQdRdSdTdUdVdWdXdYdZd0d1d2d3d4d5d6d7d8d9d.d+eaebecedeeefegeheiejekelemeneoepeqereseteuevewexeyezeAeBeCeDeEeFeGeHeIeJeKeLeMeNeOePeQeReSeTeUeVeWeXeYeZe0e1e2e3e4e5e6e7e8e9e.e+fafbfcfdfefffgfhfifjfkflfmfnfofpfqfrfsftfufvfwfxfyfzfAfBfCfDfEfFfGfHfIfJfKfLfMfNfOfPfQfRfSfTfUfVfWfXfYfZf0f1f2f3f4f5f6f7f8f9f.f+gagbgcgdgegfggghgigjgkglgmgngogpgqgrgsgtgugvgwgxgygzgAgBgCgDgEgFgGgHgIgJgKgLgMgNgOgPgQgRgSgTgUgVgWgXgYgZg0g1g2g3g4g5g6g7g8g9g.g+hahbhchdhehfhghhhihjhkhlhmhnhohphqhrhshthuhvhwhxhyhzhAhBhChDhEhFhGhHhIhJhKhLhMhNhOhPhQhRhShThUhVhWhXhYhZh0h1h2h3h4h5h6h7h8h9h.h+",
"aaabacadaeafagahaiajakalamanaoapaqarasatauavawaxayazaAaBaCaDaEaFaGaHaIaJaKaLaMaNaOaPaQaRaSaTaUaVaWaXaYaZa0a1a2a3a4a5a6a7a8a9a.a+babbbcbdbebfbgbhbibjbkblbmbnbobpbqbrbsbtbubvbwbxbybzbAbBbCbDbEbFbGbHbIbJbKbLbMbNbObPbQbRbSbTbUbVbWbXbYbZb0b1b2b3b4b5b6b7b8b9b.b+cacbcccdcecfcgchcicjckclcmcncocpcqcrcsctcucvcwcxcyczcAcBcCcDcEcFcGcHcIcJcKcLcMcNcOcPcQcRcScTcUcVcWcXcYcZc0c1c2c3c4c5c6c7c8c9c.c+dadbdcdddedfdgdhdidjdkdldmdndodpdqdrdsdtdudvdwdxdydzdAdBdCdDdEdFdGdHdIdJdKdLdMdNdOdPdQdRdSdTdUdVdWdXdYdZd0d1d2d3d4d5d6d7d8d9d.d+eaebecedeeefegeheiejekelemeneoepeqereseteuevewexeyezeAeBeCeDeEeFeGeHeIeJeKeLeMeNeOePeQeReSeTeUeVeWeXeYeZe0e1e2e3e4e5e6e7e8e9e.e+fafbfcfdfefffgfhfifjfkflfmfnfofpfqfrfsftfufvfwfxfyfzfAfBfCfDfEfFfGfHfIfJfKfLfMfNfOfPfQfRfSfTfUfVfWfXfYfZf0f1f2f3f4f5f6f7f8f9f.f+gagbgcgdgegfggghgigjgkglgmgngogpgqgrgsgtgugvgwgxgygzgAgBgCgDgEgFgGgHgIgJgKgLgMgNgOgPgQgRgSgTgUgVgWgXgYgZg0g1g2g3g4g5g6g7g8g9g.g+hahbhchdhehfhghhhihjhkhlhmhnhohphqhrhshthuhvhwhxhyhzhAhBhChDhEhFhGhHhIhJhKhLhMhNhOhPhQhRhShThUhVhWhXhYhZh0h1h2h3h4h5h6h7h8h9h.h+",
"aaabacadaeafagahaiajakalamanaoapaqarasatauavawaxayazaAaBaCaDaEaFaGaHaIaJaKaLaMaNaOaPaQaRaSaTaUaVaWaXaYaZa0a1a2a3a4a5a6a7a8a9a.a+babbbcbdbebfbgbhbibjbkblbmbnbobpbqbrbsbtbubvbwbxbybzbAbBbCbDbEbFbGbHbIbJbKbLbMbNbObPbQbRbSbTbUbVbWbXbYbZb0b1b2b3b4b5b6b7b8b9b.b+cacbcccdcecfcgchcicjckclcmcncocpcqcrcsctcucvcwcxcyczcAcBcCcDcEcFcGcHcIcJcKcLcMcNcOcPcQcRcScTcUcVcWcXcYcZc0c1c2c3c4c5c6c7c8c9c.c+dadbdcdddedfdgdhdidjdkdldmdndodpdqdrdsdtdudvdwdxdydzdAdBdCdDdEdFdGdHdIdJdKdLdMdNdOdPdQdRdSdTdUdVdWdXdYdZd0d1d2d3d4d5d6d7d8d9d.d+eaebecedeeefegeheiejekelemeneoepeqereseteuevewexeyezeAeBeCeDeEeFeGeHeIeJeKeLeMeNeOePeQeReSeTeUeVeWeXeYeZe0e1e2e3e4e5e6e7e8e9e.e+fafbfcfdfefffgfhfifjfkflfmfnfofpfqfrfsftfufvfwfxfyfzfAfBfCfDfEfFfGfHfIfJfKfLfMfNfOfPfQfRfSfTfUfVfWfXfYfZf0f1f2f3f4f5f6f7f8f9f.f+gagbgcgdgegfggghgigjgkglgmgngogpgqgrgsgtgugvgwgxgygzgAgBgCgDgEgFgGgHgIgJgKgLgMgNgOgPgQgRgSgTgUgVgWgXgYgZg0g1g2g3g4g5g6g7g8g9g.g+hahbhchdhehfhghhhihjhkhlhmhnhohphqhrhshthuhvhwhxhyhzhAhBhChDhEhFhGhHhIhJhKhLhMhNhOhPhQhRhShThUhVhWhXhYhZh0h1h2h3h4h5h6h7h8h9h.h+",
"aaabacadaeafagahaiajakalamanaoapaqarasatauavawaxayazaAaBaCaDaEaFaGaHaIaJaKaLaMaNaOaPaQaRaSaTaUaVaWaXaYaZa0a1a2a3a4a5a6a7a8a9a.a+babbbcbdbebfbgbhbibjbkblbmbnbobpbqbrbsbtbubvbwbxbybzbAbBbCbDbEbFbGbHbIbJbKbLbMbNbObPbQbRbSbTbUbVbWbXbYbZb0b1b2b3b4b5b6b7b8b9b.b+cacbcccdcecfcgchcicjckclcmcncocpcqcrcsctcucvcwcxcyczcAcBcCcDcEcFcGcHcIcJcKcLcMcNcOcPcQcRcScTcUcVcWcXcYcZc0c1c2c3c4c5c6c7c8c9c.c+dadbdcdddedfdgdhdidjdkdldmdndodpdqdrdsdtdudvdwdxdydzdAdBdCdDdEdFdGdHdIdJdKdLdMdNdOdPdQdRdSdTdUdVdWdXdYdZd0d1d2d3d4d5d6d7d8d9d.d+eaebecedeeefegeheiejekelemeneoepeqereseteuevewexeyezeAeBeCeDeEeFeGeHeIeJeKeLeMeNeOePeQeReSeTeUeVeWeXeYeZe0e1e2e3e4e5e6e7e8e9e.e+fafbfcfdfefffgfhfifjfkflfmfnfofpfqfrfsftfufvfwfxfyfzfAfBfCfDfEfFfGfHfIfJfKfLfMfNfOfPfQfRfSfTfUfVfWfXfYfZf0f1f2f3f4f5f6f7f8f9f.f+gagbgcgdgegfggghgigjgkglgmgngogpgqgrgsgtgugvgwgxgygzgAgBgCgDgEgFgGgHgIgJgKgLgMgNgOgPgQgRgSgTgUgVgWgXgYgZg0g1g2g3g4g5g6g7g8g9g.g+hahbhchdhehfhghhhihjhkhlhmhnhohphqhrhshthuhvhwhxhyhzhAhBhChDhEhFhGhHhIhJhKhLhMhNhOhPhQhRhShThUhVhWhXhYhZh0h1h2h3h4h5h6h7h8h9h.h+",
"aaabacadaeafagahaiajakalamanaoapaqarasatauavawaxayazaAaBaCaDaEaFaGaHaIaJaKaLaMaNaOaPaQaRaSaTaUaVaWaXaYaZa0a1a2a3a4a5a6a7a8a9a.a+babbbcbdbebfbgbhbibjbkblbmbnbobpbqbrbsbtbubvbwbxbybzbAbBbCbDbEbFbGbHbIbJbKbLbMbNbObPbQbRbSbTbUbVbWbXbYbZb0b1b2b3b4b5b6b7b8b9b.b+cacbcccdcecfcgchcicjckclcmcncocpcqcrcsctcucvcwcxcyczcAcBcCcDcEcFcGcHcIcJcKcLcMcNcOcPcQcRcScTcUcVcWcXcYcZc0c1c2c3c4c5c6c7c8c9c.c+dadbdcdddedfdgdhdidjdkdldmdndodpdqdrdsdtdudvdwdxdydzdAdBdCdDdEdFdGdHdIdJdKdLdMdNdOdPdQdRdSdTdUdVdWdXdYdZd0d1d2d3d4d5d6d7d8d9d.d+eaebecedeeefegeheiejekelemeneoepeqereseteuevewexeyezeAeBeCeDeEeFeGeHeIeJeKeLeMeNeOePeQeReSeTeUeVeWeXeYeZe0e1e2e3e4e5e6e7e8e9e.e+fafbfcfdfefffgfhfifjfkflfmfnfofpfqfrfsftfufvfwfxfyfzfAfBfCfDfEfFfGfHfIfJfKfLfMfNfOfPfQfRfSfTfUfVfWfXfYfZf0f1f2f3f4f5f6f7f8f9f.f+gagbgcgdgegfggghgigjgkglgmgngogpgqgrgsgtgugvgwgxgygzgAgBgCgDgEgFgGgHgIgJgKgLgMgNgOgPgQgRgSgTgUgVgWgXgYgZg0g1g2g3g4g5g6g7g8g9g.g+hahbhchdhehfhghhhihjhkhlhmhnhohphqhrhshthuhvhwhxhyhzhAhBhChDhEhFhGhHhIhJhKhLhMhNhOhPhQhRhShThUhVhWhXhYhZh0h1h2h3h4h5h6h7h8h9h.h+",
"aaabacadaeafagahaiajakalamanaoapaqarasatauavawaxayazaAaBaCaDaEaFaGaHaIaJaKaLaMaNaOaPaQaRaSaTaUaVaWaXaYaZa0a1a2a3a4a5a6a7a8a9a.a+babbbcbdbebfbgbhbibjbkblbmbnbobpbqbrbsbtbubvbwbxbybzbAbBbCbDbEbFbGbHbIbJbKbLbMbNbObPbQbRbSbTbUbVbWbXbYbZb0b1b2b3b4b5b6b7b8b9b.b+cacbcccdcecfcgchcicjckclcmcncocpcqcrcsctcucvcwcxcyczcAcBcCcDcEcFcGcHcIcJcKcLcMcNcOcPcQcRcScTcUcVcWcXcYcZc0c1c2c3c4c5c6c7c8c9c.c+dadbdcdddedfdgdhdidjdkdldmdndodpdqdrdsdtdudvdwdxdydzdAdBdCdDdEdFdGdHdIdJdKdLdMdNdOdPdQdRdSdTdUdVdWdXdYdZd0d1d2d3d4d5d6d7d8d9d.d+eaebecedeeefegeheiejekelemeneoepeqereseteuevewexeyezeAeBeCeDeEeFeGeHeIeJeKeLeMeNeOePeQeReSeTeUeVeWeXeYeZe0e1e2e3e4e5e6e7e8e9e.e+fafbfcfdfefffgfhfifjfkflfmfnfofpfqfrfsftfufvfwfxfyfzfAfBfCfDfEfFfGfHfIfJfKfLfMfNfOfPfQfRfSfTfUfVfWfXfYfZf0f1f2f3f4f5f6f7f8f9f.f+gagbgcgdgegfggghgigjgkglgmgngogpgqgrgsgtgugvgwgxgygzgAgBgCgDgEgFgGgHgIgJgKgLgMgNgOgPgQgRgSgTgUgVgWgXgYgZg0g1g2g3g4g5g6g7g8g9g.g+hahbhchdhehfhghhhihjhkhlhmhnhohphqhrhshthuhvhwhxhyhzhAhBhChDhEhFhGhHhIhJhKhLhMhNhOhPhQhRhShThUhVhWhXhYhZh0h1h2h3h4h5h6h7h8h9h.h+",
"aaabacadaeafagahaiajakalamanaoapaqarasatauavawaxayazaAaBaCaDaEaFaGaHaIaJaKaLaMaNaOaPaQaRaSaTaUaVaWaXaYaZa0a1a2a3a4a5a6a7a8a9a.a+babbbcbdbebfbgbhbibjbkblbmbnbobpbqbrbsbtbubvbwbxbybzbAbBbCbDbEbFbGbHbIbJbKbLbMbNbObPbQbRbSbTbUbVbWbXbYbZb0b1b2b3b4b5b6b7b8b9b.b+cacbcccdcecfcgchcicjckclcmcncocpcqcrcsctcucvcwcxcyczcAcBcCcDcEcFcGcHcIcJcKcLcMcNcOcPcQcRcScTcUcVcWcXcYcZc0c1c2c3c4c5c6c7c8c9c.c+dadbdcdddedfdgdhdidjdkdldmdndodpdqdrdsdtdudvdwdxdydzdAdBdCdDdEdFdGdHdIdJdKdLdMdNdOdPdQdRdSdTdUdVdWdXdYdZd0d1d2d3d4d5d6d7d8d9d.d+eaebecedeeefegeheiejekelemeneoepeqereseteuevewexeyezeAeBeCeDeEeFeGeHeIeJeKeLeMeNeOePeQeReSeTeUeVeWeXeYeZe0e1e2e3e4e5e6e7e8e9e.e+fafbfcfdfefffgfhfifjfkflfmfnfofpfqfrfsftfufvfwfxfyfzfAfBfCfDfEfFfGfHfIfJfKfLfMfNfOfPfQfRfSfTfUfVfWfXfYfZf0f1f2f3f4f5f6f7f8f9f.f+gagbgcgdgegfggghgigjgkglgmgngogpgqgrgsgtgugvgwgxgygzgAgBgCgDgEgFgGgHgIgJgKgLgMgNgOgPgQgRgSgTgUgVgWgXgYgZg0g1g2g3g4g5g6g7g8g9g.g+hahbhchdhehfhghhhihjhkhlhmhnhohphqhrhshthuhvhwhxhyhzhAhBhChDhEhFhGhHhIhJhKhLhMhNhOhPhQhRhShThUhVhWhXhYhZh0h1h2h3h4h5h6h7h8h9h.h+",
"aaabacadaeafagahaiajakalamanaoapaqarasatauavawaxayazaAaBaCaDaEaFaGaHaIaJaKaLaMaNaOaPaQaRaSaTaUaVaWaXaYaZa0a1a2a3a4a5a6a7a8a9a.a+babbbcbdbebfbgbhbibjbkblbmbnbobpbqbrbsbtbubvbwbxbybzbAbBbCbDbEbFbGbHbIbJbKbLbMbNbObPbQbRbSbTbUbVbWbXbYbZb0b1b2b3b4b5b6b7b8b9b.b+cacbcccdcecfcgchcicjckclcmcncocpcqcrcsctcucvcwcxcyczcAcBcCcDcEcFcGcHcIcJcKcLcMcNcOcPcQcRcScTcUcVcWcXcYcZc0c1c2c3c4c5c6c7c8c9c.c+dadbdcdddedfdgdhdidjdkdldmdndodpdqdrdsdtdudvdwdxdydzdAdBdCdDdEdFdGdHdIdJdKdLdMdNdOdPdQdRdSdTdUdVdWdXdYdZd0d1d2d3d4d5d6d7d8d9d.d+eaebecedeeefegeheiejekelemeneoepeqereseteuevewexeyezeAeBeCeDeEeFeGeHeIeJeKeLeMeNeOePeQeReSeTeUeVeWeXeYeZe0e1e2e3e4e5e6e7e8e9e.e+fafbfcfdfefffgfhfifjfkflfmfnfofpfqfrfsftfufvfwfxfyfzfAfBfCfDfEfFfGfHfIfJfKfLfMfNfOfPfQfRfSfTfUfVfWfXfYfZf0f1f2f3f4f5f6f7f8f9f.f+gagbgcgdgegfggghgigjgkglgmgngogpgqgrgsgtgugvgwgxgygzgAgBgCgDgEgFgGgHgIgJgKgLgMgNgOgPgQgRgSgTgUgVgWgXgYgZg0g1g2g3g4g5g6g7g8g9g.g+hahbhchdhehfhghhhihjhkhlhmhnhohphqhrhshthuhvhwhxhyhzhAhBhChDhEhFhGhHhIhJhKhLhMhNhOhPhQhRhShThUhVhWhXhYhZh0h1h2h3h4h5h6h7h8h9h.h+",
"aaabacadaeafagahaiajakalamanaoapaqarasatauavawaxayazaAaBaCaDaEaFaGaHaIaJaKaLaMaNaOaPaQaRaSaTaUaVaWaXaYaZa0a1a2a3a4a5a6a7a8a9a.a+babbbcbdbebfbgbhbibjbkblbmbnbobpbqbrbsbtbubvbwbxbybzbAbBbCbDbEbFbGbHbIbJbKbLbMbNbObPbQbRbSbTbUbVbWbXbYbZb0b1b2b3b4b5b6b7b8b9b.b+cacbcccdcecfcgchcicjckclcmcncocpcqcrcsctcucvcwcxcyczcAcBcCcDcEcFcGcHcIcJcKcLcMcNcOcPcQcRcScTcUcVcWcXcYcZc0c1c2c3c4c5c6c7c8c9c.c+dadbdcdddedfdgdhdidjdkdldmdndodpdqdrdsdtdudvdwdxdydzdAdBdCdDdEdFdGdHdIdJdKdLdMdNdOdPdQdRdSdTdUdVdWdXdYdZd0d1d2d3d4d5d6d7d8d9d.d+eaebecedeeefegeheiejekelemeneoepeqereseteuevewexeyezeAeBeCeDeEeFeGeHeIeJeKeLeMeNeOePeQeReSeTeUeVeWeXeYeZe0e1e2e3e4e5e6e7e8e9e.e+fafbfcfdfefffgfhfifjfkflfmfnfofpfqfrfsftfufvfwfxfyfzfAfBfCfDfEfFfGfHfIfJfKfLfMfNfOfPfQfRfSfTfUfVfWfXfYfZf0f1f2f3f4f5f6f7f8f9f.f+gagbgcgdgegfggghgigjgkglgmgngogpgqgrgsgtgugvgwgxgygzgAgBgCgDgEgFgGgHgIgJgKgLgMgNgOgPgQgRgSgTgUgVgWgXgYgZg0g1g2g3g4g5g6g7g8g9g.g+hahbhchdhehfhghhhihjhkhlhmhnhohphqhrhshthuhvhwhxhyhzhAhBhChDhEhFhGhHhIhJhKhLhMhNhOhPhQhRhShThUhVhWhXhYhZh0h1h2h3h4h5h6h7h8h9h.h+",
"aaabacadaeafagahaiajakalamanaoapaqarasatauavawaxayazaAaBaCaDaEaFaGaHaIaJaKaLaMaNaOaPaQaRaSaTaUaVaWaXaYaZa0a1a2a3a4a5a6a7a8a9a.a+babbbcbdbebfbgbhbibjbkblbmbnbobpbqbrbsbtbubvbwbxbybzbAbBbCbDbEbFbGbHbIbJbKbLbMbNbObPbQbRbSbTbUbVbWbXbYbZb0b1b2b3b4b5b6b7b8b9b.b+cacbcccdcecfcgchcicjckclcmcncocpcqcrcsctcucvcwcxcyczcAcBcCcDcEcFcGcHcIcJcKcLcMcNcOcPcQcRcScTcUcVcWcXcYcZc0c1c2c3c4c5c6c7c8c9c.c+dadbdcdddedfdgdhdidjdkdldmdndodpdqdrdsdtdudvdwdxdydzdAdBdCdDdEdFdGdHdIdJdKdLdMdNdOdPdQdRdSdTdUdVdWdXdYdZd0d1d2d3d4d5d6d7d8d9d.d+eaebecedeeefegeheiejekelemeneoepeqereseteuevewexeyezeAeBeCeDeEeFeGeHeIeJeKeLeMeNeOePeQeReSeTeUeVeWeXeYeZe0e1e2e3e4e5e6e7e8e9e.e+fafbfcfdfefffgfhfifjfkflfmfnfofpfqfrfsftfufvfwfxfyfzfAfBfCfDfEfFfGfHfIfJfKfLfMfNfOfPfQfRfSfTfUfVfWfXfYfZf0f1f2f3f4f5f6f7f8f9f.f+gagbgcgdgegfggghgigjgkglgmgngogpgqgrgsgtgugvgwgxgygzgAgBgCgDgEgFgGgHgIgJgKgLgMgNgOgPgQgRgSgTgUgVgWgXgYgZg0g1g2g3g4g5g6g7g8g9g.g+hahbhchdhehfhghhhihjhkhlhmhnhohphqhrhshthuhvhwhxhyhzhAhBhChDhEhFhGhHhIhJhKhLhMhNhOhPhQhRhShThUhVhWhXhYhZh0h1h2h3h4h5h6h7h8h9h.h+",
"aaabacadaeafagahaiajakalamanaoapaqarasatauavawaxayazaAaBaCaDaEaFaGaHaIaJaKaLaMaNaOaPaQaRaSaTaUaVaWaXaYaZa0a1a2a3a4a5a6a7a8a9a.a+babbbcbdbebfbgbhbibjbkblbmbnbobpbqbrbsbtbubvbwbxbybzbAbBbCbDbEbFbGbHbIbJbKbLbMbNbObPbQbRbSbTbUbVbWbXbYbZb0b1b2b3b4b5b6b7b8b9b.b+cacbcccdcecfcgchcicjckclcmcncocpcqcrcsctcucvcwcxcyczcAcBcCcDcEcFcGcHcIcJcKcLcMcNcOcPcQcRcScTcUcVcWcXcYcZc0c1c2c3c4c5c6c7c8c9c.c+dadbdcdddedfdgdhdidjdkdldmdndodpdqdrdsdtdudvdwdxdydzdAdBdCdDdEdFdGdHdIdJdKdLdMdNdOdPdQdRdSdTdUdVdWdXdYdZd0d1d2d3d4d5d6d7d8d9d.d+eaebecedeeefegeheiejekelemeneoepeqereseteuevewexeyezeAeBeCeDeEeFeGeHeIeJeKeLeMeNeOePeQeReSeTeUeVeWeXeYeZe0e1e2e3e4e5e6e7e8e9e.e+fafbfcfdfefffgfhfifjfkflfmfnfofpfqfrfsftfufvfwfxfyfzfAfBfCfDfEfFfGfHfIfJfKfLfMfNfOfPfQfRfSfTfUfVfWfXfYfZf0f1f2f3f4f5f6f7f8f9f.f+gagbgcgdgegfggghgigjgkglgmgngogpgqgrgsgtgugvgwgxgygzgAgBgCgDgEgFgGgHgIgJgKgLgMgNgOgPgQgRgSgTgUgVgWgXgYgZg0g1g2g3g4g5g6g7g8g9g.g+hahbhchdhehfhghhhihjhkhlhmhnhohphqhrhshthuhvhwhxhyhzhAhBhChDhEhFhGhHhIhJhKhLhMhNhOhPhQhRhShThUhVhWhXhYhZh0h1h2h3h4h5h6h7h8h9h.h+",
"aaabacadaeafagahaiajakalamanaoapaqarasatauavawaxayazaAaBaCaDaEaFaGaHaIaJaKaLaMaNaOaPaQaRaSaTaUaVaWaXaYaZa0a1a2a3a4a5a6a7a8a9a.a+babbbcbdbebfbgbhbibjbkblbmbnbobpbqbrbsbtbubvbwbxbybzbAbBbCbDbEbFbGbHbIbJbKbLbMbNbObPbQbRbSbTbUbVbWbXbYbZb0b1b2b3b4b5b6b7b8b9b.b+cacbcccdcecfcgchcicjckclcmcncocpcqcrcsctcucvcwcxcyczcAcBcCcDcEcFcGcHcIcJcKcLcMcNcOcPcQcRcScTcUcVcWcXcYcZc0c1c2c3c4c5c6c7c8c9c.c+dadbdcdddedfdgdhdidjdkdldmdndodpdqdrdsdtdudvdwdxdydzdAdBdCdDdEdFdGdHdIdJdKdLdMdNdOdPdQdRdSdTdUdVdWdXdYdZd0d1d2d3d4d5d6d7d8d9d.d+eaebecedeeefegeheiejekelemeneoepeqereseteuevewexeyezeAeBeCeDeEeFeGeHeIeJeKeLeMeNeOePeQeReSeTeUeVeWeXeYeZe0e1e2e3e4e5e6e7e8e9e.e+fafbfcfdfefffgfhfifjfkflfmfnfofpfqfrfsftfufvfwfxfyfzfAfBfCfDfEfFfGfHfIfJfKfLfMfNfOfPfQfRfSfTfUfVfWfXfYfZf0f1f2f3f4f5f6f7f8f9f.f+gagbgcgdgegfggghgigjgkglgmgngogpgqgrgsgtgugvgwgxgygzgAgBgCgDgEgFgGgHgIgJgKgLgMgNgOgPgQgRgSgTgUgVgWgXgYgZg0g1g2g3g4g5g6g7g8g9g.g+hahbhchdhehfhghhhihjhkhlhmhnhohphqhrhshthuhvhwhxhyhzhAhBhChDhEhFhGhHhIhJhKhLhMhNhOhPhQhRhShThUhVhWhXhYhZh0h1h2h3h4h5h6h7h8h9h.h+",
"aaabacadaeafagahaiajakalamanaoapaqarasatauavawaxayazaAaBaCaDaEaFaGaHaIaJaKaLaMaNaOaPaQaRaSaTaUaVaWaXaYaZa0a1a2a3a4a5a6a7a8a9a.a+babbbcbdbebfbgbhbibjbkblbmbnbobpbqbrbsbtbubvbwbxbybzbAbBbCbDbEbFbGbHbIbJbKbLbMbNbObPbQbRbSbTbUbVbWbXbYbZb0b1b2b3b4b5b6b7b8b9b.b+cacbcccdcecfcgchcicjckclcmcncocpcqcrcsctcucvcwcxcyczcAcBcCcDcEcFcGcHcIcJcKcLcMcNcOcPcQcRcScTcUcVcWcXcYcZc0c1c2c3c4c5c6c7c8c9c.c+dadbdcdddedfdgdhdidjdkdldmdndodpdqdrdsdtdudvdwdxdydzdAdBdCdDdEdFdGdHdIdJdKdLdMdNdOdPdQdRdSdTdUdVdWdXdYdZd0d1d2d3d4d5d6d7d8d9d.d+eaebecedeeefegeheiejekelemeneoepeqereseteuevewexeyezeAeBeCeDeEeFeGeHeIeJeKeLeMeNeOePeQeReSeTeUeVeWeXeYeZe0e1e2e3e4e5e6e7e8e9e.e+fafbfcfdfefffgfhfifjfkflfmfnfofpfqfrfsftfufvfwfxfyfzfAfBfCfDfEfFfGfHfIfJfKfLfMfNfOfPfQfRfSfTfUfVfWfXfYfZf0f1f2f3f4f5f6f7f8f9f.f+gagbgcgdgegfggghgigjgkglgmgngogpgqgrgsgtgugvgwgxgygzgAgBgCgDgEgFgGgHgIgJgKgLgMgNgOgPgQgRgSgTgUgVgWgXgYgZg0g1g2g3g4g5g6g7g8g9g.g+hahbhchdhehfhghhhihjhkhlhmhnhohphqhrhshthuhvhwhxhyhzhAhBhChDhEhFhGhHhIhJhKhLhMhNhOhPhQhRhShThUhVhWhXhYhZh0h1h2h3h4h5h6h7h8h9h.h+",
"aaabacadaeafagahaiajakalamanaoapaqarasatauavawaxayazaAaBaCaDaEaFaGaHaIaJaKaLaMaNaOaPaQaRaSaTaUaVaWaXaYaZa0a1a2a3a4a5a6a7a8a9a.a+babbbcbdbebfbgbhbibjbkblbmbnbobpbqbrbsbtbubvbwbxbybzbAbBbCbDbEbFbGbHbIbJbKbLbMbNbObPbQbRbSbTbUbVbWbXbYbZb0b1b2b3b4b5b6b7b8b9b.b+cacbcccdcecfcgchcicjckclcmcncocpcqcrcsctcucvcwcxcyczcAcBcCcDcEcFcGcHcIcJcKcLcMcNcOcPcQcRcScTcUcVcWcXcYcZc0c1c2c3c4c5c6c7c8c9c.c+dadbdcdddedfdgdhdidjdkdldmdndodpdqdrdsdtdudvdwdxdydzdAdBdCdDdEdFdGdHdIdJdKdLdMdNdOdPdQdRdSdTdUdVdWdXdYdZd0d1d2d3d4d5d6d7d8d9d.d+eaebecedeeefegeheiejekelemeneoepeqereseteuevewexeyezeAeBeCeDeEeFeGeHeIeJeKeLeMeNeOePeQeReSeTeUeVeWeXeYeZe0e1e2e3e4e5e6e7e8e9e.e+fafbfcfdfefffgfhfifjfkflfmfnfofpfqfrfsftfufvfwfxfyfzfAfBfCfDfEfFfGfHfIfJfKfLfMfNfOfPfQfRfSfTfUfVfWfXfYfZf0f1f2f3f4f5f6f7f8f9f.f+gagbgcgdgegfggghgigjgkglgmgngogpgqgrgsgtgugvgwgxgygzgAgBgCgDgEgFgGgHgIgJgKgLgMgNgOgPgQgRgSgTgUgVgWgXgYgZg0g1g2g3g4g5g6g7g8g9g.g+hahbhchdhehfhghhhihjhkhlhmhnhohphqhrhshthuhvhwhxhyhzhAhBhChDhEhFhGhHhIhJhKhLhMhNhOhPhQhRhShThUhVhWhXhYhZh0h1h2h3h4h5h6h7h8h9h.h+",
"aaabacadaeafagahaiajakalamanaoapaqarasatauavawaxayazaAaBaCaDaEaFaGaHaIaJaKaLaMaNaOaPaQaRaSaTaUaVaWaXaYaZa0a1a2a3a4a5a6a7a8a9a.a+babbbcbdbebfbgbhbibjbkblbmbnbobpbqbrbsbtbubvbwbxbybzbAbBbCbDbEbFbGbHbIbJbKbLbMbNbObPbQbRbSbTbUbVbWbXbYbZb0b1b2b3b4b5b6b7b8b9b.b+cacbcccdcecfcgchcicjckclcmcncocpcqcrcsctcucvcwcxcyczcAcBcCcDcEcFcGcHcIcJcKcLcMcNcOcPcQcRcScTcUcVcWcXcYcZc0c1c2c3c4c5c6c7c8c9c.c+dadbdcdddedfdgdhdidjdkdldmdndodpdqdrdsdtdudvdwdxdydzdAdBdCdDdEdFdGdHdIdJdKdLdMdNdOdPdQdRdSdTdUdVdWdXdYdZd0d1d2d3d4d5d6d7d8d9d.d+eaebecedeeefegeheiejekelemeneoepeqereseteuevewexeyezeAeBeCeDeEeFeGeHeIeJeKeLeMeNeOePeQeReSeTeUeVeWeXeYeZe0e1e2e3e4e5e6e7e8e9e.e+fafbfcfdfefffgfhfifjfkflfmfnfofpfqfrfsftfufvfwfxfyfzfAfBfCfDfEfFfGfHfIfJfKfLfMfNfOfPfQfRfSfTfUfVfWfXfYfZf0f1f2f3f4f5f6f7f8f9f.f+gagbgcgdgegfggghgigjgkglgmgngogpgqgrgsgtgugvgwgxgygzgAgBgCgDgEgFgGgHgIgJgKgLgMgNgOgPgQgRgSgTgUgVgWgXgYgZg0g1g2g3g4g5g6g7g8g9g.g+hahbhchdhehfhghhhihjhkhlhmhnhohphqhrhshthuhvhwhxhyhzhAhBhChDhEhFhGhHhIhJhKhLhMhNhOhPhQhRhShThUhVhWhXhYhZh0h1h2h3h4h5h6h7h8h9h.h+",
"aaabacadaeafagahaiajakalamanaoapaqarasatauavawaxayazaAaBaCaDaEaFaGaHaIaJaKaLaMaNaOaPaQaRaSaTaUaVaWaXaYaZa0a1a2a3a4a5a6a7a8a9a.a+babbbcbdbebfbgbhbibjbkblbmbnbobpbqbrbsbtbubvbwbxbybzbAbBbCbDbEbFbGbHbIbJbKbLbMbNbObPbQbRbSbTbUbVbWbXbYbZb0b1b2b3b4b5b6b7b8b9b.b+cacbcccdcecfcgchcicjckclcmcncocpcqcrcsctcucvcwcxcyczcAcBcCcDcEcFcGcHcIcJcKcLcMcNcOcPcQcRcScTcUcVcWcXcYcZc0c1c2c3c4c5c6c7c8c9c.c+dadbdcdddedfdgdhdidjdkdldmdndodpdqdrdsdtdudvdwdxdydzdAdBdCdDdEdFdGdHdIdJdKdLdMdNdOdPdQdRdSdTdUdVdWdXdYdZd0d1d2d3d4d5d6d7d8d9d.d+eaebecedeeefegeheiejekelemeneoepeqereseteuevewexeyezeAeBeCeDeEeFeGeHeIeJeKeLeMeNeOePeQeReSeTeUeVeWeXeYeZe0e1e2e3e4e5e6e7e8e9e.e+fafbfcfdfefffgfhfifjfkflfmfnfofpfqfrfsftfufvfwfxfyfzfAfBfCfDfEfFfGfHfIfJfKfLfMfNfOfPfQfRfSfTfUfVfWfXfYfZf0f1f2f3f4f5f6f7f8f9f.f+gagbgcgdgegfggghgigjgkglgmgngogpgqgrgsgtgugvgwgxgygzgAgBgCgDgEgFgGgHgIgJgKgLgMgNgOgPgQgRgSgTgUgVgWgXgYgZg0g1g2g3g4g5g6g7g8g9g.g+hahbhchdhehfhghhhihjhkhlhmhnhohphqhrhshthuhvhwhxhyhzhAhBhChDhEhFhGhHhIhJhKhLhMhNhOhPhQhRhShThUhVhWhXhYhZh0h1h2h3h4h5h6h7h8h9h.h+",
"aaabacadaeafagahaiajakalamanaoapaqarasatauavawaxayazaAaBaCaDaEaFaGaHaIaJaKaLaMaNaOaPaQaRaSaTaUaVaWaXaYaZa0a1a2a3a4a5a6a7a8a9a.a+babbbcbdbebfbgbhbibjbkblbmbnbobpbqbrbsbtbubvbwbxbybzbAbBbCbDbEbFbGbHbIbJbKbLbMbNbObPbQbRbSbTbUbVbWbXbYbZb0b1b2b3b4b5b6b7b8b9b.b+cacbcccdcecfcgchcicjckclcmcncocpcqcrcsctcucvcwcxcyczcAcBcCcDcEcFcGcHcIcJcKcLcMcNcOcPcQcRcScTcUcVcWcXcYcZc0c1c2c3c4c5c6c7c8c9c.c+dadbdcdddedfdgdhdidjdkdldmdndodpdqdrdsdtdudvdwdxdydzdAdBdCdDdEdFdGdHdIdJdKdLdMdNdOdPdQdRdSdTdUdVdWdXdYdZd0d1d2d3d4d5d6d7d8d9d.d+eaebecedeeefegeheiejekelemeneoepeqereseteuevewexeyezeAeBeCeDeEeFeGeHeIeJeKeLeMeNeOePeQeReSeTeUeVeWeXeYeZe0e1e2e3e4e5e6e7e8e9e.e+fafbfcfdfefffgfhfifjfkflfmfnfofpfqfrfsftfufvfwfxfyfzfAfBfCfDfEfFfGfHfIfJfKfLfMfNfOfPfQfRfSfTfUfVfWfXfYfZf0f1f2f3f4f5f6f7f8f9f.f+gagbgcgdgegfggghgigjgkglgmgngogpgqgrgsgtgugvgwgxgygzgAgBgCgDgEgFgGgHgIgJgKgLgMgNgOgPgQgRgSgTgUgVgWgXgYgZg0g1g2g3g4g5g6g7g8g9g.g+hahbhchdhehfhghhhihjhkhlhmhnhohphqhrhshthuhvhwhxhyhzhAhBhChDhEhFhGhHhIhJhKhLhMhNhOhPhQhRhShThUhVhWhXhYhZh0h1h2h3h4h5h6h7h8h9h.h+",
"aaabacadaeafagahaiajakalamanaoapaqarasatauavawaxayazaAaBaCaDaEaFaGaHaIaJaKaLaMaNaOaPaQaRaSaTaUaVaWaXaYaZa0a1a2a3a4a5a6a7a8a9a.a+babbbcbdbebfbgbhbibjbkblbmbnbobpbqbrbsbtbubvbwbxbybzbAbBbCbDbEbFbGbHbIbJbKbLbMbNbObPbQbRbSbTbUbVbWbXbYbZb0b1b2b3b4b5b6b7b8b9b.b+cacbcccdcecfcgchcicjckclcmcncocpcqcrcsctcucvcwcxcyczcAcBcCcDcEcFcGcHcIcJcKcLcMcNcOcPcQcRcScTcUcVcWcXcYcZc0c1c2c3c4c5c6c7c8c9c.c+dadbdcdddedfdgdhdidjdkdldmdndodpdqdrdsdtdudvdwdxdydzdAdBdCdDdEdFdGdHdIdJdKdLdMdNdOdPdQdRdSdTdUdVdWdXdYdZd0d1d2d3d4d5d6d7d8d9d.d+eaebecedeeefegeheiejekelemeneoepeqereseteuevewexeyezeAeBeCeDeEeFeGeHeIeJeKeLeMeNeOePeQeReSeTeUeVeWeXeYeZe0e1e2e3e4e5e6e7e8e9e.e+fafbfcfdfefffgfhfifjfkflfmfnfofpfqfrfsftfufvfwfxfyfzfAfBfCfDfEfFfGfHfIfJfKfLfMfNfOfPfQfRfSfTfUfVfWfXfYfZf0f1f2f3f4f5f6f7f8f9f.f+gagbgcgdgegfggghgigjgkglgmgngogpgqgrgsgtgugvgwgxgygzgAgBgCgDgEgFgGgHgIgJgKgLgMgNgOgPgQgRgSgTgUgVgWgXgYgZg0g1g2g3g4g5g6g7g8g9g.g+hahbhchdhehfhghhhihjhkhlhmhnhohphqhrhshthuhvhwhxhyhzhAhBhChDhEhFhGhHhIhJhKhLhMhNhOhPhQhRhShThUhVhWhXhYhZh0h1h2h3h4h5h6h7h8h9h.h+",
"aaabacadaeafagahaiajakalamanaoapaqarasatauavawaxayazaAaBaCaDaEaFaGaHaIaJaKaLaMaNaOaPaQaRaSaTaUaVaWaXaYaZa0a1a2a3a4a5a6a7a8a9a.a+babbbcbdbebfbgbhbibjbkblbmbnbobpbqbrbsbtbubvbwbxbybzbAbBbCbDbEbFbGbHbIbJbKbLbMbNbObPbQbRbSbTbUbVbWbXbYbZb0b1b2b3b4b5b6b7b8b9b.b+cacbcccdcecfcgchcicjckclcmcncocpcqcrcsctcucvcwcxcyczcAcBcCcDcEcFcGcHcIcJcKcLcMcNcOcPcQcRcScTcUcVcWcXcYcZc0c1c2c3c4c5c6c7c8c9c.c+dadbdcdddedfdgdhdidjdkdldmdndodpdqdrdsdtdudvdwdxdydzdAdBdCdDdEdFdGdHdIdJdKdLdMdNdOdPdQdRdSdTdUdVdWdXdYdZd0d1d2d3d4d5d6d7d8d9d.d+eaebecedeeefegeheiejekelemeneoepeqereseteuevewexeyezeAeBeCeDeEeFeGeHeIeJeKeLeMeNeOePeQeReSeTeUeVeWeXeYeZe0e1e2e3e4e5e6e7e8e9e.e+fafbfcfdfefffgfhfifjfkflfmfnfofpfqfrfsftfufvfwfxfyfzfAfBfCfDfEfFfGfHfIfJfKfLfMfNfOfPfQfRfSfTfUfVfWfXfYfZf0f1f2f3f4f5f6f7f8f9f.f+gagbgcgdgegfggghgigjgkglgmgngogpgqgrgsgtgugvgwgxgygzgAgBgCgDgEgFgGgHgIgJgKgLgMgNgOgPgQgRgSgTgUgVgWgXgYgZg0g1g2g3g4g5g6g7g8g9g.g+hahbhchdhehfhghhhihjhkhlhmhnhohphqhrhshthuhvhwhxhyhzhAhBhChDhEhFhGhHhIhJhKhLhMhNhOhPhQhRhShThUhVhWhXhYhZh0h1h2h3h4h5h6h7h8h9h.h+",
"aaabacadaeafagahaiajakalamanaoapaqarasatauavawaxayazaAaBaCaDaEaFaGaHaIaJaKaLaMaNaOaPaQaRaSaTaUaVaWaXaYaZa0a1a2a3a4a5a6a7a8a9a.a+babbbcbdbebfbgbhbibjbkblbmbnbobpbqbrbsbtbubvbwbxbybzbAbBbCbDbEbFbGbHbIbJbKbLbMbNbObPbQbRbSbTbUbVbWbXbYbZb0b1b2b3b4b5b6b7b8b9b.b+cacbcccdcecfcgchcicjckclcmcncocpcqcrcsctcucvcwcxcyczcAcBcCcDcEcFcGcHcIcJcKcLcMcNcOcPcQcRcScTcUcVcWcXcYcZc0c1c2c3c4c5c6c7c8c9c.c+dadbdcdddedfdgdhdidjdkdldmdndodpdqdrdsdtdudvdwdxdydzdAdBdCdDdEdFdGdHdIdJdKdLdMdNdOdPdQdRdSdTdUdVdWdXdYdZd0d1d2d3d4d5d6d7d8d9d.d+eaebecedeeefegeheiejekelemeneoepeqereseteuevewexeyezeAeBeCeDeEeFeGeHeIeJeKeLeMeNeOePeQeReSeTeUeVeWeXeYeZe0e1e2e3e4e5e6e7e8e9e.e+fafbfcfdfefffgfhfifjfkflfmfnfofpfqfrfsftfufvfwfxfyfzfAfBfCfDfEfFfGfHfIfJfKfLfMfNfOfPfQfRfSfTfUfVfWfXfYfZf0f1f2f3f4f5f6f7f8f9f.f+gagbgcgdgegfggghgigjgkglgmgngogpgqgrgsgtgugvgwgxgygzgAgBgCgDgEgFgGgHgIgJgKgLgMgNgOgPgQgRgSgTgUgVgWgXgYgZg0g1g2g3g4g5g6g7g8g9g.g+hahbhchdhehfhghhhihjhkhlhmhnhohphqhrhshthuhvhwhxhyhzhAhBhChDhEhFhGhHhIhJhKhLhMhNhOhPhQhRhShThUhVhWhXhYhZh0h1h2h3h4h5h6h7h8h9h.h+",
"aaabacadaeafagahaiajakalamanaoapaqarasatauavawaxayazaAaBaCaDaEaFaGaHaIaJaKaLaMaNaOaPaQaRaSaTaUaVaWaXaYaZa0a1a2a3a4a5a6a7a8a9a.a+babbbcbdbebfbgbhbibjbkblbmbnbobpbqbrbsbtbubvbwbxbybzbAbBbCbDbEbFbGbHbIbJbKbLbMbNbObPbQbRbSbTbUbVbWbXbYbZb0b1b2b3b4b5b6b7b8b9b.b+cacbcccdcecfcgchcicjckclcmcncocpcqcrcsctcucvcwcxcyczcAcBcCcDcEcFcGcHcIcJcKcLcMcNcOcPcQcRcScTcUcVcWcXcYcZc0c1c2c3c4c5c6c7c8c9c.c+dadbdcdddedfdgdhdidjdkdldmdndodpdqdrdsdtdudvdwdxdydzdAdBdCdDdEdFdGdHdIdJdKdLdMdNdOdPdQdRdSdTdUdVdWdXdYdZd0d1d2d3d4d5d6d7d8d9d.d+eaebecedeeefegeheiejekelemeneoepeqereseteuevewexeyezeAeBeCeDeEeFeGeHeIeJeKeLeMeNeOePeQeReSeTeUeVeWeXeYeZe0e1e2e3e4e5e6e7e8e9e.e+fafbfcfdfefffgfhfifjfkflfmfnfofpfqfrfsftfufvfwfxfyfzfAfBfCfDfEfFfGfHfIfJfKfLfMfNfOfPfQfRfSfTfUfVfWfXfYfZf0f1f2f3f4f5f6f7f8f9f.f+gagbgcgdgegfggghgigjgkglgmgngogpgqgrgsgtgugvgwgxgygzgAgBgCgDgEgFgGgHgIgJgKgLgMgNgOgPgQgRgSgTgUgVgWgXgYgZg0g1g2g3g4g5g6g7g8g9g.g+hahbhchdhehfhghhhihjhkhlhmhnhohphqhrhshthuhvhwhxhyhzhAhBhChDhEhFhGhHhIhJhKhLhMhNhOhPhQhRhShThUhVhWhXhYhZh0h1h2h3h4h5h6h7h8h9h.h+",
"aaabacadaeafagahaiajakalamanaoapaqarasatauavawaxayazaAaBaCaDaEaFaGaHaIaJaKaLaMaNaOaPaQaRaSaTaUaVaWaXaYaZa0a1a2a3a4a5a6a7a8a9a.a+babbbcbdbebfbgbhbibjbkblbmbnbobpbqbrbsbtbubvbwbxbybzbAbBbCbDbEbFbGbHbIbJbKbLbMbNbObPbQbRbSbTbUbVbWbXbYbZb0b1b2b3b4b5b6b7b8b9b.b+cacbcccdcecfcgchcicjckclcmcncocpcqcrcsctcucvcwcxcyczcAcBcCcDcEcFcGcHcIcJcKcLcMcNcOcPcQcRcScTcUcVcWcXcYcZc0c1c2c3c4c5c6c7c8c9c.c+dadbdcdddedfdgdhdidjdkdldmdndodpdqdrdsdtdudvdwdxdydzdAdBdCdDdEdFdGdHdIdJdKdLdMdNdOdPdQdRdSdTdUdVdWdXdYdZd0d1d2d3d4d5d6d7d8d9d.d+eaebecedeeefegeheiejekelemeneoepeqereseteuevewexeyezeAeBeCeDeEeFeGeHeIeJeKeLeMeNeOePeQeReSeTeUeVeWeXeYeZe0e1e2e3e4e5e6e7e8e9e.e+fafbfcfdfefffgfhfifjfkflfmfnfofpfqfrfsftfufvfwfxfyfzfAfBfCfDfEfFfGfHfIfJfKfLfMfNfOfPfQfRfSfTfUfVfWfXfYfZf0f1f2f3f4f5f6f7f8f9f.f+gagbgcgdgegfggghgigjgkglgmgngogpgqgrgsgtgugvgwgxgygzgAgBgCgDgEgFgGgHgIgJgKgLgMgNgOgPgQgRgSgTgUgVgWgXgYgZg0g1g2g3g4g5g6g7g8g9g.g+hahbhchdhehfhghhhihjhkhlhmhnhohphqhrhshthuhvhwhxhyhzhAhBhChDhEhFhGhHhIhJhKhLhMhNhOhPhQhRhShThUhVhWhXhYhZh0h1h2h3h4h5h6h7h8h9h.h+",
"aaabacadaeafagahaiajakalamanaoapaqarasatauavawaxayazaAaBaCaDaEaFaGaHaIaJaKaLaMaNaOaPaQaRaSaTaUaVaWaXaYaZa0a1a2a3a4a5a6a7a8a9a.a+babbbcbdbebfbgbhbibjbkblbmbnbobpbqbrbsbtbubvbwbxbybzbAbBbCbDbEbFbGbHbIbJbKbLbMbNbObPbQbRbSbTbUbVbWbXbYbZb0b1b2b3b4b5b6b7b8b9b.b+cacbcccdcecfcgchcicjckclcmcncocpcqcrcsctcucvcwcxcyczcAcBcCcDcEcFcGcHcIcJcKcLcMcNcOcPcQcRcScTcUcVcWcXcYcZc0c1c2c3c4c5c6c7c8c9c.c+dadbdcdddedfdgdhdidjdkdldmdndodpdqdrdsdtdudvdwdxdydzdAdBdCdDdEdFdGdHdIdJdKdLdMdNdOdPdQdRdSdTdUdVdWdXdYdZd0d1d2d3d4d5d6d7d8d9d.d+eaebecedeeefegeheiejekelemeneoepeqereseteuevewexeyezeAeBeCeDeEeFeGeHeIeJeKeLeMeNeOePeQeReSeTeUeVeWeXeYeZe0e1e2e3e4e5e6e7e8e9e.e+fafbfcfdfefffgfhfifjfkflfmfnfofpfqfrfsftfufvfwfxfyfzfAfBfCfDfEfFfGfHfIfJfKfLfMfNfOfPfQfRfSfTfUfVfWfXfYfZf0f1f2f3f4f5f6f7f8f9f.f+gagbgcgdgegfggghgigjgkglgmgngogpgqgrgsgtgugvgwgxgygzgAgBgCgDgEgFgGgHgIgJgKgLgMgNgOgPgQgRgSgTgUgVgWgXgYgZg0g1g2g3g4g5g6g7g8g9g.g+hahbhchdhehfhghhhihjhkhlhmhnhohphqhrhshthuhvhwhxhyhzhAhBhChDhEhFhGhHhIhJhKhLhMhNhOhPhQhRhShThUhVhWhXhYhZh0h1h2h3h4h5h6h7h8h9h.h+",
"aaabacadaeafagahaiajakalamanaoapaqarasatauavawaxayazaAaBaCaDaEaFaGaHaIaJaKaLaMaNaOaPaQaRaSaTaUaVaWaXaYaZa0a1a2a3a4a5a6a7a8a9a.a+babbbcbdbebfbgbhbibjbkblbmbnbobpbqbrbsbtbubvbwbxbybzbAbBbCbDbEbFbGbHbIbJbKbLbMbNbObPbQbRbSbTbUbVbWbXbYbZb0b1b2b3b4b5b6b7b8b9b.b+cacbcccdcecfcgchcicjckclcmcncocpcqcrcsctcucvcwcxcyczcAcBcCcDcEcFcGcHcIcJcKcLcMcNcOcPcQcRcScTcUcVcWcXcYcZc0c1c2c3c4c5c6c7c8c9c.c+dadbdcdddedfdgdhdidjdkdldmdndodpdqdrdsdtdudvdwdxdydzdAdBdCdDdEdFdGdHdIdJdKdLdMdNdOdPdQdRdSdTdUdVdWdXdYdZd0d1d2d3d4d5d6d7d8d9d.d+eaebecedeeefegeheiejekelemeneoepeqereseteuevewexeyezeAeBeCeDeEeFeGeHeIeJeKeLeMeNeOePeQeReSeTeUeVeWeXeYeZe0e1e2e3e4e5e6e7e8e9e.e+fafbfcfdfefffgfhfifjfkflfmfnfofpfqfrfsftfufvfwfxfyfzfAfBfCfDfEfFfGfHfIfJfKfLfMfNfOfPfQfRfSfTfUfVfWfXfYfZf0f1f2f3f4f5f6f7f8f9f.f+gagbgcgdgegfggghgigjgkglgmgngogpgqgrgsgtgugvgwgxgygzgAgBgCgDgEgFgGgHgIgJgKgLgMgNgOgPgQgRgSgTgUgVgWgXgYgZg0g1g2g3g4g5g6g7g8g9g.g+hahbhchdhehfhghhhihjhkhlhmhnhohphqhrhshthuhvhwhxhyhzhAhBhChDhEhFhGhHhIhJhKhLhMhNhOhPhQhRhShThUhVhWhXhYhZh0h1h2h3h4h5h6h7h8h9h.h+",
"aaabacadaeafagahaiajakalamanaoapaqarasatauavawaxayazaAaBaCaDaEaFaGaHaIaJaKaLaMaNaOaPaQaRaSaTaUaVaWaXaYaZa0a1a2a3a4a5a6a7a8a9a.a+babbbcbdbebfbgbhbibjbkblbmbnbobpbqbrbsbtbubvbwbxbybzbAbBbCbDbEbFbGbHbIbJbKbLbMbNbObPbQbRbSbTbUbVbWbXbYbZb0b1b2b3b4b5b6b7b8b9b.b+cacbcccdcecfcgchcicjckclcmcncocpcqcrcsctcucvcwcxcyczcAcBcCcDcEcFcGcHcIcJcKcLcMcNcOcPcQcRcScTcUcVcWcXcYcZc0c1c2c3c4c5c6c7c8c9c.c+dadbdcdddedfdgdhdidjdkdldmdndodpdqdrdsdtdudvdwdxdydzdAdBdCdDdEdFdGdHdIdJdKdLdMdNdOdPdQdRdSdTdUdVdWdXdYdZd0d1d2d3d4d5d6d7d8d9d.d+eaebecedeeefegeheiejekelemeneoepeqereseteuevewexeyezeAeBeCeDeEeFeGeHeIeJeKeLeMeNeOePeQeReSeTeUeVeWeXeYeZe0e1e2e3e4e5e6e7e8e9e.e+fafbfcfdfefffgfhfifjfkflfmfnfofpfqfrfsftfufvfwfxfyfzfAfBfCfDfEfFfGfHfIfJfKfLfMfNfOfPfQfRfSfTfUfVfWfXfYfZf0f1f2f3f4f5f6f7f8f9f.f+gagbgcgdgegfggghgigjgkglgmgngogpgqgrgsgtgugvgwgxgygzgAgBgCgDgEgFgGgHgIgJgKgLgMgNgOgPgQgRgSgTgUgVgWgXgYgZg0g1g2g3g4g5g6g7g8g9g.g+hahbhchdhehfhghhhihjhkhlhmhnhohphqhrhshthuhvhwhxhyhzhAhBhChDhEhFhGhHhIhJhKhLhMhNhOhPhQhRhShThUhVhWhXhYhZh0h1h2h3h4h5h6h7h8h9h.h+",
"aaabacadaeafagahaiajakalamanaoapaqarasatauavawaxayazaAaBaCaDaEaFaGaHaIaJaKaLaMaNaOaPaQaRaSaTaUaVaWaXaYaZa0a1a2a3a4a5a6a7a8a9a.a+babbbcbdbebfbgbhbibjbkblbmbnbobpbqbrbsbtbubvbwbxbybzbAbBbCbDbEbFbGbHbIbJbKbLbMbNbObPbQbRbSbTbUbVbWbXbYbZb0b1b2b3b4b5b6b7b8b9b.b+cacbcccdcecfcgchcicjckclcmcncocpcqcrcsctcucvcwcxcyczcAcBcCcDcEcFcGcHcIcJcKcLcMcNcOcPcQcRcScTcUcVcWcXcYcZc0c1c2c3c4c5c6c7c8c9c.c+dadbdcdddedfdgdhdidjdkdldmdndodpdqdrdsdtdudvdwdxdydzdAdBdCdDdEdFdGdHdIdJdKdLdMdNdOdPdQdRdSdTdUdVdWdXdYdZd0d1d2d3d4d5d6d7d8d9d.d+eaebecedeeefegeheiejekelemeneoepeqereseteuevewexeyezeAeBeCeDeEeFeGeHeIeJeKeLeMeNeOePeQeReSeTeUeVeWeXeYeZe0e1e2e3e4e5e6e7e8e9e.e+fafbfcfdfefffgfhfifjfkflfmfnfofpfqfrfsftfufvfwfxfyfzfAfBfCfDfEfFfGfHfIfJfKfLfMfNfOfPfQfRfSfTfUfVfWfXfYfZf0f1f2f3f4f5f6f7f8f9f.f+gagbgcgdgegfggghgigjgkglgmgngogpgqgrgsgtgugvgwgxgygzgAgBgCgDgEgFgGgHgIgJgKgLgMgNgOgPgQgRgSgTgUgVgWgXgYgZg0g1g2g3g4g5g6g7g8g9g.g+hahbhchdhehfhghhhihjhkhlhmhnhohphqhrhshthuhvhwhxhyhzhAhBhChDhEhFhGhHhIhJhKhLhMhNhOhPhQhRhShThUhVhWhXhYhZh0h1h2h3h4h5h6h7h8h9h.h+",
"aaabacadaeafagahaiajakalamanaoapaqarasatauavawaxayazaAaBaCaDaEaFaGaHaIaJaKaLaMaNaOaPaQaRaSaTaUaVaWaXaYaZa0a1a2a3a4a5a6a7a8a9a.a+babbbcbdbebfbgbhbibjbkblbmbnbobpbqbrbsbtbubvbwbxbybzbAbBbCbDbEbFbGbHbIbJbKbLbMbNbObPbQbRbSbTbUbVbWbXbYbZb0b1b2b3b4b5b6b7b8b9b.b+cacbcccdcecfcgchcicjckclcmcncocpcqcrcsctcucvcwcxcyczcAcBcCcDcEcFcGcHcIcJcKcLcMcNcOcPcQcRcScTcUcVcWcXcYcZc0c1c2c3c4c5c6c7c8c9c.c+dadbdcdddedfdgdhdidjdkdldmdndodpdqdrdsdtdudvdwdxdydzdAdBdCdDdEdFdGdHdIdJdKdLdMdNdOdPdQdRdSdTdUdVdWdXdYdZd0d1d2d3d4d5d6d7d8d9d.d+eaebecedeeefegeheiejekelemeneoepeqereseteuevewexeyezeAeBeCeDeEeFeGeHeIeJeKeLeMeNeOePeQeReSeTeUeVeWeXeYeZe0e1e2e3e4e5e6e7e8e9e.e+fafbfcfdfefffgfhfifjfkflfmfnfofpfqfrfsftfufvfwfxfyfzfAfBfCfDfEfFfGfHfIfJfKfLfMfNfOfPfQfRfSfTfUfVfWfXfYfZf0f1f2f3f4f5f6f7f8f9f.f+gagbgcgdgegfggghgigjgkglgmgngogpgqgrgsgtgugvgwgxgygzgAgBgCgDgEgFgGgHgIgJgKgLgMgNgOgPgQgRgSgTgUgVgWgXgYgZg0g1g2g3g4g5g6g7g8g9g.g+hahbhchdhehfhghhhihjhkhlhmhnhohphqhrhshthuhvhwhxhyhzhAhBhChDhEhFhGhHhIhJhKhLhMhNhOhPhQhRhShThUhVhWhXhYhZh0h1h2h3h4h5h6h7h8h9h.h+",
"aaabacadaeafagahaiajakalamanaoapaqarasatauavawaxayazaAaBaCaDaEaFaGaHaIaJaKaLaMaNaOaPaQaRaSaTaUaVaWaXaYaZa0a1a2a3a4a5a6a7a8a9a.a+babbbcbdbebfbgbhbibjbkblbmbnbobpbqbrbsbtbubvbwbxbybzbAbBbCbDbEbFbGbHbIbJbKbLbMbNbObPbQbRbSbTbUbVbWbXbYbZb0b1b2b3b4b5b6b7b8b9b.b+cacbcccdcecfcgchcicjckclcmcncocpcqcrcsctcucvcwcxcyczcAcBcCcDcEcFcGcHcIcJcKcLcMcNcOcPcQcRcScTcUcVcWcXcYcZc0c1c2c3c4c5c6c7c8c9c.c+dadbdcdddedfdgdhdidjdkdldmdndodpdqdrdsdtdudvdwdxdydzdAdBdCdDdEdFdGdHdIdJdKdLdMdNdOdPdQdRdSdTdUdVdWdXdYdZd0d1d2d3d4d5d6d7d8d9d.d+eaebecedeeefegeheiejekelemeneoepeqereseteuevewexeyezeAeBeCeDeEeFeGeHeIeJeKeLeMeNeOePeQeReSeTeUeVeWeXeYeZe0e1e2e3e4e5e6e7e8e9e.e+fafbfcfdfefffgfhfifjfkflfmfnfofpfqfrfsftfufvfwfxfyfzfAfBfCfDfEfFfGfHfIfJfKfLfMfNfOfPfQfRfSfTfUfVfWfXfYfZf0f1f2f3f4f5f6f7f8f9f.f+gagbgcgdgegfggghgigjgkglgmgngogpgqgrgsgtgugvgwgxgygzgAgBgCgDgEgFgGgHgIgJgKgLgMgNgOgPgQgRgSgTgUgVgWgXgYgZg0g1g2g3g4g5g6g7g8g9g.g+hahbhchdhehfhghhhihjhkhlhmhnhohphqhrhshthuhvhwhxhyhzhAhBhChDhEhFhGhHhIhJhKhLhMhNhOhPhQhRhShThUhVhWhXhYhZh0h1h2h3h4h5h6h7h8h9h.h+",
"aaabacadaeafagahaiajakalamanaoapaqarasatauavawaxayazaAaBaCaDaEaFaGaHaIaJaKaLaMaNaOaPaQaRaSaTaUaVaWaXaYaZa0a1a2a3a4a5a6a7a8a9a.a+babbbcbdbebfbgbhbibjbkblbmbnbobpbqbrbsbtbubvbwbxbybzbAbBbCbDbEbFbGbHbIbJbKbLbMbNbObPbQbRbSbTbUbVbWbXbYbZb0b1b2b3b4b5b6b7b8b9b.b+cacbcccdcecfcgchcicjckclcmcncocpcqcrcsctcucvcwcxcyczcAcBcCcDcEcFcGcHcIcJcKcLcMcNcOcPcQcRcScTcUcVcWcXcYcZc0c1c2c3c4c5c6c7c8c9c.c+dadbdcdddedfdgdhdidjdkdldmdndodpdqdrdsdtdudvdwdxdydzdAdBdCdDdEdFdGdHdIdJdKdLdMdNdOdPdQdRdSdTdUdVdWdXdYdZd0d1d2d3d4d5d6d7d8d9d.d+eaebecedeeefegeheiejekelemeneoepeqereseteuevewexeyezeAeBeCeDeEeFeGeHeIeJeKeLeMeNeOePeQeReSeTeUeVeWeXeYeZe0e1e2e3e4e5e6e7e8e9e.e+fafbfcfdfefffgfhfifjfkflfmfnfofpfqfrfsftfufvfwfxfyfzfAfBfCfDfEfFfGfHfIfJfKfLfMfNfOfPfQfRfSfTfUfVfWfXfYfZf0f1f2f3f4f5f6f7f8f9f.f+gagbgcgdgegfggghgigjgkglgmgngogpgqgrgsgtgugvgwgxgygzgAgBgCgDgEgFgGgHgIgJgKgLgMgNgOgPgQgRgSgTgUgVgWgXgYgZg0g1g2g3g4g5g6g7g8g9g.g+hahbhchdhehfhghhhihjhkhlhmhnhohphqhrhshthuhvhwhxhyhzhAhBhChDhEhFhGhHhIhJhKhLhMhNhOhPhQhRhShThUhVhWhXhYhZh0h1h2h3h4h5h6h7h8h9h.h+",
"aaabacadaeafagahaiajakalamanaoapaqarasatauavawaxayazaAaBaCaDaEaFaGaHaIaJaKaLaMaNaOaPaQaRaSaTaUaVaWaXaYaZa0a1a2a3a4a5a6a7a8a9a.a+babbbcbdbebfbgbhbibjbkblbmbnbobpbqbrbsbtbubvbwbxbybzbAbBbCbDbEbFbGbHbIbJbKbLbMbNbObPbQbRbSbTbUbVbWbXbYbZb0b1b2b3b4b5b6b7b8b9b.b+cacbcccdcecfcgchcicjckclcmcncocpcqcrcsctcucvcwcxcyczcAcBcCcDcEcFcGcHcIcJcKcLcMcNcOcPcQcRcScTcUcVcWcXcYcZc0c1c2c3c4c5c6c7c8c9c.c+dadbdcdddedfdgdhdidjdkdldmdndodpdqdrdsdtdudvdwdxdydzdAdBdCdDdEdFdGdHdIdJdKdLdMdNdOdPdQdRdSdTdUdVdWdXdYdZd0d1d2d3d4d5d6d7d8d9d.d+eaebecedeeefegeheiejekelemeneoepeqereseteuevewexeyezeAeBeCeDeEeFeGeHeIeJeKeLeMeNeOePeQeReSeTeUeVeWeXeYeZe0e1e2e3e4e5e6e7e8e9e.e+fafbfcfdfefffgfhfifjfkflfmfnfofpfqfrfsftfufvfwfxfyfzfAfBfCfDfEfFfGfHfIfJfKfLfMfNfOfPfQfRfSfTfUfVfWfXfYfZf0f1f2f3f4f5f6f7f8f9f.f+gagbgcgdgegfggghgigjgkglgmgngogpgqgrgsgtgugvgwgxgygzgAgBgCgDgEgFgGgHgIgJgKgLgMgNgOgPgQgRgSgTgUgVgWgXgYgZg0g1g2g3g4g5g6g7g8g9g.g+hahbhchdhehfhghhhihjhkhlhmhnhohphqhrhshthuhvhwhxhyhzhAhBhChDhEhFhGhHhIhJhKhLhMhNhOhPhQhRhShThUhVhWhXhYhZh0h1h2h3h4h5h6h7h8h9h.h+",
"aaabacadaeafagahaiajakalamanaoapaqarasatauavawaxayazaAaBaCaDaEaFaGaHaIaJaKaLaMaNaOaPaQaRaSaTaUaVaWaXaYaZa0a1a2a3a4a5a6a7a8a9a.a+babbbcbdbebfbgbhbibjbkblbmbnbobpbqbrbsbtbubvbwbxbybzbAbBbCbDbEbFbGbHbIbJbKbLbMbNbObPbQbRbSbTbUbVbWbXbYbZb0b1b2b3b4b5b6b7b8b9b.b+cacbcccdcecfcgchcicjckclcmcncocpcqcrcsctcucvcwcxcyczcAcBcCcDcEcFcGcHcIcJcKcLcMcNcOcPcQcRcScTcUcVcWcXcYcZc0c1c2c3c4c5c6c7c8c9c.c+dadbdcdddedfdgdhdidjdkdldmdndodpdqdrdsdtdudvdwdxdydzdAdBdCdDdEdFdGdHdIdJdKdLdMdNdOdPdQdRdSdTdUdVdWdXdYdZd0d1d2d3d4d5d6d7d8d9d.d+eaebecedeeefegeheiejekelemeneoepeqereseteuevewexeyezeAeBeCeDeEeFeGeHeIeJeKeLeMeNeOePeQeReSeTeUeVeWeXeYeZe0e1e2e3e4e5e6e7e8e9e.e+fafbfcfdfefffgfhfifjfkflfmfnfofpfqfrfsftfufvfwfxfyfzfAfBfCfDfEfFfGfHfIfJfKfLfMfNfOfPfQfRfSfTfUfVfWfXfYfZf0f1f2f3f4f5f6f7f8f9f.f+gagbgcgdgegfggghgigjgkglgmgngogpgqgrgsgtgugvgwgxgygzgAgBgCgDgEgFgGgHgIgJgKgLgMgNgOgPgQgRgSgTgUgVgWgXgYgZg0g1g2g3g4g5g6g7g8g9g.g+hahbhchdhehfhghhhihjhkhlhmhnhohphqhrhshthuhvhwhxhyhzhAhBhChDhEhFhGhHhIhJhKhLhMhNhOhPhQhRhShThUhVhWhXhYhZh0h1h2h3h4h5h6h7h8h9h.h+",
"aaabacadaeafagahaiajakalamanaoapaqarasatauavawaxayazaAaBaCaDaEaFaGaHaIaJaKaLaMaNaOaPaQaRaSaTaUaVaWaXaYaZa0a1a2a3a4a5a6a7a8a9a.a+babbbcbdbebfbgbhbibjbkblbmbnbobpbqbrbsbtbubvbwbxbybzbAbBbCbDbEbFbGbHbIbJbKbLbMbNbObPbQbRbSbTbUbVbWbXbYbZb0b1b2b3b4b5b6b7b8b9b.b+cacbcccdcecfcgchcicjckclcmcncocpcqcrcsctcucvcwcxcyczcAcBcCcDcEcFcGcHcIcJcKcLcMcNcOcPcQcRcScTcUcVcWcXcYcZc0c1c2c3c4c5c6c7c8c9c.c+dadbdcdddedfdgdhdidjdkdldmdndodpdqdrdsdtdudvdwdxdydzdAdBdCdDdEdFdGdHdIdJdKdLdMdNdOdPdQdRdSdTdUdVdWdXdYdZd0d1d2d3d4d5d6d7d8d9d.d+eaebecedeeefegeheiejekelemeneoepeqereseteuevewexeyezeAeBeCeDeEeFeGeHeIeJeKeLeMeNeOePeQeReSeTeUeVeWeXeYeZe0e1e2e3e4e5e6e7e8e9e.e+fafbfcfdfefffgfhfifjfkflfmfnfofpfqfrfsftfufvfwfxfyfzfAfBfCfDfEfFfGfHfIfJfKfLfMfNfOfPfQfRfSfTfUfVfWfXfYfZf0f1f2f3f4f5f6f7f8f9f.f+gagbgcgdgegfggghgigjgkglgmgngogpgqgrgsgtgugvgwgxgygzgAgBgCgDgEgFgGgHgIgJgKgLgMgNgOgPgQgRgSgTgUgVgWgXgYgZg0g1g2g3g4g5g6g7g8g9g.g+hahbhchdhehfhghhhihjhkhlhmhnhohphqhrhshthuhvhwhxhyhzhAhBhChDhEhFhGhHhIhJhKhLhMhNhOhPhQhRhShThUhVhWhXhYhZh0h1h2h3h4h5h6h7h8h9h.h+",
"aaabacadaeafagahaiajakalamanaoapaqarasatauavawaxayazaAaBaCaDaEaFaGaHaIaJaKaLaMaNaOaPaQaRaSaTaUaVaWaXaYaZa0a1a2a3a4a5a6a7a8a9a.a+babbbcbdbebfbgbhbibjbkblbmbnbobpbqbrbsbtbubvbwbxbybzbAbBbCbDbEbFbGbHbIbJbKbLbMbNbObPbQbRbSbTbUbVbWbXbYbZb0b1b2b3b4b5b6b7b8b9b.b+cacbcccdcecfcgchcicjckclcmcncocpcqcrcsctcucvcwcxcyczcAcBcCcDcEcFcGcHcIcJcKcLcMcNcOcPcQcRcScTcUcVcWcXcYcZc0c1c2c3c4c5c6c7c8c9c.c+dadbdcdddedfdgdhdidjdkdldmdndodpdqdrdsdtdudvdwdxdydzdAdBdCdDdEdFdGdHdIdJdKdLdMdNdOdPdQdRdSdTdUdVdWdXdYdZd0d1d2d3d4d5d6d7d8d9d.d+eaebecedeeefegeheiejekelemeneoepeqereseteuevewexeyezeAeBeCeDeEeFeGeHeIeJeKeLeMeNeOePeQeReSeTeUeVeWeXeYeZe0e1e2e3e4e5e6e7e8e9e.e+fafbfcfdfefffgfhfifjfkflfmfnfofpfqfrfsftfufvfwfxfyfzfAfBfCfDfEfFfGfHfIfJfKfLfMfNfOfPfQfRfSfTfUfVfWfXfYfZf0f1f2f3f4f5f6f7f8f9f.f+gagbgcgdgegfggghgigjgkglgmgngogpgqgrgsgtgugvgwgxgygzgAgBgCgDgEgFgGgHgIgJgKgLgMgNgOgPgQgRgSgTgUgVgWgXgYgZg0g1g2g3g4g5g6g7g8g9g.g+hahbhchdhehfhghhhihjhkhlhmhnhohphqhrhshthuhvhwhxhyhzhAhBhChDhEhFhGhHhIhJhKhLhMhNhOhPhQhRhShThUhVhWhXhYhZh0h1h2h3h4h5h6h7h8h9h.h+",
"aaabacadaeafagahaiajakalamanaoapaqarasatauavawaxayazaAaBaCaDaEaFaGaHaIaJaKaLaMaNaOaPaQaRaSaTaUaVaWaXaYaZa0a1a2a3a4a5a6a7a8a9a.a+babbbcbdbebfbgbhbibjbkblbmbnbobpbqbrbsbtbubvbwbxbybzbAbBbCbDbEbFbGbHbIbJbKbLbMbNbObPbQbRbSbTbUbVbWbXbYbZb0b1b2b3b4b5b6b7b8b9b.b+cacbcccdcecfcgchcicjckclcmcncocpcqcrcsctcucvcwcxcyczcAcBcCcDcEcFcGcHcIcJcKcLcMcNcOcPcQcRcScTcUcVcWcXcYcZc0c1c2c3c4c5c6c7c8c9c.c+dadbdcdddedfdgdhdidjdkdldmdndodpdqdrdsdtdudvdwdxdydzdAdBdCdDdEdFdGdHdIdJdKdLdMdNdOdPdQdRdSdTdUdVdWdXdYdZd0d1d2d3d4d5d6d7d8d9d.d+eaebecedeeefegeheiejekelemeneoepeqereseteuevewexeyezeAeBeCeDeEeFeGeHeIeJeKeLeMeNeOePeQeReSeTeUeVeWeXeYeZe0e1e2e3e4e5e6e7e8e9e.e+fafbfcfdfefffgfhfifjfkflfmfnfofpfqfrfsftfufvfwfxfyfzfAfBfCfDfEfFfGfHfIfJfKfLfMfNfOfPfQfRfSfTfUfVfWfXfYfZf0f1f2f3f4f5f6f7f8f9f.f+gagbgcgdgegfggghgigjgkglgmgngogpgqgrgsgtgugvgwgxgygzgAgBgCgDgEgFgGgHgIgJgKgLgMgNgOgPgQgRgSgTgUgVgWgXgYgZg0g1g2g3g4g5g6g7g8g9g.g+hahbhchdhehfhghhhihjhkhlhmhnhohphqhrhshthuhvhwhxhyhzhAhBhChDhEhFhGhHhIhJhKhLhMhNhOhPhQhRhShThUhVhWhXhYhZh0h1h2h3h4h5h6h7h8h9h.h+",
"aaabacadaeafagahaiajakalamanaoapaqarasatauavawaxayazaAaBaCaDaEaFaGaHaIaJaKaLaMaNaOaPaQaRaSaTaUaVaWaXaYaZa0a1a2a3a4a5a6a7a8a9a.a+babbbcbdbebfbgbhbibjbkblbmbnbobpbqbrbsbtbubvbwbxbybzbAbBbCbDbEbFbGbHbIbJbKbLbMbNbObPbQbRbSbTbUbVbWbXbYbZb0b1b2b3b4b5b6b7b8b9b.b+cacbcccdcecfcgchcicjckclcmcncocpcqcrcsctcucvcwcxcyczcAcBcCcDcEcFcGcHcIcJcKcLcMcNcOcPcQcRcScTcUcVcWcXcYcZc0c1c2c3c4c5c6c7c8c9c.c+dadbdcdddedfdgdhdidjdkdldmdndodpdqdrdsdtdudvdwdxdydzdAdBdCdDdEdFdGdHdIdJdKdLdMdNdOdPdQdRdSdTdUdVdWdXdYdZd0d1d2d3d4d5d6d7d8d9d.d+eaebecedeeefegeheiejekelemeneoepeqereseteuevewexeyezeAeBeCeDeEeFeGeHeIeJeKeLeMeNeOePeQeReSeTeUeVeWeXeYeZe0e1e2e3e4e5e6e7e8e9e.e+fafbfcfdfefffgfhfifjfkflfmfnfofpfqfrfsftfufvfwfxfyfzfAfBfCfDfEfFfGfHfIfJfKfLfMfNfOfPfQfRfSfTfUfVfWfXfYfZf0f1f2f3f4f5f6f7f8f9f.f+gagbgcgdgegfggghgigjgkglgmgngogpgqgrgsgtgugvgwgxgygzgAgBgCgDgEgFgGgHgIgJgKgLgMgNgOgPgQgRgSgTgUgVgWgXgYgZg0g1g2g3g4g5g6g7g8g9g.g+hahbhchdhehfhghhhihjhkhlhmhnhohphqhrhshthuhvhwhxhyhzhAhBhChDhEhFhGhHhIhJhKhLhMhNhOhPhQhRhShThUhVhWhXhYhZh0h1h2h3h4h5h6h7h8h9h.h+",
"aaabacadaeafagahaiajakalamanaoapaqarasatauavawaxayazaAaBaCaDaEaFaGaHaIaJaKaLaMaNaOaPaQaRaSaTaUaVaWaXaYaZa0a1a2a3a4a5a6a7a8a9a.a+babbbcbdbebfbgbhbibjbkblbmbnbobpbqbrbsbtbubvbwbxbybzbAbBbCbDbEbFbGbHbIbJbKbLbMbNbObPbQbRbSbTbUbVbWbXbYbZb0b1b2b3b4b5b6b7b8b9b.b+cacbcccdcecfcgchcicjckclcmcncocpcqcrcsctcucvcwcxcyczcAcBcCcDcEcFcGcHcIcJcKcLcMcNcOcPcQcRcScTcUcVcWcXcYcZc0c1c2c3c4c5c6c7c8c9c.c+dadbdcdddedfdgdhdidjdkdldmdndodpdqdrdsdtdudvdwdxdydzdAdBdCdDdEdFdGdHdIdJdKdLdMdNdOdPdQdRdSdTdUdVdWdXdYdZd0d1d2d3d4d5d6d7d8d9d.d+eaebecedeeefegeheiejekelemeneoepeqereseteuevewexeyezeAeBeCeDeEeFeGeHeIeJeKeLeMeNeOePeQeReSeTeUeVeWeXeYeZe0e1e2e3e4e5e6e7e8e9e.e+fafbfcfdfefffgfhfifjfkflfmfnfofpfqfrfsftfufvfwfxfyfzfAfBfCfDfEfFfGfHfIfJfKfLfMfNfOfPfQfRfSfTfUfVfWfXfYfZf0f1f2f3f4f5f6f7f8f9f.f+gagbgcgdgegfggghgigjgkglgmgngogpgqgrgsgtgugvgwgxgygzgAgBgCgDgEgFgGgHgIgJgKgLgMgNgOgPgQgRgSgTgUgVgWgXgYgZg0g1g2g3g4g5g6g7g8g9g.g+hahbhchdhehfhghhhihjhkhlhmhnhohphqhrhshthuhvhwhxhyhzhAhBhChDhEhFhGhHhIhJhKhLhMhNhOhPhQhRhShThUhVhWhXhYhZh0h1h2h3h4h5h6h7h8h9h.h+",
"aaabacadaeafagahaiajakalamanaoapaqarasatauavawaxayazaAaBaCaDaEaFaGaHaIaJaKaLaMaNaOaPaQaRaSaTaUaVaWaXaYaZa0a1a2a3a4a5a6a7a8a9a.a+babbbcbdbebfbgbhbibjbkblbmbnbobpbqbrbsbtbubvbwbxbybzbAbBbCbDbEbFbGbHbIbJbKbLbMbNbObPbQbRbSbTbUbVbWbXbYbZb0b1b2b3b4b5b6b7b8b9b.b+cacbcccdcecfcgchcicjckclcmcncocpcqcrcsctcucvcwcxcyczcAcBcCcDcEcFcGcHcIcJcKcLcMcNcOcPcQcRcScTcUcVcWcXcYcZc0c1c2c3c4c5c6c7c8c9c.c+dadbdcdddedfdgdhdidjdkdldmdndodpdqdrdsdtdudvdwdxdydzdAdBdCdDdEdFdGdHdIdJdKdLdMdNdOdPdQdRdSdTdUdVdWdXdYdZd0d1d2d3d4d5d6d7d8d9d.d+eaebecedeeefegeheiejekelemeneoepeqereseteuevewexeyezeAeBeCeDeEeFeGeHeIeJeKeLeMeNeOePeQeReSeTeUeVeWeXeYeZe0e1e2e3e4e5e6e7e8e9e.e+fafbfcfdfefffgfhfifjfkflfmfnfofpfqfrfsftfufvfwfxfyfzfAfBfCfDfEfFfGfHfIfJfKfLfMfNfOfPfQfRfSfTfUfVfWfXfYfZf0f1f2f3f4f5f6f7f8f9f.f+gagbgcgdgegfggghgigjgkglgmgngogpgqgrgsgtgugvgwgxgygzgAgBgCgDgEgFgGgHgIgJgKgLgMgNgOgPgQgRgSgTgUgVgWgXgYgZg0g1g2g3g4g5g6g7g8g9g.g+hahbhchdhehfhghhhihjhkhlhmhnhohphqhrhshthuhvhwhxhyhzhAhBhChDhEhFhGhHhIhJhKhLhMhNhOhPhQhRhShThUhVhWhXhYhZh0h1h2h3h4h5h6h7h8h9h.h+",
"aaabacadaeafagahaiajakalamanaoapaqarasatauavawaxayazaAaBaCaDaEaFaGaHaIaJaKaLaMaNaOaPaQaRaSaTaUaVaWaXaYaZa0a1a2a3a4a5a6a7a8a9a.a+babbbcbdbebfbgbhbibjbkblbmbnbobpbqbrbsbtbubvbwbxbybzbAbBbCbDbEbFbGbHbIbJbKbLbMbNbObPbQbRbSbTbUbVbWbXbYbZb0b1b2b3b4b5b6b7b8b9b.b+cacbcccdcecfcgchcicjckclcmcncocpcqcrcsctcucvcwcxcyczcAcBcCcDcEcFcGcHcIcJcKcLcMcNcOcPcQcRcScTcUcVcWcXcYcZc0c1c2c3c4c5c6c7c8c9c.c+dadbdcdddedfdgdhdidjdkdldmdndodpdqdrdsdtdudvdwdxdydzdAdBdCdDdEdFdGdHdIdJdKdLdMdNdOdPdQdRdSdTdUdVdWdXdYdZd0d1d2d3d4d5d6d7d8d9d.d+eaebecedeeefegeheiejekelemeneoepeqereseteuevewexeyezeAeBeCeDeEeFeGeHeIeJeKeLeMeNeOePeQeReSeTeUeVeWeXeYeZe0e1e2e3e4e5e6e7e8e9e.e+fafbfcfdfefffgfhfifjfkflfmfnfofpfqfrfsftfufvfwfxfyfzfAfBfCfDfEfFfGfHfIfJfKfLfMfNfOfPfQfRfSfTfUfVfWfXfYfZf0f1f2f3f4f5f6f7f8f9f.f+gagbgcgdgegfggghgigjgkglgmgngogpgqgrgsgtgugvgwgxgygzgAgBgCgDgEgFgGgHgIgJgKgLgMgNgOgPgQgRgSgTgUgVgWgXgYgZg0g1g2g3g4g5g6g7g8g9g.g+hahbhchdhehfhghhhihjhkhlhmhnhohphqhrhshthuhvhwhxhyhzhAhBhChDhEhFhGhHhIhJhKhLhMhNhOhPhQhRhShThUhVhWhXhYhZh0h1h2h3h4h5h6h7h8h9h.h+",
"aaabacadaeafagahaiajakalamanaoapaqarasatauavawaxayazaAaBaCaDaEaFaGaHaIaJaKaLaMaNaOaPaQaRaSaTaUaVaWaXaYaZa0a1a2a3a4a5a6a7a8a9a.a+babbbcbdbebfbgbhbibjbkblbmbnbobpbqbrbsbtbubvbwbxbybzbAbBbCbDbEbFbGbHbIbJbKbLbMbNbObPbQbRbSbTbUbVbWbXbYbZb0b1b2b3b4b5b6b7b8b9b.b+cacbcccdcecfcgchcicjckclcmcncocpcqcrcsctcucvcwcxcyczcAcBcCcDcEcFcGcHcIcJcKcLcMcNcOcPcQcRcScTcUcVcWcXcYcZc0c1c2c3c4c5c6c7c8c9c.c+dadbdcdddedfdgdhdidjdkdldmdndodpdqdrdsdtdudvdwdxdydzdAdBdCdDdEdFdGdHdIdJdKdLdMdNdOdPdQdRdSdTdUdVdWdXdYdZd0d1d2d3d4d5d6d7d8d9d.d+eaebecedeeefegeheiejekelemeneoepeqereseteuevewexeyezeAeBeCeDeEeFeGeHeIeJeKeLeMeNeOePeQeReSeTeUeVeWeXeYeZe0e1e2e3e4e5e6e7e8e9e.e+fafbfcfdfefffgfhfifjfkflfmfnfofpfqfrfsftfufvfwfxfyfzfAfBfCfDfEfFfGfHfIfJfKfLfMfNfOfPfQfRfSfTfUfVfWfXfYfZf0f1f2f3f4f5f6f7f8f9f.f+gagbgcgdgegfggghgigjgkglgmgngogpgqgrgsgtgugvgwgxgygzgAgBgCgDgEgFgGgHgIgJgKgLgMgNgOgPgQgRgSgTgUgVgWgXgYgZg0g1g2g3g4g5g6g7g8g9g.g+hahbhchdhehfhghhhihjhkhlhmhnhohphqhrhshthuhvhwhxhyhzhAhBhChDhEhFhGhHhIhJhKhLhMhNhOhPhQhRhShThUhVhWhXhYhZh0h1h2h3h4h5h6h7h8h9h.h+",
"aaabacadaeafagahaiajakalamanaoapaqarasatauavawaxayazaAaBaCaDaEaFaGaHaIaJaKaLaMaNaOaPaQaRaSaTaUaVaWaXaYaZa0a1a2a3a4a5a6a7a8a9a.a+babbbcbdbebfbgbhbibjbkblbmbnbobpbqbrbsbtbubvbwbxbybzbAbBbCbDbEbFbGbHbIbJbKbLbMbNbObPbQbRbSbTbUbVbWbXbYbZb0b1b2b3b4b5b6b7b8b9b.b+cacbcccdcecfcgchcicjckclcmcncocpcqcrcsctcucvcwcxcyczcAcBcCcDcEcFcGcHcIcJcKcLcMcNcOcPcQcRcScTcUcVcWcXcYcZc0c1c2c3c4c5c6c7c8c9c.c+dadbdcdddedfdgdhdidjdkdldmdndodpdqdrdsdtdudvdwdxdydzdAdBdCdDdEdFdGdHdIdJdKdLdMdNdOdPdQdRdSdTdUdVdWdXdYdZd0d1d2d3d4d5d6d7d8d9d.d+eaebecedeeefegeheiejekelemeneoepeqereseteuevewexeyezeAeBeCeDeEeFeGeHeIeJeKeLeMeNeOePeQeReSeTeUeVeWeXeYeZe0e1e2e3e4e5e6e7e8e9e.e+fafbfcfdfefffgfhfifjfkflfmfnfofpfqfrfsftfufvfwfxfyfzfAfBfCfDfEfFfGfHfIfJfKfLfMfNfOfPfQfRfSfTfUfVfWfXfYfZf0f1f2f3f4f5f6f7f8f9f.f+gagbgcgdgegfggghgigjgkglgmgngogpgqgrgsgtgugvgwgxgygzgAgBgCgDgEgFgGgHgIgJgKgLgMgNgOgPgQgRgSgTgUgVgWgXgYgZg0g1g2g3g4g5g6g7g8g9g.g+hahbhchdhehfhghhhihjhkhlhmhnhohphqhrhshthuhvhwhxhyhzhAhBhChDhEhFhGhHhIhJhKhLhMhNhOhPhQhRhShThUhVhWhXhYhZh0h1h2h3h4h5h6h7h8h9h.h+",
"aaabacadaeafagahaiajakalamanaoapaqarasatauavawaxayazaAaBaCaDaEaFaGaHaIaJaKaLaMaNaOaPaQaRaSaTaUaVaWaXaYaZa0a1a2a3a4a5a6a7a8a9a.a+babbbcbdbebfbgbhbibjbkblbmbnbobpbqbrbsbtbubvbwbxbybzbAbBbCbDbEbFbGbHbIbJbKbLbMbNbObPbQbRbSbTbUbVbWbXbYbZb0b1b2b3b4b5b6b7b8b9b.b+cacbcccdcecfcgchcicjckclcmcncocpcqcrcsctcucvcwcxcyczcAcBcCcDcEcFcGcHcIcJcKcLcMcNcOcPcQcRcScTcUcVcWcXcYcZc0c1c2c3c4c5c6c7c8c9c.c+dadbdcdddedfdgdhdidjdkdldmdndodpdqdrdsdtdudvdwdxdydzdAdBdCdDdEdFdGdHdIdJdKdLdMdNdOdPdQdRdSdTdUdVdWdXdYdZd0d1d2d3d4d5d6d7d8d9d.d+eaebecedeeefegeheiejekelemeneoepeqereseteuevewexeyezeAeBeCeDeEeFeGeHeIeJeKeLeMeNeOePeQeReSeTeUeVeWeXeYeZe0e1e2e3e4e5e6e7e8e9e.e+fafbfcfdfefffgfhfifjfkflfmfnfofpfqfrfsftfufvfwfxfyfzfAfBfCfDfEfFfGfHfIfJfKfLfMfNfOfPfQfRfSfTfUfVfWfXfYfZf0f1f2f3f4f5f6f7f8f9f.f+gagbgcgdgegfggghgigjgkglgmgngogpgqgrgsgtgugvgwgxgygzgAgBgCgDgEgFgGgHgIgJgKgLgMgNgOgPgQgRgSgTgUgVgWgXgYgZg0g1g2g3g4g5g6g7g8g9g.g+hahbhchdhehfhghhhihjhkhlhmhnhohphqhrhshthuhvhwhxhyhzhAhBhChDhEhFhGhHhIhJhKhLhMhNhOhPhQhRhShThUhVhWhXhYhZh0h1h2h3h4h5h6h7h8h9h.h+",
"aaabacadaeafagahaiajakalamanaoapaqarasatauavawaxayazaAaBaCaDaEaFaGaHaIaJaKaLaMaNaOaPaQaRaSaTaUaVaWaXaYaZa0a1a2a3a4a5a6a7a8a9a.a+babbbcbdbebfbgbhbibjbkblbmbnbobpbqbrbsbtbubvbwbxbybzbAbBbCbDbEbFbGbHbIbJbKbLbMbNbObPbQbRbSbTbUbVbWbXbYbZb0b1b2b3b4b5b6b7b8b9b.b+cacbcccdcecfcgchcicjckclcmcncocpcqcrcsctcucvcwcxcyczcAcBcCcDcEcFcGcHcIcJcKcLcMcNcOcPcQcRcScTcUcVcWcXcYcZc0c1c2c3c4c5c6c7c8c9c.c+dadbdcdddedfdgdhdidjdkdldmdndodpdqdrdsdtdudvdwdxdydzdAdBdCdDdEdFdGdHdIdJdKdLdMdNdOdPdQdRdSdTdUdVdWdXdYdZd0d1d2d3d4d5d6d7d8d9d.d+eaebecedeeefegeheiejekelemeneoepeqereseteuevewexeyezeAeBeCeDeEeFeGeHeIeJeKeLeMeNeOePeQeReSeTeUeVeWeXeYeZe0e1e2e3e4e5e6e7e8e9e.e+fafbfcfdfefffgfhfifjfkflfmfnfofpfqfrfsftfufvfwfxfyfzfAfBfCfDfEfFfGfHfIfJfKfLfMfNfOfPfQfRfSfTfUfVfWfXfYfZf0f1f2f3f4f5f6f7f8f9f.f+gagbgcgdgegfggghgigjgkglgmgngogpgqgrgsgtgugvgwgxgygzgAgBgCgDgEgFgGgHgIgJgKgLgMgNgOgPgQgRgSgTgUgVgWgXgYgZg0g1g2g3g4g5g6g7g8g9g.g+hahbhchdhehfhghhhihjhkhlhmhnhohphqhrhshthuhvhwhxhyhzhAhBhChDhEhFhGhHhIhJhKhLhMhNhOhPhQhRhShThUhVhWhXhYhZh0h1h2h3h4h5h6h7h8h9h.h+",
"aaabacadaeafagahaiajakalamanaoapaqarasatauavawaxayazaAaBaCaDaEaFaGaHaIaJaKaLaMaNaOaPaQaRaSaTaUaVaWaXaYaZa0a1a2a3a4a5a6a7a8a9a.a+babbbcbdbebfbgbhbibjbkblbmbnbobpbqbrbsbtbubvbwbxbybzbAbBbCbDbEbFbGbHbIbJbKbLbMbNbObPbQbRbSbTbUbVbWbXbYbZb0b1b2b3b4b5b6b7b8b9b.b+cacbcccdcecfcgchcicjckclcmcncocpcqcrcsctcucvcwcxcyczcAcBcCcDcEcFcGcHcIcJcKcLcMcNcOcPcQcRcScTcUcVcWcXcYcZc0c1c2c3c4c5c6c7c8c9c.c+dadbdcdddedfdgdhdidjdkdldmdndodpdqdrdsdtdudvdwdxdydzdAdBdCdDdEdFdGdHdIdJdKdLdMdNdOdPdQdRdSdTdUdVdWdXdYdZd0d1d2d3d4d5d6d7d8d9d.d+eaebecedeeefegeheiejekelemeneoepeqereseteuevewexeyezeAeBeCeDeEeFeGeHeIeJeKeLeMeNeOePeQeReSeTeUeVeWeXeYeZe0e1e2e3e4e5e6e7e8e9e.e+fafbfcfdfefffgfhfifjfkflfmfnfofpfqfrfsftfufvfwfxfyfzfAfBfCfDfEfFfGfHfIfJfKfLfMfNfOfPfQfRfSfTfUfVfWfXfYfZf0f1f2f3f4f5f6f7f8f9f.f+gagbgcgdgegfggghgigjgkglgmgngogpgqgrgsgtgugvgwgxgygzgAgBgCgDgEgFgGgHgIgJgKgLgMgNgOgPgQgRgSgTgUgVgWgXgYgZg0g1g2g3g4g5g6g7g8g9g.g+hahbhchdhehfhghhhihjhkhlhmhnhohphqhrhshthuhvhwhxhyhzhAhBhChDhEhFhGhHhIhJhKhLhMhNhOhPhQhRhShThUhVhWhXhYhZh0h1h2h3h4h5h6h7h8h9h.h+",
"aaabacadaeafagahaiajakalamanaoapaqarasatauavawaxayazaAaBaCaDaEaFaGaHaIaJaKaLaMaNaOaPaQaRaSaTaUaVaWaXaYaZa0a1a2a3a4a5a6a7a8a9a.a+babbbcbdbebfbgbhbibjbkblbmbnbobpbqbrbsbtbubvbwbxbybzbAbBbCbDbEbFbGbHbIbJbKbLbMbNbObPbQbRbSbTbUbVbWbXbYbZb0b1b2b3b4b5b6b7b8b9b.b+cacbcccdcecfcgchcicjckclcmcncocpcqcrcsctcucvcwcxcyczcAcBcCcDcEcFcGcHcIcJcKcLcMcNcOcPcQcRcScTcUcVcWcXcYcZc0c1c2c3c4c5c6c7c8c9c.c+dadbdcdddedfdgdhdidjdkdldmdndodpdqdrdsdtdudvdwdxdydzdAdBdCdDdEdFdGdHdIdJdKdLdMdNdOdPdQdRdSdTdUdVdWdXdYdZd0d1d2d3d4d5d6d7d8d9d.d+eaebecedeeefegeheiejekelemeneoepeqereseteuevewexeyezeAeBeCeDeEeFeGeHeIeJeKeLeMeNeOePeQeReSeTeUeVeWeXeYeZe0e1e2e3e4e5e6e7e8e9e.e+fafbfcfdfefffgfhfifjfkflfmfnfofpfqfrfsftfufvfwfxfyfzfAfBfCfDfEfFfGfHfIfJfKfLfMfNfOfPfQfRfSfTfUfVfWfXfYfZf0f1f2f3f4f5f6f7f8f9f.f+gagbgcgdgegfggghgigjgkglgmgngogpgqgrgsgtgugvgwgxgygzgAgBgCgDgEgFgGgHgIgJgKgLgMgNgOgPgQgRgSgTgUgVgWgXgYgZg0g1g2g3g4g5g6g7g8g9g.g+hahbhchdhehfhghhhihjhkhlhmhnhohphqhrhshthuhvhwhxhyhzhAhBhChDhEhFhGhHhIhJhKhLhMhNhOhPhQhRhShThUhVhWhXhYhZh0h1h2h3h4h5h6h7h8h9h.h+",
"aaabacadaeafagahaiajakalamanaoapaqarasatauavawaxayazaAaBaCaDaEaFaGaHaIaJaKaLaMaNaOaPaQaRaSaTaUaVaWaXaYaZa0a1a2a3a4a5a6a7a8a9a.a+babbbcbdbebfbgbhbibjbkblbmbnbobpbqbrbsbtbubvbwbxbybzbAbBbCbDbEbFbGbHbIbJbKbLbMbNbObPbQbRbSbTbUbVbWbXbYbZb0b1b2b3b4b5b6b7b8b9b.b+cacbcccdcecfcgchcicjckclcmcncocpcqcrcsctcucvcwcxcyczcAcBcCcDcEcFcGcHcIcJcKcLcMcNcOcPcQcRcScTcUcVcWcXcYcZc0c1c2c3c4c5c6c7c8c9c.c+dadbdcdddedfdgdhdidjdkdldmdndodpdqdrdsdtdudvdwdxdydzdAdBdCdDdEdFdGdHdIdJdKdLdMdNdOdPdQdRdSdTdUdVdWdXdYdZd0d1d2d3d4d5d6d7d8d9d.d+eaebecedeeefegeheiejekelemeneoepeqereseteuevewexeyezeAeBeCeDeEeFeGeHeIeJeKeLeMeNeOePeQeReSeTeUeVeWeXeYeZe0e1e2e3e4e5e6e7e8e9e.e+fafbfcfdfefffgfhfifjfkflfmfnfofpfqfrfsftfufvfwfxfyfzfAfBfCfDfEfFfGfHfIfJfKfLfMfNfOfPfQfRfSfTfUfVfWfXfYfZf0f1f2f3f4f5f6f7f8f9f.f+gagbgcgdgegfggghgigjgkglgmgngogpgqgrgsgtgugvgwgxgygzgAgBgCgDgEgFgGgHgIgJgKgLgMgNgOgPgQgRgSgTgUgVgWgXgYgZg0g1g2g3g4g5g6g7g8g9g.g+hahbhchdhehfhghhhihjhkhlhmhnhohphqhrhshthuhvhwhxhyhzhAhBhChDhEhFhGhHhIhJhKhLhMhNhOhPhQhRhShThUhVhWhXhYhZh0h1h2h3h4h5h6h7h8h9h.h+",
"aaabacadaeafagahaiajakalamanaoapaqarasatauavawaxayazaAaBaCaDaEaFaGaHaIaJaKaLaMaNaOaPaQaRaSaTaUaVaWaXaYaZa0a1a2a3a4a5a6a7a8a9a.a+babbbcbdbebfbgbhbibjbkblbmbnbobpbqbrbsbtbubvbwbxbybzbAbBbCbDbEbFbGbHbIbJbKbLbMbNbObPbQbRbSbTbUbVbWbXbYbZb0b1b2b3b4b5b6b7b8b9b.b+cacbcccdcecfcgchcicjckclcmcncocpcqcrcsctcucvcwcxcyczcAcBcCcDcEcFcGcHcIcJcKcLcMcNcOcPcQcRcScTcUcVcWcXcYcZc0c1c2c3c4c5c6c7c8c9c.c+dadbdcdddedfdgdhdidjdkdldmdndodpdqdrdsdtdudvdwdxdydzdAdBdCdDdEdFdGdHdIdJdKdLdMdNdOdPdQdRdSdTdUdVdWdXdYdZd0d1d2d3d4d5d6d7d8d9d.d+eaebecedeeefegeheiejekelemeneoepeqereseteuevewexeyezeAeBeCeDeEeFeGeHeIeJeKeLeMeNeOePeQeReSeTeUeVeWeXeYeZe0e1e2e3e4e5e6e7e8e9e.e+fafbfcfdfefffgfhfifjfkflfmfnfofpfqfrfsftfufvfwfxfyfzfAfBfCfDfEfFfGfHfIfJfKfLfMfNfOfPfQfRfSfTfUfVfWfXfYfZf0f1f2f3f4f5f6f7f8f9f.f+gagbgcgdgegfggghgigjgkglgmgngogpgqgrgsgtgugvgwgxgygzgAgBgCgDgEgFgGgHgIgJgKgLgMgNgOgPgQgRgSgTgUgVgWgXgYgZg0g1g2g3g4g5g6g7g8g9g.g+hahbhchdhehfhghhhihjhkhlhmhnhohphqhrhshthuhvhwhxhyhzhAhBhChDhEhFhGhHhIhJhKhLhMhNhOhPhQhRhShThUhVhWhXhYhZh0h1h2h3h4h5h6h7h8h9h.h+",
"aaabacadaeafagahaiajakalamanaoapaqarasatauavawaxayazaAaBaCaDaEaFaGaHaIaJaKaLaMaNaOaPaQaRaSaTaUaVaWaXaYaZa0a1a2a3a4a5a6a7a8a9a.a+babbbcbdbebfbgbhbibjbkblbmbnbobpbqbrbsbtbubvbwbxbybzbAbBbCbDbEbFbGbHbIbJbKbLbMbNbObPbQbRbSbTbUbVbWbXbYbZb0b1b2b3b4b5b6b7b8b9b.b+cacbcccdcecfcgchcicjckclcmcncocpcqcrcsctcucvcwcxcyczcAcBcCcDcEcFcGcHcIcJcKcLcMcNcOcPcQcRcScTcUcVcWcXcYcZc0c1c2c3c4c5c6c7c8c9c.c+dadbdcdddedfdgdhdidjdkdldmdndodpdqdrdsdtdudvdwdxdydzdAdBdCdDdEdFdGdHdIdJdKdLdMdNdOdPdQdRdSdTdUdVdWdXdYdZd0d1d2d3d4d5d6d7d8d9d.d+eaebecedeeefegeheiejekelemeneoepeqereseteuevewexeyezeAeBeCeDeEeFeGeHeIeJeKeLeMeNeOePeQeReSeTeUeVeWeXeYeZe0e1e2e3e4e5e6e7e8e9e.e+fafbfcfdfefffgfhfifjfkflfmfnfofpfqfrfsftfufvfwfxfyfzfAfBfCfDfEfFfGfHfIfJfKfLfMfNfOfPfQfRfSfTfUfVfWfXfYfZf0f1f2f3f4f5f6f7f8f9f.f+gagbgcgdgegfggghgigjgkglgmgngogpgqgrgsgtgugvgwgxgygzgAgBgCgDgEgFgGgHgIgJgKgLgMgNgOgPgQgRgSgTgUgVgWgXgYgZg0g1g2g3g4g5g6g7g8g9g.g+hahbhchdhehfhghhhihjhkhlhmhnhohphqhrhshthuhvhwhxhyhzhAhBhChDhEhFhGhHhIhJhKhLhMhNhOhPhQhRhShThUhVhWhXhYhZh0h1h2h3h4h5h6h7h8h9h.h+",
"aaabacadaeafagahaiajakalamanaoapaqarasatauavawaxayazaAaBaCaDaEaFaGaHaIaJaKaLaMaNaOaPaQaRaSaTaUaVaWaXaYaZa0a1a2a3a4a5a6a7a8a9a.a+babbbcbdbebfbgbhbibjbkblbmbnbobpbqbrbsbtbubvbwbxbybzbAbBbCbDbEbFbGbHbIbJbKbLbMbNbObPbQbRbSbTbUbVbWbXbYbZb0b1b2b3b4b5b6b7b8b9b.b+cacbcccdcecfcgchcicjckclcmcncocpcqcrcsctcucvcwcxcyczcAcBcCcDcEcFcGcHcIcJcKcLcMcNcOcPcQcRcScTcUcVcWcXcYcZc0c1c2c3c4c5c6c7c8c9c.c+dadbdcdddedfdgdhdidjdkdldmdndodpdqdrdsdtdudvdwdxdydzdAdBdCdDdEdFdGdHdIdJdKdLdMdNdOdPdQdRdSdTdUdVdWdXdYdZd0d1d2d3d4d5d6d7d8d9d.d+eaebecedeeefegeheiejekelemeneoepeqereseteuevewexeyezeAeBeCeDeEeFeGeHeIeJeKeLeMeNeOePeQeReSeTeUeVeWeXeYeZe0e1e2e3e4e5e6e7e8e9e.e+fafbfcfdfefffgfhfifjfkflfmfnfofpfqfrfsftfufvfwfxfyfzfAfBfCfDfEfFfGfHfIfJfKfLfMfNfOfPfQfRfSfTfUfVfWfXfYfZf0f1f2f3f4f5f6f7f8f9f.f+gagbgcgdgegfggghgigjgkglgmgngogpgqgrgsgtgugvgwgxgygzgAgBgCgDgEgFgGgHgIgJgKgLgMgNgOgPgQgRgSgTgUgVgWgXgYgZg0g1g2g3g4g5g6g7g8g9g.g+hahbhchdhehfhghhhihjhkhlhmhnhohphqhrhshthuhvhwhxhyhzhAhBhChDhEhFhGhHhIhJhKhLhMhNhOhPhQhRhShThUhVhWhXhYhZh0h1h2h3h4h5h6h7h8h9h.h+",
"aaabacadaeafagahaiajakalamanaoapaqarasatauavawaxayazaAaBaCaDaEaFaGaHaIaJaKaLaMaNaOaPaQaRaSaTaUaVaWaXaYaZa0a1a2a3a4a5a6a7a8a9a.a+babbbcbdbebfbgbhbibjbkblbmbnbobpbqbrbsbtbubvbwbxbybzbAbBbCbDbEbFbGbHbIbJbKbLbMbNbObPbQbRbSbTbUbVbWbXbYbZb0b1b2b3b4b5b6b7b8b9b.b+cacbcccdcecfcgchcicjckclcmcncocpcqcrcsctcucvcwcxcyczcAcBcCcDcEcFcGcHcIcJcKcLcMcNcOcPcQcRcScTcUcVcWcXcYcZc0c1c2c3c4c5c6c7c8c9c.c+dadbdcdddedfdgdhdidjdkdldmdndodpdqdrdsdtdudvdwdxdydzdAdBdCdDdEdFdGdHdIdJdKdLdMdNdOdPdQdRdSdTdUdVdWdXdYdZd0d1d2d3d4d5d6d7d8d9d.d+eaebecedeeefegeheiejekelemeneoepeqereseteuevewexeyezeAeBeCeDeEeFeGeHeIeJeKeLeMeNeOePeQeReSeTeUeVeWeXeYeZe0e1e2e3e4e5e6e7e8e9e.e+fafbfcfdfefffgfhfifjfkflfmfnfofpfqfrfsftfufvfwfxfyfzfAfBfCfDfEfFfGfHfIfJfKfLfMfNfOfPfQfRfSfTfUfVfWfXfYfZf0f1f2f3f4f5f6f7f8f9f.f+gagbgcgdgegfggghgigjgkglgmgngogpgqgrgsgtgugvgwgxgygzgAgBgCgDgEgFgGgHgIgJgKgLgMgNgOgPgQgRgSgTgUgVgWgXgYgZg0g1g2g3g4g5g6g7g8g9g.g+hahbhchdhehfhghhhihjhkhlhmhnhohphqhrhshthuhvhwhxhyhzhAhBhChDhEhFhGhHhIhJhKhLhMhNhOhPhQhRhShThUhVhWhXhYhZh0h1h2h3h4h5h6h7h8h9h.h+",
"aaabacadaeafagahaiajakalamanaoapaqarasatauavawaxayazaAaBaCaDaEaFaGaHaIaJaKaLaMaNaOaPaQaRaSaTaUaVaWaXaYaZa0a1a2a3a4a5a6a7a8a9a.a+babbbcbdbebfbgbhbibjbkblbmbnbobpbqbrbsbtbubvbwbxbybzbAbBbCbDbEbFbGbHbIbJbKbLbMbNbObPbQbRbSbTbUbVbWbXbYbZb0b1b2b3b4b5b6b7b8b9b.b+cacbcccdcecfcgchcicjckclcmcncocpcqcrcsctcucvcwcxcyczcAcBcCcDcEcFcGcHcIcJcKcLcMcNcOcPcQcRcScTcUcVcWcXcYcZc0c1c2c3c4c5c6c7c8c9c.c+dadbdcdddedfdgdhdidjdkdldmdndodpdqdrdsdtdudvdwdxdydzdAdBdCdDdEdFdGdHdIdJdKdLdMdNdOdPdQdRdSdTdUdVdWdXdYdZd0d1d2d3d4d5d6d7d8d9d.d+eaebecedeeefegeheiejekelemeneoepeqereseteuevewexeyezeAeBeCeDeEeFeGeHeIeJeKeLeMeNeOePeQeReSeTeUeVeWeXeYeZe0e1e2e3e4e5e6e7e8e9e.e+fafbfcfdfefffgfhfifjfkflfmfnfofpfqfrfsftfufvfwfxfyfzfAfBfCfDfEfFfGfHfIfJfKfLfMfNfOfPfQfRfSfTfUfVfWfXfYfZf0f1f2f3f4f5f6f7f8f9f.f+gagbgcgdgegfggghgigjgkglgmgngogpgqgrgsgtgugvgwgxgygzgAgBgCgDgEgFgGgHgIgJgKgLgMgNgOgPgQgRgSgTgUgVgWgXgYgZg0g1g2g3g4g5g6g7g8g9g.g+hahbhchdhehfhghhhihjhkhlhmhnhohphqhrhshthuhvhwhxhyhzhAhBhChDhEhFhGhHhIhJhKhLhMhNhOhPhQhRhShThUhVhWhXhYhZh0h1h2h3h4h5h6h7h8h9h.h+",
"aaabacadaeafagahaiajakalamanaoapaqarasatauavawaxayazaAaBaCaDaEaFaGaHaIaJaKaLaMaNaOaPaQaRaSaTaUaVaWaXaYaZa0a1a2a3a4a5a6a7a8a9a.a+babbbcbdbebfbgbhbibjbkblbmbnbobpbqbrbsbtbubvbwbxbybzbAbBbCbDbEbFbGbHbIbJbKbLbMbNbObPbQbRbSbTbUbVbWbXbYbZb0b1b2b3b4b5b6b7b8b9b.b+cacbcccdcecfcgchcicjckclcmcncocpcqcrcsctcucvcwcxcyczcAcBcCcDcEcFcGcHcIcJcKcLcMcNcOcPcQcRcScTcUcVcWcXcYcZc0c1c2c3c4c5c6c7c8c9c.c+dadbdcdddedfdgdhdidjdkdldmdndodpdqdrdsdtdudvdwdxdydzdAdBdCdDdEdFdGdHdIdJdKdLdMdNdOdPdQdRdSdTdUdVdWdXdYdZd0d1d2d3d4d5d6d7d8d9d.d+eaebecedeeefegeheiejekelemeneoepeqereseteuevewexeyezeAeBeCeDeEeFeGeHeIeJeKeLeMeNeOePeQeReSeTeUeVeWeXeYeZe0e1e2e3e4e5e6e7e8e9e.e+fafbfcfdfefffgfhfifjfkflfmfnfofpfqfrfsftfufvfwfxfyfzfAfBfCfDfEfFfGfHfIfJfKfLfMfNfOfPfQfRfSfTfUfVfWfXfYfZf0f1f2f3f4f5f6f7f8f9f.f+gagbgcgdgegfggghgigjgkglgmgngogpgqgrgsgtgugvgwgxgygzgAgBgCgDgEgFgGgHgIgJgKgLgMgNgOgPgQgRgSgTgUgVgWgXgYgZg0g1g2g3g4g5g6g7g8g9g.g+hahbhchdhehfhghhhihjhkhlhmhnhohphqhrhshthuhvhwhxhyhzhAhBhChDhEhFhGhHhIhJhKhLhMhNhOhPhQhRhShThUhVhWhXhYhZh0h1h2h3h4h5h6h7h8h9h.h+",
"aaabacadaeafagahaiajakalamanaoapaqarasatauavawaxayazaAaBaCaDaEaFaGaHaIaJaKaLaMaNaOaPaQaRaSaTaUaVaWaXaYaZa0a1a2a3a4a5a6a7a8a9a.a+babbbcbdbebfbgbhbibjbkblbmbnbobpbqbrbsbtbubvbwbxbybzbAbBbCbDbEbFbGbHbIbJbKbLbMbNbObPbQbRbSbTbUbVbWbXbYbZb0b1b2b3b4b5b6b7b8b9b.b+cacbcccdcecfcgchcicjckclcmcncocpcqcrcsctcucvcwcxcyczcAcBcCcDcEcFcGcHcIcJcKcLcMcNcOcPcQcRcScTcUcVcWcXcYcZc0c1c2c3c4c5c6c7c8c9c.c+dadbdcdddedfdgdhdidjdkdldmdndodpdqdrdsdtdudvdwdxdydzdAdBdCdDdEdFdGdHdIdJdKdLdMdNdOdPdQdRdSdTdUdVdWdXdYdZd0d1d2d3d4d5d6d7d8d9d.d+eaebecedeeefegeheiejekelemeneoepeqereseteuevewexeyezeAeBeCeDeEeFeGeHeIeJeKeLeMeNeOePeQeReSeTeUeVeWeXeYeZe0e1e2e3e4e5e6e7e8e9e.e+fafbfcfdfefffgfhfifjfkflfmfnfofpfqfrfsftfufvfwfxfyfzfAfBfCfDfEfFfGfHfIfJfKfLfMfNfOfPfQfRfSfTfUfVfWfXfYfZf0f1f2f3f4f5f6f7f8f9f.f+gagbgcgdgegfggghgigjgkglgmgngogpgqgrgsgtgugvgwgxgygzgAgBgCgDgEgFgGgHgIgJgKgLgMgNgOgPgQgRgSgTgUgVgWgXgYgZg0g1g2g3g4g5g6g7g8g9g.g+hahbhchdhehfhghhhihjhkhlhmhnhohphqhrhshthuhvhwhxhyhzhAhBhChDhEhFhGhHhIhJhKhLhMhNhOhPhQhRhShThUhVhWhXhYhZh0h1h2h3h4h5h6h7h8h9h.h+",
"aaabacadaeafagahaiajakalamanaoapaqarasatauavawaxayazaAaBaCaDaEaFaGaHaIaJaKaLaMaNaOaPaQaRaSaTaUaVaWaXaYaZa0a1a2a3a4a5a6a7a8a9a.a+babbbcbdbebfbgbhbibjbkblbmbnbobpbqbrbsbtbubvbwbxbybzbAbBbCbDbEbFbGbHbIbJbKbLbMbNbObPbQbRbSbTbUbVbWbXbYbZb0b1b2b3b4b5b6b7b8b9b.b+cacbcccdcecfcgchcicjckclcmcncocpcqcrcsctcucvcwcxcyczcAcBcCcDcEcFcGcHcIcJcKcLcMcNcOcPcQcRcScTcUcVcWcXcYcZc0c1c2c3c4c5c6c7c8c9c.c+dadbdcdddedfdgdhdidjdkdldmdndodpdqdrdsdtdudvdwdxdydzdAdBdCdDdEdFdGdHdIdJdKdLdMdNdOdPdQdRdSdTdUdVdWdXdYdZd0d1d2d3d4d5d6d7d8d9d.d+eaebecedeeefegeheiejekelemeneoepeqereseteuevewexeyezeAeBeCeDeEeFeGeHeIeJeKeLeMeNeOePeQeReSeTeUeVeWeXeYeZe0e1e2e3e4e5e6e7e8e9e.e+fafbfcfdfefffgfhfifjfkflfmfnfofpfqfrfsftfufvfwfxfyfzfAfBfCfDfEfFfGfHfIfJfKfLfMfNfOfPfQfRfSfTfUfVfWfXfYfZf0f1f2f3f4f5f6f7f8f9f.f+gagbgcgdgegfggghgigjgkglgmgngogpgqgrgsgtgugvgwgxgygzgAgBgCgDgEgFgGgHgIgJgKgLgMgNgOgPgQgRgSgTgUgVgWgXgYgZg0g1g2g3g4g5g6g7g8g9g.g+hahbhchdhehfhghhhihjhkhlhmhnhohphqhrhshthuhvhwhxhyhzhAhBhChDhEhFhGhHhIhJhKhLhMhNhOhPhQhRhShThUhVhWhXhYhZh0h1h2h3h4h5h6h7h8h9h.h+",
"aaabacadaeafagahaiajakalamanaoapaqarasatauavawaxayazaAaBaCaDaEaFaGaHaIaJaKaLaMaNaOaPaQaRaSaTaUaVaWaXaYaZa0a1a2a3a4a5a6a7a8a9a.a+babbbcbdbebfbgbhbibjbkblbmbnbobpbqbrbsbtbubvbwbxbybzbAbBbCbDbEbFbGbHbIbJbKbLbMbNbObPbQbRbSbTbUbVbWbXbYbZb0b1b2b3b4b5b6b7b8b9b.b+cacbcccdcecfcgchcicjckclcmcncocpcqcrcsctcucvcwcxcyczcAcBcCcDcEcFcGcHcIcJcKcLcMcNcOcPcQcRcScTcUcVcWcXcYcZc0c1c2c3c4c5c6c7c8c9c.c+dadbdcdddedfdgdhdidjdkdldmdndodpdqdrdsdtdudvdwdxdydzdAdBdCdDdEdFdGdHdIdJdKdLdMdNdOdPdQdRdSdTdUdVdWdXdYdZd0d1d2d3d4d5d6d7d8d9d.d+eaebecedeeefegeheiejekelemeneoepeqereseteuevewexeyezeAeBeCeDeEeFeGeHeIeJeKeLeMeNeOePeQeReSeTeUeVeWeXeYeZe0e1e2e3e4e5e6e7e8e9e.e+fafbfcfdfefffgfhfifjfkflfmfnfofpfqfrfsftfufvfwfxfyfzfAfBfCfDfEfFfGfHfIfJfKfLfMfNfOfPfQfRfSfTfUfVfWfXfYfZf0f1f2f3f4f5f6f7f8f9f.f+gagbgcgdgegfggghgigjgkglgmgngogpgqgrgsgtgugvgwgxgygzgAgBgCgDgEgFgGgHgIgJgKgLgMgNgOgPgQgRgSgTgUgVgWgXgYgZg0g1g2g3g4g5g6g7g8g9g.g+hahbhchdhehfhghhhihjhkhlhmhnhohphqhrhshthuhvhwhxhyhzhAhBhChDhEhFhGhHhIhJhKhLhMhNhOhPhQhRhShThUhVhWhXhYhZh0h1h2h3h4h5h6h7h8h9h.h+",
"aaabacadaeafagahaiajakalamanaoapaqarasatauavawaxayazaAaBaCaDaEaFaGaHaIaJaKaLaMaNaOaPaQaRaSaTaUaVaWaXaYaZa0a1a2a3a4a5a6a7a8a9a.a+babbbcbdbebfbgbhbibjbkblbmbnbobpbqbrbsbtbubvbwbxbybzbAbBbCbDbEbFbGbHbIbJbKbLbMbNbObPbQbRbSbTbUbVbWbXbYbZb0b1b2b3b4b5b6b7b8b9b.b+cacbcccdcecfcgchcicjckclcmcncocpcqcrcsctcucvcwcxcyczcAcBcCcDcEcFcGcHcIcJcKcLcMcNcOcPcQcRcScTcUcVcWcXcYcZc0c1c2c3c4c5c6c7c8c9c.c+dadbdcdddedfdgdhdidjdkdldmdndodpdqdrdsdtdudvdwdxdydzdAdBdCdDdEdFdGdHdIdJdKdLdMdNdOdPdQdRdSdTdUdVdWdXdYdZd0d1d2d3d4d5d6d7d8d9d.d+eaebecedeeefegeheiejekelemeneoepeqereseteuevewexeyezeAeBeCeDeEeFeGeHeIeJeKeLeMeNeOePeQeReSeTeUeVeWeXeYeZe0e1e2e3e4e5e6e7e8e9e.e+fafbfcfdfefffgfhfifjfkflfmfnfofpfqfrfsftfufvfwfxfyfzfAfBfCfDfEfFfGfHfIfJfKfLfMfNfOfPfQfRfSfTfUfVfWfXfYfZf0f1f2f3f4f5f6f7f8f9f.f+gagbgcgdgegfggghgigjgkglgmgngogpgqgrgsgtgugvgwgxgygzgAgBgCgDgEgFgGgHgIgJgKgLgMgNgOgPgQgRgSgTgUgVgWgXgYgZg0g1g2g3g4g5g6g7g8g9g.g+hahbhchdhehfhghhhihjhkhlhmhnhohphqhrhshthuhvhwhxhyhzhAhBhChDhEhFhGhHhIhJhKhLhMhNhOhPhQhRhShThUhVhWhXhYhZh0h1h2h3h4h5h6h7h8h9h.h+",
"aaabacadaeafagahaiajakalamanaoapaqarasatauavawaxayazaAaBaCaDaEaFaGaHaIaJaKaLaMaNaOaPaQaRaSaTaUaVaWaXaYaZa0a1a2a3a4a5a6a7a8a9a.a+babbbcbdbebfbgbhbibjbkblbmbnbobpbqbrbsbtbubvbwbxbybzbAbBbCbDbEbFbGbHbIbJbKbLbMbNbObPbQbRbSbTbUbVbWbXbYbZb0b1b2b3b4b5b6b7b8b9b.b+cacbcccdcecfcgchcicjckclcmcncocpcqcrcsctcucvcwcxcyczcAcBcCcDcEcFcGcHcIcJcKcLcMcNcOcPcQcRcScTcUcVcWcXcYcZc0c1c2c3c4c5c6c7c8c9c.c+dadbdcdddedfdgdhdidjdkdldmdndodpdqdrdsdtdudvdwdxdydzdAdBdCdDdEdFdGdHdIdJdKdLdMdNdOdPdQdRdSdTdUdVdWdXdYdZd0d1d2d3d4d5d6d7d8d9d.d+eaebecedeeefegeheiejekelemeneoepeqereseteuevewexeyezeAeBeCeDeEeFeGeHeIeJeKeLeMeNeOePeQeReSeTeUeVeWeXeYeZe0e1e2e3e4e5e6e7e8e9e.e+fafbfcfdfefffgfhfifjfkflfmfnfofpfqfrfsftfufvfwfxfyfzfAfBfCfDfEfFfGfHfIfJfKfLfMfNfOfPfQfRfSfTfUfVfWfXfYfZf0f1f2f3f4f5f6f7f8f9f.f+gagbgcgdgegfggghgigjgkglgmgngogpgqgrgsgtgugvgwgxgygzgAgBgCgDgEgFgGgHgIgJgKgLgMgNgOgPgQgRgSgTgUgVgWgXgYgZg0g1g2g3g4g5g6g7g8g9g.g+hahbhchdhehfhghhhihjhkhlhmhnhohphqhrhshthuhvhwhxhyhzhAhBhChDhEhFhGhHhIhJhKhLhMhNhOhPhQhRhShThUhVhWhXhYhZh0h1h2h3h4h5h6h7h8h9h.h+",
"aaabacadaeafagahaiajakalamanaoapaqarasatauavawaxayazaAaBaCaDaEaFaGaHaIaJaKaLaMaNaOaPaQaRaSaTaUaVaWaXaYaZa0a1a2a3a4a5a6a7a8a9a.a+babbbcbdbebfbgbhbibjbkblbmbnbobpbqbrbsbtbubvbwbxbybzbAbBbCbDbEbFbGbHbIbJbKbLbMbNbObPbQbRbSbTbUbVbWbXbYbZb0b1b2b3b4b5b6b7b8b9b.b+cacbcccdcecfcgchcicjckclcmcncocpcqcrcsctcucvcwcxcyczcAcBcCcDcEcFcGcHcIcJcKcLcMcNcOcPcQcRcScTcUcVcWcXcYcZc0c1c2c3c4c5c6c7c8c9c.c+dadbdcdddedfdgdhdidjdkdldmdndodpdqdrdsdtdudvdwdxdydzdAdBdCdDdEdFdGdHdIdJdKdLdMdNdOdPdQdRdSdTdUdVdWdXdYdZd0d1d2d3d4d5d6d7d8d9d.d+eaebecedeeefegeheiejekelemeneoepeqereseteuevewexeyezeAeBeCeDeEeFeGeHeIeJeKeLeMeNeOePeQeReSeTeUeVeWeXeYeZe0e1e2e3e4e5e6e7e8e9e.e+fafbfcfdfefffgfhfifjfkflfmfnfofpfqfrfsftfufvfwfxfyfzfAfBfCfDfEfFfGfHfIfJfKfLfMfNfOfPfQfRfSfTfUfVfWfXfYfZf0f1f2f3f4f5f6f7f8f9f.f+gagbgcgdgegfggghgigjgkglgmgngogpgqgrgsgtgugvgwgxgygzgAgBgCgDgEgFgGgHgIgJgKgLgMgNgOgPgQgRgSgTgUgVgWgXgYgZg0g1g2g3g4g5g6g7g8g9g.g+hahbhchdhehfhghhhihjhkhlhmhnhohphqhrhshthuhvhwhxhyhzhAhBhChDhEhFhGhHhIhJhKhLhMhNhOhPhQhRhShThUhVhWhXhYhZh0h1h2h3h4h5h6h7h8h9h.h+",
"aaabacadaeafagahaiajakalamanaoapaqarasatauavawaxayazaAaBaCaDaEaFaGaHaIaJaKaLaMaNaOaPaQaRaSaTaUaVaWaXaYaZa0a1a2a3a4a5a6a7a8a9a.a+babbbcbdbebfbgbhbibjbkblbmbnbobpbqbrbsbtbubvbwbxbybzbAbBbCbDbEbFbGbHbIbJbKbLbMbNbObPbQbRbSbTbUbVbWbXbYbZb0b1b2b3b4b5b6b7b8b9b.b+cacbcccdcecfcgchcicjckclcmcncocpcqcrcsctcucvcwcxcyczcAcBcCcDcEcFcGcHcIcJcKcLcMcNcOcPcQcRcScTcUcVcWcXcYcZc0c1c2c3c4c5c6c7c8c9c.c+dadbdcdddedfdgdhdidjdkdldmdndodpdqdrdsdtdudvdwdxdydzdAdBdCdDdEdFdGdHdIdJdKdLdMdNdOdPdQdRdSdTdUdVdWdXdYdZd0d1d2d3d4d5d6d7d8d9d.d+eaebecedeeefegeheiejekelemeneoepeqereseteuevewexeyezeAeBeCeDeEeFeGeHeIeJeKeLeMeNeOePeQeReSeTeUeVeWeXeYeZe0e1e2e3e4e5e6e7e8e9e.e+fafbfcfdfefffgfhfifjfkflfmfnfofpfqfrfsftfufvfwfxfyfzfAfBfCfDfEfFfGfHfIfJfKfLfMfNfOfPfQfRfSfTfUfVfWfXfYfZf0f1f2f3f4f5f6f7f8f9f.f+gagbgcgdgegfggghgigjgkglgmgngogpgqgrgsgtgugvgwgxgygzgAgBgCgDgEgFgGgHgIgJgKgLgMgNgOgPgQgRgSgTgUgVgWgXgYgZg0g1g2g3g4g5g6g7g8g9g.g+hahbhchdhehfhghhhihjhkhlhmhnhohphqhrhshthuhvhwhxhyhzhAhBhChDhEhFhGhHhIhJhKhLhMhNhOhPhQhRhShThUhVhWhXhYhZh0h1h2h3h4h5h6h7h8h9h.h+",
"aaabacadaeafagahaiajakalamanaoapaqarasatauavawaxayazaAaBaCaDaEaFaGaHaIaJaKaLaMaNaOaPaQaRaSaTaUaVaWaXaYaZa0a1a2a3a4a5a6a7a8a9a.a+babbbcbdbebfbgbhbibjbkblbmbnbobpbqbrbsbtbubvbwbxbybzbAbBbCbDbEbFbGbHbIbJbKbLbMbNbObPbQbRbSbTbUbVbWbXbYbZb0b1b2b3b4b5b6b7b8b9b.b+cacbcccdcecfcgchcicjckclcmcncocpcqcrcsctcucvcwcxcyczcAcBcCcDcEcFcGcHcIcJcKcLcMcNcOcPcQcRcScTcUcVcWcXcYcZc0c1c2c3c4c5c6c7c8c9c.c+dadbdcdddedfdgdhdidjdkdldmdndodpdqdrdsdtdudvdwdxdydzdAdBdCdDdEdFdGdHdIdJdKdLdMdNdOdPdQdRdSdTdUdVdWdXdYdZd0d1d2d3d4d5d6d7d8d9d.d+eaebecedeeefegeheiejekelemeneoepeqereseteuevewexeyezeAeBeCeDeEeFeGeHeIeJeKeLeMeNeOePeQeReSeTeUeVeWeXeYeZe0e1e2e3e4e5e6e7e8e9e.e+fafbfcfdfefffgfhfifjfkflfmfnfofpfqfrfsftfufvfwfxfyfzfAfBfCfDfEfFfGfHfIfJfKfLfMfNfOfPfQfRfSfTfUfVfWfXfYfZf0f1f2f3f4f5f6f7f8f9f.f+gagbgcgdgegfggghgigjgkglgmgngogpgqgrgsgtgugvgwgxgygzgAgBgCgDgEgFgGgHgIgJgKgLgMgNgOgPgQgRgSgTgUgVgWgXgYgZg0g1g2g3g4g5g6g7g8g9g.g+hahbhchdhehfhghhhihjhkhlhmhnhohphqhrhshthuhvhwhxhyhzhAhBhChDhEhFhGhHhIhJhKhLhMhNhOhPhQhRhShThUhVhWhXhYhZh0h1h2h3h4h5h6h7h8h9h.h+",
"aaabacadaeafagahaiajakalamanaoapaqarasatauavawaxayazaAaBaCaDaEaFaGaHaIaJaKaLaMaNaOaPaQaRaSaTaUaVaWaXaYaZa0a1a2a3a4a5a6a7a8a9a.a+babbbcbdbebfbgbhbibjbkblbmbnbobpbqbrbsbtbubvbwbxbybzbAbBbCbDbEbFbGbHbIbJbKbLbMbNbObPbQbRbSbTbUbVbWbXbYbZb0b1b2b3b4b5b6b7b8b9b.b+cacbcccdcecfcgchcicjckclcmcncocpcqcrcsctcucvcwcxcyczcAcBcCcDcEcFcGcHcIcJcKcLcMcNcOcPcQcRcScTcUcVcWcXcYcZc0c1c2c3c4c5c6c7c8c9c.c+dadbdcdddedfdgdhdidjdkdldmdndodpdqdrdsdtdudvdwdxdydzdAdBdCdDdEdFdGdHdIdJdKdLdMdNdOdPdQdRdSdTdUdVdWdXdYdZd0d1d2d3d4d5d6d7d8d9d.d+eaebecedeeefegeheiejekelemeneoepeqereseteuevewexeyezeAeBeCeDeEeFeGeHeIeJeKeLeMeNeOePeQeReSeTeUeVeWeXeYeZe0e1e2e3e4e5e6e7e8e9e.e+fafbfcfdfefffgfhfifjfkflfmfnfofpfqfrfsftfufvfwfxfyfzfAfBfCfDfEfFfGfHfIfJfKfLfMfNfOfPfQfRfSfTfUfVfWfXfYfZf0f1f2f3f4f5f6f7f8f9f.f+gagbgcgdgegfggghgigjgkglgmgngogpgqgrgsgtgugvgwgxgygzgAgBgCgDgEgFgGgHgIgJgKgLgMgNgOgPgQgRgSgTgUgVgWgXgYgZg0g1g2g3g4g5g6g7g8g9g.g+hahbhchdhehfhghhhihjhkhlhmhnhohphqhrhshthuhvhwhxhyhzhAhBhChDhEhFhGhHhIhJhKhLhMhNhOhPhQhRhShThUhVhWhXhYhZh0h1h2h3h4h5h6h7h8h9h.h+",
"aaabacadaeafagahaiajakalamanaoapaqarasatauavawaxayazaAaBaCaDaEaFaGaHaIaJaKaLaMaNaOaPaQaRaSaTaUaVaWaXaYaZa0a1a2a3a4a5a6a7a8a9a.a+babbbcbdbebfbgbhbibjbkblbmbnbobpbqbrbsbtbubvbwbxbybzbAbBbCbDbEbFbGbHbIbJbKbLbMbNbObPbQbRbSbTbUbVbWbXbYbZb0b1b2b3b4b5b6b7b8b9b.b+cacbcccdcecfcgchcicjckclcmcncocpcqcrcsctcucvcwcxcyczcAcBcCcDcEcFcGcHcIcJcKcLcMcNcOcPcQcRcScTcUcVcWcXcYcZc0c1c2c3c4c5c6c7c8c9c.c+dadbdcdddedfdgdhdidjdkdldmdndodpdqdrdsdtdudvdwdxdydzdAdBdCdDdEdFdGdHdIdJdKdLdMdNdOdPdQdRdSdTdUdVdWdXdYdZd0d1d2d3d4d5d6d7d8d9d.d+eaebecedeeefegeheiejekelemeneoepeqereseteuevewexeyezeAeBeCeDeEeFeGeHeIeJeKeLeMeNeOePeQeReSeTeUeVeWeXeYeZe0e1e2e3e4e5e6e7e8e9e.e+fafbfcfdfefffgfhfifjfkflfmfnfofpfqfrfsftfufvfwfxfyfzfAfBfCfDfEfFfGfHfIfJfKfLfMfNfOfPfQfRfSfTfUfVfWfXfYfZf0f1f2f3f4f5f6f7f8f9f.f+gagbgcgdgegfggghgigjgkglgmgngogpgqgrgsgtgugvgwgxgygzgAgBgCgDgEgFgGgHgIgJgKgLgMgNgOgPgQgRgSgTgUgVgWgXgYgZg0g1g2g3g4g5g6g7g8g9g.g+hahbhchdhehfhghhhihjhkhlhmhnhohphqhrhshthuhvhwhxhyhzhAhBhChDhEhFhGhHhIhJhKhLhMhNhOhPhQhRhShThUhVhWhXhYhZh0h1h2h3h4h5h6h7h8h9h.h+",
"aaabacadaeafagahaiajakalamanaoapaqarasatauavawaxayazaAaBaCaDaEaFaGaHaIaJaKaLaMaNaOaPaQaRaSaTaUaVaWaXaYaZa0a1a2a3a4a5a6a7a8a9a.a+babbbcbdbebfbgbhbibjbkblbmbnbobpbqbrbsbtbubvbwbxbybzbAbBbCbDbEbFbGbHbIbJbKbLbMbNbObPbQbRbSbTbUbVbWbXbYbZb0b1b2b3b4b5b6b7b8b9b.b+cacbcccdcecfcgchcicjckclcmcncocpcqcrcsctcucvcwcxcyczcAcBcCcDcEcFcGcHcIcJcKcLcMcNcOcPcQcRcScTcUcVcWcXcYcZc0c1c2c3c4c5c6c7c8c9c.c+dadbdcdddedfdgdhdidjdkdldmdndodpdqdrdsdtdudvdwdxdydzdAdBdCdDdEdFdGdHdIdJdKdLdMdNdOdPdQdRdSdTdUdVdWdXdYdZd0d1d2d3d4d5d6d7d8d9d.d+eaebecedeeefegeheiejekelemeneoepeqereseteuevewexeyezeAeBeCeDeEeFeGeHeIeJeKeLeMeNeOePeQeReSeTeUeVeWeXeYeZe0e1e2e3e4e5e6e7e8e9e.e+fafbfcfdfefffgfhfifjfkflfmfnfofpfqfrfsftfufvfwfxfyfzfAfBfCfDfEfFfGfHfIfJfKfLfMfNfOfPfQfRfSfTfUfVfWfXfYfZf0f1f2f3f4f5f6f7f8f9f.f+gagbgcgdgegfggghgigjgkglgmgngogpgqgrgsgtgugvgwgxgygzgAgBgCgDgEgFgGgHgIgJgKgLgMgNgOgPgQgRgSgTgUgVgWgXgYgZg0g1g2g3g4g5g6g7g8g9g.g+hahbhchdhehfhghhhihjhkhlhmhnhohphqhrhshthuhvhwhxhyhzhAhBhChDhEhFhGhHhIhJhKhLhMhNhOhPhQhRhShThUhVhWhXhYhZh0h1h2h3h4h5h6h7h8h9h.h+",
"aaabacadaeafagahaiajakalamanaoapaqarasatauavawaxayazaAaBaCaDaEaFaGaHaIaJaKaLaMaNaOaPaQaRaSaTaUaVaWaXaYaZa0a1a2a3a4a5a6a7a8a9a.a+babbbcbdbebfbgbhbibjbkblbmbnbobpbqbrbsbtbubvbwbxbybzbAbBbCbDbEbFbGbHbIbJbKbLbMbNbObPbQbRbSbTbUbVbWbXbYbZb0b1b2b3b4b5b6b7b8b9b.b+cacbcccdcecfcgchcicjckclcmcncocpcqcrcsctcucvcwcxcyczcAcBcCcDcEcFcGcHcIcJcKcLcMcNcOcPcQcRcScTcUcVcWcXcYcZc0c1c2c3c4c5c6c7c8c9c.c+dadbdcdddedfdgdhdidjdkdldmdndodpdqdrdsdtdudvdwdxdydzdAdBdCdDdEdFdGdHdIdJdKdLdMdNdOdPdQdRdSdTdUdVdWdXdYdZd0d1d2d3d4d5d6d7d8d9d.d+eaebecedeeefegeheiejekelemeneoepeqereseteuevewexeyezeAeBeCeDeEeFeGeHeIeJeKeLeMeNeOePeQeReSeTeUeVeWeXeYeZe0e1e2e3e4e5e6e7e8e9e.e+fafbfcfdfefffgfhfifjfkflfmfnfofpfqfrfsftfufvfwfxfyfzfAfBfCfDfEfFfGfHfIfJfKfLfMfNfOfPfQfRfSfTfUfVfWfXfYfZf0f1f2f3f4f5f6f7f8f9f.f+gagbgcgdgegfggghgigjgkglgmgngogpgqgrgsgtgugvgwgxgygzgAgBgCgDgEgFgGgHgIgJgKgLgMgNgOgPgQgRgSgTgUgVgWgXgYgZg0g1g2g3g4g5g6g7g8g9g.g+hahbhchdhehfhghhhihjhkhlhmhnhohphqhrhshthuhvhwhxhyhzhAhBhChDhEhFhGhHhIhJhKhLhMhNhOhPhQhRhShThUhVhWhXhYhZh0h1h2h3h4h5h6h7h8h9h.h+",
"aaabacadaeafagahaiajakalamanaoapaqarasatauavawaxayazaAaBaCaDaEaFaGaHaIaJaKaLaMaNaOaPaQaRaSaTaUaVaWaXaYaZa0a1a2a3a4a5a6a7a8a9a.a+babbbcbdbebfbgbhbibjbkblbmbnbobpbqbrbsbtbubvbwbxbybzbAbBbCbDbEbFbGbHbIbJbKbLbMbNbObPbQbRbSbTbUbVbWbXbYbZb0b1b2b3b4b5b6b7b8b9b.b+cacbcccdcecfcgchcicjckclcmcncocpcqcrcsctcucvcwcxcyczcAcBcCcDcEcFcGcHcIcJcKcLcMcNcOcPcQcRcScTcUcVcWcXcYcZc0c1c2c3c4c5c6c7c8c9c.c+dadbdcdddedfdgdhdidjdkdldmdndodpdqdrdsdtdudvdwdxdydzdAdBdCdDdEdFdGdHdIdJdKdLdMdNdOdPdQdRdSdTdUdVdWdXdYdZd0d1d2d3d4d5d6d7d8d9d.d+eaebecedeeefegeheiejekelemeneoepeqereseteuevewexeyezeAeBeCeDeEeFeGeHeIeJeKeLeMeNeOePeQeReSeTeUeVeWeXeYeZe0e1e2e3e4e5e6e7e8e9e.e+fafbfcfdfefffgfhfifjfkflfmfnfofpfqfrfsftfufvfwfxfyfzfAfBfCfDfEfFfGfHfIfJfKfLfMfNfOfPfQfRfSfTfUfVfWfXfYfZf0f1f2f3f4f5f6f7f8f9f.f+gagbgcgdgegfggghgigjgkglgmgngogpgqgrgsgtgugvgwgxgygzgAgBgCgDgEgFgGgHgIgJgKgLgMgNgOgPgQgRgSgTgUgVgWgXgYgZg0g1g2g3g4g5g6g7g8g9g.g+hahbhchdhehfhghhhihjhkhlhmhnhohphqhrhshthuhvhwhxhyhzhAhBhChDhEhFhGhHhIhJhKhLhMhNhOhPhQhRhShThUhVhWhXhYhZh0h1h2h3h4h5h6h7h8h9h.h+",
"aaabacadaeafagahaiajakalamanaoapaqarasatauavawaxayazaAaBaCaDaEaFaGaHaIaJaKaLaMaNaOaPaQaRaSaTaUaVaWaXaYaZa0a1a2a3a4a5a6a7a8a9a.a+babbbcbdbebfbgbhbibjbkblbmbnbobpbqbrbsbtbubvbwbxbybzbAbBbCbDbEbFbGbHbIbJbKbLbMbNbObPbQbRbSbTbUbVbWbXbYbZb0b1b2b3b4b5b6b7b8b9b.b+cacbcccdcecfcgchcicjckclcmcncocpcqcrcsctcucvcwcxcyczcAcBcCcDcEcFcGcHcIcJcKcLcMcNcOcPcQcRcScTcUcVcWcXcYcZc0c1c2c3c4c5c6c7c8c9c.c+dadbdcdddedfdgdhdidjdkdldmdndodpdqdrdsdtdudvdwdxdydzdAdBdCdDdEdFdGdHdIdJdKdLdMdNdOdPdQdRdSdTdUdVdWdXdYdZd0d1d2d3d4d5d6d7d8d9d.d+eaebecedeeefegeheiejekelemeneoepeqereseteuevewexeyezeAeBeCeDeEeFeGeHeIeJeKeLeMeNeOePeQeReSeTeUeVeWeXeYeZe0e1e2e3e4e5e6e7e8e9e.e+fafbfcfdfefffgfhfifjfkflfmfnfofpfqfrfsftfufvfwfxfyfzfAfBfCfDfEfFfGfHfIfJfKfLfMfNfOfPfQfRfSfTfUfVfWfXfYfZf0f1f2f3f4f5f6f7f8f9f.f+gagbgcgdgegfggghgigjgkglgmgngogpgqgrgsgtgugvgwgxgygzgAgBgCgDgEgFgGgHgIgJgKgLgMgNgOgPgQgRgSgTgUgVgWgXgYgZg0g1g2g3g4g5g6g7g8g9g.g+hahbhchdhehfhghhhihjhkhlhmhnhohphqhrhshthuhvhwhxhyhzhAhBhChDhEhFhGhHhIhJhKhLhMhNhOhPhQhRhShThUhVhWhXhYhZh0h1h2h3h4h5h6h7h8h9h.h+",
"aaabacadaeafagahaiajakalamanaoapaqarasatauavawaxayazaAaBaCaDaEaFaGaHaIaJaKaLaMaNaOaPaQaRaSaTaUaVaWaXaYaZa0a1a2a3a4a5a6a7a8a9a.a+babbbcbdbebfbgbhbibjbkblbmbnbobpbqbrbsbtbubvbwbxbybzbAbBbCbDbEbFbGbHbIbJbKbLbMbNbObPbQbRbSbTbUbVbWbXbYbZb0b1b2b3b4b5b6b7b8b9b.b+cacbcccdcecfcgchcicjckclcmcncocpcqcrcsctcucvcwcxcyczcAcBcCcDcEcFcGcHcIcJcKcLcMcNcOcPcQcRcScTcUcVcWcXcYcZc0c1c2c3c4c5c6c7c8c9c.c+dadbdcdddedfdgdhdidjdkdldmdndodpdqdrdsdtdudvdwdxdydzdAdBdCdDdEdFdGdHdIdJdKdLdMdNdOdPdQdRdSdTdUdVdWdXdYdZd0d1d2d3d4d5d6d7d8d9d.d+eaebecedeeefegeheiejekelemeneoepeqereseteuevewexeyezeAeBeCeDeEeFeGeHeIeJeKeLeMeNeOePeQeReSeTeUeVeWeXeYeZe0e1e2e3e4e5e6e7e8e9e.e+fafbfcfdfefffgfhfifjfkflfmfnfofpfqfrfsftfufvfwfxfyfzfAfBfCfDfEfFfGfHfIfJfKfLfMfNfOfPfQfRfSfTfUfVfWfXfYfZf0f1f2f3f4f5f6f7f8f9f.f+gagbgcgdgegfggghgigjgkglgmgngogpgqgrgsgtgugvgwgxgygzgAgBgCgDgEgFgGgHgIgJgKgLgMgNgOgPgQgRgSgTgUgVgWgXgYgZg0g1g2g3g4g5g6g7g8g9g.g+hahbhchdhehfhghhhihjhkhlhmhnhohphqhrhshthuhvhwhxhyhzhAhBhChDhEhFhGhHhIhJhKhLhMhNhOhPhQhRhShThUhVhWhXhYhZh0h1h2h3h4h5h6h7h8h9h.h+",
"aaabacadaeafagahaiajakalamanaoapaqarasatauavawaxayazaAaBaCaDaEaFaGaHaIaJaKaLaMaNaOaPaQaRaSaTaUaVaWaXaYaZa0a1a2a3a4a5a6a7a8a9a.a+babbbcbdbebfbgbhbibjbkblbmbnbobpbqbrbsbtbubvbwbxbybzbAbBbCbDbEbFbGbHbIbJbKbLbMbNbObPbQbRbSbTbUbVbWbXbYbZb0b1b2b3b4b5b6b7b8b9b.b+cacbcccdcecfcgchcicjckclcmcncocpcqcrcsctcucvcwcxcyczcAcBcCcDcEcFcGcHcIcJcKcLcMcNcOcPcQcRcScTcUcVcWcXcYcZc0c1c2c3c4c5c6c7c8c9c.c+dadbdcdddedfdgdhdidjdkdldmdndodpdqdrdsdtdudvdwdxdydzdAdBdCdDdEdFdGdHdIdJdKdLdMdNdOdPdQdRdSdTdUdVdWdXdYdZd0d1d2d3d4d5d6d7d8d9d.d+eaebecedeeefegeheiejekelemeneoepeqereseteuevewexeyezeAeBeCeDeEeFeGeHeIeJeKeLeMeNeOePeQeReSeTeUeVeWeXeYeZe0e1e2e3e4e5e6e7e8e9e.e+fafbfcfdfefffgfhfifjfkflfmfnfofpfqfrfsftfufvfwfxfyfzfAfBfCfDfEfFfGfHfIfJfKfLfMfNfOfPfQfRfSfTfUfVfWfXfYfZf0f1f2f3f4f5f6f7f8f9f.f+gagbgcgdgegfggghgigjgkglgmgngogpgqgrgsgtgugvgwgxgygzgAgBgCgDgEgFgGgHgIgJgKgLgMgNgOgPgQgRgSgTgUgVgWgXgYgZg0g1g2g3g4g5g6g7g8g9g.g+hahbhchdhehfhghhhihjhkhlhmhnhohphqhrhshthuhvhwhxhyhzhAhBhChDhEhFhGhHhIhJhKhLhMhNhOhPhQhRhShThUhVhWhXhYhZh0h1h2h3h4h5h6h7h8h9h.h+",
"aaabacadaeafagahaiajakalamanaoapaqarasatauavawaxayazaAaBaCaDaEaFaGaHaIaJaKaLaMaNaOaPaQaRaSaTaUaVaWaXaYaZa0a1a2a3a4a5a6a7a8a9a.a+babbbcbdbebfbgbhbibjbkblbmbnbobpbqbrbsbtbubvbwbxbybzbAbBbCbDbEbFbGbHbIbJbKbLbMbNbObPbQbRbSbTbUbVbWbXbYbZb0b1b2b3b4b5b6b7b8b9b.b+cacbcccdcecfcgchcicjckclcmcncocpcqcrcsctcucvcwcxcyczcAcBcCcDcEcFcGcHcIcJcKcLcMcNcOcPcQcRcScTcUcVcWcXcYcZc0c1c2c3c4c5c6c7c8c9c.c+dadbdcdddedfdgdhdidjdkdldmdndodpdqdrdsdtdudvdwdxdydzdAdBdCdDdEdFdGdHdIdJdKdLdMdNdOdPdQdRdSdTdUdVdWdXdYdZd0d1d2d3d4d5d6d7d8d9d.d+eaebecedeeefegeheiejekelemeneoepeqereseteuevewexeyezeAeBeCeDeEeFeGeHeIeJeKeLeMeNeOePeQeReSeTeUeVeWeXeYeZe0e1e2e3e4e5e6e7e8e9e.e+fafbfcfdfefffgfhfifjfkflfmfnfofpfqfrfsftfufvfwfxfyfzfAfBfCfDfEfFfGfHfIfJfKfLfMfNfOfPfQfRfSfTfUfVfWfXfYfZf0f1f2f3f4f5f6f7f8f9f.f+gagbgcgdgegfggghgigjgkglgmgngogpgqgrgsgtgugvgwgxgygzgAgBgCgDgEgFgGgHgIgJgKgLgMgNgOgPgQgRgSgTgUgVgWgXgYgZg0g1g2g3g4g5g6g7g8g9g.g+hahbhchdhehfhghhhihjhkhlhmhnhohphqhrhshthuhvhwhxhyhzhAhBhChDhEhFhGhHhIhJhKhLhMhNhOhPhQhRhShThUhVhWhXhYhZh0h1h2h3h4h5h6h7h8h9h.h+",
"aaabacadaeafagahaiajakalamanaoapaqarasatauavawaxayazaAaBaCaDaEaFaGaHaIaJaKaLaMaNaOaPaQaRaSaTaUaVaWaXaYaZa0a1a2a3a4a5a6a7a8a9a.a+babbbcbdbebfbgbhbibjbkblbmbnbobpbqbrbsbtbubvbwbxbybzbAbBbCbDbEbFbGbHbIbJbKbLbMbNbObPbQbRbSbTbUbVbWbXbYbZb0b1b2b3b4b5b6b7b8b9b.b+cacbcccdcecfcgchcicjckclcmcncocpcqcrcsctcucvcwcxcyczcAcBcCcDcEcFcGcHcIcJcKcLcMcNcOcPcQcRcScTcUcVcWcXcYcZc0c1c2c3c4c5c6c7c8c9c.c+dadbdcdddedfdgdhdidjdkdldmdndodpdqdrdsdtdudvdwdxdydzdAdBdCdDdEdFdGdHdIdJdKdLdMdNdOdPdQdRdSdTdUdVdWdXdYdZd0d1d2d3d4d5d6d7d8d9d.d+eaebecedeeefegeheiejekelemeneoepeqereseteuevewexeyezeAeBeCeDeEeFeGeHeIeJeKeLeMeNeOePeQeReSeTeUeVeWeXeYeZe0e1e2e3e4e5e6e7e8e9e.e+fafbfcfdfefffgfhfifjfkflfmfnfofpfqfrfsftfufvfwfxfyfzfAfBfCfDfEfFfGfHfIfJfKfLfMfNfOfPfQfRfSfTfUfVfWfXfYfZf0f1f2f3f4f5f6f7f8f9f.f+gagbgcgdgegfggghgigjgkglgmgngogpgqgrgsgtgugvgwgxgygzgAgBgCgDgEgFgGgHgIgJgKgLgMgNgOgPgQgRgSgTgUgVgWgXgYgZg0g1g2g3g4g5g6g7g8g9g.g+hahbhchdhehfhghhhihjhkhlhmhnhohphqhrhshthuhvhwhxhyhzhAhBhChDhEhFhGhHhIhJhKhLhMhNhOhPhQhRhShThUhVhWhXhYhZh0h1h2h3h4h5h6h7h8h9h.h+",
"aaabacadaeafagahaiajakalamanaoapaqarasatauavawaxayazaAaBaCaDaEaFaGaHaIaJaKaLaMaNaOaPaQaRaSaTaUaVaWaXaYaZa0a1a2a3a4a5a6a7a8a9a.a+babbbcbdbebfbgbhbibjbkblbmbnbobpbqbrbsbtbubvbwbxbybzbAbBbCbDbEbFbGbHbIbJbKbLbMbNbObPbQbRbSbTbUbVbWbXbYbZb0b1b2b3b4b5b6b7b8b9b.b+cacbcccdcecfcgchcicjckclcmcncocpcqcrcsctcucvcwcxcyczcAcBcCcDcEcFcGcHcIcJcKcLcMcNcOcPcQcRcScTcUcVcWcXcYcZc0c1c2c3c4c5c6c7c8c9c.c+dadbdcdddedfdgdhdidjdkdldmdndodpdqdrdsdtdudvdwdxdydzdAdBdCdDdEdFdGdHdIdJdKdLdMdNdOdPdQdRdSdTdUdVdWdXdYdZd0d1d2d3d4d5d6d7d8d9d.d+eaebecedeeefegeheiejekelemeneoepeqereseteuevewexeyezeAeBeCeDeEeFeGeHeIeJeKeLeMeNeOePeQeReSeTeUeVeWeXeYeZe0e1e2e3e4e5e6e7e8e9e.e+fafbfcfdfefffgfhfifjfkflfmfnfofpfqfrfsftfufvfwfxfyfzfAfBfCfDfEfFfGfHfIfJfKfLfMfNfOfPfQfRfSfTfUfVfWfXfYfZf0f1f2f3f4f5f6f7f8f9f.f+gagbgcgdgegfggghgigjgkglgmgngogpgqgrgsgtgugvgwgxgygzgAgBgCgDgEgFgGgHgIgJgKgLgMgNgOgPgQgRgSgTgUgVgWgXgYgZg0g1g2g3g4g5g6g7g8g9g.g+hahbhchdhehfhghhhihjhkhlhmhnhohphqhrhshthuhvhwhxhyhzhAhBhChDhEhFhGhHhIhJhKhLhMhNhOhPhQhRhShThUhVhWhXhYhZh0h1h2h3h4h5h6h7h8h9h.h+",
"aaabacadaeafagahaiajakalamanaoapaqarasatauavawaxayazaAaBaCaDaEaFaGaHaIaJaKaLaMaNaOaPaQaRaSaTaUaVaWaXaYaZa0a1a2a3a4a5a6a7a8a9a.a+babbbcbdbebfbgbhbibjbkblbmbnbobpbqbrbsbtbubvbwbxbybzbAbBbCbDbEbFbGbHbIbJbKbLbMbNbObPbQbRbSbTbUbVbWbXbYbZb0b1b2b3b4b5b6b7b8b9b.b+cacbcccdcecfcgchcicjckclcmcncocpcqcrcsctcucvcwcxcyczcAcBcCcDcEcFcGcHcIcJcKcLcMcNcOcPcQcRcScTcUcVcWcXcYcZc0c1c2c3c4c5c6c7c8c9c.c+dadbdcdddedfdgdhdidjdkdldmdndodpdqdrdsdtdudvdwdxdydzdAdBdCdDdEdFdGdHdIdJdKdLdMdNdOdPdQdRdSdTdUdVdWdXdYdZd0d1d2d3d4d5d6d7d8d9d.d+eaebecedeeefegeheiejekelemeneoepeqereseteuevewexeyezeAeBeCeDeEeFeGeHeIeJeKeLeMeNeOePeQeReSeTeUeVeWeXeYeZe0e1e2e3e4e5e6e7e8e9e.e+fafbfcfdfefffgfhfifjfkflfmfnfofpfqfrfsftfufvfwfxfyfzfAfBfCfDfEfFfGfHfIfJfKfLfMfNfOfPfQfRfSfTfUfVfWfXfYfZf0f1f2f3f4f5f6f7f8f9f.f+gagbgcgdgegfggghgigjgkglgmgngogpgqgrgsgtgugvgwgxgygzgAgBgCgDgEgFgGgHgIgJgKgLgMgNgOgPgQgRgSgTgUgVgWgXgYgZg0g1g2g3g4g5g6g7g8g9g.g+hahbhchdhehfhghhhihjhkhlhmhnhohphqhrhshthuhvhwhxhyhzhAhBhChDhEhFhGhHhIhJhKhLhMhNhOhPhQhRhShThUhVhWhXhYhZh0h1h2h3h4h5h6h7h8h9h.h+",
"aaabacadaeafagahaiajakalamanaoapaqarasatauavawaxayazaAaBaCaDaEaFaGaHaIaJaKaLaMaNaOaPaQaRaSaTaUaVaWaXaYaZa0a1a2a3a4a5a6a7a8a9a.a+babbbcbdbebfbgbhbibjbkblbmbnbobpbqbrbsbtbubvbwbxbybzbAbBbCbDbEbFbGbHbIbJbKbLbMbNbObPbQbRbSbTbUbVbWbXbYbZb0b1b2b3b4b5b6b7b8b9b.b+cacbcccdcecfcgchcicjckclcmcncocpcqcrcsctcucvcwcxcyczcAcBcCcDcEcFcGcHcIcJcKcLcMcNcOcPcQcRcScTcUcVcWcXcYcZc0c1c2c3c4c5c6c7c8c9c.c+dadbdcdddedfdgdhdidjdkdldmdndodpdqdrdsdtdudvdwdxdydzdAdBdCdDdEdFdGdHdIdJdKdLdMdNdOdPdQdRdSdTdUdVdWdXdYdZd0d1d2d3d4d5d6d7d8d9d.d+eaebecedeeefegeheiejekelemeneoepeqereseteuevewexeyezeAeBeCeDeEeFeGeHeIeJeKeLeMeNeOePeQeReSeTeUeVeWeXeYeZe0e1e2e3e4e5e6e7e8e9e.e+fafbfcfdfefffgfhfifjfkflfmfnfofpfqfrfsftfufvfwfxfyfzfAfBfCfDfEfFfGfHfIfJfKfLfMfNfOfPfQfRfSfTfUfVfWfXfYfZf0f1f2f3f4f5f6f7f8f9f.f+gagbgcgdgegfggghgigjgkglgmgngogpgqgrgsgtgugvgwgxgygzgAgBgCgDgEgFgGgHgIgJgKgLgMgNgOgPgQgRgSgTgUgVgWgXgYgZg0g1g2g3g4g5g6g7g8g9g.g+hahbhchdhehfhghhhihjhkhlhmhnhohphqhrhshthuhvhwhxhyhzhAhBhChDhEhFhGhHhIhJhKhLhMhNhOhPhQhRhShThUhVhWhXhYhZh0h1h2h3h4h5h6h7h8h9h.h+",
"aaabacadaeafagahaiajakalamanaoapaqarasatauavawaxayazaAaBaCaDaEaFaGaHaIaJaKaLaMaNaOaPaQaRaSaTaUaVaWaXaYaZa0a1a2a3a4a5a6a7a8a9a.a+babbbcbdbebfbgbhbibjbkblbmbnbobpbqbrbsbtbubvbwbxbybzbAbBbCbDbEbFbGbHbIbJbKbLbMbNbObPbQbRbSbTbUbVbWbXbYbZb0b1b2b3b4b5b6b7b8b9b.b+cacbcccdcecfcgchcicjckclcmcncocpcqcrcsctcucvcwcxcyczcAcBcCcDcEcFcGcHcIcJcKcLcMcNcOcPcQcRcScTcUcVcWcXcYcZc0c1c2c3c4c5c6c7c8c9c.c+dadbdcdddedfdgdhdidjdkdldmdndodpdqdrdsdtdudvdwdxdydzdAdBdCdDdEdFdGdHdIdJdKdLdMdNdOdPdQdRdSdTdUdVdWdXdYdZd0d1d2d3d4d5d6d7d8d9d.d+eaebecedeeefegeheiejekelemeneoepeqereseteuevewexeyezeAeBeCeDeEeFeGeHeIeJeKeLeMeNeOePeQeReSeTeUeVeWeXeYeZe0e1e2e3e4e5e6e7e8e9e.e+fafbfcfdfefffgfhfifjfkflfmfnfofpfqfrfsftfufvfwfxfyfzfAfBfCfDfEfFfGfHfIfJfKfLfMfNfOfPfQfRfSfTfUfVfWfXfYfZf0f1f2f3f4f5f6f7f8f9f.f+gagbgcgdgegfggghgigjgkglgmgngogpgqgrgsgtgugvgwgxgygzgAgBgCgDgEgFgGgHgIgJgKgLgMgNgOgPgQgRgSgTgUgVgWgXgYgZg0g1g2g3g4g5g6g7g8g9g.g+hahbhchdhehfhghhhihjhkhlhmhnhohphqhrhshthuhvhwhxhyhzhAhBhChDhEhFhGhHhIhJhKhLhMhNhOhPhQhRhShThUhVhWhXhYhZh0h1h2h3h4h5h6h7h8h9h.h+",
"aaabacadaeafagahaiajakalamanaoapaqarasatauavawaxayazaAaBaCaDaEaFaGaHaIaJaKaLaMaNaOaPaQaRaSaTaUaVaWaXaYaZa0a1a2a3a4a5a6a7a8a9a.a+babbbcbdbebfbgbhbibjbkblbmbnbobpbqbrbsbtbubvbwbxbybzbAbBbCbDbEbFbGbHbIbJbKbLbMbNbObPbQbRbSbTbUbVbWbXbYbZb0b1b2b3b4b5b6b7b8b9b.b+cacbcccdcecfcgchcicjckclcmcncocpcqcrcsctcucvcwcxcyczcAcBcCcDcEcFcGcHcIcJcKcLcMcNcOcPcQcRcScTcUcVcWcXcYcZc0c1c2c3c4c5c6c7c8c9c.c+dadbdcdddedfdgdhdidjdkdldmdndodpdqdrdsdtdudvdwdxdydzdAdBdCdDdEdFdGdHdIdJdKdLdMdNdOdPdQdRdSdTdUdVdWdXdYdZd0d1d2d3d4d5d6d7d8d9d.d+eaebecedeeefegeheiejekelemeneoepeqereseteuevewexeyezeAeBeCeDeEeFeGeHeIeJeKeLeMeNeOePeQeReSeTeUeVeWeXeYeZe0e1e2e3e4e5e6e7e8e9e.e+fafbfcfdfefffgfhfifjfkflfmfnfofpfqfrfsftfufvfwfxfyfzfAfBfCfDfEfFfGfHfIfJfKfLfMfNfOfPfQfRfSfTfUfVfWfXfYfZf0f1f2f3f4f5f6f7f8f9f.f+gagbgcgdgegfggghgigjgkglgmgngogpgqgrgsgtgugvgwgxgygzgAgBgCgDgEgFgGgHgIgJgKgLgMgNgOgPgQgRgSgTgUgVgWgXgYgZg0g1g2g3g4g5g6g7g8g9g.g+hahbhchdhehfhghhhihjhkhlhmhnhohphqhrhshthuhvhwhxhyhzhAhBhChDhEhFhGhHhIhJhKhLhMhNhOhPhQhRhShThUhVhWhXhYhZh0h1h2h3h4h5h6h7h8h9h.h+",
"aaabacadaeafagahaiajakalamanaoapaqarasatauavawaxayazaAaBaCaDaEaFaGaHaIaJaKaLaMaNaOaPaQaRaSaTaUaVaWaXaYaZa0a1a2a3a4a5a6a7a8a9a.a+babbbcbdbebfbgbhbibjbkblbmbnbobpbqbrbsbtbubvbwbxbybzbAbBbCbDbEbFbGbHbIbJbKbLbMbNbObPbQbRbSbTbUbVbWbXbYbZb0b1b2b3b4b5b6b7b8b9b.b+cacbcccdcecfcgchcicjckclcmcncocpcqcrcsctcucvcwcxcyczcAcBcCcDcEcFcGcHcIcJcKcLcMcNcOcPcQcRcScTcUcVcWcXcYcZc0c1c2c3c4c5c6c7c8c9c.c+dadbdcdddedfdgdhdidjdkdldmdndodpdqdrdsdtdudvdwdxdydzdAdBdCdDdEdFdGdHdIdJdKdLdMdNdOdPdQdRdSdTdUdVdWdXdYdZd0d1d2d3d4d5d6d7d8d9d.d+eaebecedeeefegeheiejekelemeneoepeqereseteuevewexeyezeAeBeCeDeEeFeGeHeIeJeKeLeMeNeOePeQeReSeTeUeVeWeXeYeZe0e1e2e3e4e5e6e7e8e9e.e+fafbfcfdfefffgfhfifjfkflfmfnfofpfqfrfsftfufvfwfxfyfzfAfBfCfDfEfFfGfHfIfJfKfLfMfNfOfPfQfRfSfTfUfVfWfXfYfZf0f1f2f3f4f5f6f7f8f9f.f+gagbgcgdgegfggghgigjgkglgmgngogpgqgrgsgtgugvgwgxgygzgAgBgCgDgEgFgGgHgIgJgKgLgMgNgOgPgQgRgSgTgUgVgWgXgYgZg0g1g2g3g4g5g6g7g8g9g.g+hahbhchdhehfhghhhihjhkhlhmhnhohphqhrhshthuhvhwhxhyhzhAhBhChDhEhFhGhHhIhJhKhLhMhNhOhPhQhRhShThUhVhWhXhYhZh0h1h2h3h4h5h6h7h8h9h.h+",
"aaabacadaeafagahaiajakalamanaoapaqarasatauavawaxayazaAaBaCaDaEaFaGaHaIaJaKaLaMaNaOaPaQaRaSaTaUaVaWaXaYaZa0a1a2a3a4a5a6a7a8a9a.a+babbbcbdbebfbgbhbibjbkblbmbnbobpbqbrbsbtbubvbwbxbybzbAbBbCbDbEbFbGbHbIbJbKbLbMbNbObPbQbRbSbTbUbVbWbXbYbZb0b1b2b3b4b5b6b7b8b9b.b+cacbcccdcecfcgchcicjckclcmcncocpcqcrcsctcucvcwcxcyczcAcBcCcDcEcFcGcHcIcJcKcLcMcNcOcPcQcRcScTcUcVcWcXcYcZc0c1c2c3c4c5c6c7c8c9c.c+dadbdcdddedfdgdhdidjdkdldmdndodpdqdrdsdtdudvdwdxdydzdAdBdCdDdEdFdGdHdIdJdKdLdMdNdOdPdQdRdSdTdUdVdWdXdYdZd0d1d2d3d4d5d6d7d8d9d.d+eaebecedeeefegeheiejekelemeneoepeqereseteuevewexeyezeAeBeCeDeEeFeGeHeIeJeKeLeMeNeOePeQeReSeTeUeVeWeXeYeZe0e1e2e3e4e5e6e7e8e9e.e+fafbfcfdfefffgfhfifjfkflfmfnfofpfqfrfsftfufvfwfxfyfzfAfBfCfDfEfFfGfHfIfJfKfLfMfNfOfPfQfRfSfTfUfVfWfXfYfZf0f1f2f3f4f5f6f7f8f9f.f+gagbgcgdgegfggghgigjgkglgmgngogpgqgrgsgtgugvgwgxgygzgAgBgCgDgEgFgGgHgIgJgKgLgMgNgOgPgQgRgSgTgUgVgWgXgYgZg0g1g2g3g4g5g6g7g8g9g.g+hahbhchdhehfhghhhihjhkhlhmhnhohphqhrhshthuhvhwhxhyhzhAhBhChDhEhFhGhHhIhJhKhLhMhNhOhPhQhRhShThUhVhWhXhYhZh0h1h2h3h4h5h6h7h8h9h.h+",
"aaabacadaeafagahaiajakalamanaoapaqarasatauavawaxayazaAaBaCaDaEaFaGaHaIaJaKaLaMaNaOaPaQaRaSaTaUaVaWaXaYaZa0a1a2a3a4a5a6a7a8a9a.a+babbbcbdbebfbgbhbibjbkblbmbnbobpbqbrbsbtbubvbwbxbybzbAbBbCbDbEbFbGbHbIbJbKbLbMbNbObPbQbRbSbTbUbVbWbXbYbZb0b1b2b3b4b5b6b7b8b9b.b+cacbcccdcecfcgchcicjckclcmcncocpcqcrcsctcucvcwcxcyczcAcBcCcDcEcFcGcHcIcJcKcLcMcNcOcPcQcRcScTcUcVcWcXcYcZc0c1c2c3c4c5c6c7c8c9c.c+dadbdcdddedfdgdhdidjdkdldmdndodpdqdrdsdtdudvdwdxdydzdAdBdCdDdEdFdGdHdIdJdKdLdMdNdOdPdQdRdSdTdUdVdWdXdYdZd0d1d2d3d4d5d6d7d8d9d.d+eaebecedeeefegeheiejekelemeneoepeqereseteuevewexeyezeAeBeCeDeEeFeGeHeIeJeKeLeMeNeOePeQeReSeTeUeVeWeXeYeZe0e1e2e3e4e5e6e7e8e9e.e+fafbfcfdfefffgfhfifjfkflfmfnfofpfqfrfsftfufvfwfxfyfzfAfBfCfDfEfFfGfHfIfJfKfLfMfNfOfPfQfRfSfTfUfVfWfXfYfZf0f1f2f3f4f5f6f7f8f9f.f+gagbgcgdgegfggghgigjgkglgmgngogpgqgrgsgtgugvgwgxgygzgAgBgCgDgEgFgGgHgIgJgKgLgMgNgOgPgQgRgSgTgUgVgWgXgYgZg0g1g2g3g4g5g6g7g8g9g.g+hahbhchdhehfhghhhihjhkhlhmhnhohphqhrhshthuhvhwhxhyhzhAhBhChDhEhFhGhHhIhJhKhLhMhNhOhPhQhRhShThUhVhWhXhYhZh0h1h2h3h4h5h6h7h8h9h.h+",
"aaabacadaeafagahaiajakalamanaoapaqarasatauavawaxayazaAaBaCaDaEaFaGaHaIaJaKaLaMaNaOaPaQaRaSaTaUaVaWaXaYaZa0a1a2a3a4a5a6a7a8a9a.a+babbbcbdbebfbgbhbibjbkblbmbnbobpbqbrbsbtbubvbwbxbybzbAbBbCbDbEbFbGbHbIbJbKbLbMbNbObPbQbRbSbTbUbVbWbXbYbZb0b1b2b3b4b5b6b7b8b9b.b+cacbcccdcecfcgchcicjckclcmcncocpcqcrcsctcucvcwcxcyczcAcBcCcDcEcFcGcHcIcJcKcLcMcNcOcPcQcRcScTcUcVcWcXcYcZc0c1c2c3c4c5c6c7c8c9c.c+dadbdcdddedfdgdhdidjdkdldmdndodpdqdrdsdtdudvdwdxdydzdAdBdCdDdEdFdGdHdIdJdKdLdMdNdOdPdQdRdSdTdUdVdWdXdYdZd0d1d2d3d4d5d6d7d8d9d.d+eaebecedeeefegeheiejekelemeneoepeqereseteuevewexeyezeAeBeCeDeEeFeGeHeIeJeKeLeMeNeOePeQeReSeTeUeVeWeXeYeZe0e1e2e3e4e5e6e7e8e9e.e+fafbfcfdfefffgfhfifjfkflfmfnfofpfqfrfsftfufvfwfxfyfzfAfBfCfDfEfFfGfHfIfJfKfLfMfNfOfPfQfRfSfTfUfVfWfXfYfZf0f1f2f3f4f5f6f7f8f9f.f+gagbgcgdgegfggghgigjgkglgmgngogpgqgrgsgtgugvgwgxgygzgAgBgCgDgEgFgGgHgIgJgKgLgMgNgOgPgQgRgSgTgUgVgWgXgYgZg0g1g2g3g4g5g6g7g8g9g.g+hahbhchdhehfhghhhihjhkhlhmhnhohphqhrhshthuhvhwhxhyhzhAhBhChDhEhFhGhHhIhJhKhLhMhNhOhPhQhRhShThUhVhWhXhYhZh0h1h2h3h4h5h6h7h8h9h.h+",
"aaabacadaeafagahaiajakalamanaoapaqarasatauavawaxayazaAaBaCaDaEaFaGaHaIaJaKaLaMaNaOaPaQaRaSaTaUaVaWaXaYaZa0a1a2a3a4a5a6a7a8a9a.a+babbbcbdbebfbgbhbibjbkblbmbnbobpbqbrbsbtbubvbwbxbybzbAbBbCbDbEbFbGbHbIbJbKbLbMbNbObPbQbRbSbTbUbVbWbXbYbZb0b1b2b3b4b5b6b7b8b9b.b+cacbcccdcecfcgchcicjckclcmcncocpcqcrcsctcucvcwcxcyczcAcBcCcDcEcFcGcHcIcJcKcLcMcNcOcPcQcRcScTcUcVcWcXcYcZc0c1c2c3c4c5c6c7c8c9c.c+dadbdcdddedfdgdhdidjdkdldmdndodpdqdrdsdtdudvdwdxdydzdAdBdCdDdEdFdGdHdIdJdKdLdMdNdOdPdQdRdSdTdUdVdWdXdYdZd0d1d2d3d4d5d6d7d8d9d.d+eaebecedeeefegeheiejekelemeneoepeqereseteuevewexeyezeAeBeCeDeEeFeGeHeIeJeKeLeMeNeOePeQeReSeTeUeVeWeXeYeZe0e1e2e3e4e5e6e7e8e9e.e+fafbfcfdfefffgfhfifjfkflfmfnfofpfqfrfsftfufvfwfxfyfzfAfBfCfDfEfFfGfHfIfJfKfLfMfNfOfPfQfRfSfTfUfVfWfXfYfZf0f1f2f3f4f5f6f7f8f9f.f+gagbgcgdgegfggghgigjgkglgmgngogpgqgrgsgtgugvgwgxgygzgAgBgCgDgEgFgGgHgIgJgKgLgMgNgOgPgQgRgSgTgUgVgWgXgYgZg0g1g2g3g4g5g6g7g8g9g.g+hahbhchdhehfhghhhihjhkhlhmhnhohphqhrhshthuhvhwhxhyhzhAhBhChDhEhFhGhHhIhJhKhLhMhNhOhPhQhRhShThUhVhWhXhYhZh0h1h2h3h4h5h6h7h8h9h.h+",
"aaabacadaeafagahaiajakalamanaoapaqarasatauavawaxayazaAaBaCaDaEaFaGaHaIaJaKaLaMaNaOaPaQaRaSaTaUaVaWaXaYaZa0a1a2a3a4a5a6a7a8a9a.a+babbbcbdbebfbgbhbibjbkblbmbnbobpbqbrbsbtbubvbwbxbybzbAbBbCbDbEbFbGbHbIbJbKbLbMbNbObPbQbRbSbTbUbVbWbXbYbZb0b1b2b3b4b5b6b7b8b9b.b+cacbcccdcecfcgchcicjckclcmcncocpcqcrcsctcucvcwcxcyczcAcBcCcDcEcFcGcHcIcJcKcLcMcNcOcPcQcRcScTcUcVcWcXcYcZc0c1c2c3c4c5c6c7c8c9c.c+dadbdcdddedfdgdhdidjdkdldmdndodpdqdrdsdtdudvdwdxdydzdAdBdCdDdEdFdGdHdIdJdKdLdMdNdOdPdQdRdSdTdUdVdWdXdYdZd0d1d2d3d4d5d6d7d8d9d.d+eaebecedeeefegeheiejekelemeneoepeqereseteuevewexeyezeAeBeCeDeEeFeGeHeIeJeKeLeMeNeOePeQeReSeTeUeVeWeXeYeZe0e1e2e3e4e5e6e7e8e9e.e+fafbfcfdfefffgfhfifjfkflfmfnfofpfqfrfsftfufvfwfxfyfzfAfBfCfDfEfFfGfHfIfJfKfLfMfNfOfPfQfRfSfTfUfVfWfXfYfZf0f1f2f3f4f5f6f7f8f9f.f+gagbgcgdgegfggghgigjgkglgmgngogpgqgrgsgtgugvgwgxgygzgAgBgCgDgEgFgGgHgIgJgKgLgMgNgOgPgQgRgSgTgUgVgWgXgYgZg0g1g2g3g4g5g6g7g8g9g.g+hahbhchdhehfhghhhihjhkhlhmhnhohphqhrhshthuhvhwhxhyhzhAhBhChDhEhFhGhHhIhJhKhLhMhNhOhPhQhRhShThUhVhWhXhYhZh0h1h2h3h4h5h6h7h8h9h.h+",
"aaabacadaeafagahaiajakalamanaoapaqarasatauavawaxayazaAaBaCaDaEaFaGaHaIaJaKaLaMaNaOaPaQaRaSaTaUaVaWaXaYaZa0a1a2a3a4a5a6a7a8a9a.a+babbbcbdbebfbgbhbibjbkblbmbnbobpbqbrbsbtbubvbwbxbybzbAbBbCbDbEbFbGbHbIbJbKbLbMbNbObPbQbRbSbTbUbVbWbXbYbZb0b1b2b3b4b5b6b7b8b9b.b+cacbcccdcecfcgchcicjckclcmcncocpcqcrcsctcucvcwcxcyczcAcBcCcDcEcFcGcHcIcJcKcLcMcNcOcPcQcRcScTcUcVcWcXcYcZc0c1c2c3c4c5c6c7c8c9c.c+dadbdcdddedfdgdhdidjdkdldmdndodpdqdrdsdtdudvdwdxdydzdAdBdCdDdEdFdGdHdIdJdKdLdMdNdOdPdQdRdSdTdUdVdWdXdYdZd0d1d2d3d4d5d6d7d8d9d.d+eaebecedeeefegeheiejekelemeneoepeqereseteuevewexeyezeAeBeCeDeEeFeGeHeIeJeKeLeMeNeOePeQeReSeTeUeVeWeXeYeZe0e1e2e3e4e5e6e7e8e9e.e+fafbfcfdfefffgfhfifjfkflfmfnfofpfqfrfsftfufvfwfxfyfzfAfBfCfDfEfFfGfHfIfJfKfLfMfNfOfPfQfRfSfTfUfVfWfXfYfZf0f1f2f3f4f5f6f7f8f9f.f+gagbgcgdgegfggghgigjgkglgmgngogpgqgrgsgtgugvgwgxgygzgAgBgCgDgEgFgGgHgIgJgKgLgMgNgOgPgQgRgSgTgUgVgWgXgYgZg0g1g2g3g4g5g6g7g8g9g.g+hahbhchdhehfhghhhihjhkhlhmhnhohphqhrhshthuhvhwhxhyhzhAhBhChDhEhFhGhHhIhJhKhLhMhNhOhPhQhRhShThUhVhWhXhYhZh0h1h2h3h4h5h6h7h8h9h.h+",
"aaabacadaeafagahaiajakalamanaoapaqarasatauavawaxayazaAaBaCaDaEaFaGaHaIaJaKaLaMaNaOaPaQaRaSaTaUaVaWaXaYaZa0a1a2a3a4a5a6a7a8a9a.a+babbbcbdbebfbgbhbibjbkblbmbnbobpbqbrbsbtbubvbwbxbybzbAbBbCbDbEbFbGbHbIbJbKbLbMbNbObPbQbRbSbTbUbVbWbXbYbZb0b1b2b3b4b5b6b7b8b9b.b+cacbcccdcecfcgchcicjckclcmcncocpcqcrcsctcucvcwcxcyczcAcBcCcDcEcFcGcHcIcJcKcLcMcNcOcPcQcRcScTcUcVcWcXcYcZc0c1c2c3c4c5c6c7c8c9c.c+dadbdcdddedfdgdhdidjdkdldmdndodpdqdrdsdtdudvdwdxdydzdAdBdCdDdEdFdGdHdIdJdKdLdMdNdOdPdQdRdSdTdUdVdWdXdYdZd0d1d2d3d4d5d6d7d8d9d.d+eaebecedeeefegeheiejekelemeneoepeqereseteuevewexeyezeAeBeCeDeEeFeGeHeIeJeKeLeMeNeOePeQeReSeTeUeVeWeXeYeZe0e1e2e3e4e5e6e7e8e9e.e+fafbfcfdfefffgfhfifjfkflfmfnfofpfqfrfsftfufvfwfxfyfzfAfBfCfDfEfFfGfHfIfJfKfLfMfNfOfPfQfRfSfTfUfVfWfXfYfZf0f1f2f3f4f5f6f7f8f9f.f+gagbgcgdgegfggghgigjgkglgmgngogpgqgrgsgtgugvgwgxgygzgAgBgCgDgEgFgGgHgIgJgKgLgMgNgOgPgQgRgSgTgUgVgWgXgYgZg0g1g2g3g4g5g6g7g8g9g.g+hahbhchdhehfhghhhihjhkhlhmhnhohphqhrhshthuhvhwhxhyhzhAhBhChDhEhFhGhHhIhJhKhLhMhNhOhPhQhRhShThUhVhWhXhYhZh0h1h2h3h4h5h6h7h8h9h.h+",
"aaabacadaeafagahaiajakalamanaoapaqarasatauavawaxayazaAaBaCaDaEaFaGaHaIaJaKaLaMaNaOaPaQaRaSaTaUaVaWaXaYaZa0a1a2a3a4a5a6a7a8a9a.a+babbbcbdbebfbgbhbibjbkblbmbnbobpbqbrbsbtbubvbwbxbybzbAbBbCbDbEbFbGbHbIbJbKbLbMbNbObPbQbRbSbTbUbVbWbXbYbZb0b1b2b3b4b5b6b7b8b9b.b+cacbcccdcecfcgchcicjckclcmcncocpcqcrcsctcucvcwcxcyczcAcBcCcDcEcFcGcHcIcJcKcLcMcNcOcPcQcRcScTcUcVcWcXcYcZc0c1c2c3c4c5c6c7c8c9c.c+dadbdcdddedfdgdhdidjdkdldmdndodpdqdrdsdtdudvdwdxdydzdAdBdCdDdEdFdGdHdIdJdKdLdMdNdOdPdQdRdSdTdUdVdWdXdYdZd0d1d2d3d4d5d6d7d8d9d.d+eaebecedeeefegeheiejekelemeneoepeqereseteuevewexeyezeAeBeCeDeEeFeGeHeIeJeKeLeMeNeOePeQeReSeTeUeVeWeXeYeZe0e1e2e3e4e5e6e7e8e9e.e+fafbfcfdfefffgfhfifjfkflfmfnfofpfqfrfsftfufvfwfxfyfzfAfBfCfDfEfFfGfHfIfJfKfLfMfNfOfPfQfRfSfTfUfVfWfXfYfZf0f1f2f3f4f5f6f7f8f9f.f+gagbgcgdgegfggghgigjgkglgmgngogpgqgrgsgtgugvgwgxgygzgAgBgCgDgEgFgGgHgIgJgKgLgMgNgOgPgQgRgSgTgUgVgWgXgYgZg0g1g2g3g4g5g6g7g8g9g.g+hahbhchdhehfhghhhihjhkhlhmhnhohphqhrhshthuhvhwhxhyhzhAhBhChDhEhFhGhHhIhJhKhLhMhNhOhPhQhRhShThUhVhWhXhYhZh0h1h2h3h4h5h6h7h8h9h.h+",
"aaabacadaeafagahaiajakalamanaoapaqarasatauavawaxayazaAaBaCaDaEaFaGaHaIaJaKaLaMaNaOaPaQaRaSaTaUaVaWaXaYaZa0a1a2a3a4a5a6a7a8a9a.a+babbbcbdbebfbgbhbibjbkblbmbnbobpbqbrbsbtbubvbwbxbybzbAbBbCbDbEbFbGbHbIbJbKbLbMbNbObPbQbRbSbTbUbVbWbXbYbZb0b1b2b3b4b5b6b7b8b9b.b+cacbcccdcecfcgchcicjckclcmcncocpcqcrcsctcucvcwcxcyczcAcBcCcDcEcFcGcHcIcJcKcLcMcNcOcPcQcRcScTcUcVcWcXcYcZc0c1c2c3c4c5c6c7c8c9c.c+dadbdcdddedfdgdhdidjdkdldmdndodpdqdrdsdtdudvdwdxdydzdAdBdCdDdEdFdGdHdIdJdKdLdMdNdOdPdQdRdSdTdUdVdWdXdYdZd0d1d2d3d4d5d6d7d8d9d.d+eaebecedeeefegeheiejekelemeneoepeqereseteuevewexeyezeAeBeCeDeEeFeGeHeIeJeKeLeMeNeOePeQeReSeTeUeVeWeXeYeZe0e1e2e3e4e5e6e7e8e9e.e+fafbfcfdfefffgfhfifjfkflfmfnfofpfqfrfsftfufvfwfxfyfzfAfBfCfDfEfFfGfHfIfJfKfLfMfNfOfPfQfRfSfTfUfVfWfXfYfZf0f1f2f3f4f5f6f7f8f9f.f+gagbgcgdgegfggghgigjgkglgmgngogpgqgrgsgtgugvgwgxgygzgAgBgCgDgEgFgGgHgIgJgKgLgMgNgOgPgQgRgSgTgUgVgWgXgYgZg0g1g2g3g4g5g6g7g8g9g.g+hahbhchdhehfhghhhihjhkhlhmhnhohphqhrhshthuhvhwhxhyhzhAhBhChDhEhFhGhHhIhJhKhLhMhNhOhPhQhRhShThUhVhWhXhYhZh0h1h2h3h4h5h6h7h8h9h.h+",
"aaabacadaeafagahaiajakalamanaoapaqarasatauavawaxayazaAaBaCaDaEaFaGaHaIaJaKaLaMaNaOaPaQaRaSaTaUaVaWaXaYaZa0a1a2a3a4a5a6a7a8a9a.a+babbbcbdbebfbgbhbibjbkblbmbnbobpbqbrbsbtbubvbwbxbybzbAbBbCbDbEbFbGbHbIbJbKbLbMbNbObPbQbRbSbTbUbVbWbXbYbZb0b1b2b3b4b5b6b7b8b9b.b+cacbcccdcecfcgchcicjckclcmcncocpcqcrcsctcucvcwcxcyczcAcBcCcDcEcFcGcHcIcJcKcLcMcNcOcPcQcRcScTcUcVcWcXcYcZc0c1c2c3c4c5c6c7c8c9c.c+dadbdcdddedfdgdhdidjdkdldmdndodpdqdrdsdtdudvdwdxdydzdAdBdCdDdEdFdGdHdIdJdKdLdMdNdOdPdQdRdSdTdUdVdWdXdYdZd0d1d2d3d4d5d6d7d8d9d.d+eaebecedeeefegeheiejekelemeneoepeqereseteuevewexeyezeAeBeCeDeEeFeGeHeIeJeKeLeMeNeOePeQeReSeTeUeVeWeXeYeZe0e1e2e3e4e5e6e7e8e9e.e+fafbfcfdfefffgfhfifjfkflfmfnfofpfqfrfsftfufvfwfxfyfzfAfBfCfDfEfFfGfHfIfJfKfLfMfNfOfPfQfRfSfTfUfVfWfXfYfZf0f1f2f3f4f5f6f7f8f9f.f+gagbgcgdgegfggghgigjgkglgmgngogpgqgrgsgtgugvgwgxgygzgAgBgCgDgEgFgGgHgIgJgKgLgMgNgOgPgQgRgSgTgUgVgWgXgYgZg0g1g2g3g4g5g6g7g8g9g.g+hahbhchdhehfhghhhihjhkhlhmhnhohphqhrhshthuhvhwhxhyhzhAhBhChDhEhFhGhHhIhJhKhLhMhNhOhPhQhRhShThUhVhWhXhYhZh0h1h2h3h4h5h6h7h8h9h.h+",
"aaabacadaeafagahaiajakalamanaoapaqarasatauavawaxayazaAaBaCaDaEaFaGaHaIaJaKaLaMaNaOaPaQaRaSaTaUaVaWaXaYaZa0a1a2a3a4a5a6a7a8a9a.a+babbbcbdbebfbgbhbibjbkblbmbnbobpbqbrbsbtbubvbwbxbybzbAbBbCbDbEbFbGbHbIbJbKbLbMbNbObPbQbRbSbTbUbVbWbXbYbZb0b1b2b3b4b5b6b7b8b9b.b+cacbcccdcecfcgchcicjckclcmcncocpcqcrcsctcucvcwcxcyczcAcBcCcDcEcFcGcHcIcJcKcLcMcNcOcPcQcRcScTcUcVcWcXcYcZc0c1c2c3c4c5c6c7c8c9c.c+dadbdcdddedfdgdhdidjdkdldmdndodpdqdrdsdtdudvdwdxdydzdAdBdCdDdEdFdGdHdIdJdKdLdMdNdOdPdQdRdSdTdUdVdWdXdYdZd0d1d2d3d4d5d6d7d8d9d.d+eaebecedeeefegeheiejekelemeneoepeqereseteuevewexeyezeAeBeCeDeEeFeGeHeIeJeKeLeMeNeOePeQeReSeTeUeVeWeXeYeZe0e1e2e3e4e5e6e7e8e9e.e+fafbfcfdfefffgfhfifjfkflfmfnfofpfqfrfsftfufvfwfxfyfzfAfBfCfDfEfFfGfHfIfJfKfLfMfNfOfPfQfRfSfTfUfVfWfXfYfZf0f1f2f3f4f5f6f7f8f9f.f+gagbgcgdgegfggghgigjgkglgmgngogpgqgrgsgtgugvgwgxgygzgAgBgCgDgEgFgGgHgIgJgKgLgMgNgOgPgQgRgSgTgUgVgWgXgYgZg0g1g2g3g4g5g6g7g8g9g.g+hahbhchdhehfhghhhihjhkhlhmhnhohphqhrhshthuhvhwhxhyhzhAhBhChDhEhFhGhHhIhJhKhLhMhNhOhPhQhRhShThUhVhWhXhYhZh0h1h2h3h4h5h6h7h8h9h.h+",
"aaabacadaeafagahaiajakalamanaoapaqarasatauavawaxayazaAaBaCaDaEaFaGaHaIaJaKaLaMaNaOaPaQaRaSaTaUaVaWaXaYaZa0a1a2a3a4a5a6a7a8a9a.a+babbbcbdbebfbgbhbibjbkblbmbnbobpbqbrbsbtbubvbwbxbybzbAbBbCbDbEbFbGbHbIbJbKbLbMbNbObPbQbRbSbTbUbVbWbXbYbZb0b1b2b3b4b5b6b7b8b9b.b+cacbcccdcecfcgchcicjckclcmcncocpcqcrcsctcucvcwcxcyczcAcBcCcDcEcFcGcHcIcJcKcLcMcNcOcPcQcRcScTcUcVcWcXcYcZc0c1c2c3c4c5c6c7c8c9c.c+dadbdcdddedfdgdhdidjdkdldmdndodpdqdrdsdtdudvdwdxdydzdAdBdCdDdEdFdGdHdIdJdKdLdMdNdOdPdQdRdSdTdUdVdWdXdYdZd0d1d2d3d4d5d6d7d8d9d.d+eaebecedeeefegeheiejekelemeneoepeqereseteuevewexeyezeAeBeCeDeEeFeGeHeIeJeKeLeMeNeOePeQeReSeTeUeVeWeXeYeZe0e1e2e3e4e5e6e7e8e9e.e+fafbfcfdfefffgfhfifjfkflfmfnfofpfqfrfsftfufvfwfxfyfzfAfBfCfDfEfFfGfHfIfJfKfLfMfNfOfPfQfRfSfTfUfVfWfXfYfZf0f1f2f3f4f5f6f7f8f9f.f+gagbgcgdgegfggghgigjgkglgmgngogpgqgrgsgtgugvgwgxgygzgAgBgCgDgEgFgGgHgIgJgKgLgMgNgOgPgQgRgSgTgUgVgWgXgYgZg0g1g2g3g4g5g6g7g8g9g.g+hahbhchdhehfhghhhihjhkhlhmhnhohphqhrhshthuhvhwhxhyhzhAhBhChDhEhFhGhHhIhJhKhLhMhNhOhPhQhRhShThUhVhWhXhYhZh0h1h2h3h4h5h6h7h8h9h.h+",
"aaabacadaeafagahaiajakalamanaoapaqarasatauavawaxayazaAaBaCaDaEaFaGaHaIaJaKaLaMaNaOaPaQaRaSaTaUaVaWaXaYaZa0a1a2a3a4a5a6a7a8a9a.a+babbbcbdbebfbgbhbibjbkblbmbnbobpbqbrbsbtbubvbwbxbybzbAbBbCbDbEbFbGbHbIbJbKbLbMbNbObPbQbRbSbTbUbVbWbXbYbZb0b1b2b3b4b5b6b7b8b9b.b+cacbcccdcecfcgchcicjckclcmcncocpcqcrcsctcucvcwcxcyczcAcBcCcDcEcFcGcHcIcJcKcLcMcNcOcPcQcRcScTcUcVcWcXcYcZc0c1c2c3c4c5c6c7c8c9c.c+dadbdcdddedfdgdhdidjdkdldmdndodpdqdrdsdtdudvdwdxdydzdAdBdCdDdEdFdGdHdIdJdKdLdMdNdOdPdQdRdSdTdUdVdWdXdYdZd0d1d2d3d4d5d6d7d8d9d.d+eaebecedeeefegeheiejekelemeneoepeqereseteuevewexeyezeAeBeCeDeEeFeGeHeIeJeKeLeMeNeOePeQeReSeTeUeVeWeXeYeZe0e1e2e3e4e5e6e7e8e9e.e+fafbfcfdfefffgfhfifjfkflfmfnfofpfqfrfsftfufvfwfxfyfzfAfBfCfDfEfFfGfHfIfJfKfLfMfNfOfPfQfRfSfTfUfVfWfXfYfZf0f1f2f3f4f5f6f7f8f9f.f+gagbgcgdgegfggghgigjgkglgmgngogpgqgrgsgtgugvgwgxgygzgAgBgCgDgEgFgGgHgIgJgKgLgMgNgOgPgQgRgSgTgUgVgWgXgYgZg0g1g2g3g4g5g6g7g8g9g.g+hahbhchdhehfhghhhihjhkhlhmhnhohphqhrhshthuhvhwhxhyhzhAhBhChDhEhFhGhHhIhJhKhLhMhNhOhPhQhRhShThUhVhWhXhYhZh0h1h2h3h4h5h6h7h8h9h.h+",
"aaabacadaeafagahaiajakalamanaoapaqarasatauavawaxayazaAaBaCaDaEaFaGaHaIaJaKaLaMaNaOaPaQaRaSaTaUaVaWaXaYaZa0a1a2a3a4a5a6a7a8a9a.a+babbbcbdbebfbgbhbibjbkblbmbnbobpbqbrbsbtbubvbwbxbybzbAbBbCbDbEbFbGbHbIbJbKbLbMbNbObPbQbRbSbTbUbVbWbXbYbZb0b1b2b3b4b5b6b7b8b9b.b+cacbcccdcecfcgchcicjckclcmcncocpcqcrcsctcucvcwcxcyczcAcBcCcDcEcFcGcHcIcJcKcLcMcNcOcPcQcRcScTcUcVcWcXcYcZc0c1c2c3c4c5c6c7c8c9c.c+dadbdcdddedfdgdhdidjdkdldmdndodpdqdrdsdtdudvdwdxdydzdAdBdCdDdEdFdGdHdIdJdKdLdMdNdOdPdQdRdSdTdUdVdWdXdYdZd0d1d2d3d4d5d6d7d8d9d.d+eaebecedeeefegeheiejekelemeneoepeqereseteuevewexeyezeAeBeCeDeEeFeGeHeIeJeKeLeMeNeOePeQeReSeTeUeVeWeXeYeZe0e1e2e3e4e5e6e7e8e9e.e+fafbfcfdfefffgfhfifjfkflfmfnfofpfqfrfsftfufvfwfxfyfzfAfBfCfDfEfFfGfHfIfJfKfLfMfNfOfPfQfRfSfTfUfVfWfXfYfZf0f1f2f3f4f5f6f7f8f9f.f+gagbgcgdgegfggghgigjgkglgmgngogpgqgrgsgtgugvgwgxgygzgAgBgCgDgEgFgGgHgIgJgKgLgMgNgOgPgQgRgSgTgUgVgWgXgYgZg0g1g2g3g4g5g6g7g8g9g.g+hahbhchdhehfhghhhihjhkhlhmhnhohphqhrhshthuhvhwhxhyhzhAhBhChDhEhFhGhHhIhJhKhLhMhNhOhPhQhRhShThUhVhWhXhYhZh0h1h2h3h4h5h6h7h8h9h.h+",
"aaabacadaeafagahaiajakalamanaoapaqarasatauavawaxayazaAaBaCaDaEaFaGaHaIaJaKaLaMaNaOaPaQaRaSaTaUaVaWaXaYaZa0a1a2a3a4a5a6a7a8a9a.a+babbbcbdbebfbgbhbibjbkblbmbnbobpbqbrbsbtbubvbwbxbybzbAbBbCbDbEbFbGbHbIbJbKbLbMbNbObPbQbRbSbTbUbVbWbXbYbZb0b1b2b3b4b5b6b7b8b9b.b+cacbcccdcecfcgchcicjckclcmcncocpcqcrcsctcucvcwcxcyczcAcBcCcDcEcFcGcHcIcJcKcLcMcNcOcPcQcRcScTcUcVcWcXcYcZc0c1c2c3c4c5c6c7c8c9c.c+dadbdcdddedfdgdhdidjdkdldmdndodpdqdrdsdtdudvdwdxdydzdAdBdCdDdEdFdGdHdIdJdKdLdMdNdOdPdQdRdSdTdUdVdWdXdYdZd0d1d2d3d4d5d6d7d8d9d.d+eaebecedeeefegeheiejekelemeneoepeqereseteuevewexeyezeAeBeCeDeEeFeGeHeIeJeKeLeMeNeOePeQeReSeTeUeVeWeXeYeZe0e1e2e3e4e5e6e7e8e9e.e+fafbfcfdfefffgfhfifjfkflfmfnfofpfqfrfsftfufvfwfxfyfzfAfBfCfDfEfFfGfHfIfJfKfLfMfNfOfPfQfRfSfTfUfVfWfXfYfZf0f1f2f3f4f5f6f7f8f9f.f+gagbgcgdgegfggghgigjgkglgmgngogpgqgrgsgtgugvgwgxgygzgAgBgCgDgEgFgGgHgIgJgKgLgMgNgOgPgQgRgSgTgUgVgWgXgYgZg0g1g2g3g4g5g6g7g8g9g.g+hahbhchdhehfhghhhihjhkhlhmhnhohphqhrhshthuhvhwhxhyhzhAhBhChDhEhFhGhHhIhJhKhLhMhNhOhPhQhRhShThUhVhWhXhYhZh0h1h2h3h4h5h6h7h8h9h.h+",
"aaabacadaeafagahaiajakalamanaoapaqarasatauavawaxayazaAaBaCaDaEaFaGaHaIaJaKaLaMaNaOaPaQaRaSaTaUaVaWaXaYaZa0a1a2a3a4a5a6a7a8a9a.a+babbbcbdbebfbgbhbibjbkblbmbnbobpbqbrbsbtbubvbwbxbybzbAbBbCbDbEbFbGbHbIbJbKbLbMbNbObPbQbRbSbTbUbVbWbXbYbZb0b1b2b3b4b5b6b7b8b9b.b+cacbcccdcecfcgchcicjckclcmcncocpcqcrcsctcucvcwcxcyczcAcBcCcDcEcFcGcHcIcJcKcLcMcNcOcPcQcRcScTcUcVcWcXcYcZc0c1c2c3c4c5c6c7c8c9c.c+dadbdcdddedfdgdhdidjdkdldmdndodpdqdrdsdtdudvdwdxdydzdAdBdCdDdEdFdGdHdIdJdKdLdMdNdOdPdQdRdSdTdUdVdWdXdYdZd0d1d2d3d4d5d6d7d8d9d.d+eaebecedeeefegeheiejekelemeneoepeqereseteuevewexeyezeAeBeCeDeEeFeGeHeIeJeKeLeMeNeOePeQeReSeTeUeVeWeXeYeZe0e1e2e3e4e5e6e7e8e9e.e+fafbfcfdfefffgfhfifjfkflfmfnfofpfqfrfsftfufvfwfxfyfzfAfBfCfDfEfFfGfHfIfJfKfLfMfNfOfPfQfRfSfTfUfVfWfXfYfZf0f1f2f3f4f5f6f7f8f9f.f+gagbgcgdgegfggghgigjgkglgmgngogpgqgrgsgtgugvgwgxgygzgAgBgCgDgEgFgGgHgIgJgKgLgMgNgOgPgQgRgSgTgUgVgWgXgYgZg0g1g2g3g4g5g6g7g8g9g.g+hahbhchdhehfhghhhihjhkhlhmhnhohphqhrhshthuhvhwhxhyhzhAhBhChDhEhFhGhHhIhJhKhLhMhNhOhPhQhRhShThUhVhWhXhYhZh0h1h2h3h4h5h6h7h8h9h.h+",
"aaabacadaeafagahaiajakalamanaoapaqarasatauavawaxayazaAaBaCaDaEaFaGaHaIaJaKaLaMaNaOaPaQaRaSaTaUaVaWaXaYaZa0a1a2a3a4a5a6a7a8a9a.a+babbbcbdbebfbgbhbibjbkblbmbnbobpbqbrbsbtbubvbwbxbybzbAbBbCbDbEbFbGbHbIbJbKbLbMbNbObPbQbRbSbTbUbVbWbXbYbZb0b1b2b3b4b5b6b7b8b9b.b+cacbcccdcecfcgchcicjckclcmcncocpcqcrcsctcucvcwcxcyczcAcBcCcDcEcFcGcHcIcJcKcLcMcNcOcPcQcRcScTcUcVcWcXcYcZc0c1c2c3c4c5c6c7c8c9c.c+dadbdcdddedfdgdhdidjdkdldmdndodpdqdrdsdtdudvdwdxdydzdAdBdCdDdEdFdGdHdIdJdKdLdMdNdOdPdQdRdSdTdUdVdWdXdYdZd0d1d2d3d4d5d6d7d8d9d.d+eaebecedeeefegeheiejekelemeneoepeqereseteuevewexeyezeAeBeCeDeEeFeGeHeIeJeKeLeMeNeOePeQeReSeTeUeVeWeXeYeZe0e1e2e3e4e5e6e7e8e9e.e+fafbfcfdfefffgfhfifjfkflfmfnfofpfqfrfsftfufvfwfxfyfzfAfBfCfDfEfFfGfHfIfJfKfLfMfNfOfPfQfRfSfTfUfVfWfXfYfZf0f1f2f3f4f5f6f7f8f9f.f+gagbgcgdgegfggghgigjgkglgmgngogpgqgrgsgtgugvgwgxgygzgAgBgCgDgEgFgGgHgIgJgKgLgMgNgOgPgQgRgSgTgUgVgWgXgYgZg0g1g2g3g4g5g6g7g8g9g.g+hahbhchdhehfhghhhihjhkhlhmhnhohphqhrhshthuhvhwhxhyhzhAhBhChDhEhFhGhHhIhJhKhLhMhNhOhPhQhRhShThUhVhWhXhYhZh0h1h2h3h4h5h6h7h8h9h.h+",
"aaabacadaeafagahaiajakalamanaoapaqarasatauavawaxayazaAaBaCaDaEaFaGaHaIaJaKaLaMaNaOaPaQaRaSaTaUaVaWaXaYaZa0a1a2a3a4a5a6a7a8a9a.a+babbbcbdbebfbgbhbibjbkblbmbnbobpbqbrbsbtbubvbwbxbybzbAbBbCbDbEbFbGbHbIbJbKbLbMbNbObPbQbRbSbTbUbVbWbXbYbZb0b1b2b3b4b5b6b7b8b9b.b+cacbcccdcecfcgchcicjckclcmcncocpcqcrcsctcucvcwcxcyczcAcBcCcDcEcFcGcHcIcJcKcLcMcNcOcPcQcRcScTcUcVcWcXcYcZc0c1c2c3c4c5c6c7c8c9c.c+dadbdcdddedfdgdhdidjdkdldmdndodpdqdrdsdtdudvdwdxdydzdAdBdCdDdEdFdGdHdIdJdKdLdMdNdOdPdQdRdSdTdUdVdWdXdYdZd0d1d2d3d4d5d6d7d8d9d.d+eaebecedeeefegeheiejekelemeneoepeqereseteuevewexeyezeAeBeCeDeEeFeGeHeIeJeKeLeMeNeOePeQeReSeTeUeVeWeXeYeZe0e1e2e3e4e5e6e7e8e9e.e+fafbfcfdfefffgfhfifjfkflfmfnfofpfqfrfsftfufvfwfxfyfzfAfBfCfDfEfFfGfHfIfJfKfLfMfNfOfPfQfRfSfTfUfVfWfXfYfZf0f1f2f3f4f5f6f7f8f9f.f+gagbgcgdgegfggghgigjgkglgmgngogpgqgrgsgtgugvgwgxgygzgAgBgCgDgEgFgGgHgIgJgKgLgMgNgOgPgQgRgSgTgUgVgWgXgYgZg0g1g2g3g4g5g6g7g8g9g.g+hahbhchdhehfhghhhihjhkhlhmhnhohphqhrhshthuhvhwhxhyhzhAhBhChDhEhFhGhHhIhJhKhLhMhNhOhPhQhRhShThUhVhWhXhYhZh0h1h2h3h4h5h6h7h8h9h.h+",
"aaabacadaeafagahaiajakalamanaoapaqarasatauavawaxayazaAaBaCaDaEaFaGaHaIaJaKaLaMaNaOaPaQaRaSaTaUaVaWaXaYaZa0a1a2a3a4a5a6a7a8a9a.a+babbbcbdbebfbgbhbibjbkblbmbnbobpbqbrbsbtbubvbwbxbybzbAbBbCbDbEbFbGbHbIbJbKbLbMbNbObPbQbRbSbTbUbVbWbXbYbZb0b1b2b3b4b5b6b7b8b9b.b+cacbcccdcecfcgchcicjckclcmcncocpcqcrcsctcucvcwcxcyczcAcBcCcDcEcFcGcHcIcJcKcLcMcNcOcPcQcRcScTcUcVcWcXcYcZc0c1c2c3c4c5c6c7c8c9c.c+dadbdcdddedfdgdhdidjdkdldmdndodpdqdrdsdtdudvdwdxdydzdAdBdCdDdEdFdGdHdIdJdKdLdMdNdOdPdQdRdSdTdUdVdWdXdYdZd0d1d2d3d4d5d6d7d8d9d.d+eaebecedeeefegeheiejekelemeneoepeqereseteuevewexeyezeAeBeCeDeEeFeGeHeIeJeKeLeMeNeOePeQeReSeTeUeVeWeXeYeZe0e1e2e3e4e5e6e7e8e9e.e+fafbfcfdfefffgfhfifjfkflfmfnfofpfqfrfsftfufvfwfxfyfzfAfBfCfDfEfFfGfHfIfJfKfLfMfNfOfPfQfRfSfTfUfVfWfXfYfZf0f1f2f3f4f5f6f7f8f9f.f+gagbgcgdgegfggghgigjgkglgmgngogpgqgrgsgtgugvgwgxgygzgAgBgCgDgEgFgGgHgIgJgKgLgMgNgOgPgQgRgSgTgUgVgWgXgYgZg0g1g2g3g4g5g6g7g8g9g.g+hahbhchdhehfhghhhihjhkhlhmhnhohphqhrhshthuhvhwhxhyhzhAhBhChDhEhFhGhHhIhJhKhLhMhNhOhPhQhRhShThUhVhWhXhYhZh0h1h2h3h4h5h6h7h8h9h.h+",
"aaabacadaeafagahaiajakalamanaoapaqarasatauavawaxayazaAaBaCaDaEaFaGaHaIaJaKaLaMaNaOaPaQaRaSaTaUaVaWaXaYaZa0a1a2a3a4a5a6a7a8a9a.a+babbbcbdbebfbgbhbibjbkblbmbnbobpbqbrbsbtbubvbwbxbybzbAbBbCbDbEbFbGbHbIbJbKbLbMbNbObPbQbRbSbTbUbVbWbXbYbZb0b1b2b3b4b5b6b7b8b9b.b+cacbcccdcecfcgchcicjckclcmcncocpcqcrcsctcucvcwcxcyczcAcBcCcDcEcFcGcHcIcJcKcLcMcNcOcPcQcRcScTcUcVcWcXcYcZc0c1c2c3c4c5c6c7c8c9c.c+dadbdcdddedfdgdhdidjdkdldmdndodpdqdrdsdtdudvdwdxdydzdAdBdCdDdEdFdGdHdIdJdKdLdMdNdOdPdQdRdSdTdUdVdWdXdYdZd0d1d2d3d4d5d6d7d8d9d.d+eaebecedeeefegeheiejekelemeneoepeqereseteuevewexeyezeAeBeCeDeEeFeGeHeIeJeKeLeMeNeOePeQeReSeTeUeVeWeXeYeZe0e1e2e3e4e5e6e7e8e9e.e+fafbfcfdfefffgfhfifjfkflfmfnfofpfqfrfsftfufvfwfxfyfzfAfBfCfDfEfFfGfHfIfJfKfLfMfNfOfPfQfRfSfTfUfVfWfXfYfZf0f1f2f3f4f5f6f7f8f9f.f+gagbgcgdgegfggghgigjgkglgmgngogpgqgrgsgtgugvgwgxgygzgAgBgCgDgEgFgGgHgIgJgKgLgMgNgOgPgQgRgSgTgUgVgWgXgYgZg0g1g2g3g4g5g6g7g8g9g.g+hahbhchdhehfhghhhihjhkhlhmhnhohphqhrhshthuhvhwhxhyhzhAhBhChDhEhFhGhHhIhJhKhLhMhNhOhPhQhRhShThUhVhWhXhYhZh0h1h2h3h4h5h6h7h8h9h.h+",
"aaabacadaeafagahaiajakalamanaoapaqarasatauavawaxayazaAaBaCaDaEaFaGaHaIaJaKaLaMaNaOaPaQaRaSaTaUaVaWaXaYaZa0a1a2a3a4a5a6a7a8a9a.a+babbbcbdbebfbgbhbibjbkblbmbnbobpbqbrbsbtbubvbwbxbybzbAbBbCbDbEbFbGbHbIbJbKbLbMbNbObPbQbRbSbTbUbVbWbXbYbZb0b1b2b3b4b5b6b7b8b9b.b+cacbcccdcecfcgchcicjckclcmcncocpcqcrcsctcucvcwcxcyczcAcBcCcDcEcFcGcHcIcJcKcLcMcNcOcPcQcRcScTcUcVcWcXcYcZc0c1c2c3c4c5c6c7c8c9c.c+dadbdcdddedfdgdhdidjdkdldmdndodpdqdrdsdtdudvdwdxdydzdAdBdCdDdEdFdGdHdIdJdKdLdMdNdOdPdQdRdSdTdUdVdWdXdYdZd0d1d2d3d4d5d6d7d8d9d.d+eaebecedeeefegeheiejekelemeneoepeqereseteuevewexeyezeAeBeCeDeEeFeGeHeIeJeKeLeMeNeOePeQeReSeTeUeVeWeXeYeZe0e1e2e3e4e5e6e7e8e9e.e+fafbfcfdfefffgfhfifjfkflfmfnfofpfqfrfsftfufvfwfxfyfzfAfBfCfDfEfFfGfHfIfJfKfLfMfNfOfPfQfRfSfTfUfVfWfXfYfZf0f1f2f3f4f5f6f7f8f9f.f+gagbgcgdgegfggghgigjgkglgmgngogpgqgrgsgtgugvgwgxgygzgAgBgCgDgEgFgGgHgIgJgKgLgMgNgOgPgQgRgSgTgUgVgWgXgYgZg0g1g2g3g4g5g6g7g8g9g.g+hahbhchdhehfhghhhihjhkhlhmhnhohphqhrhshthuhvhwhxhyhzhAhBhChDhEhFhGhHhIhJhKhLhMhNhOhPhQhRhShThUhVhWhXhYhZh0h1h2h3h4h5h6h7h8h9h.h+",
"aaabacadaeafagahaiajakalamanaoapaqarasatauavawaxayazaAaBaCaDaEaFaGaHaIaJaKaLaMaNaOaPaQaRaSaTaUaVaWaXaYaZa0a1a2a3a4a5a6a7a8a9a.a+babbbcbdbebfbgbhbibjbkblbmbnbobpbqbrbsbtbubvbwbxbybzbAbBbCbDbEbFbGbHbIbJbKbLbMbNbObPbQbRbSbTbUbVbWbXbYbZb0b1b2b3b4b5b6b7b8b9b.b+cacbcccdcecfcgchcicjckclcmcncocpcqcrcsctcucvcwcxcyczcAcBcCcDcEcFcGcHcIcJcKcLcMcNcOcPcQcRcScTcUcVcWcXcYcZc0c1c2c3c4c5c6c7c8c9c.c+dadbdcdddedfdgdhdidjdkdldmdndodpdqdrdsdtdudvdwdxdydzdAdBdCdDdEdFdGdHdIdJdKdLdMdNdOdPdQdRdSdTdUdVdWdXdYdZd0d1d2d3d4d5d6d7d8d9d.d+eaebecedeeefegeheiejekelemeneoepeqereseteuevewexeyezeAeBeCeDeEeFeGeHeIeJeKeLeMeNeOePeQeReSeTeUeVeWeXeYeZe0e1e2e3e4e5e6e7e8e9e.e+fafbfcfdfefffgfhfifjfkflfmfnfofpfqfrfsftfufvfwfxfyfzfAfBfCfDfEfFfGfHfIfJfKfLfMfNfOfPfQfRfSfTfUfVfWfXfYfZf0f1f2f3f4f5f6f7f8f9f.f+gagbgcgdgegfggghgigjgkglgmgngogpgqgrgsgtgugvgwgxgygzgAgBgCgDgEgFgGgHgIgJgKgLgMgNgOgPgQgRgSgTgUgVgWgXgYgZg0g1g2g3g4g5g6g7g8g9g.g+hahbhchdhehfhghhhihjhkhlhmhnhohphqhrhshthuhvhwhxhyhzhAhBhChDhEhFhGhHhIhJhKhLhMhNhOhPhQhRhShThUhVhWhXhYhZh0h1h2h3h4h5h6h7h8h9h.h+",
"aaabacadaeafagahaiajakalamanaoapaqarasatauavawaxayazaAaBaCaDaEaFaGaHaIaJaKaLaMaNaOaPaQaRaSaTaUaVaWaXaYaZa0a1a2a3a4a5a6a7a8a9a.a+babbbcbdbebfbgbhbibjbkblbmbnbobpbqbrbsbtbubvbwbxbybzbAbBbCbDbEbFbGbHbIbJbKbLbMbNbObPbQbRbSbTbUbVbWbXbYbZb0b1b2b3b4b5b6b7b8b9b.b+cacbcccdcecfcgchcicjckclcmcncocpcqcrcsctcucvcwcxcyczcAcBcCcDcEcFcGcHcIcJcKcLcMcNcOcPcQcRcScTcUcVcWcXcYcZc0c1c2c3c4c5c6c7c8c9c.c+dadbdcdddedfdgdhdidjdkdldmdndodpdqdrdsdtdudvdwdxdydzdAdBdCdDdEdFdGdHdIdJdKdLdMdNdOdPdQdRdSdTdUdVdWdXdYdZd0d1d2d3d4d5d6d7d8d9d.d+eaebecedeeefegeheiejekelemeneoepeqereseteuevewexeyezeAeBeCeDeEeFeGeHeIeJeKeLeMeNeOePeQeReSeTeUeVeWeXeYeZe0e1e2e3e4e5e6e7e8e9e.e+fafbfcfdfefffgfhfifjfkflfmfnfofpfqfrfsftfufvfwfxfyfzfAfBfCfDfEfFfGfHfIfJfKfLfMfNfOfPfQfRfSfTfUfVfWfXfYfZf0f1f2f3f4f5f6f7f8f9f.f+gagbgcgdgegfggghgigjgkglgmgngogpgqgrgsgtgugvgwgxgygzgAgBgCgDgEgFgGgHgIgJgKgLgMgNgOgPgQgRgSgTgUgVgWgXgYgZg0g1g2g3g4g5g6g7g8g9g.g+hahbhchdhehfhghhhihjhkhlhmhnhohphqhrhshthuhvhwhxhyhzhAhBhChDhEhFhGhHhIhJhKhLhMhNhOhPhQhRhShThUhVhWhXhYhZh0h1h2h3h4h5h6h7h8h9h.h+",
"aaabacadaeafagahaiajakalamanaoapaqarasatauavawaxayazaAaBaCaDaEaFaGaHaIaJaKaLaMaNaOaPaQaRaSaTaUaVaWaXaYaZa0a1a2a3a4a5a6a7a8a9a.a+babbbcbdbebfbgbhbibjbkblbmbnbobpbqbrbsbtbubvbwbxbybzbAbBbCbDbEbFbGbHbIbJbKbLbMbNbObPbQbRbSbTbUbVbWbXbYbZb0b1b2b3b4b5b6b7b8b9b.b+cacbcccdcecfcgchcicjckclcmcncocpcqcrcsctcucvcwcxcyczcAcBcCcDcEcFcGcHcIcJcKcLcMcNcOcPcQcRcScTcUcVcWcXcYcZc0c1c2c3c4c5c6c7c8c9c.c+dadbdcdddedfdgdhdidjdkdldmdndodpdqdrdsdtdudvdwdxdydzdAdBdCdDdEdFdGdHdIdJdKdLdMdNdOdPdQdRdSdTdUdVdWdXdYdZd0d1d2d3d4d5d6d7d8d9d.d+eaebecedeeefegeheiejekelemeneoepeqereseteuevewexeyezeAeBeCeDeEeFeGeHeIeJeKeLeMeNeOePeQeReSeTeUeVeWeXeYeZe0e1e2e3e4e5e6e7e8e9e.e+fafbfcfdfefffgfhfifjfkflfmfnfofpfqfrfsftfufvfwfxfyfzfAfBfCfDfEfFfGfHfIfJfKfLfMfNfOfPfQfRfSfTfUfVfWfXfYfZf0f1f2f3f4f5f6f7f8f9f.f+gagbgcgdgegfggghgigjgkglgmgngogpgqgrgsgtgugvgwgxgygzgAgBgCgDgEgFgGgHgIgJgKgLgMgNgOgPgQgRgSgTgUgVgWgXgYgZg0g1g2g3g4g5g6g7g8g9g.g+hahbhchdhehfhghhhihjhkhlhmhnhohphqhrhshthuhvhwhxhyhzhAhBhChDhEhFhGhHhIhJhKhLhMhNhOhPhQhRhShThUhVhWhXhYhZh0h1h2h3h4h5h6h7h8h9h.h+",
"aaabacadaeafagahaiajakalamanaoapaqarasatauavawaxayazaAaBaCaDaEaFaGaHaIaJaKaLaMaNaOaPaQaRaSaTaUaVaWaXaYaZa0a1a2a3a4a5a6a7a8a9a.a+babbbcbdbebfbgbhbibjbkblbmbnbobpbqbrbsbtbubvbwbxbybzbAbBbCbDbEbFbGbHbIbJbKbLbMbNbObPbQbRbSbTbUbVbWbXbYbZb0b1b2b3b4b5b6b7b8b9b.b+cacbcccdcecfcgchcicjckclcmcncocpcqcrcsctcucvcwcxcyczcAcBcCcDcEcFcGcHcIcJcKcLcMcNcOcPcQcRcScTcUcVcWcXcYcZc0c1c2c3c4c5c6c7c8c9c.c+dadbdcdddedfdgdhdidjdkdldmdndodpdqdrdsdtdudvdwdxdydzdAdBdCdDdEdFdGdHdIdJdKdLdMdNdOdPdQdRdSdTdUdVdWdXdYdZd0d1d2d3d4d5d6d7d8d9d.d+eaebecedeeefegeheiejekelemeneoepeqereseteuevewexeyezeAeBeCeDeEeFeGeHeIeJeKeLeMeNeOePeQeReSeTeUeVeWeXeYeZe0e1e2e3e4e5e6e7e8e9e.e+fafbfcfdfefffgfhfifjfkflfmfnfofpfqfrfsftfufvfwfxfyfzfAfBfCfDfEfFfGfHfIfJfKfLfMfNfOfPfQfRfSfTfUfVfWfXfYfZf0f1f2f3f4f5f6f7f8f9f.f+gagbgcgdgegfggghgigjgkglgmgngogpgqgrgsgtgugvgwgxgygzgAgBgCgDgEgFgGgHgIgJgKgLgMgNgOgPgQgRgSgTgUgVgWgXgYgZg0g1g2g3g4g5g6g7g8g9g.g+hahbhchdhehfhghhhihjhkhlhmhnhohphqhrhshthuhvhwhxhyhzhAhBhChDhEhFhGhHhIhJhKhLhMhNhOhPhQhRhShThUhVhWhXhYhZh0h1h2h3h4h5h6h7h8h9h.h+",
"aaabacadaeafagahaiajakalamanaoapaqarasatauavawaxayazaAaBaCaDaEaFaGaHaIaJaKaLaMaNaOaPaQaRaSaTaUaVaWaXaYaZa0a1a2a3a4a5a6a7a8a9a.a+babbbcbdbebfbgbhbibjbkblbmbnbobpbqbrbsbtbubvbwbxbybzbAbBbCbDbEbFbGbHbIbJbKbLbMbNbObPbQbRbSbTbUbVbWbXbYbZb0b1b2b3b4b5b6b7b8b9b.b+cacbcccdcecfcgchcicjckclcmcncocpcqcrcsctcucvcwcxcyczcAcBcCcDcEcFcGcHcIcJcKcLcMcNcOcPcQcRcScTcUcVcWcXcYcZc0c1c2c3c4c5c6c7c8c9c.c+dadbdcdddedfdgdhdidjdkdldmdndodpdqdrdsdtdudvdwdxdydzdAdBdCdDdEdFdGdHdIdJdKdLdMdNdOdPdQdRdSdTdUdVdWdXdYdZd0d1d2d3d4d5d6d7d8d9d.d+eaebecedeeefegeheiejekelemeneoepeqereseteuevewexeyezeAeBeCeDeEeFeGeHeIeJeKeLeMeNeOePeQeReSeTeUeVeWeXeYeZe0e1e2e3e4e5e6e7e8e9e.e+fafbfcfdfefffgfhfifjfkflfmfnfofpfqfrfsftfufvfwfxfyfzfAfBfCfDfEfFfGfHfIfJfKfLfMfNfOfPfQfRfSfTfUfVfWfXfYfZf0f1f2f3f4f5f6f7f8f9f.f+gagbgcgdgegfggghgigjgkglgmgngogpgqgrgsgtgugvgwgxgygzgAgBgCgDgEgFgGgHgIgJgKgLgMgNgOgPgQgRgSgTgUgVgWgXgYgZg0g1g2g3g4g5g6g7g8g9g.g+hahbhchdhehfhghhhihjhkhlhmhnhohphqhrhshthuhvhwhxhyhzhAhBhChDhEhFhGhHhIhJhKhLhMhNhOhPhQhRhShThUhVhWhXhYhZh0h1h2h3h4h5h6h7h8h9h.h+",
"aaabacadaeafagahaiajakalamanaoapaqarasatauavawaxayazaAaBaCaDaEaFaGaHaIaJaKaLaMaNaOaPaQaRaSaTaUaVaWaXaYaZa0a1a2a3a4a5a6a7a8a9a.a+babbbcbdbebfbgbhbibjbkblbmbnbobpbqbrbsbtbubvbwbxbybzbAbBbCbDbEbFbGbHbIbJbKbLbMbNbObPbQbRbSbTbUbVbWbXbYbZb0b1b2b3b4b5b6b7b8b9b.b+cacbcccdcecfcgchcicjckclcmcncocpcqcrcsctcucvcwcxcyczcAcBcCcDcEcFcGcHcIcJcKcLcMcNcOcPcQcRcScTcUcVcWcXcYcZc0c1c2c3c4c5c6c7c8c9c.c+dadbdcdddedfdgdhdidjdkdldmdndodpdqdrdsdtdudvdwdxdydzdAdBdCdDdEdFdGdHdIdJdKdLdMdNdOdPdQdRdSdTdUdVdWdXdYdZd0d1d2d3d4d5d6d7d8d9d.d+eaebecedeeefegeheiejekelemeneoepeqereseteuevewexeyezeAeBeCeDeEeFeGeHeIeJeKeLeMeNeOePeQeReSeTeUeVeWeXeYeZe0e1e2e3e4e5e6e7e8e9e.e+fafbfcfdfefffgfhfifjfkflfmfnfofpfqfrfsftfufvfwfxfyfzfAfBfCfDfEfFfGfHfIfJfKfLfMfNfOfPfQfRfSfTfUfVfWfXfYfZf0f1f2f3f4f5f6f7f8f9f.f+gagbgcgdgegfggghgigjgkglgmgngogpgqgrgsgtgugvgwgxgygzgAgBgCgDgEgFgGgHgIgJgKgLgMgNgOgPgQgRgSgTgUgVgWgXgYgZg0g1g2g3g4g5g6g7g8g9g.g+hahbhchdhehfhghhhihjhkhlhmhnhohphqhrhshthuhvhwhxhyhzhAhBhChDhEhFhGhHhIhJhKhLhMhNhOhPhQhRhShThUhVhWhXhYhZh0h1h2h3h4h5h6h7h8h9h.h+",
"aaabacadaeafagahaiajakalamanaoapaqarasatauavawaxayazaAaBaCaDaEaFaGaHaIaJaKaLaMaNaOaPaQaRaSaTaUaVaWaXaYaZa0a1a2a3a4a5a6a7a8a9a.a+babbbcbdbebfbgbhbibjbkblbmbnbobpbqbrbsbtbubvbwbxbybzbAbBbCbDbEbFbGbHbIbJbKbLbMbNbObPbQbRbSbTbUbVbWbXbYbZb0b1b2b3b4b5b6b7b8b9b.b+cacbcccdcecfcgchcicjckclcmcncocpcqcrcsctcucvcwcxcyczcAcBcCcDcEcFcGcHcIcJcKcLcMcNcOcPcQcRcScTcUcVcWcXcYcZc0c1c2c3c4c5c6c7c8c9c.c+dadbdcdddedfdgdhdidjdkdldmdndodpdqdrdsdtdudvdwdxdydzdAdBdCdDdEdFdGdHdIdJdKdLdMdNdOdPdQdRdSdTdUdVdWdXdYdZd0d1d2d3d4d5d6d7d8d9d.d+eaebecedeeefegeheiejekelemeneoepeqereseteuevewexeyezeAeBeCeDeEeFeGeHeIeJeKeLeMeNeOePeQeReSeTeUeVeWeXeYeZe0e1e2e3e4e5e6e7e8e9e.e+fafbfcfdfefffgfhfifjfkflfmfnfofpfqfrfsftfufvfwfxfyfzfAfBfCfDfEfFfGfHfIfJfKfLfMfNfOfPfQfRfSfTfUfVfWfXfYfZf0f1f2f3f4f5f6f7f8f9f.f+gagbgcgdgegfggghgigjgkglgmgngogpgqgrgsgtgugvgwgxgygzgAgBgCgDgEgFgGgHgIgJgKgLgMgNgOgPgQgRgSgTgUgVgWgXgYgZg0g1g2g3g4g5g6g7g8g9g.g+hahbhchdhehfhghhhihjhkhlhmhnhohphqhrhshthuhvhwhxhyhzhAhBhChDhEhFhGhHhIhJhKhLhMhNhOhPhQhRhShThUhVhWhXhYhZh0h1h2h3h4h5h6h7h8h9h.h+",
"aaabacadaeafagahaiajakalamanaoapaqarasatauavawaxayazaAaBaCaDaEaFaGaHaIaJaKaLaMaNaOaPaQaRaSaTaUaVaWaXaYaZa0a1a2a3a4a5a6a7a8a9a.a+babbbcbdbebfbgbhbibjbkblbmbnbobpbqbrbsbtbubvbwbxbybzbAbBbCbDbEbFbGbHbIbJbKbLbMbNbObPbQbRbSbTbUbVbWbXbYbZb0b1b2b3b4b5b6b7b8b9b.b+cacbcccdcecfcgchcicjckclcmcncocpcqcrcsctcucvcwcxcyczcAcBcCcDcEcFcGcHcIcJcKcLcMcNcOcPcQcRcScTcUcVcWcXcYcZc0c1c2c3c4c5c6c7c8c9c.c+dadbdcdddedfdgdhdidjdkdldmdndodpdqdrdsdtdudvdwdxdydzdAdBdCdDdEdFdGdHdIdJdKdLdMdNdOdPdQdRdSdTdUdVdWdXdYdZd0d1d2d3d4d5d6d7d8d9d.d+eaebecedeeefegeheiejekelemeneoepeqereseteuevewexeyezeAeBeCeDeEeFeGeHeIeJeKeLeMeNeOePeQeReSeTeUeVeWeXeYeZe0e1e2e3e4e5e6e7e8e9e.e+fafbfcfdfefffgfhfifjfkflfmfnfofpfqfrfsftfufvfwfxfyfzfAfBfCfDfEfFfGfHfIfJfKfLfMfNfOfPfQfRfSfTfUfVfWfXfYfZf0f1f2f3f4f5f6f7f8f9f.f+gagbgcgdgegfggghgigjgkglgmgngogpgqgrgsgtgugvgwgxgygzgAgBgCgDgEgFgGgHgIgJgKgLgMgNgOgPgQgRgSgTgUgVgWgXgYgZg0g1g2g3g4g5g6g7g8g9g.g+hahbhchdhehfhghhhihjhkhlhmhnhohphqhrhshthuhvhwhxhyhzhAhBhChDhEhFhGhHhIhJhKhLhMhNhOhPhQhRhShThUhVhWhXhYhZh0h1h2h3h4h5h6h7h8h9h.h+",
"aaabacadaeafagahaiajakalamanaoapaqarasatauavawaxayazaAaBaCaDaEaFaGaHaIaJaKaLaMaNaOaPaQaRaSaTaUaVaWaXaYaZa0a1a2a3a4a5a6a7a8a9a.a+babbbcbdbebfbgbhbibjbkblbmbnbobpbqbrbsbtbubvbwbxbybzbAbBbCbDbEbFbGbHbIbJbKbLbMbNbObPbQbRbSbTbUbVbWbXbYbZb0b1b2b3b4b5b6b7b8b9b.b+cacbcccdcecfcgchcicjckclcmcncocpcqcrcsctcucvcwcxcyczcAcBcCcDcEcFcGcHcIcJcKcLcMcNcOcPcQcRcScTcUcVcWcXcYcZc0c1c2c3c4c5c6c7c8c9c.c+dadbdcdddedfdgdhdidjdkdldmdndodpdqdrdsdtdudvdwdxdydzdAdBdCdDdEdFdGdHdIdJdKdLdMdNdOdPdQdRdSdTdUdVdWdXdYdZd0d1d2d3d4d5d6d7d8d9d.d+eaebecedeeefegeheiejekelemeneoepeqereseteuevewexeyezeAeBeCeDeEeFeGeHeIeJeKeLeMeNeOePeQeReSeTeUeVeWeXeYeZe0e1e2e3e4e5e6e7e8e9e.e+fafbfcfdfefffgfhfifjfkflfmfnfofpfqfrfsftfufvfwfxfyfzfAfBfCfDfEfFfGfHfIfJfKfLfMfNfOfPfQfRfSfTfUfVfWfXfYfZf0f1f2f3f4f5f6f7f8f9f.f+gagbgcgdgegfggghgigjgkglgmgngogpgqgrgsgtgugvgwgxgygzgAgBgCgDgEgFgGgHgIgJgKgLgMgNgOgPgQgRgSgTgUgVgWgXgYgZg0g1g2g3g4g5g6g7g8g9g.g+hahbhchdhehfhghhhihjhkhlhmhnhohphqhrhshthuhvhwhxhyhzhAhBhChDhEhFhGhHhIhJhKhLhMhNhOhPhQhRhShThUhVhWhXhYhZh0h1h2h3h4h5h6h7h8h9h.h+",
"aaabacadaeafagahaiajakalamanaoapaqarasatauavawaxayazaAaBaCaDaEaFaGaHaIaJaKaLaMaNaOaPaQaRaSaTaUaVaWaXaYaZa0a1a2a3a4a5a6a7a8a9a.a+babbbcbdbebfbgbhbibjbkblbmbnbobpbqbrbsbtbubvbwbxbybzbAbBbCbDbEbFbGbHbIbJbKbLbMbNbObPbQbRbSbTbUbVbWbXbYbZb0b1b2b3b4b5b6b7b8b9b.b+cacbcccdcecfcgchcicjckclcmcncocpcqcrcsctcucvcwcxcyczcAcBcCcDcEcFcGcHcIcJcKcLcMcNcOcPcQcRcScTcUcVcWcXcYcZc0c1c2c3c4c5c6c7c8c9c.c+dadbdcdddedfdgdhdidjdkdldmdndodpdqdrdsdtdudvdwdxdydzdAdBdCdDdEdFdGdHdIdJdKdLdMdNdOdPdQdRdSdTdUdVdWdXdYdZd0d1d2d3d4d5d6d7d8d9d.d+eaebecedeeefegeheiejekelemeneoepeqereseteuevewexeyezeAeBeCeDeEeFeGeHeIeJeKeLeMeNeOePeQeReSeTeUeVeWeXeYeZe0e1e2e3e4e5e6e7e8e9e.e+fafbfcfdfefffgfhfifjfkflfmfnfofpfqfrfsftfufvfwfxfyfzfAfBfCfDfEfFfGfHfIfJfKfLfMfNfOfPfQfRfSfTfUfVfWfXfYfZf0f1f2f3f4f5f6f7f8f9f.f+gagbgcgdgegfggghgigjgkglgmgngogpgqgrgsgtgugvgwgxgygzgAgBgCgDgEgFgGgHgIgJgKgLgMgNgOgPgQgRgSgTgUgVgWgXgYgZg0g1g2g3g4g5g6g7g8g9g.g+hahbhchdhehfhghhhihjhkhlhmhnhohphqhrhshthuhvhwhxhyhzhAhBhChDhEhFhGhHhIhJhKhLhMhNhOhPhQhRhShThUhVhWhXhYhZh0h1h2h3h4h5h6h7h8h9h.h+",
"aaabacadaeafagahaiajakalamanaoapaqarasatauavawaxayazaAaBaCaDaEaFaGaHaIaJaKaLaMaNaOaPaQaRaSaTaUaVaWaXaYaZa0a1a2a3a4a5a6a7a8a9a.a+babbbcbdbebfbgbhbibjbkblbmbnbobpbqbrbsbtbubvbwbxbybzbAbBbCbDbEbFbGbHbIbJbKbLbMbNbObPbQbRbSbTbUbVbWbXbYbZb0b1b2b3b4b5b6b7b8b9b.b+cacbcccdcecfcgchcicjckclcmcncocpcqcrcsctcucvcwcxcyczcAcBcCcDcEcFcGcHcIcJcKcLcMcNcOcPcQcRcScTcUcVcWcXcYcZc0c1c2c3c4c5c6c7c8c9c.c+dadbdcdddedfdgdhdidjdkdldmdndodpdqdrdsdtdudvdwdxdydzdAdBdCdDdEdFdGdHdIdJdKdLdMdNdOdPdQdRdSdTdUdVdWdXdYdZd0d1d2d3d4d5d6d7d8d9d.d+eaebecedeeefegeheiejekelemeneoepeqereseteuevewexeyezeAeBeCeDeEeFeGeHeIeJeKeLeMeNeOePeQeReSeTeUeVeWeXeYeZe0e1e2e3e4e5e6e7e8e9e.e+fafbfcfdfefffgfhfifjfkflfmfnfofpfqfrfsftfufvfwfxfyfzfAfBfCfDfEfFfGfHfIfJfKfLfMfNfOfPfQfRfSfTfUfVfWfXfYfZf0f1f2f3f4f5f6f7f8f9f.f+gagbgcgdgegfggghgigjgkglgmgngogpgqgrgsgtgugvgwgxgygzgAgBgCgDgEgFgGgHgIgJgKgLgMgNgOgPgQgRgSgTgUgVgWgXgYgZg0g1g2g3g4g5g6g7g8g9g.g+hahbhchdhehfhghhhihjhkhlhmhnhohphqhrhshthuhvhwhxhyhzhAhBhChDhEhFhGhHhIhJhKhLhMhNhOhPhQhRhShThUhVhWhXhYhZh0h1h2h3h4h5h6h7h8h9h.h+",
"aaabacadaeafagahaiajakalamanaoapaqarasatauavawaxayazaAaBaCaDaEaFaGaHaIaJaKaLaMaNaOaPaQaRaSaTaUaVaWaXaYaZa0a1a2a3a4a5a6a7a8a9a.a+babbbcbdbebfbgbhbibjbkblbmbnbobpbqbrbsbtbubvbwbxbybzbAbBbCbDbEbFbGbHbIbJbKbLbMbNbObPbQbRbSbTbUbVbWbXbYbZb0b1b2b3b4b5b6b7b8b9b.b+cacbcccdcecfcgchcicjckclcmcncocpcqcrcsctcucvcwcxcyczcAcBcCcDcEcFcGcHcIcJcKcLcMcNcOcPcQcRcScTcUcVcWcXcYcZc0c1c2c3c4c5c6c7c8c9c.c+dadbdcdddedfdgdhdidjdkdldmdndodpdqdrdsdtdudvdwdxdydzdAdBdCdDdEdFdGdHdIdJdKdLdMdNdOdPdQdRdSdTdUdVdWdXdYdZd0d1d2d3d4d5d6d7d8d9d.d+eaebecedeeefegeheiejekelemeneoepeqereseteuevewexeyezeAeBeCeDeEeFeGeHeIeJeKeLeMeNeOePeQeReSeTeUeVeWeXeYeZe0e1e2e3e4e5e6e7e8e9e.e+fafbfcfdfefffgfhfifjfkflfmfnfofpfqfrfsftfufvfwfxfyfzfAfBfCfDfEfFfGfHfIfJfKfLfMfNfOfPfQfRfSfTfUfVfWfXfYfZf0f1f2f3f4f5f6f7f8f9f.f+gagbgcgdgegfggghgigjgkglgmgngogpgqgrgsgtgugvgwgxgygzgAgBgCgDgEgFgGgHgIgJgKgLgMgNgOgPgQgRgSgTgUgVgWgXgYgZg0g1g2g3g4g5g6g7g8g9g.g+hahbhchdhehfhghhhihjhkhlhmhnhohphqhrhshthuhvhwhxhyhzhAhBhChDhEhFhGhHhIhJhKhLhMhNhOhPhQhRhShThUhVhWhXhYhZh0h1h2h3h4h5h6h7h8h9h.h+",
"aaabacadaeafagahaiajakalamanaoapaqarasatauavawaxayazaAaBaCaDaEaFaGaHaIaJaKaLaMaNaOaPaQaRaSaTaUaVaWaXaYaZa0a1a2a3a4a5a6a7a8a9a.a+babbbcbdbebfbgbhbibjbkblbmbnbobpbqbrbsbtbubvbwbxbybzbAbBbCbDbEbFbGbHbIbJbKbLbMbNbObPbQbRbSbTbUbVbWbXbYbZb0b1b2b3b4b5b6b7b8b9b.b+cacbcccdcecfcgchcicjckclcmcncocpcqcrcsctcucvcwcxcyczcAcBcCcDcEcFcGcHcIcJcKcLcMcNcOcPcQcRcScTcUcVcWcXcYcZc0c1c2c3c4c5c6c7c8c9c.c+dadbdcdddedfdgdhdidjdkdldmdndodpdqdrdsdtdudvdwdxdydzdAdBdCdDdEdFdGdHdIdJdKdLdMdNdOdPdQdRdSdTdUdVdWdXdYdZd0d1d2d3d4d5d6d7d8d9d.d+eaebecedeeefegeheiejekelemeneoepeqereseteuevewexeyezeAeBeCeDeEeFeGeHeIeJeKeLeMeNeOePeQeReSeTeUeVeWeXeYeZe0e1e2e3e4e5e6e7e8e9e.e+fafbfcfdfefffgfhfifjfkflfmfnfofpfqfrfsftfufvfwfxfyfzfAfBfCfDfEfFfGfHfIfJfKfLfMfNfOfPfQfRfSfTfUfVfWfXfYfZf0f1f2f3f4f5f6f7f8f9f.f+gagbgcgdgegfggghgigjgkglgmgngogpgqgrgsgtgugvgwgxgygzgAgBgCgDgEgFgGgHgIgJgKgLgMgNgOgPgQgRgSgTgUgVgWgXgYgZg0g1g2g3g4g5g6g7g8g9g.g+hahbhchdhehfhghhhihjhkhlhmhnhohphqhrhshthuhvhwhxhyhzhAhBhChDhEhFhGhHhIhJhKhLhMhNhOhPhQhRhShThUhVhWhXhYhZh0h1h2h3h4h5h6h7h8h9h.h+",
"aaabacadaeafagahaiajakalamanaoapaqarasatauavawaxayazaAaBaCaDaEaFaGaHaIaJaKaLaMaNaOaPaQaRaSaTaUaVaWaXaYaZa0a1a2a3a4a5a6a7a8a9a.a+babbbcbdbebfbgbhbibjbkblbmbnbobpbqbrbsbtbubvbwbxbybzbAbBbCbDbEbFbGbHbIbJbKbLbMbNbObPbQbRbSbTbUbVbWbXbYbZb0b1b2b3b4b5b6b7b8b9b.b+cacbcccdcecfcgchcicjckclcmcncocpcqcrcsctcucvcwcxcyczcAcBcCcDcEcFcGcHcIcJcKcLcMcNcOcPcQcRcScTcUcVcWcXcYcZc0c1c2c3c4c5c6c7c8c9c.c+dadbdcdddedfdgdhdidjdkdldmdndodpdqdrdsdtdudvdwdxdydzdAdBdCdDdEdFdGdHdIdJdKdLdMdNdOdPdQdRdSdTdUdVdWdXdYdZd0d1d2d3d4d5d6d7d8d9d.d+eaebecedeeefegeheiejekelemeneoepeqereseteuevewexeyezeAeBeCeDeEeFeGeHeIeJeKeLeMeNeOePeQeReSeTeUeVeWeXeYeZe0e1e2e3e4e5e6e7e8e9e.e+fafbfcfdfefffgfhfifjfkflfmfnfofpfqfrfsftfufvfwfxfyfzfAfBfCfDfEfFfGfHfIfJfKfLfMfNfOfPfQfRfSfTfUfVfWfXfYfZf0f1f2f3f4f5f6f7f8f9f.f+gagbgcgdgegfggghgigjgkglgmgngogpgqgrgsgtgugvgwgxgygzgAgBgCgDgEgFgGgHgIgJgKgLgMgNgOgPgQgRgSgTgUgVgWgXgYgZg0g1g2g3g4g5g6g7g8g9g.g+hahbhchdhehfhghhhihjhkhlhmhnhohphqhrhshthuhvhwhxhyhzhAhBhChDhEhFhGhHhIhJhKhLhMhNhOhPhQhRhShThUhVhWhXhYhZh0h1h2h3h4h5h6h7h8h9h.h+",
"aaabacadaeafagahaiajakalamanaoapaqarasatauavawaxayazaAaBaCaDaEaFaGaHaIaJaKaLaMaNaOaPaQaRaSaTaUaVaWaXaYaZa0a1a2a3a4a5a6a7a8a9a.a+babbbcbdbebfbgbhbibjbkblbmbnbobpbqbrbsbtbubvbwbxbybzbAbBbCbDbEbFbGbHbIbJbKbLbMbNbObPbQbRbSbTbUbVbWbXbYbZb0b1b2b3b4b5b6b7b8b9b.b+cacbcccdcecfcgchcicjckclcmcncocpcqcrcsctcucvcwcxcyczcAcBcCcDcEcFcGcHcIcJcKcLcMcNcOcPcQcRcScTcUcVcWcXcYcZc0c1c2c3c4c5c6c7c8c9c.c+dadbdcdddedfdgdhdidjdkdldmdndodpdqdrdsdtdudvdwdxdydzdAdBdCdDdEdFdGdHdIdJdKdLdMdNdOdPdQdRdSdTdUdVdWdXdYdZd0d1d2d3d4d5d6d7d8d9d.d+eaebecedeeefegeheiejekelemeneoepeqereseteuevewexeyezeAeBeCeDeEeFeGeHeIeJeKeLeMeNeOePeQeReSeTeUeVeWeXeYeZe0e1e2e3e4e5e6e7e8e9e.e+fafbfcfdfefffgfhfifjfkflfmfnfofpfqfrfsftfufvfwfxfyfzfAfBfCfDfEfFfGfHfIfJfKfLfMfNfOfPfQfRfSfTfUfVfWfXfYfZf0f1f2f3f4f5f6f7f8f9f.f+gagbgcgdgegfggghgigjgkglgmgngogpgqgrgsgtgugvgwgxgygzgAgBgCgDgEgFgGgHgIgJgKgLgMgNgOgPgQgRgSgTgUgVgWgXgYgZg0g1g2g3g4g5g6g7g8g9g.g+hahbhchdhehfhghhhihjhkhlhmhnhohphqhrhshthuhvhwhxhyhzhAhBhChDhEhFhGhHhIhJhKhLhMhNhOhPhQhRhShThUhVhWhXhYhZh0h1h2h3h4h5h6h7h8h9h.h+",
"aaabacadaeafagahaiajakalamanaoapaqarasatauavawaxayazaAaBaCaDaEaFaGaHaIaJaKaLaMaNaOaPaQaRaSaTaUaVaWaXaYaZa0a1a2a3a4a5a6a7a8a9a.a+babbbcbdbebfbgbhbibjbkblbmbnbobpbqbrbsbtbubvbwbxbybzbAbBbCbDbEbFbGbHbIbJbKbLbMbNbObPbQbRbSbTbUbVbWbXbYbZb0b1b2b3b4b5b6b7b8b9b.b+cacbcccdcecfcgchcicjckclcmcncocpcqcrcsctcucvcwcxcyczcAcBcCcDcEcFcGcHcIcJcKcLcMcNcOcPcQcRcScTcUcVcWcXcYcZc0c1c2c3c4c5c6c7c8c9c.c+dadbdcdddedfdgdhdidjdkdldmdndodpdqdrdsdtdudvdwdxdydzdAdBdCdDdEdFdGdHdIdJdKdLdMdNdOdPdQdRdSdTdUdVdWdXdYdZd0d1d2d3d4d5d6d7d8d9d.d+eaebecedeeefegeheiejekelemeneoepeqereseteuevewexeyezeAeBeCeDeEeFeGeHeIeJeKeLeMeNeOePeQeReSeTeUeVeWeXeYeZe0e1e2e3e4e5e6e7e8e9e.e+fafbfcfdfefffgfhfifjfkflfmfnfofpfqfrfsftfufvfwfxfyfzfAfBfCfDfEfFfGfHfIfJfKfLfMfNfOfPfQfRfSfTfUfVfWfXfYfZf0f1f2f3f4f5f6f7f8f9f.f+gagbgcgdgegfggghgigjgkglgmgngogpgqgrgsgtgugvgwgxgygzgAgBgCgDgEgFgGgHgIgJgKgLgMgNgOgPgQgRgSgTgUgVgWgXgYgZg0g1g2g3g4g5g6g7g8g9g.g+hahbhchdhehfhghhhihjhkhlhmhnhohphqhrhshthuhvhwhxhyhzhAhBhChDhEhFhGhHhIhJhKhLhMhNhOhPhQhRhShThUhVhWhXhYhZh0h1h2h3h4h5h6h7h8h9h.h+",
"aaabacadaeafagahaiajakalamanaoapaqarasatauavawaxayazaAaBaCaDaEaFaGaHaIaJaKaLaMaNaOaPaQaRaSaTaUaVaWaXaYaZa0a1a2a3a4a5a6a7a8a9a.a+babbbcbdbebfbgbhbibjbkblbmbnbobpbqbrbsbtbubvbwbxbybzbAbBbCbDbEbFbGbHbIbJbKbLbMbNbObPbQbRbSbTbUbVbWbXbYbZb0b1b2b3b4b5b6b7b8b9b.b+cacbcccdcecfcgchcicjckclcmcncocpcqcrcsctcucvcwcxcyczcAcBcCcDcEcFcGcHcIcJcKcLcMcNcOcPcQcRcScTcUcVcWcXcYcZc0c1c2c3c4c5c6c7c8c9c.c+dadbdcdddedfdgdhdidjdkdldmdndodpdqdrdsdtdudvdwdxdydzdAdBdCdDdEdFdGdHdIdJdKdLdMdNdOdPdQdRdSdTdUdVdWdXdYdZd0d1d2d3d4d5d6d7d8d9d.d+eaebecedeeefegeheiejekelemeneoepeqereseteuevewexeyezeAeBeCeDeEeFeGeHeIeJeKeLeMeNeOePeQeReSeTeUeVeWeXeYeZe0e1e2e3e4e5e6e7e8e9e.e+fafbfcfdfefffgfhfifjfkflfmfnfofpfqfrfsftfufvfwfxfyfzfAfBfCfDfEfFfGfHfIfJfKfLfMfNfOfPfQfRfSfTfUfVfWfXfYfZf0f1f2f3f4f5f6f7f8f9f.f+gagbgcgdgegfggghgigjgkglgmgngogpgqgrgsgtgugvgwgxgygzgAgBgCgDgEgFgGgHgIgJgKgLgMgNgOgPgQgRgSgTgUgVgWgXgYgZg0g1g2g3g4g5g6g7g8g9g.g+hahbhchdhehfhghhhihjhkhlhmhnhohphqhrhshthuhvhwhxhyhzhAhBhChDhEhFhGhHhIhJhKhLhMhNhOhPhQhRhShThUhVhWhXhYhZh0h1h2h3h4h5h6h7h8h9h.h+",
"aaabacadaeafagahaiajakalamanaoapaqarasatauavawaxayazaAaBaCaDaEaFaGaHaIaJaKaLaMaNaOaPaQaRaSaTaUaVaWaXaYaZa0a1a2a3a4a5a6a7a8a9a.a+babbbcbdbebfbgbhbibjbkblbmbnbobpbqbrbsbtbubvbwbxbybzbAbBbCbDbEbFbGbHbIbJbKbLbMbNbObPbQbRbSbTbUbVbWbXbYbZb0b1b2b3b4b5b6b7b8b9b.b+cacbcccdcecfcgchcicjckclcmcncocpcqcrcsctcucvcwcxcyczcAcBcCcDcEcFcGcHcIcJcKcLcMcNcOcPcQcRcScTcUcVcWcXcYcZc0c1c2c3c4c5c6c7c8c9c.c+dadbdcdddedfdgdhdidjdkdldmdndodpdqdrdsdtdudvdwdxdydzdAdBdCdDdEdFdGdHdIdJdKdLdMdNdOdPdQdRdSdTdUdVdWdXdYdZd0d1d2d3d4d5d6d7d8d9d.d+eaebecedeeefegeheiejekelemeneoepeqereseteuevewexeyezeAeBeCeDeEeFeGeHeIeJeKeLeMeNeOePeQeReSeTeUeVeWeXeYeZe0e1e2e3e4e5e6e7e8e9e.e+fafbfcfdfefffgfhfifjfkflfmfnfofpfqfrfsftfufvfwfxfyfzfAfBfCfDfEfFfGfHfIfJfKfLfMfNfOfPfQfRfSfTfUfVfWfXfYfZf0f1f2f3f4f5f6f7f8f9f.f+gagbgcgdgegfggghgigjgkglgmgngogpgqgrgsgtgugvgwgxgygzgAgBgCgDgEgFgGgHgIgJgKgLgMgNgOgPgQgRgSgTgUgVgWgXgYgZg0g1g2g3g4g5g6g7g8g9g.g+hahbhchdhehfhghhhihjhkhlhmhnhohphqhrhshthuhvhwhxhyhzhAhBhChDhEhFhGhHhIhJhKhLhMhNhOhPhQhRhShThUhVhWhXhYhZh0h1h2h3h4h5h6h7h8h9h.h+",
"aaabacadaeafagahaiajakalamanaoapaqarasatauavawaxayazaAaBaCaDaEaFaGaHaIaJaKaLaMaNaOaPaQaRaSaTaUaVaWaXaYaZa0a1a2a3a4a5a6a7a8a9a.a+babbbcbdbebfbgbhbibjbkblbmbnbobpbqbrbsbtbubvbwbxbybzbAbBbCbDbEbFbGbHbIbJbKbLbMbNbObPbQbRbSbTbUbVbWbXbYbZb0b1b2b3b4b5b6b7b8b9b.b+cacbcccdcecfcgchcicjckclcmcncocpcqcrcsctcucvcwcxcyczcAcBcCcDcEcFcGcHcIcJcKcLcMcNcOcPcQcRcScTcUcVcWcXcYcZc0c1c2c3c4c5c6c7c8c9c.c+dadbdcdddedfdgdhdidjdkdldmdndodpdqdrdsdtdudvdwdxdydzdAdBdCdDdEdFdGdHdIdJdKdLdMdNdOdPdQdRdSdTdUdVdWdXdYdZd0d1d2d3d4d5d6d7d8d9d.d+eaebecedeeefegeheiejekelemeneoepeqereseteuevewexeyezeAeBeCeDeEeFeGeHeIeJeKeLeMeNeOePeQeReSeTeUeVeWeXeYeZe0e1e2e3e4e5e6e7e8e9e.e+fafbfcfdfefffgfhfifjfkflfmfnfofpfqfrfsftfufvfwfxfyfzfAfBfCfDfEfFfGfHfIfJfKfLfMfNfOfPfQfRfSfTfUfVfWfXfYfZf0f1f2f3f4f5f6f7f8f9f.f+gagbgcgdgegfggghgigjgkglgmgngogpgqgrgsgtgugvgwgxgygzgAgBgCgDgEgFgGgHgIgJgKgLgMgNgOgPgQgRgSgTgUgVgWgXgYgZg0g1g2g3g4g5g6g7g8g9g.g+hahbhchdhehfhghhhihjhkhlhmhnhohphqhrhshthuhvhwhxhyhzhAhBhChDhEhFhGhHhIhJhKhLhMhNhOhPhQhRhShThUhVhWhXhYhZh0h1h2h3h4h5h6h7h8h9h.h+",
"aaabacadaeafagahaiajakalamanaoapaqarasatauavawaxayazaAaBaCaDaEaFaGaHaIaJaKaLaMaNaOaPaQaRaSaTaUaVaWaXaYaZa0a1a2a3a4a5a6a7a8a9a.a+babbbcbdbebfbgbhbibjbkblbmbnbobpbqbrbsbtbubvbwbxbybzbAbBbCbDbEbFbGbHbIbJbKbLbMbNbObPbQbRbSbTbUbVbWbXbYbZb0b1b2b3b4b5b6b7b8b9b.b+cacbcccdcecfcgchcicjckclcmcncocpcqcrcsctcucvcwcxcyczcAcBcCcDcEcFcGcHcIcJcKcLcMcNcOcPcQcRcScTcUcVcWcXcYcZc0c1c2c3c4c5c6c7c8c9c.c+dadbdcdddedfdgdhdidjdkdldmdndodpdqdrdsdtdudvdwdxdydzdAdBdCdDdEdFdGdHdIdJdKdLdMdNdOdPdQdRdSdTdUdVdWdXdYdZd0d1d2d3d4d5d6d7d8d9d.d+eaebecedeeefegeheiejekelemeneoepeqereseteuevewexeyezeAeBeCeDeEeFeGeHeIeJeKeLeMeNeOePeQeReSeTeUeVeWeXeYeZe0e1e2e3e4e5e6e7e8e9e.e+fafbfcfdfefffgfhfifjfkflfmfnfofpfqfrfsftfufvfwfxfyfzfAfBfCfDfEfFfGfHfIfJfKfLfMfNfOfPfQfRfSfTfUfVfWfXfYfZf0f1f2f3f4f5f6f7f8f9f.f+gagbgcgdgegfggghgigjgkglgmgngogpgqgrgsgtgugvgwgxgygzgAgBgCgDgEgFgGgHgIgJgKgLgMgNgOgPgQgRgSgTgUgVgWgXgYgZg0g1g2g3g4g5g6g7g8g9g.g+hahbhchdhehfhghhhihjhkhlhmhnhohphqhrhshthuhvhwhxhyhzhAhBhChDhEhFhGhHhIhJhKhLhMhNhOhPhQhRhShThUhVhWhXhYhZh0h1h2h3h4h5h6h7h8h9h.h+",
"aaabacadaeafagahaiajakalamanaoapaqarasatauavawaxayazaAaBaCaDaEaFaGaHaIaJaKaLaMaNaOaPaQaRaSaTaUaVaWaXaYaZa0a1a2a3a4a5a6a7a8a9a.a+babbbcbdbebfbgbhbibjbkblbmbnbobpbqbrbsbtbubvbwbxbybzbAbBbCbDbEbFbGbHbIbJbKbLbMbNbObPbQbRbSbTbUbVbWbXbYbZb0b1b2b3b4b5b6b7b8b9b.b+cacbcccdcecfcgchcicjckclcmcncocpcqcrcsctcucvcwcxcyczcAcBcCcDcEcFcGcHcIcJcKcLcMcNcOcPcQcRcScTcUcVcWcXcYcZc0c1c2c3c4c5c6c7c8c9c.c+dadbdcdddedfdgdhdidjdkdldmdndodpdqdrdsdtdudvdwdxdydzdAdBdCdDdEdFdGdHdIdJdKdLdMdNdOdPdQdRdSdTdUdVdWdXdYdZd0d1d2d3d4d5d6d7d8d9d.d+eaebecedeeefegeheiejekelemeneoepeqereseteuevewexeyezeAeBeCeDeEeFeGeHeIeJeKeLeMeNeOePeQeReSeTeUeVeWeXeYeZe0e1e2e3e4e5e6e7e8e9e.e+fafbfcfdfefffgfhfifjfkflfmfnfofpfqfrfsftfufvfwfxfyfzfAfBfCfDfEfFfGfHfIfJfKfLfMfNfOfPfQfRfSfTfUfVfWfXfYfZf0f1f2f3f4f5f6f7f8f9f.f+gagbgcgdgegfggghgigjgkglgmgngogpgqgrgsgtgugvgwgxgygzgAgBgCgDgEgFgGgHgIgJgKgLgMgNgOgPgQgRgSgTgUgVgWgXgYgZg0g1g2g3g4g5g6g7g8g9g.g+hahbhchdhehfhghhhihjhkhlhmhnhohphqhrhshthuhvhwhxhyhzhAhBhChDhEhFhGhHhIhJhKhLhMhNhOhPhQhRhShThUhVhWhXhYhZh0h1h2h3h4h5h6h7h8h9h.h+",
"aaabacadaeafagahaiajakalamanaoapaqarasatauavawaxayazaAaBaCaDaEaFaGaHaIaJaKaLaMaNaOaPaQaRaSaTaUaVaWaXaYaZa0a1a2a3a4a5a6a7a8a9a.a+babbbcbdbebfbgbhbibjbkblbmbnbobpbqbrbsbtbubvbwbxbybzbAbBbCbDbEbFbGbHbIbJbKbLbMbNbObPbQbRbSbTbUbVbWbXbYbZb0b1b2b3b4b5b6b7b8b9b.b+cacbcccdcecfcgchcicjckclcmcncocpcqcrcsctcucvcwcxcyczcAcBcCcDcEcFcGcHcIcJcKcLcMcNcOcPcQcRcScTcUcVcWcXcYcZc0c1c2c3c4c5c6c7c8c9c.c+dadbdcdddedfdgdhdidjdkdldmdndodpdqdrdsdtdudvdwdxdydzdAdBdCdDdEdFdGdHdIdJdKdLdMdNdOdPdQdRdSdTdUdVdWdXdYdZd0d1d2d3d4d5d6d7d8d9d.d+eaebecedeeefegeheiejekelemeneoepeqereseteuevewexeyezeAeBeCeDeEeFeGeHeIeJeKeLeMeNeOePeQeReSeTeUeVeWeXeYeZe0e1e2e3e4e5e6e7e8e9e.e+fafbfcfdfefffgfhfifjfkflfmfnfofpfqfrfsftfufvfwfxfyfzfAfBfCfDfEfFfGfHfIfJfKfLfMfNfOfPfQfRfSfTfUfVfWfXfYfZf0f1f2f3f4f5f6f7f8f9f.f+gagbgcgdgegfggghgigjgkglgmgngogpgqgrgsgtgugvgwgxgygzgAgBgCgDgEgFgGgHgIgJgKgLgMgNgOgPgQgRgSgTgUgVgWgXgYgZg0g1g2g3g4g5g6g7g8g9g.g+hahbhchdhehfhghhhihjhkhlhmhnhohphqhrhshthuhvhwhxhyhzhAhBhChDhEhFhGhHhIhJhKhLhMhNhOhPhQhRhShThUhVhWhXhYhZh0h1h2h3h4h5h6h7h8h9h.h+",
"aaabacadaeafagahaiajakalamanaoapaqarasatauavawaxayazaAaBaCaDaEaFaGaHaIaJaKaLaMaNaOaPaQaRaSaTaUaVaWaXaYaZa0a1a2a3a4a5a6a7a8a9a.a+babbbcbdbebfbgbhbibjbkblbmbnbobpbqbrbsbtbubvbwbxbybzbAbBbCbDbEbFbGbHbIbJbKbLbMbNbObPbQbRbSbTbUbVbWbXbYbZb0b1b2b3b4b5b6b7b8b9b.b+cacbcccdcecfcgchcicjckclcmcncocpcqcrcsctcucvcwcxcyczcAcBcCcDcEcFcGcHcIcJcKcLcMcNcOcPcQcRcScTcUcVcWcXcYcZc0c1c2c3c4c5c6c7c8c9c.c+dadbdcdddedfdgdhdidjdkdldmdndodpdqdrdsdtdudvdwdxdydzdAdBdCdDdEdFdGdHdIdJdKdLdMdNdOdPdQdRdSdTdUdVdWdXdYdZd0d1d2d3d4d5d6d7d8d9d.d+eaebecedeeefegeheiejekelemeneoepeqereseteuevewexeyezeAeBeCeDeEeFeGeHeIeJeKeLeMeNeOePeQeReSeTeUeVeWeXeYeZe0e1e2e3e4e5e6e7e8e9e.e+fafbfcfdfefffgfhfifjfkflfmfnfofpfqfrfsftfufvfwfxfyfzfAfBfCfDfEfFfGfHfIfJfKfLfMfNfOfPfQfRfSfTfUfVfWfXfYfZf0f1f2f3f4f5f6f7f8f9f.f+gagbgcgdgegfggghgigjgkglgmgngogpgqgrgsgtgugvgwgxgygzgAgBgCgDgEgFgGgHgIgJgKgLgMgNgOgPgQgRgSgTgUgVgWgXgYgZg0g1g2g3g4g5g6g7g8g9g.g+hahbhchdhehfhghhhihjhkhlhmhnhohphqhrhshthuhvhwhxhyhzhAhBhChDhEhFhGhHhIhJhKhLhMhNhOhPhQhRhShThUhVhWhXhYhZh0h1h2h3h4h5h6h7h8h9h.h+",
"aaabacadaeafagahaiajakalamanaoapaqarasatauavawaxayazaAaBaCaDaEaFaGaHaIaJaKaLaMaNaOaPaQaRaSaTaUaVaWaXaYaZa0a1a2a3a4a5a6a7a8a9a.a+babbbcbdbebfbgbhbibjbkblbmbnbobpbqbrbsbtbubvbwbxbybzbAbBbCbDbEbFbGbHbIbJbKbLbMbNbObPbQbRbSbTbUbVbWbXbYbZb0b1b2b3b4b5b6b7b8b9b.b+cacbcccdcecfcgchcicjckclcmcncocpcqcrcsctcucvcwcxcyczcAcBcCcDcEcFcGcHcIcJcKcLcMcNcOcPcQcRcScTcUcVcWcXcYcZc0c1c2c3c4c5c6c7c8c9c.c+dadbdcdddedfdgdhdidjdkdldmdndodpdqdrdsdtdudvdwdxdydzdAdBdCdDdEdFdGdHdIdJdKdLdMdNdOdPdQdRdSdTdUdVdWdXdYdZd0d1d2d3d4d5d6d7d8d9d.d+eaebecedeeefegeheiejekelemeneoepeqereseteuevewexeyezeAeBeCeDeEeFeGeHeIeJeKeLeMeNeOePeQeReSeTeUeVeWeXeYeZe0e1e2e3e4e5e6e7e8e9e.e+fafbfcfdfefffgfhfifjfkflfmfnfofpfqfrfsftfufvfwfxfyfzfAfBfCfDfEfFfGfHfIfJfKfLfMfNfOfPfQfRfSfTfUfVfWfXfYfZf0f1f2f3f4f5f6f7f8f9f.f+gagbgcgdgegfggghgigjgkglgmgngogpgqgrgsgtgugvgwgxgygzgAgBgCgDgEgFgGgHgIgJgKgLgMgNgOgPgQgRgSgTgUgVgWgXgYgZg0g1g2g3g4g5g6g7g8g9g.g+hahbhchdhehfhghhhihjhkhlhmhnhohphqhrhshthuhvhwhxhyhzhAhBhChDhEhFhGhHhIhJhKhLhMhNhOhPhQhRhShThUhVhWhXhYhZh0h1h2h3h4h5h6h7h8h9h.h+",
"aaabacadaeafagahaiajakalamanaoapaqarasatauavawaxayazaAaBaCaDaEaFaGaHaIaJaKaLaMaNaOaPaQaRaSaTaUaVaWaXaYaZa0a1a2a3a4a5a6a7a8a9a.a+babbbcbdbebfbgbhbibjbkblbmbnbobpbqbrbsbtbubvbwbxbybzbAbBbCbDbEbFbGbHbIbJbKbLbMbNbObPbQbRbSbTbUbVbWbXbYbZb0b1b2b3b4b5b6b7b8b9b.b+cacbcccdcecfcgchcicjckclcmcncocpcqcrcsctcucvcwcxcyczcAcBcCcDcEcFcGcHcIcJcKcLcMcNcOcPcQcRcScTcUcVcWcXcYcZc0c1c2c3c4c5c6c7c8c9c.c+dadbdcdddedfdgdhdidjdkdldmdndodpdqdrdsdtdudvdwdxdydzdAdBdCdDdEdFdGdHdIdJdKdLdMdNdOdPdQdRdSdTdUdVdWdXdYdZd0d1d2d3d4d5d6d7d8d9d.d+eaebecedeeefegeheiejekelemeneoepeqereseteuevewexeyezeAeBeCeDeEeFeGeHeIeJeKeLeMeNeOePeQeReSeTeUeVeWeXeYeZe0e1e2e3e4e5e6e7e8e9e.e+fafbfcfdfefffgfhfifjfkflfmfnfofpfqfrfsftfufvfwfxfyfzfAfBfCfDfEfFfGfHfIfJfKfLfMfNfOfPfQfRfSfTfUfVfWfXfYfZf0f1f2f3f4f5f6f7f8f9f.f+gagbgcgdgegfggghgigjgkglgmgngogpgqgrgsgtgugvgwgxgygzgAgBgCgDgEgFgGgHgIgJgKgLgMgNgOgPgQgRgSgTgUgVgWgXgYgZg0g1g2g3g4g5g6g7g8g9g.g+hahbhchdhehfhghhhihjhkhlhmhnhohphqhrhshthuhvhwhxhyhzhAhBhChDhEhFhGhHhIhJhKhLhMhNhOhPhQhRhShThUhVhWhXhYhZh0h1h2h3h4h5h6h7h8h9h.h+",
"aaabacadaeafagahaiajakalamanaoapaqarasatauavawaxayazaAaBaCaDaEaFaGaHaIaJaKaLaMaNaOaPaQaRaSaTaUaVaWaXaYaZa0a1a2a3a4a5a6a7a8a9a.a+babbbcbdbebfbgbhbibjbkblbmbnbobpbqbrbsbtbubvbwbxbybzbAbBbCbDbEbFbGbHbIbJbKbLbMbNbObPbQbRbSbTbUbVbWbXbYbZb0b1b2b3b4b5b6b7b8b9b.b+cacbcccdcecfcgchcicjckclcmcncocpcqcrcsctcucvcwcxcyczcAcBcCcDcEcFcGcHcIcJcKcLcMcNcOcPcQcRcScTcUcVcWcXcYcZc0c1c2c3c4c5c6c7c8c9c.c+dadbdcdddedfdgdhdidjdkdldmdndodpdqdrdsdtdudvdwdxdydzdAdBdCdDdEdFdGdHdIdJdKdLdMdNdOdPdQdRdSdTdUdVdWdXdYdZd0d1d2d3d4d5d6d7d8d9d.d+eaebecedeeefegeheiejekelemeneoepeqereseteuevewexeyezeAeBeCeDeEeFeGeHeIeJeKeLeMeNeOePeQeReSeTeUeVeWeXeYeZe0e1e2e3e4e5e6e7e8e9e.e+fafbfcfdfefffgfhfifjfkflfmfnfofpfqfrfsftfufvfwfxfyfzfAfBfCfDfEfFfGfHfIfJfKfLfMfNfOfPfQfRfSfTfUfVfWfXfYfZf0f1f2f3f4f5f6f7f8f9f.f+gagbgcgdgegfggghgigjgkglgmgngogpgqgrgsgtgugvgwgxgygzgAgBgCgDgEgFgGgHgIgJgKgLgMgNgOgPgQgRgSgTgUgVgWgXgYgZg0g1g2g3g4g5g6g7g8g9g.g+hahbhchdhehfhghhhihjhkhlhmhnhohphqhrhshthuhvhwhxhyhzhAhBhChDhEhFhGhHhIhJhKhLhMhNhOhPhQhRhShThUhVhWhXhYhZh0h1h2h3h4h5h6h7h8h9h.h+",
"aaabacadaeafagahaiajakalamanaoapaqarasatauavawaxayazaAaBaCaDaEaFaGaHaIaJaKaLaMaNaOaPaQaRaSaTaUaVaWaXaYaZa0a1a2a3a4a5a6a7a8a9a.a+babbbcbdbebfbgbhbibjbkblbmbnbobpbqbrbsbtbubvbwbxbybzbAbBbCbDbEbFbGbHbIbJbKbLbMbNbObPbQbRbSbTbUbVbWbXbYbZb0b1b2b3b4b5b6b7b8b9b.b+cacbcccdcecfcgchcicjckclcmcncocpcqcrcsctcucvcwcxcyczcAcBcCcDcEcFcGcHcIcJcKcLcMcNcOcPcQcRcScTcUcVcWcXcYcZc0c1c2c3c4c5c6c7c8c9c.c+dadbdcdddedfdgdhdidjdkdldmdndodpdqdrdsdtdudvdwdxdydzdAdBdCdDdEdFdGdHdIdJdKdLdMdNdOdPdQdRdSdTdUdVdWdXdYdZd0d1d2d3d4d5d6d7d8d9d.d+eaebecedeeefegeheiejekelemeneoepeqereseteuevewexeyezeAeBeCeDeEeFeGeHeIeJeKeLeMeNeOePeQeReSeTeUeVeWeXeYeZe0e1e2e3e4e5e6e7e8e9e.e+fafbfcfdfefffgfhfifjfkflfmfnfofpfqfrfsftfufvfwfxfyfzfAfBfCfDfEfFfGfHfIfJfKfLfMfNfOfPfQfRfSfTfUfVfWfXfYfZf0f1f2f3f4f5f6f7f8f9f.f+gagbgcgdgegfggghgigjgkglgmgngogpgqgrgsgtgugvgwgxgygzgAgBgCgDgEgFgGgHgIgJgKgLgMgNgOgPgQgRgSgTgUgVgWgXgYgZg0g1g2g3g4g5g6g7g8g9g.g+hahbhchdhehfhghhhihjhkhlhmhnhohphqhrhshthuhvhwhxhyhzhAhBhChDhEhFhGhHhIhJhKhLhMhNhOhPhQhRhShThUhVhWhXhYhZh0h1h2h3h4h5h6h7h8h9h.h+",
"aaabacadaeafagahaiajakalamanaoapaqarasatauavawaxayazaAaBaCaDaEaFaGaHaIaJaKaLaMaNaOaPaQaRaSaTaUaVaWaXaYaZa0a1a2a3a4a5a6a7a8a9a.a+babbbcbdbebfbgbhbibjbkblbmbnbobpbqbrbsbtbubvbwbxbybzbAbBbCbDbEbFbGbHbIbJbKbLbMbNbObPbQbRbSbTbUbVbWbXbYbZb0b1b2b3b4b5b6b7b8b9b.b+cacbcccdcecfcgchcicjckclcmcncocpcqcrcsctcucvcwcxcyczcAcBcCcDcEcFcGcHcIcJcKcLcMcNcOcPcQcRcScTcUcVcWcXcYcZc0c1c2c3c4c5c6c7c8c9c.c+dadbdcdddedfdgdhdidjdkdldmdndodpdqdrdsdtdudvdwdxdydzdAdBdCdDdEdFdGdHdIdJdKdLdMdNdOdPdQdRdSdTdUdVdWdXdYdZd0d1d2d3d4d5d6d7d8d9d.d+eaebecedeeefegeheiejekelemeneoepeqereseteuevewexeyezeAeBeCeDeEeFeGeHeIeJeKeLeMeNeOePeQeReSeTeUeVeWeXeYeZe0e1e2e3e4e5e6e7e8e9e.e+fafbfcfdfefffgfhfifjfkflfmfnfofpfqfrfsftfufvfwfxfyfzfAfBfCfDfEfFfGfHfIfJfKfLfMfNfOfPfQfRfSfTfUfVfWfXfYfZf0f1f2f3f4f5f6f7f8f9f.f+gagbgcgdgegfggghgigjgkglgmgngogpgqgrgsgtgugvgwgxgygzgAgBgCgDgEgFgGgHgIgJgKgLgMgNgOgPgQgRgSgTgUgVgWgXgYgZg0g1g2g3g4g5g6g7g8g9g.g+hahbhchdhehfhghhhihjhkhlhmhnhohphqhrhshthuhvhwhxhyhzhAhBhChDhEhFhGhHhIhJhKhLhMhNhOhPhQhRhShThUhVhWhXhYhZh0h1h2h3h4h5h6h7h8h9h.h+",
"aaabacadaeafagahaiajakalamanaoapaqarasatauavawaxayazaAaBaCaDaEaFaGaHaIaJaKaLaMaNaOaPaQaRaSaTaUaVaWaXaYaZa0a1a2a3a4a5a6a7a8a9a.a+babbbcbdbebfbgbhbibjbkblbmbnbobpbqbrbsbtbubvbwbxbybzbAbBbCbDbEbFbGbHbIbJbKbLbMbNbObPbQbRbSbTbUbVbWbXbYbZb0b1b2b3b4b5b6b7b8b9b.b+cacbcccdcecfcgchcicjckclcmcncocpcqcrcsctcucvcwcxcyczcAcBcCcDcEcFcGcHcIcJcKcLcMcNcOcPcQcRcScTcUcVcWcXcYcZc0c1c2c3c4c5c6c7c8c9c.c+dadbdcdddedfdgdhdidjdkdldmdndodpdqdrdsdtdudvdwdxdydzdAdBdCdDdEdFdGdHdIdJdKdLdMdNdOdPdQdRdSdTdUdVdWdXdYdZd0d1d2d3d4d5d6d7d8d9d.d+eaebecedeeefegeheiejekelemeneoepeqereseteuevewexeyezeAeBeCeDeEeFeGeHeIeJeKeLeMeNeOePeQeReSeTeUeVeWeXeYeZe0e1e2e3e4e5e6e7e8e9e.e+fafbfcfdfefffgfhfifjfkflfmfnfofpfqfrfsftfufvfwfxfyfzfAfBfCfDfEfFfGfHfIfJfKfLfMfNfOfPfQfRfSfTfUfVfWfXfYfZf0f1f2f3f4f5f6f7f8f9f.f+gagbgcgdgegfggghgigjgkglgmgngogpgqgrgsgtgugvgwgxgygzgAgBgCgDgEgFgGgHgIgJgKgLgMgNgOgPgQgRgSgTgUgVgWgXgYgZg0g1g2g3g4g5g6g7g8g9g.g+hahbhchdhehfhghhhihjhkhlhmhnhohphqhrhshthuhvhwhxhyhzhAhBhChDhEhFhGhHhIhJhKhLhMhNhOhPhQhRhShThUhVhWhXhYhZh0h1h2h3h4h5h6h7h8h9h.h+",
"aaabacadaeafagahaiajakalamanaoapaqarasatauavawaxayazaAaBaCaDaEaFaGaHaIaJaKaLaMaNaOaPaQaRaSaTaUaVaWaXaYaZa0a1a2a3a4a5a6a7a8a9a.a+babbbcbdbebfbgbhbibjbkblbmbnbobpbqbrbsbtbubvbwbxbybzbAbBbCbDbEbFbGbHbIbJbKbLbMbNbObPbQbRbSbTbUbVbWbXbYbZb0b1b2b3b4b5b6b7b8b9b.b+cacbcccdcecfcgchcicjckclcmcncocpcqcrcsctcucvcwcxcyczcAcBcCcDcEcFcGcHcIcJcKcLcMcNcOcPcQcRcScTcUcVcWcXcYcZc0c1c2c3c4c5c6c7c8c9c.c+dadbdcdddedfdgdhdidjdkdldmdndodpdqdrdsdtdudvdwdxdydzdAdBdCdDdEdFdGdHdIdJdKdLdMdNdOdPdQdRdSdTdUdVdWdXdYdZd0d1d2d3d4d5d6d7d8d9d.d+eaebecedeeefegeheiejekelemeneoepeqereseteuevewexeyezeAeBeCeDeEeFeGeHeIeJeKeLeMeNeOePeQeReSeTeUeVeWeXeYeZe0e1e2e3e4e5e6e7e8e9e.e+fafbfcfdfefffgfhfifjfkflfmfnfofpfqfrfsftfufvfwfxfyfzfAfBfCfDfEfFfGfHfIfJfKfLfMfNfOfPfQfRfSfTfUfVfWfXfYfZf0f1f2f3f4f5f6f7f8f9f.f+gagbgcgdgegfggghgigjgkglgmgngogpgqgrgsgtgugvgwgxgygzgAgBgCgDgEgFgGgHgIgJgKgLgMgNgOgPgQgRgSgTgUgVgWgXgYgZg0g1g2g3g4g5g6g7g8g9g.g+hahbhchdhehfhghhhihjhkhlhmhnhohphqhrhshthuhvhwhxhyhzhAhBhChDhEhFhGhHhIhJhKhLhMhNhOhPhQhRhShThUhVhWhXhYhZh0h1h2h3h4h5h6h7h8h9h.h+",
"aaabacadaeafagahaiajakalamanaoapaqarasatauavawaxayazaAaBaCaDaEaFaGaHaIaJaKaLaMaNaOaPaQaRaSaTaUaVaWaXaYaZa0a1a2a3a4a5a6a7a8a9a.a+babbbcbdbebfbgbhbibjbkblbmbnbobpbqbrbsbtbubvbwbxbybzbAbBbCbDbEbFbGbHbIbJbKbLbMbNbObPbQbRbSbTbUbVbWbXbYbZb0b1b2b3b4b5b6b7b8b9b.b+cacbcccdcecfcgchcicjckclcmcncocpcqcrcsctcucvcwcxcyczcAcBcCcDcEcFcGcHcIcJcKcLcMcNcOcPcQcRcScTcUcVcWcXcYcZc0c1c2c3c4c5c6c7c8c9c.c+dadbdcdddedfdgdhdidjdkdldmdndodpdqdrdsdtdudvdwdxdydzdAdBdCdDdEdFdGdHdIdJdKdLdMdNdOdPdQdRdSdTdUdVdWdXdYdZd0d1d2d3d4d5d6d7d8d9d.d+eaebecedeeefegeheiejekelemeneoepeqereseteuevewexeyezeAeBeCeDeEeFeGeHeIeJeKeLeMeNeOePeQeReSeTeUeVeWeXeYeZe0e1e2e3e4e5e6e7e8e9e.e+fafbfcfdfefffgfhfifjfkflfmfnfofpfqfrfsftfufvfwfxfyfzfAfBfCfDfEfFfGfHfIfJfKfLfMfNfOfPfQfRfSfTfUfVfWfXfYfZf0f1f2f3f4f5f6f7f8f9f.f+gagbgcgdgegfggghgigjgkglgmgngogpgqgrgsgtgugvgwgxgygzgAgBgCgDgEgFgGgHgIgJgKgLgMgNgOgPgQgRgSgTgUgVgWgXgYgZg0g1g2g3g4g5g6g7g8g9g.g+hahbhchdhehfhghhhihjhkhlhmhnhohphqhrhshthuhvhwhxhyhzhAhBhChDhEhFhGhHhIhJhKhLhMhNhOhPhQhRhShThUhVhWhXhYhZh0h1h2h3h4h5h6h7h8h9h.h+",
"aaabacadaeafagahaiajakalamanaoapaqarasatauavawaxayazaAaBaCaDaEaFaGaHaIaJaKaLaMaNaOaPaQaRaSaTaUaVaWaXaYaZa0a1a2a3a4a5a6a7a8a9a.a+babbbcbdbebfbgbhbibjbkblbmbnbobpbqbrbsbtbubvbwbxbybzbAbBbCbDbEbFbGbHbIbJbKbLbMbNbObPbQbRbSbTbUbVbWbXbYbZb0b1b2b3b4b5b6b7b8b9b.b+cacbcccdcecfcgchcicjckclcmcncocpcqcrcsctcucvcwcxcyczcAcBcCcDcEcFcGcHcIcJcKcLcMcNcOcPcQcRcScTcUcVcWcXcYcZc0c1c2c3c4c5c6c7c8c9c.c+dadbdcdddedfdgdhdidjdkdldmdndodpdqdrdsdtdudvdwdxdydzdAdBdCdDdEdFdGdHdIdJdKdLdMdNdOdPdQdRdSdTdUdVdWdXdYdZd0d1d2d3d4d5d6d7d8d9d.d+eaebecedeeefegeheiejekelemeneoepeqereseteuevewexeyezeAeBeCeDeEeFeGeHeIeJeKeLeMeNeOePeQeReSeTeUeVeWeXeYeZe0e1e2e3e4e5e6e7e8e9e.e+fafbfcfdfefffgfhfifjfkflfmfnfofpfqfrfsftfufvfwfxfyfzfAfBfCfDfEfFfGfHfIfJfKfLfMfNfOfPfQfRfSfTfUfVfWfXfYfZf0f1f2f3f4f5f6f7f8f9f.f+gagbgcgdgegfggghgigjgkglgmgngogpgqgrgsgtgugvgwgxgygzgAgBgCgDgEgFgGgHgIgJgKgLgMgNgOgPgQgRgSgTgUgVgWgXgYgZg0g1g2g3g4g5g6g7g8g9g.g+hahbhchdhehfhghhhihjhkhlhmhnhohphqhrhshthuhvhwhxhyhzhAhBhChDhEhFhGhHhIhJhKhLhMhNhOhPhQhRhShThUhVhWhXhYhZh0h1h2h3h4h5h6h7h8h9h.h+",
"aaabacadaeafagahaiajakalamanaoapaqarasatauavawaxayazaAaBaCaDaEaFaGaHaIaJaKaLaMaNaOaPaQaRaSaTaUaVaWaXaYaZa0a1a2a3a4a5a6a7a8a9a.a+babbbcbdbebfbgbhbibjbkblbmbnbobpbqbrbsbtbubvbwbxbybzbAbBbCbDbEbFbGbHbIbJbKbLbMbNbObPbQbRbSbTbUbVbWbXbYbZb0b1b2b3b4b5b6b7b8b9b.b+cacbcccdcecfcgchcicjckclcmcncocpcqcrcsctcucvcwcxcyczcAcBcCcDcEcFcGcHcIcJcKcLcMcNcOcPcQcRcScTcUcVcWcXcYcZc0c1c2c3c4c5c6c7c8c9c.c+dadbdcdddedfdgdhdidjdkdldmdndodpdqdrdsdtdudvdwdxdydzdAdBdCdDdEdFdGdHdIdJdKdLdMdNdOdPdQdRdSdTdUdVdWdXdYdZd0d1d2d3d4d5d6d7d8d9d.d+eaebecedeeefegeheiejekelemeneoepeqereseteuevewexeyezeAeBeCeDeEeFeGeHeIeJeKeLeMeNeOePeQeReSeTeUeVeWeXeYeZe0e1e2e3e4e5e6e7e8e9e.e+fafbfcfdfefffgfhfifjfkflfmfnfofpfqfrfsftfufvfwfxfyfzfAfBfCfDfEfFfGfHfIfJfKfLfMfNfOfPfQfRfSfTfUfVfWfXfYfZf0f1f2f3f4f5f6f7f8f9f.f+gagbgcgdgegfggghgigjgkglgmgngogpgqgrgsgtgugvgwgxgygzgAgBgCgDgEgFgGgHgIgJgKgLgMgNgOgPgQgRgSgTgUgVgWgXgYgZg0g1g2g3g4g5g6g7g8g9g.g+hahbhchdhehfhghhhihjhkhlhmhnhohphqhrhshthuhvhwhxhyhzhAhBhChDhEhFhGhHhIhJhKhLhMhNhOhPhQhRhShThUhVhWhXhYhZh0h1h2h3h4h5h6h7h8h9h.h+",
"aaabacadaeafagahaiajakalamanaoapaqarasatauavawaxayazaAaBaCaDaEaFaGaHaIaJaKaLaMaNaOaPaQaRaSaTaUaVaWaXaYaZa0a1a2a3a4a5a6a7a8a9a.a+babbbcbdbebfbgbhbibjbkblbmbnbobpbqbrbsbtbubvbwbxbybzbAbBbCbDbEbFbGbHbIbJbKbLbMbNbObPbQbRbSbTbUbVbWbXbYbZb0b1b2b3b4b5b6b7b8b9b.b+cacbcccdcecfcgchcicjckclcmcncocpcqcrcsctcucvcwcxcyczcAcBcCcDcEcFcGcHcIcJcKcLcMcNcOcPcQcRcScTcUcVcWcXcYcZc0c1c2c3c4c5c6c7c8c9c.c+dadbdcdddedfdgdhdidjdkdldmdndodpdqdrdsdtdudvdwdxdydzdAdBdCdDdEdFdGdHdIdJdKdLdMdNdOdPdQdRdSdTdUdVdWdXdYdZd0d1d2d3d4d5d6d7d8d9d.d+eaebecedeeefegeheiejekelemeneoepeqereseteuevewexeyezeAeBeCeDeEeFeGeHeIeJeKeLeMeNeOePeQeReSeTeUeVeWeXeYeZe0e1e2e3e4e5e6e7e8e9e.e+fafbfcfdfefffgfhfifjfkflfmfnfofpfqfrfsftfufvfwfxfyfzfAfBfCfDfEfFfGfHfIfJfKfLfMfNfOfPfQfRfSfTfUfVfWfXfYfZf0f1f2f3f4f5f6f7f8f9f.f+gagbgcgdgegfggghgigjgkglgmgngogpgqgrgsgtgugvgwgxgygzgAgBgCgDgEgFgGgHgIgJgKgLgMgNgOgPgQgRgSgTgUgVgWgXgYgZg0g1g2g3g4g5g6g7g8g9g.g+hahbhchdhehfhghhhihjhkhlhmhnhohphqhrhshthuhvhwhxhyhzhAhBhChDhEhFhGhHhIhJhKhLhMhNhOhPhQhRhShThUhVhWhXhYhZh0h1h2h3h4h5h6h7h8h9h.h+",
"aaabacadaeafagahaiajakalamanaoapaqarasatauavawaxayazaAaBaCaDaEaFaGaHaIaJaKaLaMaNaOaPaQaRaSaTaUaVaWaXaYaZa0a1a2a3a4a5a6a7a8a9a.a+babbbcbdbebfbgbhbibjbkblbmbnbobpbqbrbsbtbubvbwbxbybzbAbBbCbDbEbFbGbHbIbJbKbLbMbNbObPbQbRbSbTbUbVbWbXbYbZb0b1b2b3b4b5b6b7b8b9b.b+cacbcccdcecfcgchcicjckclcmcncocpcqcrcsctcucvcwcxcyczcAcBcCcDcEcFcGcHcIcJcKcLcMcNcOcPcQcRcScTcUcVcWcXcYcZc0c1c2c3c4c5c6c7c8c9c.c+dadbdcdddedfdgdhdidjdkdldmdndodpdqdrdsdtdudvdwdxdydzdAdBdCdDdEdFdGdHdIdJdKdLdMdNdOdPdQdRdSdTdUdVdWdXdYdZd0d1d2d3d4d5d6d7d8d9d.d+eaebecedeeefegeheiejekelemeneoepeqereseteuevewexeyezeAeBeCeDeEeFeGeHeIeJeKeLeMeNeOePeQeReSeTeUeVeWeXeYeZe0e1e2e3e4e5e6e7e8e9e.e+fafbfcfdfefffgfhfifjfkflfmfnfofpfqfrfsftfufvfwfxfyfzfAfBfCfDfEfFfGfHfIfJfKfLfMfNfOfPfQfRfSfTfUfVfWfXfYfZf0f1f2f3f4f5f6f7f8f9f.f+gagbgcgdgegfggghgigjgkglgmgngogpgqgrgsgtgugvgwgxgygzgAgBgCgDgEgFgGgHgIgJgKgLgMgNgOgPgQgRgSgTgUgVgWgXgYgZg0g1g2g3g4g5g6g7g8g9g.g+hahbhchdhehfhghhhihjhkhlhmhnhohphqhrhshthuhvhwhxhyhzhAhBhChDhEhFhGhHhIhJhKhLhMhNhOhPhQhRhShThUhVhWhXhYhZh0h1h2h3h4h5h6h7h8h9h.h+",
"aaabacadaeafagahaiajakalamanaoapaqarasatauavawaxayazaAaBaCaDaEaFaGaHaIaJaKaLaMaNaOaPaQaRaSaTaUaVaWaXaYaZa0a1a2a3a4a5a6a7a8a9a.a+babbbcbdbebfbgbhbibjbkblbmbnbobpbqbrbsbtbubvbwbxbybzbAbBbCbDbEbFbGbHbIbJbKbLbMbNbObPbQbRbSbTbUbVbWbXbYbZb0b1b2b3b4b5b6b7b8b9b.b+cacbcccdcecfcgchcicjckclcmcncocpcqcrcsctcucvcwcxcyczcAcBcCcDcEcFcGcHcIcJcKcLcMcNcOcPcQcRcScTcUcVcWcXcYcZc0c1c2c3c4c5c6c7c8c9c.c+dadbdcdddedfdgdhdidjdkdldmdndodpdqdrdsdtdudvdwdxdydzdAdBdCdDdEdFdGdHdIdJdKdLdMdNdOdPdQdRdSdTdUdVdWdXdYdZd0d1d2d3d4d5d6d7d8d9d.d+eaebecedeeefegeheiejekelemeneoepeqereseteuevewexeyezeAeBeCeDeEeFeGeHeIeJeKeLeMeNeOePeQeReSeTeUeVeWeXeYeZe0e1e2e3e4e5e6e7e8e9e.e+fafbfcfdfefffgfhfifjfkflfmfnfofpfqfrfsftfufvfwfxfyfzfAfBfCfDfEfFfGfHfIfJfKfLfMfNfOfPfQfRfSfTfUfVfWfXfYfZf0f1f2f3f4f5f6f7f8f9f.f+gagbgcgdgegfggghgigjgkglgmgngogpgqgrgsgtgugvgwgxgygzgAgBgCgDgEgFgGgHgIgJgKgLgMgNgOgPgQgRgSgTgUgVgWgXgYgZg0g1g2g3g4g5g6g7g8g9g.g+hahbhchdhehfhghhhihjhkhlhmhnhohphqhrhshthuhvhwhxhyhzhAhBhChDhEhFhGhHhIhJhKhLhMhNhOhPhQhRhShThUhVhWhXhYhZh0h1h2h3h4h5h6h7h8h9h.h+",
"aaabacadaeafagahaiajakalamanaoapaqarasatauavawaxayazaAaBaCaDaEaFaGaHaIaJaKaLaMaNaOaPaQaRaSaTaUaVaWaXaYaZa0a1a2a3a4a5a6a7a8a9a.a+babbbcbdbebfbgbhbibjbkblbmbnbobpbqbrbsbtbubvbwbxbybzbAbBbCbDbEbFbGbHbIbJbKbLbMbNbObPbQbRbSbTbUbVbWbXbYbZb0b1b2b3b4b5b6b7b8b9b.b+cacbcccdcecfcgchcicjckclcmcncocpcqcrcsctcucvcwcxcyczcAcBcCcDcEcFcGcHcIcJcKcLcMcNcOcPcQcRcScTcUcVcWcXcYcZc0c1c2c3c4c5c6c7c8c9c.c+dadbdcdddedfdgdhdidjdkdldmdndodpdqdrdsdtdudvdwdxdydzdAdBdCdDdEdFdGdHdIdJdKdLdMdNdOdPdQdRdSdTdUdVdWdXdYdZd0d1d2d3d4d5d6d7d8d9d.d+eaebecedeeefegeheiejekelemeneoepeqereseteuevewexeyezeAeBeCeDeEeFeGeHeIeJeKeLeMeNeOePeQeReSeTeUeVeWeXeYeZe0e1e2e3e4e5e6e7e8e9e.e+fafbfcfdfefffgfhfifjfkflfmfnfofpfqfrfsftfufvfwfxfyfzfAfBfCfDfEfFfGfHfIfJfKfLfMfNfOfPfQfRfSfTfUfVfWfXfYfZf0f1f2f3f4f5f6f7f8f9f.f+gagbgcgdgegfggghgigjgkglgmgngogpgqgrgsgtgugvgwgxgygzgAgBgCgDgEgFgGgHgIgJgKgLgMgNgOgPgQgRgSgTgUgVgWgXgYgZg0g1g2g3g4g5g6g7g8g9g.g+hahbhchdhehfhghhhihjhkhlhmhnhohphqhrhshthuhvhwhxhyhzhAhBhChDhEhFhGhHhIhJhKhLhMhNhOhPhQhRhShThUhVhWhXhYhZh0h1h2h3h4h5h6h7h8h9h.h+",
"aaabacadaeafagahaiajakalamanaoapaqarasatauavawaxayazaAaBaCaDaEaFaGaHaIaJaKaLaMaNaOaPaQaRaSaTaUaVaWaXaYaZa0a1a2a3a4a5a6a7a8a9a.a+babbbcbdbebfbgbhbibjbkblbmbnbobpbqbrbsbtbubvbwbxbybzbAbBbCbDbEbFbGbHbIbJbKbLbMbNbObPbQbRbSbTbUbVbWbXbYbZb0b1b2b3b4b5b6b7b8b9b.b+cacbcccdcecfcgchcicjckclcmcncocpcqcrcsctcucvcwcxcyczcAcBcCcDcEcFcGcHcIcJcKcLcMcNcOcPcQcRcScTcUcVcWcXcYcZc0c1c2c3c4c5c6c7c8c9c.c+dadbdcdddedfdgdhdidjdkdldmdndodpdqdrdsdtdudvdwdxdydzdAdBdCdDdEdFdGdHdIdJdKdLdMdNdOdPdQdRdSdTdUdVdWdXdYdZd0d1d2d3d4d5d6d7d8d9d.d+eaebecedeeefegeheiejekelemeneoepeqereseteuevewexeyezeAeBeCeDeEeFeGeHeIeJeKeLeMeNeOePeQeReSeTeUeVeWeXeYeZe0e1e2e3e4e5e6e7e8e9e.e+fafbfcfdfefffgfhfifjfkflfmfnfofpfqfrfsftfufvfwfxfyfzfAfBfCfDfEfFfGfHfIfJfKfLfMfNfOfPfQfRfSfTfUfVfWfXfYfZf0f1f2f3f4f5f6f7f8f9f.f+gagbgcgdgegfggghgigjgkglgmgngogpgqgrgsgtgugvgwgxgygzgAgBgCgDgEgFgGgHgIgJgKgLgMgNgOgPgQgRgSgTgUgVgWgXgYgZg0g1g2g3g4g5g6g7g8g9g.g+hahbhchdhehfhghhhihjhkhlhmhnhohphqhrhshthuhvhwhxhyhzhAhBhChDhEhFhGhHhIhJhKhLhMhNhOhPhQhRhShThUhVhWhXhYhZh0h1h2h3h4h5h6h7h8h9h.h+",
"aaabacadaeafagahaiajakalamanaoapaqarasatauavawaxayazaAaBaCaDaEaFaGaHaIaJaKaLaMaNaOaPaQaRaSaTaUaVaWaXaYaZa0a1a2a3a4a5a6a7a8a9a.a+babbbcbdbebfbgbhbibjbkblbmbnbobpbqbrbsbtbubvbwbxbybzbAbBbCbDbEbFbGbHbIbJbKbLbMbNbObPbQbRbSbTbUbVbWbXbYbZb0b1b2b3b4b5b6b7b8b9b.b+cacbcccdcecfcgchcicjckclcmcncocpcqcrcsctcucvcwcxcyczcAcBcCcDcEcFcGcHcIcJcKcLcMcNcOcPcQcRcScTcUcVcWcXcYcZc0c1c2c3c4c5c6c7c8c9c.c+dadbdcdddedfdgdhdidjdkdldmdndodpdqdrdsdtdudvdwdxdydzdAdBdCdDdEdFdGdHdIdJdKdLdMdNdOdPdQdRdSdTdUdVdWdXdYdZd0d1d2d3d4d5d6d7d8d9d.d+eaebecedeeefegeheiejekelemeneoepeqereseteuevewexeyezeAeBeCeDeEeFeGeHeIeJeKeLeMeNeOePeQeReSeTeUeVeWeXeYeZe0e1e2e3e4e5e6e7e8e9e.e+fafbfcfdfefffgfhfifjfkflfmfnfofpfqfrfsftfufvfwfxfyfzfAfBfCfDfEfFfGfHfIfJfKfLfMfNfOfPfQfRfSfTfUfVfWfXfYfZf0f1f2f3f4f5f6f7f8f9f.f+gagbgcgdgegfggghgigjgkglgmgngogpgqgrgsgtgugvgwgxgygzgAgBgCgDgEgFgGgHgIgJgKgLgMgNgOgPgQgRgSgTgUgVgWgXgYgZg0g1g2g3g4g5g6g7g8g9g.g+hahbhchdhehfhghhhihjhkhlhmhnhohphqhrhshthuhvhwhxhyhzhAhBhChDhEhFhGhHhIhJhKhLhMhNhOhPhQhRhShThUhVhWhXhYhZh0h1h2h3h4h5h6h7h8h9h.h+",
"aaabacadaeafagahaiajakalamanaoapaqarasatauavawaxayazaAaBaCaDaEaFaGaHaIaJaKaLaMaNaOaPaQaRaSaTaUaVaWaXaYaZa0a1a2a3a4a5a6a7a8a9a.a+babbbcbdbebfbgbhbibjbkblbmbnbobpbqbrbsbtbubvbwbxbybzbAbBbCbDbEbFbGbHbIbJbKbLbMbNbObPbQbRbSbTbUbVbWbXbYbZb0b1b2b3b4b5b6b7b8b9b.b+cacbcccdcecfcgchcicjckclcmcncocpcqcrcsctcucvcwcxcyczcAcBcCcDcEcFcGcHcIcJcKcLcMcNcOcPcQcRcScTcUcVcWcXcYcZc0c1c2c3c4c5c6c7c8c9c.c+dadbdcdddedfdgdhdidjdkdldmdndodpdqdrdsdtdudvdwdxdydzdAdBdCdDdEdFdGdHdIdJdKdLdMdNdOdPdQdRdSdTdUdVdWdXdYdZd0d1d2d3d4d5d6d7d8d9d.d+eaebecedeeefegeheiejekelemeneoepeqereseteuevewexeyezeAeBeCeDeEeFeGeHeIeJeKeLeMeNeOePeQeReSeTeUeVeWeXeYeZe0e1e2e3e4e5e6e7e8e9e.e+fafbfcfdfefffgfhfifjfkflfmfnfofpfqfrfsftfufvfwfxfyfzfAfBfCfDfEfFfGfHfIfJfKfLfMfNfOfPfQfRfSfTfUfVfWfXfYfZf0f1f2f3f4f5f6f7f8f9f.f+gagbgcgdgegfggghgigjgkglgmgngogpgqgrgsgtgugvgwgxgygzgAgBgCgDgEgFgGgHgIgJgKgLgMgNgOgPgQgRgSgTgUgVgWgXgYgZg0g1g2g3g4g5g6g7g8g9g.g+hahbhchdhehfhghhhihjhkhlhmhnhohphqhrhshthuhvhwhxhyhzhAhBhChDhEhFhGhHhIhJhKhLhMhNhOhPhQhRhShThUhVhWhXhYhZh0h1h2h3h4h5h6h7h8h9h.h+",
"aaabacadaeafagahaiajakalamanaoapaqarasatauavawaxayazaAaBaCaDaEaFaGaHaIaJaKaLaMaNaOaPaQaRaSaTaUaVaWaXaYaZa0a1a2a3a4a5a6a7a8a9a.a+babbbcbdbebfbgbhbibjbkblbmbnbobpbqbrbsbtbubvbwbxbybzbAbBbCbDbEbFbGbHbIbJbKbLbMbNbObPbQbRbSbTbUbVbWbXbYbZb0b1b2b3b4b5b6b7b8b9b.b+cacbcccdcecfcgchcicjckclcmcncocpcqcrcsctcucvcwcxcyczcAcBcCcDcEcFcGcHcIcJcKcLcMcNcOcPcQcRcScTcUcVcWcXcYcZc0c1c2c3c4c5c6c7c8c9c.c+dadbdcdddedfdgdhdidjdkdldmdndodpdqdrdsdtdudvdwdxdydzdAdBdCdDdEdFdGdHdIdJdKdLdMdNdOdPdQdRdSdTdUdVdWdXdYdZd0d1d2d3d4d5d6d7d8d9d.d+eaebecedeeefegeheiejekelemeneoepeqereseteuevewexeyezeAeBeCeDeEeFeGeHeIeJeKeLeMeNeOePeQeReSeTeUeVeWeXeYeZe0e1e2e3e4e5e6e7e8e9e.e+fafbfcfdfefffgfhfifjfkflfmfnfofpfqfrfsftfufvfwfxfyfzfAfBfCfDfEfFfGfHfIfJfKfLfMfNfOfPfQfRfSfTfUfVfWfXfYfZf0f1f2f3f4f5f6f7f8f9f.f+gagbgcgdgegfggghgigjgkglgmgngogpgqgrgsgtgugvgwgxgygzgAgBgCgDgEgFgGgHgIgJgKgLgMgNgOgPgQgRgSgTgUgVgWgXgYgZg0g1g2g3g4g5g6g7g8g9g.g+hahbhchdhehfhghhhihjhkhlhmhnhohphqhrhshthuhvhwhxhyhzhAhBhChDhEhFhGhHhIhJhKhLhMhNhOhPhQhRhShThUhVhWhXhYhZh0h1h2h3h4h5h6h7h8h9h.h+",
"aaabacadaeafagahaiajakalamanaoapaqarasatauavawaxayazaAaBaCaDaEaFaGaHaIaJaKaLaMaNaOaPaQaRaSaTaUaVaWaXaYaZa0a1a2a3a4a5a6a7a8a9a.a+babbbcbdbebfbgbhbibjbkblbmbnbobpbqbrbsbtbubvbwbxbybzbAbBbCbDbEbFbGbHbIbJbKbLbMbNbObPbQbRbSbTbUbVbWbXbYbZb0b1b2b3b4b5b6b7b8b9b.b+cacbcccdcecfcgchcicjckclcmcncocpcqcrcsctcucvcwcxcyczcAcBcCcDcEcFcGcHcIcJcKcLcMcNcOcPcQcRcScTcUcVcWcXcYcZc0c1c2c3c4c5c6c7c8c9c.c+dadbdcdddedfdgdhdidjdkdldmdndodpdqdrdsdtdudvdwdxdydzdAdBdCdDdEdFdGdHdIdJdKdLdMdNdOdPdQdRdSdTdUdVdWdXdYdZd0d1d2d3d4d5d6d7d8d9d.d+eaebecedeeefegeheiejekelemeneoepeqereseteuevewexeyezeAeBeCeDeEeFeGeHeIeJeKeLeMeNeOePeQeReSeTeUeVeWeXeYeZe0e1e2e3e4e5e6e7e8e9e.e+fafbfcfdfefffgfhfifjfkflfmfnfofpfqfrfsftfufvfwfxfyfzfAfBfCfDfEfFfGfHfIfJfKfLfMfNfOfPfQfRfSfTfUfVfWfXfYfZf0f1f2f3f4f5f6f7f8f9f.f+gagbgcgdgegfggghgigjgkglgmgngogpgqgrgsgtgugvgwgxgygzgAgBgCgDgEgFgGgHgIgJgKgLgMgNgOgPgQgRgSgTgUgVgWgXgYgZg0g1g2g3g4g5g6g7g8g9g.g+hahbhchdhehfhghhhihjhkhlhmhnhohphqhrhshthuhvhwhxhyhzhAhBhChDhEhFhGhHhIhJhKhLhMhNhOhPhQhRhShThUhVhWhXhYhZh0h1h2h3h4h5h6h7h8h9h.h+",
"aaabacadaeafagahaiajakalamanaoapaqarasatauavawaxayazaAaBaCaDaEaFaGaHaIaJaKaLaMaNaOaPaQaRaSaTaUaVaWaXaYaZa0a1a2a3a4a5a6a7a8a9a.a+babbbcbdbebfbgbhbibjbkblbmbnbobpbqbrbsbtbubvbwbxbybzbAbBbCbDbEbFbGbHbIbJbKbLbMbNbObPbQbRbSbTbUbVbWbXbYbZb0b1b2b3b4b5b6b7b8b9b.b+cacbcccdcecfcgchcicjckclcmcncocpcqcrcsctcucvcwcxcyczcAcBcCcDcEcFcGcHcIcJcKcLcMcNcOcPcQcRcScTcUcVcWcXcYcZc0c1c2c3c4c5c6c7c8c9c.c+dadbdcdddedfdgdhdidjdkdldmdndodpdqdrdsdtdudvdwdxdydzdAdBdCdDdEdFdGdHdIdJdKdLdMdNdOdPdQdRdSdTdUdVdWdXdYdZd0d1d2d3d4d5d6d7d8d9d.d+eaebecedeeefegeheiejekelemeneoepeqereseteuevewexeyezeAeBeCeDeEeFeGeHeIeJeKeLeMeNeOePeQeReSeTeUeVeWeXeYeZe0e1e2e3e4e5e6e7e8e9e.e+fafbfcfdfefffgfhfifjfkflfmfnfofpfqfrfsftfufvfwfxfyfzfAfBfCfDfEfFfGfHfIfJfKfLfMfNfOfPfQfRfSfTfUfVfWfXfYfZf0f1f2f3f4f5f6f7f8f9f.f+gagbgcgdgegfggghgigjgkglgmgngogpgqgrgsgtgugvgwgxgygzgAgBgCgDgEgFgGgHgIgJgKgLgMgNgOgPgQgRgSgTgUgVgWgXgYgZg0g1g2g3g4g5g6g7g8g9g.g+hahbhchdhehfhghhhihjhkhlhmhnhohphqhrhshthuhvhwhxhyhzhAhBhChDhEhFhGhHhIhJhKhLhMhNhOhPhQhRhShThUhVhWhXhYhZh0h1h2h3h4h5h6h7h8h9h.h+",
"aaabacadaeafagahaiajakalamanaoapaqarasatauavawaxayazaAaBaCaDaEaFaGaHaIaJaKaLaMaNaOaPaQaRaSaTaUaVaWaXaYaZa0a1a2a3a4a5a6a7a8a9a.a+babbbcbdbebfbgbhbibjbkblbmbnbobpbqbrbsbtbubvbwbxbybzbAbBbCbDbEbFbGbHbIbJbKbLbMbNbObPbQbRbSbTbUbVbWbXbYbZb0b1b2b3b4b5b6b7b8b9b.b+cacbcccdcecfcgchcicjckclcmcncocpcqcrcsctcucvcwcxcyczcAcBcCcDcEcFcGcHcIcJcKcLcMcNcOcPcQcRcScTcUcVcWcXcYcZc0c1c2c3c4c5c6c7c8c9c.c+dadbdcdddedfdgdhdidjdkdldmdndodpdqdrdsdtdudvdwdxdydzdAdBdCdDdEdFdGdHdIdJdKdLdMdNdOdPdQdRdSdTdUdVdWdXdYdZd0d1d2d3d4d5d6d7d8d9d.d+eaebecedeeefegeheiejekelemeneoepeqereseteuevewexeyezeAeBeCeDeEeFeGeHeIeJeKeLeMeNeOePeQeReSeTeUeVeWeXeYeZe0e1e2e3e4e5e6e7e8e9e.e+fafbfcfdfefffgfhfifjfkflfmfnfofpfqfrfsftfufvfwfxfyfzfAfBfCfDfEfFfGfHfIfJfKfLfMfNfOfPfQfRfSfTfUfVfWfXfYfZf0f1f2f3f4f5f6f7f8f9f.f+gagbgcgdgegfggghgigjgkglgmgngogpgqgrgsgtgugvgwgxgygzgAgBgCgDgEgFgGgHgIgJgKgLgMgNgOgPgQgRgSgTgUgVgWgXgYgZg0g1g2g3g4g5g6g7g8g9g.g+hahbhchdhehfhghhhihjhkhlhmhnhohphqhrhshthuhvhwhxhyhzhAhBhChDhEhFhGhHhIhJhKhLhMhNhOhPhQhRhShThUhVhWhXhYhZh0h1h2h3h4h5h6h7h8h9h.h+",
"aaabacadaeafagahaiajakalamanaoapaqarasatauavawaxayazaAaBaCaDaEaFaGaHaIaJaKaLaMaNaOaPaQaRaSaTaUaVaWaXaYaZa0a1a2a3a4a5a6a7a8a9a.a+babbbcbdbebfbgbhbibjbkblbmbnbobpbqbrbsbtbubvbwbxbybzbAbBbCbDbEbFbGbHbIbJbKbLbMbNbObPbQbRbSbTbUbVbWbXbYbZb0b1b2b3b4b5b6b7b8b9b.b+cacbcccdcecfcgchcicjckclcmcncocpcqcrcsctcucvcwcxcyczcAcBcCcDcEcFcGcHcIcJcKcLcMcNcOcPcQcRcScTcUcVcWcXcYcZc0c1c2c3c4c5c6c7c8c9c.c+dadbdcdddedfdgdhdidjdkdldmdndodpdqdrdsdtdudvdwdxdydzdAdBdCdDdEdFdGdHdIdJdKdLdMdNdOdPdQdRdSdTdUdVdWdXdYdZd0d1d2d3d4d5d6d7d8d9d.d+eaebecedeeefegeheiejekelemeneoepeqereseteuevewexeyezeAeBeCeDeEeFeGeHeIeJeKeLeMeNeOePeQeReSeTeUeVeWeXeYeZe0e1e2e3e4e5e6e7e8e9e.e+fafbfcfdfefffgfhfifjfkflfmfnfofpfqfrfsftfufvfwfxfyfzfAfBfCfDfEfFfGfHfIfJfKfLfMfNfOfPfQfRfSfTfUfVfWfXfYfZf0f1f2f3f4f5f6f7f8f9f.f+gagbgcgdgegfggghgigjgkglgmgngogpgqgrgsgtgugvgwgxgygzgAgBgCgDgEgFgGgHgIgJgKgLgMgNgOgPgQgRgSgTgUgVgWgXgYgZg0g1g2g3g4g5g6g7g8g9g.g+hahbhchdhehfhghhhihjhkhlhmhnhohphqhrhshthuhvhwhxhyhzhAhBhChDhEhFhGhHhIhJhKhLhMhNhOhPhQhRhShThUhVhWhXhYhZh0h1h2h3h4h5h6h7h8h9h.h+",
"aaabacadaeafagahaiajakalamanaoapaqarasatauavawaxayazaAaBaCaDaEaFaGaHaIaJaKaLaMaNaOaPaQaRaSaTaUaVaWaXaYaZa0a1a2a3a4a5a6a7a8a9a.a+babbbcbdbebfbgbhbibjbkblbmbnbobpbqbrbsbtbubvbwbxbybzbAbBbCbDbEbFbGbHbIbJbKbLbMbNbObPbQbRbSbTbUbVbWbXbYbZb0b1b2b3b4b5b6b7b8b9b.b+cacbcccdcecfcgchcicjckclcmcncocpcqcrcsctcucvcwcxcyczcAcBcCcDcEcFcGcHcIcJcKcLcMcNcOcPcQcRcScTcUcVcWcXcYcZc0c1c2c3c4c5c6c7c8c9c.c+dadbdcdddedfdgdhdidjdkdldmdndodpdqdrdsdtdudvdwdxdydzdAdBdCdDdEdFdGdHdIdJdKdLdMdNdOdPdQdRdSdTdUdVdWdXdYdZd0d1d2d3d4d5d6d7d8d9d.d+eaebecedeeefegeheiejekelemeneoepeqereseteuevewexeyezeAeBeCeDeEeFeGeHeIeJeKeLeMeNeOePeQeReSeTeUeVeWeXeYeZe0e1e2e3e4e5e6e7e8e9e.e+fafbfcfdfefffgfhfifjfkflfmfnfofpfqfrfsftfufvfwfxfyfzfAfBfCfDfEfFfGfHfIfJfKfLfMfNfOfPfQfRfSfTfUfVfWfXfYfZf0f1f2f3f4f5f6f7f8f9f.f+gagbgcgdgegfggghgigjgkglgmgngogpgqgrgsgtgugvgwgxgygzgAgBgCgDgEgFgGgHgIgJgKgLgMgNgOgPgQgRgSgTgUgVgWgXgYgZg0g1g2g3g4g5g6g7g8g9g.g+hahbhchdhehfhghhhihjhkhlhmhnhohphqhrhshthuhvhwhxhyhzhAhBhChDhEhFhGhHhIhJhKhLhMhNhOhPhQhRhShThUhVhWhXhYhZh0h1h2h3h4h5h6h7h8h9h.h+",
"aaabacadaeafagahaiajakalamanaoapaqarasatauavawaxayazaAaBaCaDaEaFaGaHaIaJaKaLaMaNaOaPaQaRaSaTaUaVaWaXaYaZa0a1a2a3a4a5a6a7a8a9a.a+babbbcbdbebfbgbhbibjbkblbmbnbobpbqbrbsbtbubvbwbxbybzbAbBbCbDbEbFbGbHbIbJbKbLbMbNbObPbQbRbSbTbUbVbWbXbYbZb0b1b2b3b4b5b6b7b8b9b.b+cacbcccdcecfcgchcicjckclcmcncocpcqcrcsctcucvcwcxcyczcAcBcCcDcEcFcGcHcIcJcKcLcMcNcOcPcQcRcScTcUcVcWcXcYcZc0c1c2c3c4c5c6c7c8c9c.c+dadbdcdddedfdgdhdidjdkdldmdndodpdqdrdsdtdudvdwdxdydzdAdBdCdDdEdFdGdHdIdJdKdLdMdNdOdPdQdRdSdTdUdVdWdXdYdZd0d1d2d3d4d5d6d7d8d9d.d+eaebecedeeefegeheiejekelemeneoepeqereseteuevewexeyezeAeBeCeDeEeFeGeHeIeJeKeLeMeNeOePeQeReSeTeUeVeWeXeYeZe0e1e2e3e4e5e6e7e8e9e.e+fafbfcfdfefffgfhfifjfkflfmfnfofpfqfrfsftfufvfwfxfyfzfAfBfCfDfEfFfGfHfIfJfKfLfMfNfOfPfQfRfSfTfUfVfWfXfYfZf0f1f2f3f4f5f6f7f8f9f.f+gagbgcgdgegfggghgigjgkglgmgngogpgqgrgsgtgugvgwgxgygzgAgBgCgDgEgFgGgHgIgJgKgLgMgNgOgPgQgRgSgTgUgVgWgXgYgZg0g1g2g3g4g5g6g7g8g9g.g+hahbhchdhehfhghhhihjhkhlhmhnhohphqhrhshthuhvhwhxhyhzhAhBhChDhEhFhGhHhIhJhKhLhMhNhOhPhQhRhShThUhVhWhXhYhZh0h1h2h3h4h5h6h7h8h9h.h+",
"aaabacadaeafagahaiajakalamanaoapaqarasatauavawaxayazaAaBaCaDaEaFaGaHaIaJaKaLaMaNaOaPaQaRaSaTaUaVaWaXaYaZa0a1a2a3a4a5a6a7a8a9a.a+babbbcbdbebfbgbhbibjbkblbmbnbobpbqbrbsbtbubvbwbxbybzbAbBbCbDbEbFbGbHbIbJbKbLbMbNbObPbQbRbSbTbUbVbWbXbYbZb0b1b2b3b4b5b6b7b8b9b.b+cacbcccdcecfcgchcicjckclcmcncocpcqcrcsctcucvcwcxcyczcAcBcCcDcEcFcGcHcIcJcKcLcMcNcOcPcQcRcScTcUcVcWcXcYcZc0c1c2c3c4c5c6c7c8c9c.c+dadbdcdddedfdgdhdidjdkdldmdndodpdqdrdsdtdudvdwdxdydzdAdBdCdDdEdFdGdHdIdJdKdLdMdNdOdPdQdRdSdTdUdVdWdXdYdZd0d1d2d3d4d5d6d7d8d9d.d+eaebecedeeefegeheiejekelemeneoepeqereseteuevewexeyezeAeBeCeDeEeFeGeHeIeJeKeLeMeNeOePeQeReSeTeUeVeWeXeYeZe0e1e2e3e4e5e6e7e8e9e.e+fafbfcfdfefffgfhfifjfkflfmfnfofpfqfrfsftfufvfwfxfyfzfAfBfCfDfEfFfGfHfIfJfKfLfMfNfOfPfQfRfSfTfUfVfWfXfYfZf0f1f2f3f4f5f6f7f8f9f.f+gagbgcgdgegfggghgigjgkglgmgngogpgqgrgsgtgugvgwgxgygzgAgBgCgDgEgFgGgHgIgJgKgLgMgNgOgPgQgRgSgTgUgVgWgXgYgZg0g1g2g3g4g5g6g7g8g9g.g+hahbhchdhehfhghhhihjhkhlhmhnhohphqhrhshthuhvhwhxhyhzhAhBhChDhEhFhGhHhIhJhKhLhMhNhOhPhQhRhShThUhVhWhXhYhZh0h1h2h3h4h5h6h7h8h9h.h+",
"aaabacadaeafagahaiajakalamanaoapaqarasatauavawaxayazaAaBaCaDaEaFaGaHaIaJaKaLaMaNaOaPaQaRaSaTaUaVaWaXaYaZa0a1a2a3a4a5a6a7a8a9a.a+babbbcbdbebfbgbhbibjbkblbmbnbobpbqbrbsbtbubvbwbxbybzbAbBbCbDbEbFbGbHbIbJbKbLbMbNbObPbQbRbSbTbUbVbWbXbYbZb0b1b2b3b4b5b6b7b8b9b.b+cacbcccdcecfcgchcicjckclcmcncocpcqcrcsctcucvcwcxcyczcAcBcCcDcEcFcGcHcIcJcKcLcMcNcOcPcQcRcScTcUcVcWcXcYcZc0c1c2c3c4c5c6c7c8c9c.c+dadbdcdddedfdgdhdidjdkdldmdndodpdqdrdsdtdudvdwdxdydzdAdBdCdDdEdFdGdHdIdJdKdLdMdNdOdPdQdRdSdTdUdVdWdXdYdZd0d1d2d3d4d5d6d7d8d9d.d+eaebecedeeefegeheiejekelemeneoepeqereseteuevewexeyezeAeBeCeDeEeFeGeHeIeJeKeLeMeNeOePeQeReSeTeUeVeWeXeYeZe0e1e2e3e4e5e6e7e8e9e.e+fafbfcfdfefffgfhfifjfkflfmfnfofpfqfrfsftfufvfwfxfyfzfAfBfCfDfEfFfGfHfIfJfKfLfMfNfOfPfQfRfSfTfUfVfWfXfYfZf0f1f2f3f4f5f6f7f8f9f.f+gagbgcgdgegfggghgigjgkglgmgngogpgqgrgsgtgugvgwgxgygzgAgBgCgDgEgFgGgHgIgJgKgLgMgNgOgPgQgRgSgTgUgVgWgXgYgZg0g1g2g3g4g5g6g7g8g9g.g+hahbhchdhehfhghhhihjhkhlhmhnhohphqhrhshthuhvhwhxhyhzhAhBhChDhEhFhGhHhIhJhKhLhMhNhOhPhQhRhShThUhVhWhXhYhZh0h1h2h3h4h5h6h7h8h9h.h+",
"aaabacadaeafagahaiajakalamanaoapaqarasatauavawaxayazaAaBaCaDaEaFaGaHaIaJaKaLaMaNaOaPaQaRaSaTaUaVaWaXaYaZa0a1a2a3a4a5a6a7a8a9a.a+babbbcbdbebfbgbhbibjbkblbmbnbobpbqbrbsbtbubvbwbxbybzbAbBbCbDbEbFbGbHbIbJbKbLbMbNbObPbQbRbSbTbUbVbWbXbYbZb0b1b2b3b4b5b6b7b8b9b.b+cacbcccdcecfcgchcicjckclcmcncocpcqcrcsctcucvcwcxcyczcAcBcCcDcEcFcGcHcIcJcKcLcMcNcOcPcQcRcScTcUcVcWcXcYcZc0c1c2c3c4c5c6c7c8c9c.c+dadbdcdddedfdgdhdidjdkdldmdndodpdqdrdsdtdudvdwdxdydzdAdBdCdDdEdFdGdHdIdJdKdLdMdNdOdPdQdRdSdTdUdVdWdXdYdZd0d1d2d3d4d5d6d7d8d9d.d+eaebecedeeefegeheiejekelemeneoepeqereseteuevewexeyezeAeBeCeDeEeFeGeHeIeJeKeLeMeNeOePeQeReSeTeUeVeWeXeYeZe0e1e2e3e4e5e6e7e8e9e.e+fafbfcfdfefffgfhfifjfkflfmfnfofpfqfrfsftfufvfwfxfyfzfAfBfCfDfEfFfGfHfIfJfKfLfMfNfOfPfQfRfSfTfUfVfWfXfYfZf0f1f2f3f4f5f6f7f8f9f.f+gagbgcgdgegfggghgigjgkglgmgngogpgqgrgsgtgugvgwgxgygzgAgBgCgDgEgFgGgHgIgJgKgLgMgNgOgPgQgRgSgTgUgVgWgXgYgZg0g1g2g3g4g5g6g7g8g9g.g+hahbhchdhehfhghhhihjhkhlhmhnhohphqhrhshthuhvhwhxhyhzhAhBhChDhEhFhGhHhIhJhKhLhMhNhOhPhQhRhShThUhVhWhXhYhZh0h1h2h3h4h5h6h7h8h9h.h+",
"aaabacadaeafagahaiajakalamanaoapaqarasatauavawaxayazaAaBaCaDaEaFaGaHaIaJaKaLaMaNaOaPaQaRaSaTaUaVaWaXaYaZa0a1a2a3a4a5a6a7a8a9a.a+babbbcbdbebfbgbhbibjbkblbmbnbobpbqbrbsbtbubvbwbxbybzbAbBbCbDbEbFbGbHbIbJbKbLbMbNbObPbQbRbSbTbUbVbWbXbYbZb0b1b2b3b4b5b6b7b8b9b.b+cacbcccdcecfcgchcicjckclcmcncocpcqcrcsctcucvcwcxcyczcAcBcCcDcEcFcGcHcIcJcKcLcMcNcOcPcQcRcScTcUcVcWcXcYcZc0c1c2c3c4c5c6c7c8c9c.c+dadbdcdddedfdgdhdidjdkdldmdndodpdqdrdsdtdudvdwdxdydzdAdBdCdDdEdFdGdHdIdJdKdLdMdNdOdPdQdRdSdTdUdVdWdXdYdZd0d1d2d3d4d5d6d7d8d9d.d+eaebecedeeefegeheiejekelemeneoepeqereseteuevewexeyezeAeBeCeDeEeFeGeHeIeJeKeLeMeNeOePeQeReSeTeUeVeWeXeYeZe0e1e2e3e4e5e6e7e8e9e.e+fafbfcfdfefffgfhfifjfkflfmfnfofpfqfrfsftfufvfwfxfyfzfAfBfCfDfEfFfGfHfIfJfKfLfMfNfOfPfQfRfSfTfUfVfWfXfYfZf0f1f2f3f4f5f6f7f8f9f.f+gagbgcgdgegfggghgigjgkglgmgngogpgqgrgsgtgugvgwgxgygzgAgBgCgDgEgFgGgHgIgJgKgLgMgNgOgPgQgRgSgTgUgVgWgXgYgZg0g1g2g3g4g5g6g7g8g9g.g+hahbhchdhehfhghhhihjhkhlhmhnhohphqhrhshthuhvhwhxhyhzhAhBhChDhEhFhGhHhIhJhKhLhMhNhOhPhQhRhShThUhVhWhXhYhZh0h1h2h3h4h5h6h7h8h9h.h+",
"aaabacadaeafagahaiajakalamanaoapaqarasatauavawaxayazaAaBaCaDaEaFaGaHaIaJaKaLaMaNaOaPaQaRaSaTaUaVaWaXaYaZa0a1a2a3a4a5a6a7a8a9a.a+babbbcbdbebfbgbhbibjbkblbmbnbobpbqbrbsbtbubvbwbxbybzbAbBbCbDbEbFbGbHbIbJbKbLbMbNbObPbQbRbSbTbUbVbWbXbYbZb0b1b2b3b4b5b6b7b8b9b.b+cacbcccdcecfcgchcicjckclcmcncocpcqcrcsctcucvcwcxcyczcAcBcCcDcEcFcGcHcIcJcKcLcMcNcOcPcQcRcScTcUcVcWcXcYcZc0c1c2c3c4c5c6c7c8c9c.c+dadbdcdddedfdgdhdidjdkdldmdndodpdqdrdsdtdudvdwdxdydzdAdBdCdDdEdFdGdHdIdJdKdLdMdNdOdPdQdRdSdTdUdVdWdXdYdZd0d1d2d3d4d5d6d7d8d9d.d+eaebecedeeefegeheiejekelemeneoepeqereseteuevewexeyezeAeBeCeDeEeFeGeHeIeJeKeLeMeNeOePeQeReSeTeUeVeWeXeYeZe0e1e2e3e4e5e6e7e8e9e.e+fafbfcfdfefffgfhfifjfkflfmfnfofpfqfrfsftfufvfwfxfyfzfAfBfCfDfEfFfGfHfIfJfKfLfMfNfOfPfQfRfSfTfUfVfWfXfYfZf0f1f2f3f4f5f6f7f8f9f.f+gagbgcgdgegfggghgigjgkglgmgngogpgqgrgsgtgugvgwgxgygzgAgBgCgDgEgFgGgHgIgJgKgLgMgNgOgPgQgRgSgTgUgVgWgXgYgZg0g1g2g3g4g5g6g7g8g9g.g+hahbhchdhehfhghhhihjhkhlhmhnhohphqhrhshthuhvhwhxhyhzhAhBhChDhEhFhGhHhIhJhKhLhMhNhOhPhQhRhShThUhVhWhXhYhZh0h1h2h3h4h5h6h7h8h9h.h+",
"aaabacadaeafagahaiajakalamanaoapaqarasatauavawaxayazaAaBaCaDaEaFaGaHaIaJaKaLaMaNaOaPaQaRaSaTaUaVaWaXaYaZa0a1a2a3a4a5a6a7a8a9a.a+babbbcbdbebfbgbhbibjbkblbmbnbobpbqbrbsbtbubvbwbxbybzbAbBbCbDbEbFbGbHbIbJbKbLbMbNbObPbQbRbSbTbUbVbWbXbYbZb0b1b2b3b4b5b6b7b8b9b.b+cacbcccdcecfcgchcicjckclcmcncocpcqcrcsctcucvcwcxcyczcAcBcCcDcEcFcGcHcIcJcKcLcMcNcOcPcQcRcScTcUcVcWcXcYcZc0c1c2c3c4c5c6c7c8c9c.c+dadbdcdddedfdgdhdidjdkdldmdndodpdqdrdsdtdudvdwdxdydzdAdBdCdDdEdFdGdHdIdJdKdLdMdNdOdPdQdRdSdTdUdVdWdXdYdZd0d1d2d3d4d5d6d7d8d9d.d+eaebecedeeefegeheiejekelemeneoepeqereseteuevewexeyezeAeBeCeDeEeFeGeHeIeJeKeLeMeNeOePeQeReSeTeUeVeWeXeYeZe0e1e2e3e4e5e6e7e8e9e.e+fafbfcfdfefffgfhfifjfkflfmfnfofpfqfrfsftfufvfwfxfyfzfAfBfCfDfEfFfGfHfIfJfKfLfMfNfOfPfQfRfSfTfUfVfWfXfYfZf0f1f2f3f4f5f6f7f8f9f.f+gagbgcgdgegfggghgigjgkglgmgngogpgqgrgsgtgugvgwgxgygzgAgBgCgDgEgFgGgHgIgJgKgLgMgNgOgPgQgRgSgTgUgVgWgXgYgZg0g1g2g3g4g5g6g7g8g9g.g+hahbhchdhehfhghhhihjhkhlhmhnhohphqhrhshthuhvhwhxhyhzhAhBhChDhEhFhGhHhIhJhKhLhMhNhOhPhQhRhShThUhVhWhXhYhZh0h1h2h3h4h5h6h7h8h9h.h+",
"aaabacadaeafagahaiajakalamanaoapaqarasatauavawaxayazaAaBaCaDaEaFaGaHaIaJaKaLaMaNaOaPaQaRaSaTaUaVaWaXaYaZa0a1a2a3a4a5a6a7a8a9a.a+babbbcbdbebfbgbhbibjbkblbmbnbobpbqbrbsbtbubvbwbxbybzbAbBbCbDbEbFbGbHbIbJbKbLbMbNbObPbQbRbSbTbUbVbWbXbYbZb0b1b2b3b4b5b6b7b8b9b.b+cacbcccdcecfcgchcicjckclcmcncocpcqcrcsctcucvcwcxcyczcAcBcCcDcEcFcGcHcIcJcKcLcMcNcOcPcQcRcScTcUcVcWcXcYcZc0c1c2c3c4c5c6c7c8c9c.c+dadbdcdddedfdgdhdidjdkdldmdndodpdqdrdsdtdudvdwdxdydzdAdBdCdDdEdFdGdHdIdJdKdLdMdNdOdPdQdRdSdTdUdVdWdXdYdZd0d1d2d3d4d5d6d7d8d9d.d+eaebecedeeefegeheiejekelemeneoepeqereseteuevewexeyezeAeBeCeDeEeFeGeHeIeJeKeLeMeNeOePeQeReSeTeUeVeWeXeYeZe0e1e2e3e4e5e6e7e8e9e.e+fafbfcfdfefffgfhfifjfkflfmfnfofpfqfrfsftfufvfwfxfyfzfAfBfCfDfEfFfGfHfIfJfKfLfMfNfOfPfQfRfSfTfUfVfWfXfYfZf0f1f2f3f4f5f6f7f8f9f.f+gagbgcgdgegfggghgigjgkglgmgngogpgqgrgsgtgugvgwgxgygzgAgBgCgDgEgFgGgHgIgJgKgLgMgNgOgPgQgRgSgTgUgVgWgXgYgZg0g1g2g3g4g5g6g7g8g9g.g+hahbhchdhehfhghhhihjhkhlhmhnhohphqhrhshthuhvhwhxhyhzhAhBhChDhEhFhGhHhIhJhKhLhMhNhOhPhQhRhShThUhVhWhXhYhZh0h1h2h3h4h5h6h7h8h9h.h+",
"aaabacadaeafagahaiajakalamanaoapaqarasatauavawaxayazaAaBaCaDaEaFaGaHaIaJaKaLaMaNaOaPaQaRaSaTaUaVaWaXaYaZa0a1a2a3a4a5a6a7a8a9a.a+babbbcbdbebfbgbhbibjbkblbmbnbobpbqbrbsbtbubvbwbxbybzbAbBbCbDbEbFbGbHbIbJbKbLbMbNbObPbQbRbSbTbUbVbWbXbYbZb0b1b2b3b4b5b6b7b8b9b.b+cacbcccdcecfcgchcicjckclcmcncocpcqcrcsctcucvcwcxcyczcAcBcCcDcEcFcGcHcIcJcKcLcMcNcOcPcQcRcScTcUcVcWcXcYcZc0c1c2c3c4c5c6c7c8c9c.c+dadbdcdddedfdgdhdidjdkdldmdndodpdqdrdsdtdudvdwdxdydzdAdBdCdDdEdFdGdHdIdJdKdLdMdNdOdPdQdRdSdTdUdVdWdXdYdZd0d1d2d3d4d5d6d7d8d9d.d+eaebecedeeefegeheiejekelemeneoepeqereseteuevewexeyezeAeBeCeDeEeFeGeHeIeJeKeLeMeNeOePeQeReSeTeUeVeWeXeYeZe0e1e2e3e4e5e6e7e8e9e.e+fafbfcfdfefffgfhfifjfkflfmfnfofpfqfrfsftfufvfwfxfyfzfAfBfCfDfEfFfGfHfIfJfKfLfMfNfOfPfQfRfSfTfUfVfWfXfYfZf0f1f2f3f4f5f6f7f8f9f.f+gagbgcgdgegfggghgigjgkglgmgngogpgqgrgsgtgugvgwgxgygzgAgBgCgDgEgFgGgHgIgJgKgLgMgNgOgPgQgRgSgTgUgVgWgXgYgZg0g1g2g3g4g5g6g7g8g9g.g+hahbhchdhehfhghhhihjhkhlhmhnhohphqhrhshthuhvhwhxhyhzhAhBhChDhEhFhGhHhIhJhKhLhMhNhOhPhQhRhShThUhVhWhXhYhZh0h1h2h3h4h5h6h7h8h9h.h+",
"aaabacadaeafagahaiajakalamanaoapaqarasatauavawaxayazaAaBaCaDaEaFaGaHaIaJaKaLaMaNaOaPaQaRaSaTaUaVaWaXaYaZa0a1a2a3a4a5a6a7a8a9a.a+babbbcbdbebfbgbhbibjbkblbmbnbobpbqbrbsbtbubvbwbxbybzbAbBbCbDbEbFbGbHbIbJbKbLbMbNbObPbQbRbSbTbUbVbWbXbYbZb0b1b2b3b4b5b6b7b8b9b.b+cacbcccdcecfcgchcicjckclcmcncocpcqcrcsctcucvcwcxcyczcAcBcCcDcEcFcGcHcIcJcKcLcMcNcOcPcQcRcScTcUcVcWcXcYcZc0c1c2c3c4c5c6c7c8c9c.c+dadbdcdddedfdgdhdidjdkdldmdndodpdqdrdsdtdudvdwdxdydzdAdBdCdDdEdFdGdHdIdJdKdLdMdNdOdPdQdRdSdTdUdVdWdXdYdZd0d1d2d3d4d5d6d7d8d9d.d+eaebecedeeefegeheiejekelemeneoepeqereseteuevewexeyezeAeBeCeDeEeFeGeHeIeJeKeLeMeNeOePeQeReSeTeUeVeWeXeYeZe0e1e2e3e4e5e6e7e8e9e.e+fafbfcfdfefffgfhfifjfkflfmfnfofpfqfrfsftfufvfwfxfyfzfAfBfCfDfEfFfGfHfIfJfKfLfMfNfOfPfQfRfSfTfUfVfWfXfYfZf0f1f2f3f4f5f6f7f8f9f.f+gagbgcgdgegfggghgigjgkglgmgngogpgqgrgsgtgugvgwgxgygzgAgBgCgDgEgFgGgHgIgJgKgLgMgNgOgPgQgRgSgTgUgVgWgXgYgZg0g1g2g3g4g5g6g7g8g9g.g+hahbhchdhehfhghhhihjhkhlhmhnhohphqhrhshthuhvhwhxhyhzhAhBhChDhEhFhGhHhIhJhKhLhMhNhOhPhQhRhShThUhVhWhXhYhZh0h1h2h3h4h5h6h7h8h9h.h+",
"aaabacadaeafagahaiajakalamanaoapaqarasatauavawaxayazaAaBaCaDaEaFaGaHaIaJaKaLaMaNaOaPaQaRaSaTaUaVaWaXaYaZa0a1a2a3a4a5a6a7a8a9a.a+babbbcbdbebfbgbhbibjbkblbmbnbobpbqbrbsbtbubvbwbxbybzbAbBbCbDbEbFbGbHbIbJbKbLbMbNbObPbQbRbSbTbUbVbWbXbYbZb0b1b2b3b4b5b6b7b8b9b.b+cacbcccdcecfcgchcicjckclcmcncocpcqcrcsctcucvcwcxcyczcAcBcCcDcEcFcGcHcIcJcKcLcMcNcOcPcQcRcScTcUcVcWcXcYcZc0c1c2c3c4c5c6c7c8c9c.c+dadbdcdddedfdgdhdidjdkdldmdndodpdqdrdsdtdudvdwdxdydzdAdBdCdDdEdFdGdHdIdJdKdLdMdNdOdPdQdRdSdTdUdVdWdXdYdZd0d1d2d3d4d5d6d7d8d9d.d+eaebecedeeefegeheiejekelemeneoepeqereseteuevewexeyezeAeBeCeDeEeFeGeHeIeJeKeLeMeNeOePeQeReSeTeUeVeWeXeYeZe0e1e2e3e4e5e6e7e8e9e.e+fafbfcfdfefffgfhfifjfkflfmfnfofpfqfrfsftfufvfwfxfyfzfAfBfCfDfEfFfGfHfIfJfKfLfMfNfOfPfQfRfSfTfUfVfWfXfYfZf0f1f2f3f4f5f6f7f8f9f.f+gagbgcgdgegfggghgigjgkglgmgngogpgqgrgsgtgugvgwgxgygzgAgBgCgDgEgFgGgHgIgJgKgLgMgNgOgPgQgRgSgTgUgVgWgXgYgZg0g1g2g3g4g5g6g7g8g9g.g+hahbhchdhehfhghhhihjhkhlhmhnhohphqhrhshthuhvhwhxhyhzhAhBhChDhEhFhGhHhIhJhKhLhMhNhOhPhQhRhShThUhVhWhXhYhZh0h1h2h3h4h5h6h7h8h9h.h+",
"aaabacadaeafagahaiajakalamanaoapaqarasatauavawaxayazaAaBaCaDaEaFaGaHaIaJaKaLaMaNaOaPaQaRaSaTaUaVaWaXaYaZa0a1a2a3a4a5a6a7a8a9a.a+babbbcbdbebfbgbhbibjbkblbmbnbobpbqbrbsbtbubvbwbxbybzbAbBbCbDbEbFbGbHbIbJbKbLbMbNbObPbQbRbSbTbUbVbWbXbYbZb0b1b2b3b4b5b6b7b8b9b.b+cacbcccdcecfcgchcicjckclcmcncocpcqcrcsctcucvcwcxcyczcAcBcCcDcEcFcGcHcIcJcKcLcMcNcOcPcQcRcScTcUcVcWcXcYcZc0c1c2c3c4c5c6c7c8c9c.c+dadbdcdddedfdgdhdidjdkdldmdndodpdqdrdsdtdudvdwdxdydzdAdBdCdDdEdFdGdHdIdJdKdLdMdNdOdPdQdRdSdTdUdVdWdXdYdZd0d1d2d3d4d5d6d7d8d9d.d+eaebecedeeefegeheiejekelemeneoepeqereseteuevewexeyezeAeBeCeDeEeFeGeHeIeJeKeLeMeNeOePeQeReSeTeUeVeWeXeYeZe0e1e2e3e4e5e6e7e8e9e.e+fafbfcfdfefffgfhfifjfkflfmfnfofpfqfrfsftfufvfwfxfyfzfAfBfCfDfEfFfGfHfIfJfKfLfMfNfOfPfQfRfSfTfUfVfWfXfYfZf0f1f2f3f4f5f6f7f8f9f.f+gagbgcgdgegfggghgigjgkglgmgngogpgqgrgsgtgugvgwgxgygzgAgBgCgDgEgFgGgHgIgJgKgLgMgNgOgPgQgRgSgTgUgVgWgXgYgZg0g1g2g3g4g5g6g7g8g9g.g+hahbhchdhehfhghhhihjhkhlhmhnhohphqhrhshthuhvhwhxhyhzhAhBhChDhEhFhGhHhIhJhKhLhMhNhOhPhQhRhShThUhVhWhXhYhZh0h1h2h3h4h5h6h7h8h9h.h+",
"aaabacadaeafagahaiajakalamanaoapaqarasatauavawaxayazaAaBaCaDaEaFaGaHaIaJaKaLaMaNaOaPaQaRaSaTaUaVaWaXaYaZa0a1a2a3a4a5a6a7a8a9a.a+babbbcbdbebfbgbhbibjbkblbmbnbobpbqbrbsbtbubvbwbxbybzbAbBbCbDbEbFbGbHbIbJbKbLbMbNbObPbQbRbSbTbUbVbWbXbYbZb0b1b2b3b4b5b6b7b8b9b.b+cacbcccdcecfcgchcicjckclcmcncocpcqcrcsctcucvcwcxcyczcAcBcCcDcEcFcGcHcIcJcKcLcMcNcOcPcQcRcScTcUcVcWcXcYcZc0c1c2c3c4c5c6c7c8c9c.c+dadbdcdddedfdgdhdidjdkdldmdndodpdqdrdsdtdudvdwdxdydzdAdBdCdDdEdFdGdHdIdJdKdLdMdNdOdPdQdRdSdTdUdVdWdXdYdZd0d1d2d3d4d5d6d7d8d9d.d+eaebecedeeefegeheiejekelemeneoepeqereseteuevewexeyezeAeBeCeDeEeFeGeHeIeJeKeLeMeNeOePeQeReSeTeUeVeWeXeYeZe0e1e2e3e4e5e6e7e8e9e.e+fafbfcfdfefffgfhfifjfkflfmfnfofpfqfrfsftfufvfwfxfyfzfAfBfCfDfEfFfGfHfIfJfKfLfMfNfOfPfQfRfSfTfUfVfWfXfYfZf0f1f2f3f4f5f6f7f8f9f.f+gagbgcgdgegfggghgigjgkglgmgngogpgqgrgsgtgugvgwgxgygzgAgBgCgDgEgFgGgHgIgJgKgLgMgNgOgPgQgRgSgTgUgVgWgXgYgZg0g1g2g3g4g5g6g7g8g9g.g+hahbhchdhehfhghhhihjhkhlhmhnhohphqhrhshthuhvhwhxhyhzhAhBhChDhEhFhGhHhIhJhKhLhMhNhOhPhQhRhShThUhVhWhXhYhZh0h1h2h3h4h5h6h7h8h9h.h+",
"aaabacadaeafagahaiajakalamanaoapaqarasatauavawaxayazaAaBaCaDaEaFaGaHaIaJaKaLaMaNaOaPaQaRaSaTaUaVaWaXaYaZa0a1a2a3a4a5a6a7a8a9a.a+babbbcbdbebfbgbhbibjbkblbmbnbobpbqbrbsbtbubvbwbxbybzbAbBbCbDbEbFbGbHbIbJbKbLbMbNbObPbQbRbSbTbUbVbWbXbYbZb0b1b2b3b4b5b6b7b8b9b.b+cacbcccdcecfcgchcicjckclcmcncocpcqcrcsctcucvcwcxcyczcAcBcCcDcEcFcGcHcIcJcKcLcMcNcOcPcQcRcScTcUcVcWcXcYcZc0c1c2c3c4c5c6c7c8c9c.c+dadbdcdddedfdgdhdidjdkdldmdndodpdqdrdsdtdudvdwdxdydzdAdBdCdDdEdFdGdHdIdJdKdLdMdNdOdPdQdRdSdTdUdVdWdXdYdZd0d1d2d3d4d5d6d7d8d9d.d+eaebecedeeefegeheiejekelemeneoepeqereseteuevewexeyezeAeBeCeDeEeFeGeHeIeJeKeLeMeNeOePeQeReSeTeUeVeWeXeYeZe0e1e2e3e4e5e6e7e8e9e.e+fafbfcfdfefffgfhfifjfkflfmfnfofpfqfrfsftfufvfwfxfyfzfAfBfCfDfEfFfGfHfIfJfKfLfMfNfOfPfQfRfSfTfUfVfWfXfYfZf0f1f2f3f4f5f6f7f8f9f.f+gagbgcgdgegfggghgigjgkglgmgngogpgqgrgsgtgugvgwgxgygzgAgBgCgDgEgFgGgHgIgJgKgLgMgNgOgPgQgRgSgTgUgVgWgXgYgZg0g1g2g3g4g5g6g7g8g9g.g+hahbhchdhehfhghhhihjhkhlhmhnhohphqhrhshthuhvhwhxhyhzhAhBhChDhEhFhGhHhIhJhKhLhMhNhOhPhQhRhShThUhVhWhXhYhZh0h1h2h3h4h5h6h7h8h9h.h+",
"aaabacadaeafagahaiajakalamanaoapaqarasatauavawaxayazaAaBaCaDaEaFaGaHaIaJaKaLaMaNaOaPaQaRaSaTaUaVaWaXaYaZa0a1a2a3a4a5a6a7a8a9a.a+babbbcbdbebfbgbhbibjbkblbmbnbobpbqbrbsbtbubvbwbxbybzbAbBbCbDbEbFbGbHbIbJbKbLbMbNbObPbQbRbSbTbUbVbWbXbYbZb0b1b2b3b4b5b6b7b8b9b.b+cacbcccdcecfcgchcicjckclcmcncocpcqcrcsctcucvcwcxcyczcAcBcCcDcEcFcGcHcIcJcKcLcMcNcOcPcQcRcScTcUcVcWcXcYcZc0c1c2c3c4c5c6c7c8c9c.c+dadbdcdddedfdgdhdidjdkdldmdndodpdqdrdsdtdudvdwdxdydzdAdBdCdDdEdFdGdHdIdJdKdLdMdNdOdPdQdRdSdTdUdVdWdXdYdZd0d1d2d3d4d5d6d7d8d9d.d+eaebecedeeefegeheiejekelemeneoepeqereseteuevewexeyezeAeBeCeDeEeFeGeHeIeJeKeLeMeNeOePeQeReSeTeUeVeWeXeYeZe0e1e2e3e4e5e6e7e8e9e.e+fafbfcfdfefffgfhfifjfkflfmfnfofpfqfrfsftfufvfwfxfyfzfAfBfCfDfEfFfGfHfIfJfKfLfMfNfOfPfQfRfSfTfUfVfWfXfYfZf0f1f2f3f4f5f6f7f8f9f.f+gagbgcgdgegfggghgigjgkglgmgngogpgqgrgsgtgugvgwgxgygzgAgBgCgDgEgFgGgHgIgJgKgLgMgNgOgPgQgRgSgTgUgVgWgXgYgZg0g1g2g3g4g5g6g7g8g9g.g+hahbhchdhehfhghhhihjhkhlhmhnhohphqhrhshthuhvhwhxhyhzhAhBhChDhEhFhGhHhIhJhKhLhMhNhOhPhQhRhShThUhVhWhXhYhZh0h1h2h3h4h5h6h7h8h9h.h+",
"aaabacadaeafagahaiajakalamanaoapaqarasatauavawaxayazaAaBaCaDaEaFaGaHaIaJaKaLaMaNaOaPaQaRaSaTaUaVaWaXaYaZa0a1a2a3a4a5a6a7a8a9a.a+babbbcbdbebfbgbhbibjbkblbmbnbobpbqbrbsbtbubvbwbxbybzbAbBbCbDbEbFbGbHbIbJbKbLbMbNbObPbQbRbSbTbUbVbWbXbYbZb0b1b2b3b4b5b6b7b8b9b.b+cacbcccdcecfcgchcicjckclcmcncocpcqcrcsctcucvcwcxcyczcAcBcCcDcEcFcGcHcIcJcKcLcMcNcOcPcQcRcScTcUcVcWcXcYcZc0c1c2c3c4c5c6c7c8c9c.c+dadbdcdddedfdgdhdidjdkdldmdndodpdqdrdsdtdudvdwdxdydzdAdBdCdDdEdFdGdHdIdJdKdLdMdNdOdPdQdRdSdTdUdVdWdXdYdZd0d1d2d3d4d5d6d7d8d9d.d+eaebecedeeefegeheiejekelemeneoepeqereseteuevewexeyezeAeBeCeDeEeFeGeHeIeJeKeLeMeNeOePeQeReSeTeUeVeWeXeYeZe0e1e2e3e4e5e6e7e8e9e.e+fafbfcfdfefffgfhfifjfkflfmfnfofpfqfrfsftfufvfwfxfyfzfAfBfCfDfEfFfGfHfIfJfKfLfMfNfOfPfQfRfSfTfUfVfWfXfYfZf0f1f2f3f4f5f6f7f8f9f.f+gagbgcgdgegfggghgigjgkglgmgngogpgqgrgsgtgugvgwgxgygzgAgBgCgDgEgFgGgHgIgJgKgLgMgNgOgPgQgRgSgTgUgVgWgXgYgZg0g1g2g3g4g5g6g7g8g9g.g+hahbhchdhehfhghhhihjhkhlhmhnhohphqhrhshthuhvhwhxhyhzhAhBhChDhEhFhGhHhIhJhKhLhMhNhOhPhQhRhShThUhVhWhXhYhZh0h1h2h3h4h5h6h7h8h9h.h+",
"aaabacadaeafagahaiajakalamanaoapaqarasatauavawaxayazaAaBaCaDaEaFaGaHaIaJaKaLaMaNaOaPaQaRaSaTaUaVaWaXaYaZa0a1a2a3a4a5a6a7a8a9a.a+babbbcbdbebfbgbhbibjbkblbmbnbobpbqbrbsbtbubvbwbxbybzbAbBbCbDbEbFbGbHbIbJbKbLbMbNbObPbQbRbSbTbUbVbWbXbYbZb0b1b2b3b4b5b6b7b8b9b.b+cacbcccdcecfcgchcicjckclcmcncocpcqcrcsctcucvcwcxcyczcAcBcCcDcEcFcGcHcIcJcKcLcMcNcOcPcQcRcScTcUcVcWcXcYcZc0c1c2c3c4c5c6c7c8c9c.c+dadbdcdddedfdgdhdidjdkdldmdndodpdqdrdsdtdudvdwdxdydzdAdBdCdDdEdFdGdHdIdJdKdLdMdNdOdPdQdRdSdTdUdVdWdXdYdZd0d1d2d3d4d5d6d7d8d9d.d+eaebecedeeefegeheiejekelemeneoepeqereseteuevewexeyezeAeBeCeDeEeFeGeHeIeJeKeLeMeNeOePeQeReSeTeUeVeWeXeYeZe0e1e2e3e4e5e6e7e8e9e.e+fafbfcfdfefffgfhfifjfkflfmfnfofpfqfrfsftfufvfwfxfyfzfAfBfCfDfEfFfGfHfIfJfKfLfMfNfOfPfQfRfSfTfUfVfWfXfYfZf0f1f2f3f4f5f6f7f8f9f.f+gagbgcgdgegfggghgigjgkglgmgngogpgqgrgsgtgugvgwgxgygzgAgBgCgDgEgFgGgHgIgJgKgLgMgNgOgPgQgRgSgTgUgVgWgXgYgZg0g1g2g3g4g5g6g7g8g9g.g+hahbhchdhehfhghhhihjhkhlhmhnhohphqhrhshthuhvhwhxhyhzhAhBhChDhEhFhGhHhIhJhKhLhMhNhOhPhQhRhShThUhVhWhXhYhZh0h1h2h3h4h5h6h7h8h9h.h+",
"aaabacadaeafagahaiajakalamanaoapaqarasatauavawaxayazaAaBaCaDaEaFaGaHaIaJaKaLaMaNaOaPaQaRaSaTaUaVaWaXaYaZa0a1a2a3a4a5a6a7a8a9a.a+babbbcbdbebfbgbhbibjbkblbmbnbobpbqbrbsbtbubvbwbxbybzbAbBbCbDbEbFbGbHbIbJbKbLbMbNbObPbQbRbSbTbUbVbWbXbYbZb0b1b2b3b4b5b6b7b8b9b.b+cacbcccdcecfcgchcicjckclcmcncocpcqcrcsctcucvcwcxcyczcAcBcCcDcEcFcGcHcIcJcKcLcMcNcOcPcQcRcScTcUcVcWcXcYcZc0c1c2c3c4c5c6c7c8c9c.c+dadbdcdddedfdgdhdidjdkdldmdndodpdqdrdsdtdudvdwdxdydzdAdBdCdDdEdFdGdHdIdJdKdLdMdNdOdPdQdRdSdTdUdVdWdXdYdZd0d1d2d3d4d5d6d7d8d9d.d+eaebecedeeefegeheiejekelemeneoepeqereseteuevewexeyezeAeBeCeDeEeFeGeHeIeJeKeLeMeNeOePeQeReSeTeUeVeWeXeYeZe0e1e2e3e4e5e6e7e8e9e.e+fafbfcfdfefffgfhfifjfkflfmfnfofpfqfrfsftfufvfwfxfyfzfAfBfCfDfEfFfGfHfIfJfKfLfMfNfOfPfQfRfSfTfUfVfWfXfYfZf0f1f2f3f4f5f6f7f8f9f.f+gagbgcgdgegfggghgigjgkglgmgngogpgqgrgsgtgugvgwgxgygzgAgBgCgDgEgFgGgHgIgJgKgLgMgNgOgPgQgRgSgTgUgVgWgXgYgZg0g1g2g3g4g5g6g7g8g9g.g+hahbhchdhehfhghhhihjhkhlhmhnhohphqhrhshthuhvhwhxhyhzhAhBhChDhEhFhGhHhIhJhKhLhMhNhOhPhQhRhShThUhVhWhXhYhZh0h1h2h3h4h5h6h7h8h9h.h+",
"aaabacadaeafagahaiajakalamanaoapaqarasatauavawaxayazaAaBaCaDaEaFaGaHaIaJaKaLaMaNaOaPaQaRaSaTaUaVaWaXaYaZa0a1a2a3a4a5a6a7a8a9a.a+babbbcbdbebfbgbhbibjbkblbmbnbobpbqbrbsbtbubvbwbxbybzbAbBbCbDbEbFbGbHbIbJbKbLbMbNbObPbQbRbSbTbUbVbWbXbYbZb0b1b2b3b4b5b6b7b8b9b.b+cacbcccdcecfcgchcicjckclcmcncocpcqcrcsctcucvcwcxcyczcAcBcCcDcEcFcGcHcIcJcKcLcMcNcOcPcQcRcScTcUcVcWcXcYcZc0c1c2c3c4c5c6c7c8c9c.c+dadbdcdddedfdgdhdidjdkdldmdndodpdqdrdsdtdudvdwdxdydzdAdBdCdDdEdFdGdHdIdJdKdLdMdNdOdPdQdRdSdTdUdVdWdXdYdZd0d1d2d3d4d5d6d7d8d9d.d+eaebecedeeefegeheiejekelemeneoepeqereseteuevewexeyezeAeBeCeDeEeFeGeHeIeJeKeLeMeNeOePeQeReSeTeUeVeWeXeYeZe0e1e2e3e4e5e6e7e8e9e.e+fafbfcfdfefffgfhfifjfkflfmfnfofpfqfrfsftfufvfwfxfyfzfAfBfCfDfEfFfGfHfIfJfKfLfMfNfOfPfQfRfSfTfUfVfWfXfYfZf0f1f2f3f4f5f6f7f8f9f.f+gagbgcgdgegfggghgigjgkglgmgngogpgqgrgsgtgugvgwgxgygzgAgBgCgDgEgFgGgHgIgJgKgLgMgNgOgPgQgRgSgTgUgVgWgXgYgZg0g1g2g3g4g5g6g7g8g9g.g+hahbhchdhehfhghhhihjhkhlhmhnhohphqhrhshthuhvhwhxhyhzhAhBhChDhEhFhGhHhIhJhKhLhMhNhOhPhQhRhShThUhVhWhXhYhZh0h1h2h3h4h5h6h7h8h9h.h+",
"aaabacadaeafagahaiajakalamanaoapaqarasatauavawaxayazaAaBaCaDaEaFaGaHaIaJaKaLaMaNaOaPaQaRaSaTaUaVaWaXaYaZa0a1a2a3a4a5a6a7a8a9a.a+babbbcbdbebfbgbhbibjbkblbmbnbobpbqbrbsbtbubvbwbxbybzbAbBbCbDbEbFbGbHbIbJbKbLbMbNbObPbQbRbSbTbUbVbWbXbYbZb0b1b2b3b4b5b6b7b8b9b.b+cacbcccdcecfcgchcicjckclcmcncocpcqcrcsctcucvcwcxcyczcAcBcCcDcEcFcGcHcIcJcKcLcMcNcOcPcQcRcScTcUcVcWcXcYcZc0c1c2c3c4c5c6c7c8c9c.c+dadbdcdddedfdgdhdidjdkdldmdndodpdqdrdsdtdudvdwdxdydzdAdBdCdDdEdFdGdHdIdJdKdLdMdNdOdPdQdRdSdTdUdVdWdXdYdZd0d1d2d3d4d5d6d7d8d9d.d+eaebecedeeefegeheiejekelemeneoepeqereseteuevewexeyezeAeBeCeDeEeFeGeHeIeJeKeLeMeNeOePeQeReSeTeUeVeWeXeYeZe0e1e2e3e4e5e6e7e8e9e.e+fafbfcfdfefffgfhfifjfkflfmfnfofpfqfrfsftfufvfwfxfyfzfAfBfCfDfEfFfGfHfIfJfKfLfMfNfOfPfQfRfSfTfUfVfWfXfYfZf0f1f2f3f4f5f6f7f8f9f.f+gagbgcgdgegfggghgigjgkglgmgngogpgqgrgsgtgugvgwgxgygzgAgBgCgDgEgFgGgHgIgJgKgLgMgNgOgPgQgRgSgTgUgVgWgXgYgZg0g1g2g3g4g5g6g7g8g9g.g+hahbhchdhehfhghhhihjhkhlhmhnhohphqhrhshthuhvhwhxhyhzhAhBhChDhEhFhGhHhIhJhKhLhMhNhOhPhQhRhShThUhVhWhXhYhZh0h1h2h3h4h5h6h7h8h9h.h+",
"aaabacadaeafagahaiajakalamanaoapaqarasatauavawaxayazaAaBaCaDaEaFaGaHaIaJaKaLaMaNaOaPaQaRaSaTaUaVaWaXaYaZa0a1a2a3a4a5a6a7a8a9a.a+babbbcbdbebfbgbhbibjbkblbmbnbobpbqbrbsbtbubvbwbxbybzbAbBbCbDbEbFbGbHbIbJbKbLbMbNbObPbQbRbSbTbUbVbWbXbYbZb0b1b2b3b4b5b6b7b8b9b.b+cacbcccdcecfcgchcicjckclcmcncocpcqcrcsctcucvcwcxcyczcAcBcCcDcEcFcGcHcIcJcKcLcMcNcOcPcQcRcScTcUcVcWcXcYcZc0c1c2c3c4c5c6c7c8c9c.c+dadbdcdddedfdgdhdidjdkdldmdndodpdqdrdsdtdudvdwdxdydzdAdBdCdDdEdFdGdHdIdJdKdLdMdNdOdPdQdRdSdTdUdVdWdXdYdZd0d1d2d3d4d5d6d7d8d9d.d+eaebecedeeefegeheiejekelemeneoepeqereseteuevewexeyezeAeBeCeDeEeFeGeHeIeJeKeLeMeNeOePeQeReSeTeUeVeWeXeYeZe0e1e2e3e4e5e6e7e8e9e.e+fafbfcfdfefffgfhfifjfkflfmfnfofpfqfrfsftfufvfwfxfyfzfAfBfCfDfEfFfGfHfIfJfKfLfMfNfOfPfQfRfSfTfUfVfWfXfYfZf0f1f2f3f4f5f6f7f8f9f.f+gagbgcgdgegfggghgigjgkglgmgngogpgqgrgsgtgugvgwgxgygzgAgBgCgDgEgFgGgHgIgJgKgLgMgNgOgPgQgRgSgTgUgVgWgXgYgZg0g1g2g3g4g5g6g7g8g9g.g+hahbhchdhehfhghhhihjhkhlhmhnhohphqhrhshthuhvhwhxhyhzhAhBhChDhEhFhGhHhIhJhKhLhMhNhOhPhQhRhShThUhVhWhXhYhZh0h1h2h3h4h5h6h7h8h9h.h+",
"aaabacadaeafagahaiajakalamanaoapaqarasatauavawaxayazaAaBaCaDaEaFaGaHaIaJaKaLaMaNaOaPaQaRaSaTaUaVaWaXaYaZa0a1a2a3a4a5a6a7a8a9a.a+babbbcbdbebfbgbhbibjbkblbmbnbobpbqbrbsbtbubvbwbxbybzbAbBbCbDbEbFbGbHbIbJbKbLbMbNbObPbQbRbSbTbUbVbWbXbYbZb0b1b2b3b4b5b6b7b8b9b.b+cacbcccdcecfcgchcicjckclcmcncocpcqcrcsctcucvcwcxcyczcAcBcCcDcEcFcGcHcIcJcKcLcMcNcOcPcQcRcScTcUcVcWcXcYcZc0c1c2c3c4c5c6c7c8c9c.c+dadbdcdddedfdgdhdidjdkdldmdndodpdqdrdsdtdudvdwdxdydzdAdBdCdDdEdFdGdHdIdJdKdLdMdNdOdPdQdRdSdTdUdVdWdXdYdZd0d1d2d3d4d5d6d7d8d9d.d+eaebecedeeefegeheiejekelemeneoepeqereseteuevewexeyezeAeBeCeDeEeFeGeHeIeJeKeLeMeNeOePeQeReSeTeUeVeWeXeYeZe0e1e2e3e4e5e6e7e8e9e.e+fafbfcfdfefffgfhfifjfkflfmfnfofpfqfrfsftfufvfwfxfyfzfAfBfCfDfEfFfGfHfIfJfKfLfMfNfOfPfQfRfSfTfUfVfWfXfYfZf0f1f2f3f4f5f6f7f8f9f.f+gagbgcgdgegfggghgigjgkglgmgngogpgqgrgsgtgugvgwgxgygzgAgBgCgDgEgFgGgHgIgJgKgLgMgNgOgPgQgRgSgTgUgVgWgXgYgZg0g1g2g3g4g5g6g7g8g9g.g+hahbhchdhehfhghhhihjhkhlhmhnhohphqhrhshthuhvhwhxhyhzhAhBhChDhEhFhGhHhIhJhKhLhMhNhOhPhQhRhShThUhVhWhXhYhZh0h1h2h3h4h5h6h7h8h9h.h+",
"aaabacadaeafagahaiajakalamanaoapaqarasatauavawaxayazaAaBaCaDaEaFaGaHaIaJaKaLaMaNaOaPaQaRaSaTaUaVaWaXaYaZa0a1a2a3a4a5a6a7a8a9a.a+babbbcbdbebfbgbhbibjbkblbmbnbobpbqbrbsbtbubvbwbxbybzbAbBbCbDbEbFbGbHbIbJbKbLbMbNbObPbQbRbSbTbUbVbWbXbYbZb0b1b2b3b4b5b6b7b8b9b.b+cacbcccdcecfcgchcicjckclcmcncocpcqcrcsctcucvcwcxcyczcAcBcCcDcEcFcGcHcIcJcKcLcMcNcOcPcQcRcScTcUcVcWcXcYcZc0c1c2c3c4c5c6c7c8c9c.c+dadbdcdddedfdgdhdidjdkdldmdndodpdqdrdsdtdudvdwdxdydzdAdBdCdDdEdFdGdHdIdJdKdLdMdNdOdPdQdRdSdTdUdVdWdXdYdZd0d1d2d3d4d5d6d7d8d9d.d+eaebecedeeefegeheiejekelemeneoepeqereseteuevewexeyezeAeBeCeDeEeFeGeHeIeJeKeLeMeNeOePeQeReSeTeUeVeWeXeYeZe0e1e2e3e4e5e6e7e8e9e.e+fafbfcfdfefffgfhfifjfkflfmfnfofpfqfrfsftfufvfwfxfyfzfAfBfCfDfEfFfGfHfIfJfKfLfMfNfOfPfQfRfSfTfUfVfWfXfYfZf0f1f2f3f4f5f6f7f8f9f.f+gagbgcgdgegfggghgigjgkglgmgngogpgqgrgsgtgugvgwgxgygzgAgBgCgDgEgFgGgHgIgJgKgLgMgNgOgPgQgRgSgTgUgVgWgXgYgZg0g1g2g3g4g5g6g7g8g9g.g+hahbhchdhehfhghhhihjhkhlhmhnhohphqhrhshthuhvhwhxhyhzhAhBhChDhEhFhGhHhIhJhKhLhMhNhOhPhQhRhShThUhVhWhXhYhZh0h1h2h3h4h5h6h7h8h9h.h+",
"aaabacadaeafagahaiajakalamanaoapaqarasatauavawaxayazaAaBaCaDaEaFaGaHaIaJaKaLaMaNaOaPaQaRaSaTaUaVaWaXaYaZa0a1a2a3a4a5a6a7a8a9a.a+babbbcbdbebfbgbhbibjbkblbmbnbobpbqbrbsbtbubvbwbxbybzbAbBbCbDbEbFbGbHbIbJbKbLbMbNbObPbQbRbSbTbUbVbWbXbYbZb0b1b2b3b4b5b6b7b8b9b.b+cacbcccdcecfcgchcicjckclcmcncocpcqcrcsctcucvcwcxcyczcAcBcCcDcEcFcGcHcIcJcKcLcMcNcOcPcQcRcScTcUcVcWcXcYcZc0c1c2c3c4c5c6c7c8c9c.c+dadbdcdddedfdgdhdidjdkdldmdndodpdqdrdsdtdudvdwdxdydzdAdBdCdDdEdFdGdHdIdJdKdLdMdNdOdPdQdRdSdTdUdVdWdXdYdZd0d1d2d3d4d5d6d7d8d9d.d+eaebecedeeefegeheiejekelemeneoepeqereseteuevewexeyezeAeBeCeDeEeFeGeHeIeJeKeLeMeNeOePeQeReSeTeUeVeWeXeYeZe0e1e2e3e4e5e6e7e8e9e.e+fafbfcfdfefffgfhfifjfkflfmfnfofpfqfrfsftfufvfwfxfyfzfAfBfCfDfEfFfGfHfIfJfKfLfMfNfOfPfQfRfSfTfUfVfWfXfYfZf0f1f2f3f4f5f6f7f8f9f.f+gagbgcgdgegfggghgigjgkglgmgngogpgqgrgsgtgugvgwgxgygzgAgBgCgDgEgFgGgHgIgJgKgLgMgNgOgPgQgRgSgTgUgVgWgXgYgZg0g1g2g3g4g5g6g7g8g9g.g+hahbhchdhehfhghhhihjhkhlhmhnhohphqhrhshthuhvhwhxhyhzhAhBhChDhEhFhGhHhIhJhKhLhMhNhOhPhQhRhShThUhVhWhXhYhZh0h1h2h3h4h5h6h7h8h9h.h+",
"aaabacadaeafagahaiajakalamanaoapaqarasatauavawaxayazaAaBaCaDaEaFaGaHaIaJaKaLaMaNaOaPaQaRaSaTaUaVaWaXaYaZa0a1a2a3a4a5a6a7a8a9a.a+babbbcbdbebfbgbhbibjbkblbmbnbobpbqbrbsbtbubvbwbxbybzbAbBbCbDbEbFbGbHbIbJbKbLbMbNbObPbQbRbSbTbUbVbWbXbYbZb0b1b2b3b4b5b6b7b8b9b.b+cacbcccdcecfcgchcicjckclcmcncocpcqcrcsctcucvcwcxcyczcAcBcCcDcEcFcGcHcIcJcKcLcMcNcOcPcQcRcScTcUcVcWcXcYcZc0c1c2c3c4c5c6c7c8c9c.c+dadbdcdddedfdgdhdidjdkdldmdndodpdqdrdsdtdudvdwdxdydzdAdBdCdDdEdFdGdHdIdJdKdLdMdNdOdPdQdRdSdTdUdVdWdXdYdZd0d1d2d3d4d5d6d7d8d9d.d+eaebecedeeefegeheiejekelemeneoepeqereseteuevewexeyezeAeBeCeDeEeFeGeHeIeJeKeLeMeNeOePeQeReSeTeUeVeWeXeYeZe0e1e2e3e4e5e6e7e8e9e.e+fafbfcfdfefffgfhfifjfkflfmfnfofpfqfrfsftfufvfwfxfyfzfAfBfCfDfEfFfGfHfIfJfKfLfMfNfOfPfQfRfSfTfUfVfWfXfYfZf0f1f2f3f4f5f6f7f8f9f.f+gagbgcgdgegfggghgigjgkglgmgngogpgqgrgsgtgugvgwgxgygzgAgBgCgDgEgFgGgHgIgJgKgLgMgNgOgPgQgRgSgTgUgVgWgXgYgZg0g1g2g3g4g5g6g7g8g9g.g+hahbhchdhehfhghhhihjhkhlhmhnhohphqhrhshthuhvhwhxhyhzhAhBhChDhEhFhGhHhIhJhKhLhMhNhOhPhQhRhShThUhVhWhXhYhZh0h1h2h3h4h5h6h7h8h9h.h+",
"aaabacadaeafagahaiajakalamanaoapaqarasatauavawaxayazaAaBaCaDaEaFaGaHaIaJaKaLaMaNaOaPaQaRaSaTaUaVaWaXaYaZa0a1a2a3a4a5a6a7a8a9a.a+babbbcbdbebfbgbhbibjbkblbmbnbobpbqbrbsbtbubvbwbxbybzbAbBbCbDbEbFbGbHbIbJbKbLbMbNbObPbQbRbSbTbUbVbWbXbYbZb0b1b2b3b4b5b6b7b8b9b.b+cacbcccdcecfcgchcicjckclcmcncocpcqcrcsctcucvcwcxcyczcAcBcCcDcEcFcGcHcIcJcKcLcMcNcOcPcQcRcScTcUcVcWcXcYcZc0c1c2c3c4c5c6c7c8c9c.c+dadbdcdddedfdgdhdidjdkdldmdndodpdqdrdsdtdudvdwdxdydzdAdBdCdDdEdFdGdHdIdJdKdLdMdNdOdPdQdRdSdTdUdVdWdXdYdZd0d1d2d3d4d5d6d7d8d9d.d+eaebecedeeefegeheiejekelemeneoepeqereseteuevewexeyezeAeBeCeDeEeFeGeHeIeJeKeLeMeNeOePeQeReSeTeUeVeWeXeYeZe0e1e2e3e4e5e6e7e8e9e.e+fafbfcfdfefffgfhfifjfkflfmfnfofpfqfrfsftfufvfwfxfyfzfAfBfCfDfEfFfGfHfIfJfKfLfMfNfOfPfQfRfSfTfUfVfWfXfYfZf0f1f2f3f4f5f6f7f8f9f.f+gagbgcgdgegfggghgigjgkglgmgngogpgqgrgsgtgugvgwgxgygzgAgBgCgDgEgFgGgHgIgJgKgLgMgNgOgPgQgRgSgTgUgVgWgXgYgZg0g1g2g3g4g5g6g7g8g9g.g+hahbhchdhehfhghhhihjhkhlhmhnhohphqhrhshthuhvhwhxhyhzhAhBhChDhEhFhGhHhIhJhKhLhMhNhOhPhQhRhShThUhVhWhXhYhZh0h1h2h3h4h5h6h7h8h9h.h+",
"aaabacadaeafagahaiajakalamanaoapaqarasatauavawaxayazaAaBaCaDaEaFaGaHaIaJaKaLaMaNaOaPaQaRaSaTaUaVaWaXaYaZa0a1a2a3a4a5a6a7a8a9a.a+babbbcbdbebfbgbhbibjbkblbmbnbobpbqbrbsbtbubvbwbxbybzbAbBbCbDbEbFbGbHbIbJbKbLbMbNbObPbQbRbSbTbUbVbWbXbYbZb0b1b2b3b4b5b6b7b8b9b.b+cacbcccdcecfcgchcicjckclcmcncocpcqcrcsctcucvcwcxcyczcAcBcCcDcEcFcGcHcIcJcKcLcMcNcOcPcQcRcScTcUcVcWcXcYcZc0c1c2c3c4c5c6c7c8c9c.c+dadbdcdddedfdgdhdidjdkdldmdndodpdqdrdsdtdudvdwdxdydzdAdBdCdDdEdFdGdHdIdJdKdLdMdNdOdPdQdRdSdTdUdVdWdXdYdZd0d1d2d3d4d5d6d7d8d9d.d+eaebecedeeefegeheiejekelemeneoepeqereseteuevewexeyezeAeBeCeDeEeFeGeHeIeJeKeLeMeNeOePeQeReSeTeUeVeWeXeYeZe0e1e2e3e4e5e6e7e8e9e.e+fafbfcfdfefffgfhfifjfkflfmfnfofpfqfrfsftfufvfwfxfyfzfAfBfCfDfEfFfGfHfIfJfKfLfMfNfOfPfQfRfSfTfUfVfWfXfYfZf0f1f2f3f4f5f6f7f8f9f.f+gagbgcgdgegfggghgigjgkglgmgngogpgqgrgsgtgugvgwgxgygzgAgBgCgDgEgFgGgHgIgJgKgLgMgNgOgPgQgRgSgTgUgVgWgXgYgZg0g1g2g3g4g5g6g7g8g9g.g+hahbhchdhehfhghhhihjhkhlhmhnhohphqhrhshthuhvhwhxhyhzhAhBhChDhEhFhGhHhIhJhKhLhMhNhOhPhQhRhShThUhVhWhXhYhZh0h1h2h3h4h5h6h7h8h9h.h+",
"aaabacadaeafagahaiajakalamanaoapaqarasatauavawaxayazaAaBaCaDaEaFaGaHaIaJaKaLaMaNaOaPaQaRaSaTaUaVaWaXaYaZa0a1a2a3a4a5a6a7a8a9a.a+babbbcbdbebfbgbhbibjbkblbmbnbobpbqbrbsbtbubvbwbxbybzbAbBbCbDbEbFbGbHbIbJbKbLbMbNbObPbQbRbSbTbUbVbWbXbYbZb0b1b2b3b4b5b6b7b8b9b.b+cacbcccdcecfcgchcicjckclcmcncocpcqcrcsctcucvcwcxcyczcAcBcCcDcEcFcGcHcIcJcKcLcMcNcOcPcQcRcScTcUcVcWcXcYcZc0c1c2c3c4c5c6c7c8c9c.c+dadbdcdddedfdgdhdidjdkdldmdndodpdqdrdsdtdudvdwdxdydzdAdBdCdDdEdFdGdHdIdJdKdLdMdNdOdPdQdRdSdTdUdVdWdXdYdZd0d1d2d3d4d5d6d7d8d9d.d+eaebecedeeefegeheiejekelemeneoepeqereseteuevewexeyezeAeBeCeDeEeFeGeHeIeJeKeLeMeNeOePeQeReSeTeUeVeWeXeYeZe0e1e2e3e4e5e6e7e8e9e.e+fafbfcfdfefffgfhfifjfkflfmfnfofpfqfrfsftfufvfwfxfyfzfAfBfCfDfEfFfGfHfIfJfKfLfMfNfOfPfQfRfSfTfUfVfWfXfYfZf0f1f2f3f4f5f6f7f8f9f.f+gagbgcgdgegfggghgigjgkglgmgngogpgqgrgsgtgugvgwgxgygzgAgBgCgDgEgFgGgHgIgJgKgLgMgNgOgPgQgRgSgTgUgVgWgXgYgZg0g1g2g3g4g5g6g7g8g9g.g+hahbhchdhehfhghhhihjhkhlhmhnhohphqhrhshthuhvhwhxhyhzhAhBhChDhEhFhGhHhIhJhKhLhMhNhOhPhQhRhShThUhVhWhXhYhZh0h1h2h3h4h5h6h7h8h9h.h+",
"aaabacadaeafagahaiajakalamanaoapaqarasatauavawaxayazaAaBaCaDaEaFaGaHaIaJaKaLaMaNaOaPaQaRaSaTaUaVaWaXaYaZa0a1a2a3a4a5a6a7a8a9a.a+babbbcbdbebfbgbhbibjbkblbmbnbobpbqbrbsbtbubvbwbxbybzbAbBbCbDbEbFbGbHbIbJbKbLbMbNbObPbQbRbSbTbUbVbWbXbYbZb0b1b2b3b4b5b6b7b8b9b.b+cacbcccdcecfcgchcicjckclcmcncocpcqcrcsctcucvcwcxcyczcAcBcCcDcEcFcGcHcIcJcKcLcMcNcOcPcQcRcScTcUcVcWcXcYcZc0c1c2c3c4c5c6c7c8c9c.c+dadbdcdddedfdgdhdidjdkdldmdndodpdqdrdsdtdudvdwdxdydzdAdBdCdDdEdFdGdHdIdJdKdLdMdNdOdPdQdRdSdTdUdVdWdXdYdZd0d1d2d3d4d5d6d7d8d9d.d+eaebecedeeefegeheiejekelemeneoepeqereseteuevewexeyezeAeBeCeDeEeFeGeHeIeJeKeLeMeNeOePeQeReSeTeUeVeWeXeYeZe0e1e2e3e4e5e6e7e8e9e.e+fafbfcfdfefffgfhfifjfkflfmfnfofpfqfrfsftfufvfwfxfyfzfAfBfCfDfEfFfGfHfIfJfKfLfMfNfOfPfQfRfSfTfUfVfWfXfYfZf0f1f2f3f4f5f6f7f8f9f.f+gagbgcgdgegfggghgigjgkglgmgngogpgqgrgsgtgugvgwgxgygzgAgBgCgDgEgFgGgHgIgJgKgLgMgNgOgPgQgRgSgTgUgVgWgXgYgZg0g1g2g3g4g5g6g7g8g9g.g+hahbhchdhehfhghhhihjhkhlhmhnhohphqhrhshthuhvhwhxhyhzhAhBhChDhEhFhGhHhIhJhKhLhMhNhOhPhQhRhShThUhVhWhXhYhZh0h1h2h3h4h5h6h7h8h9h.h+",
"aaabacadaeafagahaiajakalamanaoapaqarasatauavawaxayazaAaBaCaDaEaFaGaHaIaJaKaLaMaNaOaPaQaRaSaTaUaVaWaXaYaZa0a1a2a3a4a5a6a7a8a9a.a+babbbcbdbebfbgbhbibjbkblbmbnbobpbqbrbsbtbubvbwbxbybzbAbBbCbDbEbFbGbHbIbJbKbLbMbNbObPbQbRbSbTbUbVbWbXbYbZb0b1b2b3b4b5b6b7b8b9b.b+cacbcccdcecfcgchcicjckclcmcncocpcqcrcsctcucvcwcxcyczcAcBcCcDcEcFcGcHcIcJcKcLcMcNcOcPcQcRcScTcUcVcWcXcYcZc0c1c2c3c4c5c6c7c8c9c.c+dadbdcdddedfdgdhdidjdkdldmdndodpdqdrdsdtdudvdwdxdydzdAdBdCdDdEdFdGdHdIdJdKdLdMdNdOdPdQdRdSdTdUdVdWdXdYdZd0d1d2d3d4d5d6d7d8d9d.d+eaebecedeeefegeheiejekelemeneoepeqereseteuevewexeyezeAeBeCeDeEeFeGeHeIeJeKeLeMeNeOePeQeReSeTeUeVeWeXeYeZe0e1e2e3e4e5e6e7e8e9e.e+fafbfcfdfefffgfhfifjfkflfmfnfofpfqfrfsftfufvfwfxfyfzfAfBfCfDfEfFfGfHfIfJfKfLfMfNfOfPfQfRfSfTfUfVfWfXfYfZf0f1f2f3f4f5f6f7f8f9f.f+gagbgcgdgegfggghgigjgkglgmgngogpgqgrgsgtgugvgwgxgygzgAgBgCgDgEgFgGgHgIgJgKgLgMgNgOgPgQgRgSgTgUgVgWgXgYgZg0g1g2g3g4g5g6g7g8g9g.g+hahbhchdhehfhghhhihjhkhlhmhnhohphqhrhshthuhvhwhxhyhzhAhBhChDhEhFhGhHhIhJhKhLhMhNhOhPhQhRhShThUhVhWhXhYhZh0h1h2h3h4h5h6h7h8h9h.h+",
"aaabacadaeafagahaiajakalamanaoapaqarasatauavawaxayazaAaBaCaDaEaFaGaHaIaJaKaLaMaNaOaPaQaRaSaTaUaVaWaXaYaZa0a1a2a3a4a5a6a7a8a9a.a+babbbcbdbebfbgbhbibjbkblbmbnbobpbqbrbsbtbubvbwbxbybzbAbBbCbDbEbFbGbHbIbJbKbLbMbNbObPbQbRbSbTbUbVbWbXbYbZb0b1b2b3b4b5b6b7b8b9b.b+cacbcccdcecfcgchcicjckclcmcncocpcqcrcsctcucvcwcxcyczcAcBcCcDcEcFcGcHcIcJcKcLcMcNcOcPcQcRcScTcUcVcWcXcYcZc0c1c2c3c4c5c6c7c8c9c.c+dadbdcdddedfdgdhdidjdkdldmdndodpdqdrdsdtdudvdwdxdydzdAdBdCdDdEdFdGdHdIdJdKdLdMdNdOdPdQdRdSdTdUdVdWdXdYdZd0d1d2d3d4d5d6d7d8d9d.d+eaebecedeeefegeheiejekelemeneoepeqereseteuevewexeyezeAeBeCeDeEeFeGeHeIeJeKeLeMeNeOePeQeReSeTeUeVeWeXeYeZe0e1e2e3e4e5e6e7e8e9e.e+fafbfcfdfefffgfhfifjfkflfmfnfofpfqfrfsftfufvfwfxfyfzfAfBfCfDfEfFfGfHfIfJfKfLfMfNfOfPfQfRfSfTfUfVfWfXfYfZf0f1f2f3f4f5f6f7f8f9f.f+gagbgcgdgegfggghgigjgkglgmgngogpgqgrgsgtgugvgwgxgygzgAgBgCgDgEgFgGgHgIgJgKgLgMgNgOgPgQgRgSgTgUgVgWgXgYgZg0g1g2g3g4g5g6g7g8g9g.g+hahbhchdhehfhghhhihjhkhlhmhnhohphqhrhshthuhvhwhxhyhzhAhBhChDhEhFhGhHhIhJhKhLhMhNhOhPhQhRhShThUhVhWhXhYhZh0h1h2h3h4h5h6h7h8h9h.h+",
"aaabacadaeafagahaiajakalamanaoapaqarasatauavawaxayazaAaBaCaDaEaFaGaHaIaJaKaLaMaNaOaPaQaRaSaTaUaVaWaXaYaZa0a1a2a3a4a5a6a7a8a9a.a+babbbcbdbebfbgbhbibjbkblbmbnbobpbqbrbsbtbubvbwbxbybzbAbBbCbDbEbFbGbHbIbJbKbLbMbNbObPbQbRbSbTbUbVbWbXbYbZb0b1b2b3b4b5b6b7b8b9b.b+cacbcccdcecfcgchcicjckclcmcncocpcqcrcsctcucvcwcxcyczcAcBcCcDcEcFcGcHcIcJcKcLcMcNcOcPcQcRcScTcUcVcWcXcYcZc0c1c2c3c4c5c6c7c8c9c.c+dadbdcdddedfdgdhdidjdkdldmdndodpdqdrdsdtdudvdwdxdydzdAdBdCdDdEdFdGdHdIdJdKdLdMdNdOdPdQdRdSdTdUdVdWdXdYdZd0d1d2d3d4d5d6d7d8d9d.d+eaebecedeeefegeheiejekelemeneoepeqereseteuevewexeyezeAeBeCeDeEeFeGeHeIeJeKeLeMeNeOePeQeReSeTeUeVeWeXeYeZe0e1e2e3e4e5e6e7e8e9e.e+fafbfcfdfefffgfhfifjfkflfmfnfofpfqfrfsftfufvfwfxfyfzfAfBfCfDfEfFfGfHfIfJfKfLfMfNfOfPfQfRfSfTfUfVfWfXfYfZf0f1f2f3f4f5f6f7f8f9f.f+gagbgcgdgegfggghgigjgkglgmgngogpgqgrgsgtgugvgwgxgygzgAgBgCgDgEgFgGgHgIgJgKgLgMgNgOgPgQgRgSgTgUgVgWgXgYgZg0g1g2g3g4g5g6g7g8g9g.g+hahbhchdhehfhghhhihjhkhlhmhnhohphqhrhshthuhvhwhxhyhzhAhBhChDhEhFhGhHhIhJhKhLhMhNhOhPhQhRhShThUhVhWhXhYhZh0h1h2h3h4h5h6h7h8h9h.h+",
"aaabacadaeafagahaiajakalamanaoapaqarasatauavawaxayazaAaBaCaDaEaFaGaHaIaJaKaLaMaNaOaPaQaRaSaTaUaVaWaXaYaZa0a1a2a3a4a5a6a7a8a9a.a+babbbcbdbebfbgbhbibjbkblbmbnbobpbqbrbsbtbubvbwbxbybzbAbBbCbDbEbFbGbHbIbJbKbLbMbNbObPbQbRbSbTbUbVbWbXbYbZb0b1b2b3b4b5b6b7b8b9b.b+cacbcccdcecfcgchcicjckclcmcncocpcqcrcsctcucvcwcxcyczcAcBcCcDcEcFcGcHcIcJcKcLcMcNcOcPcQcRcScTcUcVcWcXcYcZc0c1c2c3c4c5c6c7c8c9c.c+dadbdcdddedfdgdhdidjdkdldmdndodpdqdrdsdtdudvdwdxdydzdAdBdCdDdEdFdGdHdIdJdKdLdMdNdOdPdQdRdSdTdUdVdWdXdYdZd0d1d2d3d4d5d6d7d8d9d.d+eaebecedeeefegeheiejekelemeneoepeqereseteuevewexeyezeAeBeCeDeEeFeGeHeIeJeKeLeMeNeOePeQeReSeTeUeVeWeXeYeZe0e1e2e3e4e5e6e7e8e9e.e+fafbfcfdfefffgfhfifjfkflfmfnfofpfqfrfsftfufvfwfxfyfzfAfBfCfDfEfFfGfHfIfJfKfLfMfNfOfPfQfRfSfTfUfVfWfXfYfZf0f1f2f3f4f5f6f7f8f9f.f+gagbgcgdgegfggghgigjgkglgmgngogpgqgrgsgtgugvgwgxgygzgAgBgCgDgEgFgGgHgIgJgKgLgMgNgOgPgQgRgSgTgUgVgWgXgYgZg0g1g2g3g4g5g6g7g8g9g.g+hahbhchdhehfhghhhihjhkhlhmhnhohphqhrhshthuhvhwhxhyhzhAhBhChDhEhFhGhHhIhJhKhLhMhNhOhPhQhRhShThUhVhWhXhYhZh0h1h2h3h4h5h6h7h8h9h.h+",
"aaabacadaeafagahaiajakalamanaoapaqarasatauavawaxayazaAaBaCaDaEaFaGaHaIaJaKaLaMaNaOaPaQaRaSaTaUaVaWaXaYaZa0a1a2a3a4a5a6a7a8a9a.a+babbbcbdbebfbgbhbibjbkblbmbnbobpbqbrbsbtbubvbwbxbybzbAbBbCbDbEbFbGbHbIbJbKbLbMbNbObPbQbRbSbTbUbVbWbXbYbZb0b1b2b3b4b5b6b7b8b9b.b+cacbcccdcecfcgchcicjckclcmcncocpcqcrcsctcucvcwcxcyczcAcBcCcDcEcFcGcHcIcJcKcLcMcNcOcPcQcRcScTcUcVcWcXcYcZc0c1c2c3c4c5c6c7c8c9c.c+dadbdcdddedfdgdhdidjdkdldmdndodpdqdrdsdtdudvdwdxdydzdAdBdCdDdEdFdGdHdIdJdKdLdMdNdOdPdQdRdSdTdUdVdWdXdYdZd0d1d2d3d4d5d6d7d8d9d.d+eaebecedeeefegeheiejekelemeneoepeqereseteuevewexeyezeAeBeCeDeEeFeGeHeIeJeKeLeMeNeOePeQeReSeTeUeVeWeXeYeZe0e1e2e3e4e5e6e7e8e9e.e+fafbfcfdfefffgfhfifjfkflfmfnfofpfqfrfsftfufvfwfxfyfzfAfBfCfDfEfFfGfHfIfJfKfLfMfNfOfPfQfRfSfTfUfVfWfXfYfZf0f1f2f3f4f5f6f7f8f9f.f+gagbgcgdgegfggghgigjgkglgmgngogpgqgrgsgtgugvgwgxgygzgAgBgCgDgEgFgGgHgIgJgKgLgMgNgOgPgQgRgSgTgUgVgWgXgYgZg0g1g2g3g4g5g6g7g8g9g.g+hahbhchdhehfhghhhihjhkhlhmhnhohphqhrhshthuhvhwhxhyhzhAhBhChDhEhFhGhHhIhJhKhLhMhNhOhPhQhRhShThUhVhWhXhYhZh0h1h2h3h4h5h6h7h8h9h.h+",
"aaabacadaeafagahaiajakalamanaoapaqarasatauavawaxayazaAaBaCaDaEaFaGaHaIaJaKaLaMaNaOaPaQaRaSaTaUaVaWaXaYaZa0a1a2a3a4a5a6a7a8a9a.a+babbbcbdbebfbgbhbibjbkblbmbnbobpbqbrbsbtbubvbwbxbybzbAbBbCbDbEbFbGbHbIbJbKbLbMbNbObPbQbRbSbTbUbVbWbXbYbZb0b1b2b3b4b5b6b7b8b9b.b+cacbcccdcecfcgchcicjckclcmcncocpcqcrcsctcucvcwcxcyczcAcBcCcDcEcFcGcHcIcJcKcLcMcNcOcPcQcRcScTcUcVcWcXcYcZc0c1c2c3c4c5c6c7c8c9c.c+dadbdcdddedfdgdhdidjdkdldmdndodpdqdrdsdtdudvdwdxdydzdAdBdCdDdEdFdGdHdIdJdKdLdMdNdOdPdQdRdSdTdUdVdWdXdYdZd0d1d2d3d4d5d6d7d8d9d.d+eaebecedeeefegeheiejekelemeneoepeqereseteuevewexeyezeAeBeCeDeEeFeGeHeIeJeKeLeMeNeOePeQeReSeTeUeVeWeXeYeZe0e1e2e3e4e5e6e7e8e9e.e+fafbfcfdfefffgfhfifjfkflfmfnfofpfqfrfsftfufvfwfxfyfzfAfBfCfDfEfFfGfHfIfJfKfLfMfNfOfPfQfRfSfTfUfVfWfXfYfZf0f1f2f3f4f5f6f7f8f9f.f+gagbgcgdgegfggghgigjgkglgmgngogpgqgrgsgtgugvgwgxgygzgAgBgCgDgEgFgGgHgIgJgKgLgMgNgOgPgQgRgSgTgUgVgWgXgYgZg0g1g2g3g4g5g6g7g8g9g.g+hahbhchdhehfhghhhihjhkhlhmhnhohphqhrhshthuhvhwhxhyhzhAhBhChDhEhFhGhHhIhJhKhLhMhNhOhPhQhRhShThUhVhWhXhYhZh0h1h2h3h4h5h6h7h8h9h.h+",
"aaabacadaeafagahaiajakalamanaoapaqarasatauavawaxayazaAaBaCaDaEaFaGaHaIaJaKaLaMaNaOaPaQaRaSaTaUaVaWaXaYaZa0a1a2a3a4a5a6a7a8a9a.a+babbbcbdbebfbgbhbibjbkblbmbnbobpbqbrbsbtbubvbwbxbybzbAbBbCbDbEbFbGbHbIbJbKbLbMbNbObPbQbRbSbTbUbVbWbXbYbZb0b1b2b3b4b5b6b7b8b9b.b+cacbcccdcecfcgchcicjckclcmcncocpcqcrcsctcucvcwcxcyczcAcBcCcDcEcFcGcHcIcJcKcLcMcNcOcPcQcRcScTcUcVcWcXcYcZc0c1c2c3c4c5c6c7c8c9c.c+dadbdcdddedfdgdhdidjdkdldmdndodpdqdrdsdtdudvdwdxdydzdAdBdCdDdEdFdGdHdIdJdKdLdMdNdOdPdQdRdSdTdUdVdWdXdYdZd0d1d2d3d4d5d6d7d8d9d.d+eaebecedeeefegeheiejekelemeneoepeqereseteuevewexeyezeAeBeCeDeEeFeGeHeIeJeKeLeMeNeOePeQeReSeTeUeVeWeXeYeZe0e1e2e3e4e5e6e7e8e9e.e+fafbfcfdfefffgfhfifjfkflfmfnfofpfqfrfsftfufvfwfxfyfzfAfBfCfDfEfFfGfHfIfJfKfLfMfNfOfPfQfRfSfTfUfVfWfXfYfZf0f1f2f3f4f5f6f7f8f9f.f+gagbgcgdgegfggghgigjgkglgmgngogpgqgrgsgtgugvgwgxgygzgAgBgCgDgEgFgGgHgIgJgKgLgMgNgOgPgQgRgSgTgUgVgWgXgYgZg0g1g2g3g4g5g6g7g8g9g.g+hahbhchdhehfhghhhihjhkhlhmhnhohphqhrhshthuhvhwhxhyhzhAhBhChDhEhFhGhHhIhJhKhLhMhNhOhPhQhRhShThUhVhWhXhYhZh0h1h2h3h4h5h6h7h8h9h.h+",
"aaabacadaeafagahaiajakalamanaoapaqarasatauavawaxayazaAaBaCaDaEaFaGaHaIaJaKaLaMaNaOaPaQaRaSaTaUaVaWaXaYaZa0a1a2a3a4a5a6a7a8a9a.a+babbbcbdbebfbgbhbibjbkblbmbnbobpbqbrbsbtbubvbwbxbybzbAbBbCbDbEbFbGbHbIbJbKbLbMbNbObPbQbRbSbTbUbVbWbXbYbZb0b1b2b3b4b5b6b7b8b9b.b+cacbcccdcecfcgchcicjckclcmcncocpcqcrcsctcucvcwcxcyczcAcBcCcDcEcFcGcHcIcJcKcLcMcNcOcPcQcRcScTcUcVcWcXcYcZc0c1c2c3c4c5c6c7c8c9c.c+dadbdcdddedfdgdhdidjdkdldmdndodpdqdrdsdtdudvdwdxdydzdAdBdCdDdEdFdGdHdIdJdKdLdMdNdOdPdQdRdSdTdUdVdWdXdYdZd0d1d2d3d4d5d6d7d8d9d.d+eaebecedeeefegeheiejekelemeneoepeqereseteuevewexeyezeAeBeCeDeEeFeGeHeIeJeKeLeMeNeOePeQeReSeTeUeVeWeXeYeZe0e1e2e3e4e5e6e7e8e9e.e+fafbfcfdfefffgfhfifjfkflfmfnfofpfqfrfsftfufvfwfxfyfzfAfBfCfDfEfFfGfHfIfJfKfLfMfNfOfPfQfRfSfTfUfVfWfXfYfZf0f1f2f3f4f5f6f7f8f9f.f+gagbgcgdgegfggghgigjgkglgmgngogpgqgrgsgtgugvgwgxgygzgAgBgCgDgEgFgGgHgIgJgKgLgMgNgOgPgQgRgSgTgUgVgWgXgYgZg0g1g2g3g4g5g6g7g8g9g.g+hahbhchdhehfhghhhihjhkhlhmhnhohphqhrhshthuhvhwhxhyhzhAhBhChDhEhFhGhHhIhJhKhLhMhNhOhPhQhRhShThUhVhWhXhYhZh0h1h2h3h4h5h6h7h8h9h.h+",
"aaabacadaeafagahaiajakalamanaoapaqarasatauavawaxayazaAaBaCaDaEaFaGaHaIaJaKaLaMaNaOaPaQaRaSaTaUaVaWaXaYaZa0a1a2a3a4a5a6a7a8a9a.a+babbbcbdbebfbgbhbibjbkblbmbnbobpbqbrbsbtbubvbwbxbybzbAbBbCbDbEbFbGbHbIbJbKbLbMbNbObPbQbRbSbTbUbVbWbXbYbZb0b1b2b3b4b5b6b7b8b9b.b+cacbcccdcecfcgchcicjckclcmcncocpcqcrcsctcucvcwcxcyczcAcBcCcDcEcFcGcHcIcJcKcLcMcNcOcPcQcRcScTcUcVcWcXcYcZc0c1c2c3c4c5c6c7c8c9c.c+dadbdcdddedfdgdhdidjdkdldmdndodpdqdrdsdtdudvdwdxdydzdAdBdCdDdEdFdGdHdIdJdKdLdMdNdOdPdQdRdSdTdUdVdWdXdYdZd0d1d2d3d4d5d6d7d8d9d.d+eaebecedeeefegeheiejekelemeneoepeqereseteuevewexeyezeAeBeCeDeEeFeGeHeIeJeKeLeMeNeOePeQeReSeTeUeVeWeXeYeZe0e1e2e3e4e5e6e7e8e9e.e+fafbfcfdfefffgfhfifjfkflfmfnfofpfqfrfsftfufvfwfxfyfzfAfBfCfDfEfFfGfHfIfJfKfLfMfNfOfPfQfRfSfTfUfVfWfXfYfZf0f1f2f3f4f5f6f7f8f9f.f+gagbgcgdgegfggghgigjgkglgmgngogpgqgrgsgtgugvgwgxgygzgAgBgCgDgEgFgGgHgIgJgKgLgMgNgOgPgQgRgSgTgUgVgWgXgYgZg0g1g2g3g4g5g6g7g8g9g.g+hahbhchdhehfhghhhihjhkhlhmhnhohphqhrhshthuhvhwhxhyhzhAhBhChDhEhFhGhHhIhJhKhLhMhNhOhPhQhRhShThUhVhWhXhYhZh0h1h2h3h4h5h6h7h8h9h.h+",
"aaabacadaeafagahaiajakalamanaoapaqarasatauavawaxayazaAaBaCaDaEaFaGaHaIaJaKaLaMaNaOaPaQaRaSaTaUaVaWaXaYaZa0a1a2a3a4a5a6a7a8a9a.a+babbbcbdbebfbgbhbibjbkblbmbnbobpbqbrbsbtbubvbwbxbybzbAbBbCbDbEbFbGbHbIbJbKbLbMbNbObPbQbRbSbTbUbVbWbXbYbZb0b1b2b3b4b5b6b7b8b9b.b+cacbcccdcecfcgchcicjckclcmcncocpcqcrcsctcucvcwcxcyczcAcBcCcDcEcFcGcHcIcJcKcLcMcNcOcPcQcRcScTcUcVcWcXcYcZc0c1c2c3c4c5c6c7c8c9c.c+dadbdcdddedfdgdhdidjdkdldmdndodpdqdrdsdtdudvdwdxdydzdAdBdCdDdEdFdGdHdIdJdKdLdMdNdOdPdQdRdSdTdUdVdWdXdYdZd0d1d2d3d4d5d6d7d8d9d.d+eaebecedeeefegeheiejekelemeneoepeqereseteuevewexeyezeAeBeCeDeEeFeGeHeIeJeKeLeMeNeOePeQeReSeTeUeVeWeXeYeZe0e1e2e3e4e5e6e7e8e9e.e+fafbfcfdfefffgfhfifjfkflfmfnfofpfqfrfsftfufvfwfxfyfzfAfBfCfDfEfFfGfHfIfJfKfLfMfNfOfPfQfRfSfTfUfVfWfXfYfZf0f1f2f3f4f5f6f7f8f9f.f+gagbgcgdgegfggghgigjgkglgmgngogpgqgrgsgtgugvgwgxgygzgAgBgCgDgEgFgGgHgIgJgKgLgMgNgOgPgQgRgSgTgUgVgWgXgYgZg0g1g2g3g4g5g6g7g8g9g.g+hahbhchdhehfhghhhihjhkhlhmhnhohphqhrhshthuhvhwhxhyhzhAhBhChDhEhFhGhHhIhJhKhLhMhNhOhPhQhRhShThUhVhWhXhYhZh0h1h2h3h4h5h6h7h8h9h.h+",
"aaabacadaeafagahaiajakalamanaoapaqarasatauavawaxayazaAaBaCaDaEaFaGaHaIaJaKaLaMaNaOaPaQaRaSaTaUaVaWaXaYaZa0a1a2a3a4a5a6a7a8a9a.a+babbbcbdbebfbgbhbibjbkblbmbnbobpbqbrbsbtbubvbwbxbybzbAbBbCbDbEbFbGbHbIbJbKbLbMbNbObPbQbRbSbTbUbVbWbXbYbZb0b1b2b3b4b5b6b7b8b9b.b+cacbcccdcecfcgchcicjckclcmcncocpcqcrcsctcucvcwcxcyczcAcBcCcDcEcFcGcHcIcJcKcLcMcNcOcPcQcRcScTcUcVcWcXcYcZc0c1c2c3c4c5c6c7c8c9c.c+dadbdcdddedfdgdhdidjdkdldmdndodpdqdrdsdtdudvdwdxdydzdAdBdCdDdEdFdGdHdIdJdKdLdMdNdOdPdQdRdSdTdUdVdWdXdYdZd0d1d2d3d4d5d6d7d8d9d.d+eaebecedeeefegeheiejekelemeneoepeqereseteuevewexeyezeAeBeCeDeEeFeGeHeIeJeKeLeMeNeOePeQeReSeTeUeVeWeXeYeZe0e1e2e3e4e5e6e7e8e9e.e+fafbfcfdfefffgfhfifjfkflfmfnfofpfqfrfsftfufvfwfxfyfzfAfBfCfDfEfFfGfHfIfJfKfLfMfNfOfPfQfRfSfTfUfVfWfXfYfZf0f1f2f3f4f5f6f7f8f9f.f+gagbgcgdgegfggghgigjgkglgmgngogpgqgrgsgtgugvgwgxgygzgAgBgCgDgEgFgGgHgIgJgKgLgMgNgOgPgQgRgSgTgUgVgWgXgYgZg0g1g2g3g4g5g6g7g8g9g.g+hahbhchdhehfhghhhihjhkhlhmhnhohphqhrhshthuhvhwhxhyhzhAhBhChDhEhFhGhHhIhJhKhLhMhNhOhPhQhRhShThUhVhWhXhYhZh0h1h2h3h4h5h6h7h8h9h.h+",
"aaabacadaeafagahaiajakalamanaoapaqarasatauavawaxayazaAaBaCaDaEaFaGaHaIaJaKaLaMaNaOaPaQaRaSaTaUaVaWaXaYaZa0a1a2a3a4a5a6a7a8a9a.a+babbbcbdbebfbgbhbibjbkblbmbnbobpbqbrbsbtbubvbwbxbybzbAbBbCbDbEbFbGbHbIbJbKbLbMbNbObPbQbRbSbTbUbVbWbXbYbZb0b1b2b3b4b5b6b7b8b9b.b+cacbcccdcecfcgchcicjckclcmcncocpcqcrcsctcucvcwcxcyczcAcBcCcDcEcFcGcHcIcJcKcLcMcNcOcPcQcRcScTcUcVcWcXcYcZc0c1c2c3c4c5c6c7c8c9c.c+dadbdcdddedfdgdhdidjdkdldmdndodpdqdrdsdtdudvdwdxdydzdAdBdCdDdEdFdGdHdIdJdKdLdMdNdOdPdQdRdSdTdUdVdWdXdYdZd0d1d2d3d4d5d6d7d8d9d.d+eaebecedeeefegeheiejekelemeneoepeqereseteuevewexeyezeAeBeCeDeEeFeGeHeIeJeKeLeMeNeOePeQeReSeTeUeVeWeXeYeZe0e1e2e3e4e5e6e7e8e9e.e+fafbfcfdfefffgfhfifjfkflfmfnfofpfqfrfsftfufvfwfxfyfzfAfBfCfDfEfFfGfHfIfJfKfLfMfNfOfPfQfRfSfTfUfVfWfXfYfZf0f1f2f3f4f5f6f7f8f9f.f+gagbgcgdgegfggghgigjgkglgmgngogpgqgrgsgtgugvgwgxgygzgAgBgCgDgEgFgGgHgIgJgKgLgMgNgOgPgQgRgSgTgUgVgWgXgYgZg0g1g2g3g4g5g6g7g8g9g.g+hahbhchdhehfhghhhihjhkhlhmhnhohphqhrhshthuhvhwhxhyhzhAhBhChDhEhFhGhHhIhJhKhLhMhNhOhPhQhRhShThUhVhWhXhYhZh0h1h2h3h4h5h6h7h8h9h.h+",
"aaabacadaeafagahaiajakalamanaoapaqarasatauavawaxayazaAaBaCaDaEaFaGaHaIaJaKaLaMaNaOaPaQaRaSaTaUaVaWaXaYaZa0a1a2a3a4a5a6a7a8a9a.a+babbbcbdbebfbgbhbibjbkblbmbnbobpbqbrbsbtbubvbwbxbybzbAbBbCbDbEbFbGbHbIbJbKbLbMbNbObPbQbRbSbTbUbVbWbXbYbZb0b1b2b3b4b5b6b7b8b9b.b+cacbcccdcecfcgchcicjckclcmcncocpcqcrcsctcucvcwcxcyczcAcBcCcDcEcFcGcHcIcJcKcLcMcNcOcPcQcRcScTcUcVcWcXcYcZc0c1c2c3c4c5c6c7c8c9c.c+dadbdcdddedfdgdhdidjdkdldmdndodpdqdrdsdtdudvdwdxdydzdAdBdCdDdEdFdGdHdIdJdKdLdMdNdOdPdQdRdSdTdUdVdWdXdYdZd0d1d2d3d4d5d6d7d8d9d.d+eaebecedeeefegeheiejekelemeneoepeqereseteuevewexeyezeAeBeCeDeEeFeGeHeIeJeKeLeMeNeOePeQeReSeTeUeVeWeXeYeZe0e1e2e3e4e5e6e7e8e9e.e+fafbfcfdfefffgfhfifjfkflfmfnfofpfqfrfsftfufvfwfxfyfzfAfBfCfDfEfFfGfHfIfJfKfLfMfNfOfPfQfRfSfTfUfVfWfXfYfZf0f1f2f3f4f5f6f7f8f9f.f+gagbgcgdgegfggghgigjgkglgmgngogpgqgrgsgtgugvgwgxgygzgAgBgCgDgEgFgGgHgIgJgKgLgMgNgOgPgQgRgSgTgUgVgWgXgYgZg0g1g2g3g4g5g6g7g8g9g.g+hahbhchdhehfhghhhihjhkhlhmhnhohphqhrhshthuhvhwhxhyhzhAhBhChDhEhFhGhHhIhJhKhLhMhNhOhPhQhRhShThUhVhWhXhYhZh0h1h2h3h4h5h6h7h8h9h.h+",
"aaabacadaeafagahaiajakalamanaoapaqarasatauavawaxayazaAaBaCaDaEaFaGaHaIaJaKaLaMaNaOaPaQaRaSaTaUaVaWaXaYaZa0a1a2a3a4a5a6a7a8a9a.a+babbbcbdbebfbgbhbibjbkblbmbnbobpbqbrbsbtbubvbwbxbybzbAbBbCbDbEbFbGbHbIbJbKbLbMbNbObPbQbRbSbTbUbVbWbXbYbZb0b1b2b3b4b5b6b7b8b9b.b+cacbcccdcecfcgchcicjckclcmcncocpcqcrcsctcucvcwcxcyczcAcBcCcDcEcFcGcHcIcJcKcLcMcNcOcPcQcRcScTcUcVcWcXcYcZc0c1c2c3c4c5c6c7c8c9c.c+dadbdcdddedfdgdhdidjdkdldmdndodpdqdrdsdtdudvdwdxdydzdAdBdCdDdEdFdGdHdIdJdKdLdMdNdOdPdQdRdSdTdUdVdWdXdYdZd0d1d2d3d4d5d6d7d8d9d.d+eaebecedeeefegeheiejekelemeneoepeqereseteuevewexeyezeAeBeCeDeEeFeGeHeIeJeKeLeMeNeOePeQeReSeTeUeVeWeXeYeZe0e1e2e3e4e5e6e7e8e9e.e+fafbfcfdfefffgfhfifjfkflfmfnfofpfqfrfsftfufvfwfxfyfzfAfBfCfDfEfFfGfHfIfJfKfLfMfNfOfPfQfRfSfTfUfVfWfXfYfZf0f1f2f3f4f5f6f7f8f9f.f+gagbgcgdgegfggghgigjgkglgmgngogpgqgrgsgtgugvgwgxgygzgAgBgCgDgEgFgGgHgIgJgKgLgMgNgOgPgQgRgSgTgUgVgWgXgYgZg0g1g2g3g4g5g6g7g8g9g.g+hahbhchdhehfhghhhihjhkhlhmhnhohphqhrhshthuhvhwhxhyhzhAhBhChDhEhFhGhHhIhJhKhLhMhNhOhPhQhRhShThUhVhWhXhYhZh0h1h2h3h4h5h6h7h8h9h.h+",
"aaabacadaeafagahaiajakalamanaoapaqarasatauavawaxayazaAaBaCaDaEaFaGaHaIaJaKaLaMaNaOaPaQaRaSaTaUaVaWaXaYaZa0a1a2a3a4a5a6a7a8a9a.a+babbbcbdbebfbgbhbibjbkblbmbnbobpbqbrbsbtbubvbwbxbybzbAbBbCbDbEbFbGbHbIbJbKbLbMbNbObPbQbRbSbTbUbVbWbXbYbZb0b1b2b3b4b5b6b7b8b9b.b+cacbcccdcecfcgchcicjckclcmcncocpcqcrcsctcucvcwcxcyczcAcBcCcDcEcFcGcHcIcJcKcLcMcNcOcPcQcRcScTcUcVcWcXcYcZc0c1c2c3c4c5c6c7c8c9c.c+dadbdcdddedfdgdhdidjdkdldmdndodpdqdrdsdtdudvdwdxdydzdAdBdCdDdEdFdGdHdIdJdKdLdMdNdOdPdQdRdSdTdUdVdWdXdYdZd0d1d2d3d4d5d6d7d8d9d.d+eaebecedeeefegeheiejekelemeneoepeqereseteuevewexeyezeAeBeCeDeEeFeGeHeIeJeKeLeMeNeOePeQeReSeTeUeVeWeXeYeZe0e1e2e3e4e5e6e7e8e9e.e+fafbfcfdfefffgfhfifjfkflfmfnfofpfqfrfsftfufvfwfxfyfzfAfBfCfDfEfFfGfHfIfJfKfLfMfNfOfPfQfRfSfTfUfVfWfXfYfZf0f1f2f3f4f5f6f7f8f9f.f+gagbgcgdgegfggghgigjgkglgmgngogpgqgrgsgtgugvgwgxgygzgAgBgCgDgEgFgGgHgIgJgKgLgMgNgOgPgQgRgSgTgUgVgWgXgYgZg0g1g2g3g4g5g6g7g8g9g.g+hahbhchdhehfhghhhihjhkhlhmhnhohphqhrhshthuhvhwhxhyhzhAhBhChDhEhFhGhHhIhJhKhLhMhNhOhPhQhRhShThUhVhWhXhYhZh0h1h2h3h4h5h6h7h8h9h.h+",
"aaabacadaeafagahaiajakalamanaoapaqarasatauavawaxayazaAaBaCaDaEaFaGaHaIaJaKaLaMaNaOaPaQaRaSaTaUaVaWaXaYaZa0a1a2a3a4a5a6a7a8a9a.a+babbbcbdbebfbgbhbibjbkblbmbnbobpbqbrbsbtbubvbwbxbybzbAbBbCbDbEbFbGbHbIbJbKbLbMbNbObPbQbRbSbTbUbVbWbXbYbZb0b1b2b3b4b5b6b7b8b9b.b+cacbcccdcecfcgchcicjckclcmcncocpcqcrcsctcucvcwcxcyczcAcBcCcDcEcFcGcHcIcJcKcLcMcNcOcPcQcRcScTcUcVcWcXcYcZc0c1c2c3c4c5c6c7c8c9c.c+dadbdcdddedfdgdhdidjdkdldmdndodpdqdrdsdtdudvdwdxdydzdAdBdCdDdEdFdGdHdIdJdKdLdMdNdOdPdQdRdSdTdUdVdWdXdYdZd0d1d2d3d4d5d6d7d8d9d.d+eaebecedeeefegeheiejekelemeneoepeqereseteuevewexeyezeAeBeCeDeEeFeGeHeIeJeKeLeMeNeOePeQeReSeTeUeVeWeXeYeZe0e1e2e3e4e5e6e7e8e9e.e+fafbfcfdfefffgfhfifjfkflfmfnfofpfqfrfsftfufvfwfxfyfzfAfBfCfDfEfFfGfHfIfJfKfLfMfNfOfPfQfRfSfTfUfVfWfXfYfZf0f1f2f3f4f5f6f7f8f9f.f+gagbgcgdgegfggghgigjgkglgmgngogpgqgrgsgtgugvgwgxgygzgAgBgCgDgEgFgGgHgIgJgKgLgMgNgOgPgQgRgSgTgUgVgWgXgYgZg0g1g2g3g4g5g6g7g8g9g.g+hahbhchdhehfhghhhihjhkhlhmhnhohphqhrhshthuhvhwhxhyhzhAhBhChDhEhFhGhHhIhJhKhLhMhNhOhPhQhRhShThUhVhWhXhYhZh0h1h2h3h4h5h6h7h8h9h.h+",
"aaabacadaeafagahaiajakalamanaoapaqarasatauavawaxayazaAaBaCaDaEaFaGaHaIaJaKaLaMaNaOaPaQaRaSaTaUaVaWaXaYaZa0a1a2a3a4a5a6a7a8a9a.a+babbbcbdbebfbgbhbibjbkblbmbnbobpbqbrbsbtbubvbwbxbybzbAbBbCbDbEbFbGbHbIbJbKbLbMbNbObPbQbRbSbTbUbVbWbXbYbZb0b1b2b3b4b5b6b7b8b9b.b+cacbcccdcecfcgchcicjckclcmcncocpcqcrcsctcucvcwcxcyczcAcBcCcDcEcFcGcHcIcJcKcLcMcNcOcPcQcRcScTcUcVcWcXcYcZc0c1c2c3c4c5c6c7c8c9c.c+dadbdcdddedfdgdhdidjdkdldmdndodpdqdrdsdtdudvdwdxdydzdAdBdCdDdEdFdGdHdIdJdKdLdMdNdOdPdQdRdSdTdUdVdWdXdYdZd0d1d2d3d4d5d6d7d8d9d.d+eaebecedeeefegeheiejekelemeneoepeqereseteuevewexeyezeAeBeCeDeEeFeGeHeIeJeKeLeMeNeOePeQeReSeTeUeVeWeXeYeZe0e1e2e3e4e5e6e7e8e9e.e+fafbfcfdfefffgfhfifjfkflfmfnfofpfqfrfsftfufvfwfxfyfzfAfBfCfDfEfFfGfHfIfJfKfLfMfNfOfPfQfRfSfTfUfVfWfXfYfZf0f1f2f3f4f5f6f7f8f9f.f+gagbgcgdgegfggghgigjgkglgmgngogpgqgrgsgtgugvgwgxgygzgAgBgCgDgEgFgGgHgIgJgKgLgMgNgOgPgQgRgSgTgUgVgWgXgYgZg0g1g2g3g4g5g6g7g8g9g.g+hahbhchdhehfhghhhihjhkhlhmhnhohphqhrhshthuhvhwhxhyhzhAhBhChDhEhFhGhHhIhJhKhLhMhNhOhPhQhRhShThUhVhWhXhYhZh0h1h2h3h4h5h6h7h8h9h.h+",
"aaabacadaeafagahaiajakalamanaoapaqarasatauavawaxayazaAaBaCaDaEaFaGaHaIaJaKaLaMaNaOaPaQaRaSaTaUaVaWaXaYaZa0a1a2a3a4a5a6a7a8a9a.a+babbbcbdbebfbgbhbibjbkblbmbnbobpbqbrbsbtbubvbwbxbybzbAbBbCbDbEbFbGbHbIbJbKbLbMbNbObPbQbRbSbTbUbVbWbXbYbZb0b1b2b3b4b5b6b7b8b9b.b+cacbcccdcecfcgchcicjckclcmcncocpcqcrcsctcucvcwcxcyczcAcBcCcDcEcFcGcHcIcJcKcLcMcNcOcPcQcRcScTcUcVcWcXcYcZc0c1c2c3c4c5c6c7c8c9c.c+dadbdcdddedfdgdhdidjdkdldmdndodpdqdrdsdtdudvdwdxdydzdAdBdCdDdEdFdGdHdIdJdKdLdMdNdOdPdQdRdSdTdUdVdWdXdYdZd0d1d2d3d4d5d6d7d8d9d.d+eaebecedeeefegeheiejekelemeneoepeqereseteuevewexeyezeAeBeCeDeEeFeGeHeIeJeKeLeMeNeOePeQeReSeTeUeVeWeXeYeZe0e1e2e3e4e5e6e7e8e9e.e+fafbfcfdfefffgfhfifjfkflfmfnfofpfqfrfsftfufvfwfxfyfzfAfBfCfDfEfFfGfHfIfJfKfLfMfNfOfPfQfRfSfTfUfVfWfXfYfZf0f1f2f3f4f5f6f7f8f9f.f+gagbgcgdgegfggghgigjgkglgmgngogpgqgrgsgtgugvgwgxgygzgAgBgCgDgEgFgGgHgIgJgKgLgMgNgOgPgQgRgSgTgUgVgWgXgYgZg0g1g2g3g4g5g6g7g8g9g.g+hahbhchdhehfhghhhihjhkhlhmhnhohphqhrhshthuhvhwhxhyhzhAhBhChDhEhFhGhHhIhJhKhLhMhNhOhPhQhRhShThUhVhWhXhYhZh0h1h2h3h4h5h6h7h8h9h.h+",
"aaabacadaeafagahaiajakalamanaoapaqarasatauavawaxayazaAaBaCaDaEaFaGaHaIaJaKaLaMaNaOaPaQaRaSaTaUaVaWaXaYaZa0a1a2a3a4a5a6a7a8a9a.a+babbbcbdbebfbgbhbibjbkblbmbnbobpbqbrbsbtbubvbwbxbybzbAbBbCbDbEbFbGbHbIbJbKbLbMbNbObPbQbRbSbTbUbVbWbXbYbZb0b1b2b3b4b5b6b7b8b9b.b+cacbcccdcecfcgchcicjckclcmcncocpcqcrcsctcucvcwcxcyczcAcBcCcDcEcFcGcHcIcJcKcLcMcNcOcPcQcRcScTcUcVcWcXcYcZc0c1c2c3c4c5c6c7c8c9c.c+dadbdcdddedfdgdhdidjdkdldmdndodpdqdrdsdtdudvdwdxdydzdAdBdCdDdEdFdGdHdIdJdKdLdMdNdOdPdQdRdSdTdUdVdWdXdYdZd0d1d2d3d4d5d6d7d8d9d.d+eaebecedeeefegeheiejekelemeneoepeqereseteuevewexeyezeAeBeCeDeEeFeGeHeIeJeKeLeMeNeOePeQeReSeTeUeVeWeXeYeZe0e1e2e3e4e5e6e7e8e9e.e+fafbfcfdfefffgfhfifjfkflfmfnfofpfqfrfsftfufvfwfxfyfzfAfBfCfDfEfFfGfHfIfJfKfLfMfNfOfPfQfRfSfTfUfVfWfXfYfZf0f1f2f3f4f5f6f7f8f9f.f+gagbgcgdgegfggghgigjgkglgmgngogpgqgrgsgtgugvgwgxgygzgAgBgCgDgEgFgGgHgIgJgKgLgMgNgOgPgQgRgSgTgUgVgWgXgYgZg0g1g2g3g4g5g6g7g8g9g.g+hahbhchdhehfhghhhihjhkhlhmhnhohphqhrhshthuhvhwhxhyhzhAhBhChDhEhFhGhHhIhJhKhLhMhNhOhPhQhRhShThUhVhWhXhYhZh0h1h2h3h4h5h6h7h8h9h.h+",
"aaabacadaeafagahaiajakalamanaoapaqarasatauavawaxayazaAaBaCaDaEaFaGaHaIaJaKaLaMaNaOaPaQaRaSaTaUaVaWaXaYaZa0a1a2a3a4a5a6a7a8a9a.a+babbbcbdbebfbgbhbibjbkblbmbnbobpbqbrbsbtbubvbwbxbybzbAbBbCbDbEbFbGbHbIbJbKbLbMbNbObPbQbRbSbTbUbVbWbXbYbZb0b1b2b3b4b5b6b7b8b9b.b+cacbcccdcecfcgchcicjckclcmcncocpcqcrcsctcucvcwcxcyczcAcBcCcDcEcFcGcHcIcJcKcLcMcNcOcPcQcRcScTcUcVcWcXcYcZc0c1c2c3c4c5c6c7c8c9c.c+dadbdcdddedfdgdhdidjdkdldmdndodpdqdrdsdtdudvdwdxdydzdAdBdCdDdEdFdGdHdIdJdKdLdMdNdOdPdQdRdSdTdUdVdWdXdYdZd0d1d2d3d4d5d6d7d8d9d.d+eaebecedeeefegeheiejekelemeneoepeqereseteuevewexeyezeAeBeCeDeEeFeGeHeIeJeKeLeMeNeOePeQeReSeTeUeVeWeXeYeZe0e1e2e3e4e5e6e7e8e9e.e+fafbfcfdfefffgfhfifjfkflfmfnfofpfqfrfsftfufvfwfxfyfzfAfBfCfDfEfFfGfHfIfJfKfLfMfNfOfPfQfRfSfTfUfVfWfXfYfZf0f1f2f3f4f5f6f7f8f9f.f+gagbgcgdgegfggghgigjgkglgmgngogpgqgrgsgtgugvgwgxgygzgAgBgCgDgEgFgGgHgIgJgKgLgMgNgOgPgQgRgSgTgUgVgWgXgYgZg0g1g2g3g4g5g6g7g8g9g.g+hahbhchdhehfhghhhihjhkhlhmhnhohphqhrhshthuhvhwhxhyhzhAhBhChDhEhFhGhHhIhJhKhLhMhNhOhPhQhRhShThUhVhWhXhYhZh0h1h2h3h4h5h6h7h8h9h.h+"
};
