/* XPM */
static char *slate_wide[] = {
/* columns rows colors chars-per-pixel */
"512 512 512 2",
/* colors */
"aa c #FF5ECC",
"ab c #FF5ECB",
"ac c #FF5ECB",
"ad c #FF5ECB",
"ae c #FF5FCA",
"af c #FF5FCA",
"ag c #FF5FCA",
"ah c #FF5FCA",
"ai c #FF60C9",
"aj c #FF60C9",
"ak c #FF60C9",
"al c #FF61C8",
"am c #FF61C8",
"an c #FF61C8",
"ao c #FF61C8",
"ap c #FF62C7",
"aq c #FF62C7",
"ar c #FF62C7",
"as c #FF63C6",
"at c #FF63C6",
"au c #FF63C6",
"av c #FF63C6",
"aw c #FF64C5",
"ax c #FF64C5",
"ay c #FF64C5",
"az c #FF64C5",
"aA c #FF65C4",
"aB c #FF65C4",
"aC c #FF65C4",
"aD c #FF66C3",
"aE c #FF66C3",
"aF c #FF66C3",
"aG c #FF66C3",
"aH c #FF67C2",
"aI c #FF67C2",
"aJ c #FF67C2",
"aK c #FF68C1",
"aL c #FF68C1",
"aM c #FF68C1",
"aN c #FF68C1",
"aO c #FF69C0",
"aP c #FF69C0",
"aQ c #FF69C0",
"aR c #FF69BF",
"aS c #FF6ABF",
"aT c #FF6ABF",
"aU c #FF6ABF",
"aV c #FF6BBE",
"aW c #FF6BBE",
"aX c #FF6BBE",
"aY c #FF6BBE",
"aZ c #FF6CBD",
"a0 c #FF6CBD",
"a1 c #FF6CBD",
"a2 c #FF6DBC",
"a3 c #FF6DBC",
"a4 c #FF6DBC",
"a5 c #FF6DBC",
"a6 c #FF6EBB",
"a7 c #FF6EBB",
"a8 c #FF6EBB",
"a9 c #FF6EBA",
"a. c #FF6FBA",
"a+ c #FF6FBA",
"ba c #FF6FBA",
"bb c #FF70B9",
"bc c #FF70B9",
"bd c #FF70B9",
"be c #FF70B8",
"bf c #FF71B8",
"bg c #FF71B8",
"bh c #FF71B8",
"bi c #FF72B7",
"bj c #FF72B7",
"bk c #FF72B7",
"bl c #FF72B7",
"bm c #FF73B6",
"bn c #FF73B6",
"bo c #FF73B6",
"bp c #FF73B5",
"bq c #FF74B5",
"br c #FF74B5",
"bs c #FF74B5",
"bt c #FF75B4",
"bu c #FF75B4",
"bv c #FF75B4",
"bw c #FF75B3",
"bx c #FF76B3",
"by c #FF76B3",
"bz c #FF76B3",
"bA c #FF77B2",
"bB c #FF77B2",
"bC c #FF77B2",
"bD c #FF77B1",
"bE c #FF78B1",
"bF c #FF78B1",
"bG c #FF78B1",
"bH c #FF78B0",
"bI c #FF79B0",
"bJ c #FF79B0",
"bK c #FF79B0",
"bL c #FF7AAF",
"bM c #FF7AAF",
"bN c #FF7AAF",
"bO c #FF7AAE",
"bP c #FF7BAE",
"bQ c #FF7BAE",
"bR c #FF7BAE",
"bS c #FF7CAD",
"bT c #FF7CAD",
"bU c #FF7CAD",
"bV c #FF7CAC",
"bW c #FF7DAC",
"bX c #FF7DAC",
"bY c #FF7DAC",
"bZ c #FF7DAB",
"b0 c #FF7EAB",
"b1 c #FF7EAB",
"b2 c #FF7EAA",
"b3 c #FF7FAA",
"b4 c #FF7FAA",
"b5 c #FF7FAA",
"b6 c #FF7FA9",
"b7 c #FF80A9",
"b8 c #FF80A9",
"b9 c #FF80A9",
"b. c #FF81A8",
"b+ c #FF81A8",
"ca c #FF81A8",
"cb c #FF81A7",
"cc c #FF82A7",
"cd c #FF82A7",
"ce c #FF82A7",
"cf c #FF82A6",
"cg c #FF83A6",
"ch c #FF83A6",
"ci c #FF83A5",
"cj c #FF84A5",
"ck c #FF84A5",
"cl c #FF84A5",
"cm c #FF84A4",
"cn c #FF85A4",
"co c #FF85A4",
"cp c #FF85A3",
"cq c #FF86A3",
"cr c #FF86A3",
"cs c #FF86A3",
"ct c #FF86A2",
"cu c #FF87A2",
"cv c #FF87A2",
"cw c #FF87A2",
"cx c #FF87A1",
"cy c #FF88A1",
"cz c #FF88A1",
"cA c #FF88A0",
"cB c #FF89A0",
"cC c #FF89A0",
"cD c #FF89A0",
"cE c #FF899F",
"cF c #FF8A9F",
"cG c #FF8A9F",
"cH c #FF8A9E",
"cI c #FF8B9E",
"cJ c #FF8B9E",
"cK c #FF8B9E",
"cL c #FF8B9D",
"cM c #FF8C9D",
"cN c #FF8C9D",
"cO c #FF8C9C",
"cP c #FF8C9C",
"cQ c #FF8D9C",
"cR c #FF8D9C",
"cS c #FF8D9B",
"cT c #FF8E9B",
"cU c #FF8E9B",
"cV c #FF8E9B",
"cW c #FF8E9A",
"cX c #FF8F9A",
"cY c #FF8F9A",
"cZ c #FF8F99",
"c0 c #FF9099",
"c1 c #FF9099",
"c2 c #FF9099",
"c3 c #FF9098",
"c4 c #FF9198",
"c5 c #FF9198",
"c6 c #FF9197",
"c7 c #FF9197",
"c8 c #FF9297",
"c9 c #FF9297",
"c. c #FF9296",
"c+ c #FF9396",
"da c #FF9396",
"db c #FF9395",
"dc c #FF9395",
"dd c #FF9495",
"de c #FF9495",
"df c #FF9494",
"dg c #FF9594",
"dh c #FF9594",
"di c #FF9594",
"dj c #FF9593",
"dk c #FF9693",
"dl c #FF9693",
"dm c #FF9692",
"dn c #FF9692",
"do c #FF9792",
"dp c #FF9792",
"dq c #FF9791",
"dr c #FF9891",
"ds c #FF9891",
"dt c #FF9890",
"du c #FF9890",
"dv c #FF9990",
"dw c #FF9990",
"dx c #FF998F",
"dy c #FF9A8F",
"dz c #FF9A8F",
"dA c #FF9A8E",
"dB c #FF9A8E",
"dC c #FF9B8E",
"dD c #FF9B8E",
"dE c #FF9B8D",
"dF c #FF9B8D",
"dG c #FF9C8D",
"dH c #FF9C8D",
"dI c #FF9C8C",
"dJ c #FF9D8C",
"dK c #FF9D8C",
"dL c #FF9D8B",
"dM c #FF9D8B",
"dN c #FF9E8B",
"dO c #FF9E8B",
"dP c #FF9E8A",
"dQ c #FF9F8A",
"dR c #FF9F8A",
"dS c #FF9F89",
"dT c #FF9F89",
"dU c #FFA089",
"dV c #FFA089",
"dW c #FFA088",
"dX c #FFA088",
"dY c #FFA188",
"dZ c #FFA187",
"d0 c #FFA187",
"d1 c #FFA287",
"d2 c #FFA287",
"d3 c #FFA286",
"d4 c #FFA286",
"d5 c #FFA386",
"d6 c #FFA386",
"d7 c #FFA385",
"d8 c #FFA485",
"d9 c #FFA485",
"d. c #FFA484",
"d+ c #FFA484",
"ea c #FFA584",
"eb c #FFA584",
"ec c #FFA583",
"ed c #FFA583",
"ee c #FFA683",
"ef c #FFA682",
"eg c #FFA682",
"eh c #FFA782",
"ei c #FFA782",
"ej c #FFA781",
"ek c #FFA781",
"el c #FFA881",
"em c #FFA881",
"en c #FFA880",
"eo c #FFA980",
"ep c #FFA980",
"eq c #FFA97F",
"er c #FFA97F",
"es c #FFAA7F",
"et c #FFAA7F",
"eu c #FFAA7E",
"ev c #FFAA7E",
"ew c #FFAB7E",
"ex c #FFAB7D",
"ey c #FFAB7D",
"ez c #FFAC7D",
"eA c #FFAC7D",
"eB c #FFAC7C",
"eC c #FFAC7C",
"eD c #FFAD7C",
"eE c #FFAD7B",
"eF c #FFAD7B",
"eG c #FFAE7B",
"eH c #FFAE7B",
"eI c #FFAE7A",
"eJ c #FFAE7A",
"eK c #FFAF7A",
"eL c #FFAF7A",
"eM c #FFAF79",
"eN c #FFAF79",
"eO c #FFB079",
"eP c #FFB078",
"eQ c #FFB078",
"eR c #FFB178",
"eS c #FFB178",
"eT c #FFB177",
"eU c #FFB177",
"eV c #FFB277",
"eW c #FFB276",
"eX c #FFB276",
"eY c #FFB376",
"eZ c #FFB376",
"e0 c #FFB375",
"e1 c #FFB375",
"e2 c #FFB475",
"e3 c #FFB474",
"e4 c #FFB474",
"e5 c #FFB474",
"e6 c #FFB574",
"e7 c #FFB573",
"e8 c #FFB573",
"e9 c #FFB673",
"e. c #FFB673",
"e+ c #FFB672",
"fa c #FFB672",
"fb c #FFB772",
"fc c #FFB771",
"fd c #FFB771",
"fe c #FFB871",
"ff c #FFB871",
"fg c #FFB870",
"fh c #FFB870",
"fi c #FFB970",
"fj c #FFB96F",
"fk c #FFB96F",
"fl c #FFB96F",
"fm c #FFBA6F",
"fn c #FFBA6E",
"fo c #FFBA6E",
"fp c #FFBB6E",
"fq c #FFBB6D",
"fr c #FFBB6D",
"fs c #FFBB6D",
"ft c #FFBC6D",
"fu c #FFBC6C",
"fv c #FFBC6C",
"fw c #FFBD6C",
"fx c #FFBD6C",
"fy c #FFBD6B",
"fz c #FFBD6B",
"fA c #FFBE6B",
"fB c #FFBE6A",
"fC c #FFBE6A",
"fD c #FFBE6A",
"fE c #FFBF6A",
"fF c #FFBF69",
"fG c #FFBF69",
"fH c #FFC069",
"fI c #FFC068",
"fJ c #FFC068",
"fK c #FFC068",
"fL c #FFC168",
"fM c #FFC167",
"fN c #FFC167",
"fO c #FFC267",
"fP c #FFC266",
"fQ c #FFC266",
"fR c #FFC266",
"fS c #FFC366",
"fT c #FFC365",
"fU c #FFC365",
"fV c #FFC365",
"fW c #FFC465",
"fX c #FFC464",
"fY c #FFC464",
"fZ c #FFC564",
"f0 c #FFC563",
"f1 c #FFC563",
"f2 c #FFC563",
"f3 c #FFC663",
"f4 c #FFC662",
"f5 c #FFC662",
"f6 c #FFC762",
"f7 c #FFC761",
"f8 c #FFC761",
"f9 c #FFC761",
"f. c #FFC861",
"f+ c #FFC860",
"ga c #FFC860",
"gb c #FFC860",
"gc c #FFC95F",
"gd c #FFC95F",
"ge c #FFC95F",
"gf c #FFCA5F",
"gg c #FFCA5E",
"gh c #FFCA5E",
"gi c #FFCA5E",
"gj c #FFCB5E",
"gk c #FFCB5D",
"gl c #FFCB5D",
"gm c #FFCC5D",
"gn c #FFCC5C",
"go c #FFCC5C",
"gp c #FFCC5C",
"gq c #FFCD5C",
"gr c #FFCD5B",
"gs c #FFCD5B",
"gt c #FFCD5B",
"gu c #FFCE5A",
"gv c #FFCE5A",
"gw c #FFCE5A",
"gx c #FFCF5A",
"gy c #FFCF59",
"gz c #FFCF59",
"gA c #FFCF59",
"gB c #FFD058",
"gC c #FFD058",
"gD c #FFD058",
"gE c #FFD158",
"gF c #FFD157",
"gG c #FFD157",
"gH c #FFD157",
"gI c #FFD257",
"gJ c #FFD256",
"gK c #FFD256",
"gL c #FFD256",
"gM c #FFD355",
"gN c #FFD355",
"gO c #FFD355",
"gP c #FFD455",
"gQ c #FFD454",
"gR c #FFD454",
"gS c #FFD454",
"gT c #FFD553",
"gU c #FFD553",
"gV c #FFD553",
"gW c #FFD653",
"gX c #FFD652",
"gY c #FFD652",
"gZ c #FFD652",
"g0 c #FFD751",
"g1 c #FFD751",
"g2 c #FFD751",
"g3 c #FFD751",
"g4 c #FFD850",
"g5 c #FFD850",
"g6 c #FFD850",
"g7 c #FFD950",
"g8 c #FFD94F",
"g9 c #FFD94F",
"g. c #FFD94F",
"g+ c #FFDA4E",
"ha c #FFDA4E",
"hb c #FFDA4E",
"hc c #FFDB4E",
"hd c #FFDB4D",
"he c #FFDB4D",
"hf c #FFDB4D",
"hg c #FFDC4C",
"hh c #FFDC4C",
"hi c #FFDC4C",
"hj c #FFDC4C",
"hk c #FFDD4B",
"hl c #FFDD4B",
"hm c #FFDD4B",
"hn c #FFDE4A",
"ho c #FFDE4A",
"hp c #FFDE4A",
"hq c #FFDE4A",
"hr c #FFDF49",
"hs c #FFDF49",
"ht c #FFDF49",
"hu c #FFE049",
"hv c #FFE048",
"hw c #FFE048",
"hx c #FFE048",
"hy c #FFE147",
"hz c #FFE147",
"hA c #FFE147",
"hB c #FFE147",
"hC c #FFE246",
"hD c #FFE246",
"hE c #FFE246",
"hF c #FFE345",
"hG c #FFE345",
"hH c #FFE345",
"hI c #FFE345",
"hJ c #FFE444",
"hK c #FFE444",
"hL c #FFE444",
"hM c #FFE543",
"hN c #FFE543",
"hO c #FFE543",
"hP c #FFE543",
"hQ c #FFE642",
"hR c #FFE642",
"hS c #FFE642",
"hT c #FFE642",
"hU c #FFE741",
"hV c #FFE741",
"hW c #FFE741",
"hX c #FFE840",
"hY c #FFE840",
"hZ c #FFE840",
"h0 c #FFE840",
"h1 c #FFE93F",
"h2 c #FFE93F",
"h3 c #FFE93F",
"h4 c #FFEA3E",
"h5 c #FFEA3E",
"h6 c #FFEA3E",
"h7 c #FFEA3E",
"h8 c #FFEB3D",
"h9 c #FFEB3D",
"h. c #FFEB3D",
"h+ c #FFEC3D",
/* pixels */
"aaabacadaeafagahaiajakalamanaoapaqarasatauavawaxayazaAaBaCaDaEaFaGaHaIaJaKaLaMaNaOaPaQaRaSaTaUaVaWaXaYaZa0a1a2a3a4a5a6a7a8a9a.a+babbbcbdbebfbgbhbibjbkblbmbnbobpbqbrbsbtbubvbwbxbybzbAbBbCbDbEbFbGbHbIbJbKbLbMbNbObPbQbRbSbTbUbVbWbXbYbZb0b1b2b3b4b5b6b7b8b9b.b+cacbcccdcecfcgchcicjckclcmcncocpcqcrcsctcucvcwcxcyczcAcBcCcDcEcFcGcHcIcJcKcLcMcNcOcPcQcRcScTcUcVcWcXcYcZc0c1c2c3c4c5c6c7c8c9c.c+dadbdcdddedfdgdhdidjdkdldmdndodpdqdrdsdtdudvdwdxdydzdAdBdCdDdEdFdGdHdIdJdKdLdMdNdOdPdQdRdSdTdUdVdWdXdYdZd0d1d2d3d4d5d6d7d8d9d.d+eaebecedeeefegeheiejekelemeneoepeqereseteuevewexeyezeAeBeCeDeEeFeGeHeIeJeKeLeMeNeOePeQeReSeTeUeVeWeXeYeZe0e1e2e3e4e5e6e7e8e9e.e+fafbfcfdfefffgfhfifjfkflfmfnfofpfqfrfsftfufvfwfxfyfzfAfBfCfDfEfFfGfHfIfJfKfLfMfNfOfPfQfRfSfTfUfVfWfXfYfZf0f1f2f3f4f5f6f7f8f9f.f+gagbgcgdgegfggghgigjgkglgmgngogpgqgrgsgtgugvgwgxgygzgAgBgCgDgEgFgGgHgIgJgKgLgMgNgOgPgQgRgSgTgUgVgWgXgYgZg0g1g2g3g4g5g6g7g8g9g.g+hahbhchdhehfhghhhihjhkhlhmhnhohphqhrhshthuhvhwhxhyhzhAhBhChDhEhFhGhHhIhJhKhLhMhNhOhPhQhRhShThUhVhWhXhYhZh0h1h2h3h4h5h6h7h8h9h.h+",
"aaabacadaeafagahaiajakalamanaoapaqarasatauavawaxayazaAaBaCaDaEaFaGaHaIaJaKaLaMaNaOaPaQaRaSaTaUaVaWaXaYaZa0a1a2a3a4a5a6a7a8a9a.a+babbbcbdbebfbgbhbibjbkblbmbnbobpbqbrbsbtbubvbwbxbybzbAbBbCbDbEbFbGbHbIbJbKbLbMbNbObPbQbRbSbTbUbVbWbXbYbZb0b1b2b3b4b5b6b7b8b9b.b+cacbcccdcecfcgchcicjckclcmcncocpcqcrcsctcucvcwcxcyczcAcBcCcDcEcFcGcHcIcJcKcLcMcNcOcPcQcRcScTcUcVcWcXcYcZc0c1c2c3c4c5c6c7c8c9c.c+dadbdcdddedfdgdhdidjdkdldmdndodpdqdrdsdtdudvdwdxdydzdAdBdCdDdEdFdGdHdIdJdKdLdMdNdOdPdQdRdSdTdUdVdWdXdYdZd0d1d2d3d4d5d6d7d8d9d.d+eaebecedeeefegeheiejekelemeneoepeqereseteuevewexeyezeAeBeCeDeEeFeGeHeIeJeKeLeMeNeOePeQeReSeTeUeVeWeXeYeZe0e1e2e3e4e5e6e7e8e9e.e+fafbfcfdfefffgfhfifjfkflfmfnfofpfqfrfsftfufvfwfxfyfzfAfBfCfDfEfFfGfHfIfJfKfLfMfNfOfPfQfRfSfTfUfVfWfXfYfZf0f1f2f3f4f5f6f7f8f9f.f+gagbgcgdgegfggghgigjgkglgmgngogpgqgrgsgtgugvgwgxgygzgAgBgCgDgEgFgGgHgIgJgKgLgMgNgOgPgQgRgSgTgUgVgWgXgYgZg0g1g2g3g4g5g6g7g8g9g.g+hahbhchdhehfhghhhihjhkhlhmhnhohphqhrhshthuhvhwhxhyhzhAhBhChDhEhFhGhHhIhJhKhLhMhNhOhPhQhRhShThUhVhWhXhYhZh0h1h2h3h4h5h6h7h8h9h.h+",
"aaabacadaeafagahaiajakalamanaoapaqarasatauavawaxayazaAaBaCaDaEaFaGaHaIaJaKaLaMaNaOaPaQaRaSaTaUaVaWaXaYaZa0a1a2a3a4a5a6a7a8a9a.a+babbbcbdbebfbgbhbibjbkblbmbnbobpbqbrbsbtbubvbwbxbybzbAbBbCbDbEbFbGbHbIbJbKbLbMbNbObPbQbRbSbTbUbVbWbXbYbZb0b1b2b3b4b5b6b7b8b9b.b+cacbcccdcecfcgchcicjckclcmcncocpcqcrcsctcucvcwcxcyczcAcBcCcDcEcFcGcHcIcJcKcLcMcNcOcPcQcRcScTcUcVcWcXcYcZc0c1c2c3c4c5c6c7c8c9c.c+dadbdcdddedfdgdhdidjdkdldmdndodpdqdrdsdtdudvdwdxdydzdAdBdCdDdEdFdGdHdIdJdKdLdMdNdOdPdQdRdSdTdUdVdWdXdYdZd0d1d2d3d4d5d6d7d8d9d.d+eaebecedeeefegeheiejekelemeneoepeqereseteuevewexeyezeAeBeCeDeEeFeGeHeIeJeKeLeMeNeOePeQeReSeTeUeVeWeXeYeZe0e1e2e3e4e5e6e7e8e9e.e+fafbfcfdfefffgfhfifjfkflfmfnfofpfqfrfsftfufvfwfxfyfzfAfBfCfDfEfFfGfHfIfJfKfLfMfNfOfPfQfRfSfTfUfVfWfXfYfZf0f1f2f3f4f5f6f7f8f9f.f+gagbgcgdgegfggghgigjgkglgmgngogpgqgrgsgtgugvgwgxgygzgAgBgCgDgEgFgGgHgIgJgKgLgMgNgOgPgQgRgSgTgUgVgWgXgYgZg0g1g2g3g4g5g6g7g8g9g.g+hahbhchdhehfhghhhihjhkhlhmhnhohphqhrhshthuhvhwhxhyhzhAhBhChDhEhFhGhHhIhJhKhLhMhNhOhPhQhRhShThUhVhWhXhYhZh0h1h2h3h4h5h6h7h8h9h.h+",
"aaabacadaeafagahaiajakalamanaoapaqarasatauavawaxayazaAaBaCaDaEaFaGaHaIaJaKaLaMaNaOaPaQaRaSaTaUaVaWaXaYaZa0a1a2a3a4a5a6a7a8a9a.a+babbbcbdbebfbgbhbibjbkblbmbnbobpbqbrbsbtbubvbwbxbybzbAbBbCbDbEbFbGbHbIbJbKbLbMbNbObPbQbRbSbTbUbVbWbXbYbZb0b1b2b3b4b5b6b7b8b9b.b+cacbcccdcecfcgchcicjckclcmcncocpcqcrcsctcucvcwcxcyczcAcBcCcDcEcFcGcHcIcJcKcLcMcNcOcPcQcRcScTcUcVcWcXcYcZc0c1c2c3c4c5c6c7c8c9c.c+dadbdcdddedfdgdhdidjdkdldmdndodpdqdrdsdtdudvdwdxdydzdAdBdCdDdEdFdGdHdIdJdKdLdMdNdOdPdQdRdSdTdUdVdWdXdYdZd0d1d2d3d4d5d6d7d8d9d.d+eaebecedeeefegeheiejekelemeneoepeqereseteuevewexeyezeAeBeCeDeEeFeGeHeIeJeKeLeMeNeOePeQeReSeTeUeVeWeXeYeZe0e1e2e3e4e5e6e7e8e9e.e+fafbfcfdfefffgfhfifjfkflfmfnfofpfqfrfsftfufvfwfxfyfzfAfBfCfDfEfFfGfHfIfJfKfLfMfNfOfPfQfRfSfTfUfVfWfXfYfZf0f1f2f3f4f5f6f7f8f9f.f+gagbgcgdgegfggghgigjgkglgmgngogpgqgrgsgtgugvgwgxgygzgAgBgCgDgEgFgGgHgIgJgKgLgMgNgOgPgQgRgSgTgUgVgWgXgYgZg0g1g2g3g4g5g6g7g8g9g.g+hahbhchdhehfhghhhihjhkhlhmhnhohphqhrhshthuhvhwhxhyhzhAhBhChDhEhFhGhHhIhJhKhLhMhNhOhPhQhRhShThUhVhWhXhYhZh0h1h2h3h4h5h6h7h8h9h.h+",
"aaabacadaeafagahaiajakalamanaoapaqarasatauavawaxayazaAaBaCaDaEaFaGaHaIaJaKaLaMaNaOaPaQaRaSaTaUaVaWaXaYaZa0a1a2a3a4a5a6a7a8a9a.a+babbbcbdbebfbgbhbibjbkblbmbnbobpbqbrbsbtbubvbwbxbybzbAbBbCbDbEbFbGbHbIbJbKbLbMbNbObPbQbRbSbTbUbVbWbXbYbZb0b1b2b3b4b5b6b7b8b9b.b+cacbcccdcecfcgchcicjckclcmcncocpcqcrcsctcucvcwcxcyczcAcBcCcDcEcFcGcHcIcJcKcLcMcNcOcPcQcRcScTcUcVcWcXcYcZc0c1c2c3c4c5c6c7c8c9c.c+dadbdcdddedfdgdhdidjdkdldmdndodpdqdrdsdtdudvdwdxdydzdAdBdCdDdEdFdGdHdIdJdKdLdMdNdOdPdQdRdSdTdUdVdWdXdYdZd0d1d2d3d4d5d6d7d8d9d.d+eaebecedeeefegeheiejekelemeneoepeqereseteuevewexeyezeAeBeCeDeEeFeGeHeIeJeKeLeMeNeOePeQeReSeTeUeVeWeXeYeZe0e1e2e3e4e5e6e7e8e9e.e+fafbfcfdfefffgfhfifjfkflfmfnfofpfqfrfsftfufvfwfxfyfzfAfBfCfDfEfFfGfHfIfJfKfLfMfNfOfPfQfRfSfTfUfVfWfXfYfZf0f1f2f3f4f5f6f7f8f9f.f+gagbgcgdgegfggghgigjgkglgmgngogpgqgrgsgtgugvgwgxgygzgAgBgCgDgEgFgGgHgIgJgKgLgMgNgOgPgQgRgSgTgUgVgWgXgYgZg0g1g2g3g4g5g6g7g8g9g.g+hahbhchdhehfhghhhihjhkhlhmhnhohphqhrhshthuhvhwhxhyhzhAhBhChDhEhFhGhHhIhJhKhLhMhNhOhPhQhRhShThUhVhWhXhYhZh0h1h2h3h4h5h6h7h8h9h.h+",
"aaabacadaeafagahaiajakalamanaoapaqarasatauavawaxayazaAaBaCaDaEaFaGaHaIaJaKaLaMaNaOaPaQaRaSaTaUaVaWaXaYaZa0a1a2a3a4a5a6a7a8a9a.a+babbbcbdbebfbgbhbibjbkblbmbnbobpbqbrbsbtbubvbwbxbybzbAbBbCbDbEbFbGbHbIbJbKbLbMbNbObPbQbRbSbTbUbVbWbXbYbZb0b1b2b3b4b5b6b7b8b9b.b+cacbcccdcecfcgchcicjckclcmcncocpcqcrcsctcucvcwcxcyczcAcBcCcDcEcFcGcHcIcJcKcLcMcNcOcPcQcRcScTcUcVcWcXcYcZc0c1c2c3c4c5c6c7c8c9c.c+dadbdcdddedfdgdhdidjdkdldmdndodpdqdrdsdtdudvdwdxdydzdAdBdCdDdEdFdGdHdIdJdKdLdMdNdOdPdQdRdSdTdUdVdWdXdYdZd0d1d2d3d4d5d6d7d8d9d.d+eaebecedeeefegeheiejekelemeneoepeqereseteuevewexeyezeAeBeCeDeEeFeGeHeIeJeKeLeMeNeOePeQeReSeTeUeVeWeXeYeZe0e1e2e3e4e5e6e7e8e9e.e+fafbfcfdfefffgfhfifjfkflfmfnfofpfqfrfsftfufvfwfxfyfzfAfBfCfDfEfFfGfHfIfJfKfLfMfNfOfPfQfRfSfTfUfVfWfXfYfZf0f1f2f3f4f5f6f7f8f9f.f+gagbgcgdgegfggghgigjgkglgmgngogpgqgrgsgtgugvgwgxgygzgAgBgCgDgEgFgGgHgIgJgKgLgMgNgOgPgQgRgSgTgUgVgWgXgYgZg0g1g2g3g4g5g6g7g8g9g.g+hahbhchdhehfhghhhihjhkhlhmhnhohphqhrhshthuhvhwhxhyhzhAhBhChDhEhFhGhHhIhJhKhLhMhNhOhPhQhRhShThUhVhWhXhYhZh0h1h2h3h4h5h6h7h8h9h.h+",
"aaabacadaeafagahaiajakalamanaoapaqarasatauavawaxayazaAaBaCaDaEaFaGaHaIaJaKaLaMaNaOaPaQaRaSaTaUaVaWaXaYaZa0a1a2a3a4a5a6a7a8a9a.a+babbbcbdbebfbgbhbibjbkblbmbnbobpbqbrbsbtbubvbwbxbybzbAbBbCbDbEbFbGbHbIbJbKbLbMbNbObPbQbRbSbTbUbVbWbXbYbZb0b1b2b3b4b5b6b7b8b9b.b+cacbcccdcecfcgchcicjckclcmcncocpcqcrcsctcucvcwcxcyczcAcBcCcDcEcFcGcHcIcJcKcLcMcNcOcPcQcRcScTcUcVcWcXcYcZc0c1c2c3c4c5c6c7c8c9c.c+dadbdcdddedfdgdhdidjdkdldmdndodpdqdrdsdtdudvdwdxdydzdAdBdCdDdEdFdGdHdIdJdKdLdMdNdOdPdQdRdSdTdUdVdWdXdYdZd0d1d2d3d4d5d6d7d8d9d.d+eaebecedeeefegeheiejekelemeneoepeqereseteuevewexeyezeAeBeCeDeEeFeGeHeIeJeKeLeMeNeOePeQeReSeTeUeVeWeXeYeZe0e1e2e3e4e5e6e7e8e9e.e+fafbfcfdfefffgfhfifjfkflfmfnfofpfqfrfsftfufvfwfxfyfzfAfBfCfDfEfFfGfHfIfJfKfLfMfNfOfPfQfRfSfTfUfVfWfXfYfZf0f1f2f3f4f5f6f7f8f9f.f+gagbgcgdgegfggghgigjgkglgmgngogpgqgrgsgtgugvgwgxgygzgAgBgCgDgEgFgGgHgIgJgKgLgMgNgOgPgQgRgSgTgUgVgWgXgYgZg0g1g2g3g4g5g6g7g8g9g.g+hahbhchdhehfhghhhihjhkhlhmhnhohphqhrhshthuhvhwhxhyhzhAhBhChDhEhFhGhHhIhJhKhLhMhNhOhPhQhRhShThUhVhWhXhYhZh0h1h2h3h4h5h6h7h8h9h.h+",
"aaabacadaeafagahaiajakalamanaoapaqarasatauavawaxayazaAaBaCaDaEaFaGaHaIaJaKaLaMaNaOaPaQaRaSaTaUaVaWaXaYaZa0a1a2a3a4a5a6a7a8a9a.a+babbbcbdbebfbgbhbibjbkblbmbnbobpbqbrbsbtbubvbwbxbybzbAbBbCbDbEbFbGbHbIbJbKbLbMbNbObPbQbRbSbTbUbVbWbXbYbZb0b1b2b3b4b5b6b7b8b9b.b+cacbcccdcecfcgchcicjckclcmcncocpcqcrcsctcucvcwcxcyczcAcBcCcDcEcFcGcHcIcJcKcLcMcNcOcPcQcRcScTcUcVcWcXcYcZc0c1c2c3c4c5c6c7c8c9c.c+dadbdcdddedfdgdhdidjdkdldmdndodpdqdrdsdtdudvdwdxdydzdAdBdCdDdEdFdGdHdIdJdKdLdMdNdOdPdQdRdSdTdUdVdWdXdYdZd0d1d2d3d4d5d6d7d8d9d.d+eaebecedeeefegeheiejekelemeneoepeqereseteuevewexeyezeAeBeCeDeEeFeGeHeIeJeKeLeMeNeOePeQeReSeTeUeVeWeXeYeZe0e1e2e3e4e5e6e7e8e9e.e+fafbfcfdfefffgfhfifjfkflfmfnfofpfqfrfsftfufvfwfxfyfzfAfBfCfDfEfFfGfHfIfJfKfLfMfNfOfPfQfRfSfTfUfVfWfXfYfZf0f1f2f3f4f5f6f7f8f9f.f+gagbgcgdgegfggghgigjgkglgmgngogpgqgrgsgtgugvgwgxgygzgAgBgCgDgEgFgGgHgIgJgKgLgMgNgOgPgQgRgSgTgUgVgWgXgYgZg0g1g2g3g4g5g6g7g8g9g.g+hahbhchdhehfhghhhihjhkhlhmhnhohphqhrhshthuhvhwhxhyhzhAhBhChDhEhFhGhHhIhJhKhLhMhNhOhPhQhRhShThUhVhWhXhYhZh0h1h2h3h4h5h6h7h8h9h.h+",
"aaabacadaeafagahaiajakalamanaoapaqarasatauavawaxayazaAaBaCaDaEaFaGaHaIaJaKaLaMaNaOaPaQaRaSaTaUaVaWaXaYaZa0a1a2a3a4a5a6a7a8a9a.a+babbbcbdbebfbgbhbibjbkblbmbnbobpbqbrbsbtbubvbwbxbybzbAbBbCbDbEbFbGbHbIbJbKbLbMbNbObPbQbRbSbTbUbVbWbXbYbZb0b1b2b3b4b5b6b7b8b9b.b+cacbcccdcecfcgchcicjckclcmcncocpcqcrcsctcucvcwcxcyczcAcBcCcDcEcFcGcHcIcJcKcLcMcNcOcPcQcRcScTcUcVcWcXcYcZc0c1c2c3c4c5c6c7c8c9c.c+dadbdcdddedfdgdhdidjdkdldmdndodpdqdrdsdtdudvdwdxdydzdAdBdCdDdEdFdGdHdIdJdKdLdMdNdOdPdQdRdSdTdUdVdWdXdYdZd0d1d2d3d4d5d6d7d8d9d.d+eaebecedeeefegeheiejekelemeneoepeqereseteuevewexeyezeAeBeCeDeEeFeGeHeIeJeKeLeMeNeOePeQeReSeTeUeVeWeXeYeZe0e1e2e3e4e5e6e7e8e9e.e+fafbfcfdfefffgfhfifjfkflfmfnfofpfqfrfsftfufvfwfxfyfzfAfBfCfDfEfFfGfHfIfJfKfLfMfNfOfPfQfRfSfTfUfVfWfXfYfZf0f1f2f3f4f5f6f7f8f9f.f+gagbgcgdgegfggghgigjgkglgmgngogpgqgrgsgtgugvgwgxgygzgAgBgCgDgEgFgGgHgIgJgKgLgMgNgOgPgQgRgSgTgUgVgWgXgYgZg0g1g2g3g4g5g6g7g8g9g.g+hahbhchdhehfhghhhihjhkhlhmhnhohphqhrhshthuhvhwhxhyhzhAhBhChDhEhFhGhHhIhJhKhLhMhNhOhPhQhRhShThUhVhWhXhYhZh0h1h2h3h4h5h6h7h8h9h.h+",
"aaabacadaeafagahaiajakalamanaoapaqarasatauavawaxayazaAaBaCaDaEaFaGaHaIaJaKaLaMaNaOaPaQaRaSaTaUaVaWaXaYaZa0a1a2a3a4a5a6a7a8a9a.a+babbbcbdbebfbgbhbibjbkblbmbnbobpbqbrbsbtbubvbwbxbybzbAbBbCbDbEbFbGbHbIbJbKbLbMbNbObPbQbRbSbTbUbVbWbXbYbZb0b1b2b3b4b5b6b7b8b9b.b+cacbcccdcecfcgchcicjckclcmcncocpcqcrcsctcucvcwcxcyczcAcBcCcDcEcFcGcHcIcJcKcLcMcNcOcPcQcRcScTcUcVcWcXcYcZc0c1c2c3c4c5c6c7c8c9c.c+dadbdcdddedfdgdhdidjdkdldmdndodpdqdrdsdtdudvdwdxdydzdAdBdCdDdEdFdGdHdIdJdKdLdMdNdOdPdQdRdSdTdUdVdWdXdYdZd0d1d2d3d4d5d6d7d8d9d.d+eaebecedeeefegeheiejekelemeneoepeqereseteuevewexeyezeAeBeCeDeEeFeGeHeIeJeKeLeMeNeOePeQeReSeTeUeVeWeXeYeZe0e1e2e3e4e5e6e7e8e9e.e+fafbfcfdfefffgfhfifjfkflfmfnfofpfqfrfsftfufvfwfxfyfzfAfBfCfDfEfFfGfHfIfJfKfLfMfNfOfPfQfRfSfTfUfVfWfXfYfZf0f1f2f3f4f5f6f7f8f9f.f+gagbgcgdgegfggghgigjgkglgmgngogpgqgrgsgtgugvgwgxgygzgAgBgCgDgEgFgGgHgIgJgKgLgMgNgOgPgQgRgSgTgUgVgWgXgYgZg0g1g2g3g4g5g6g7g8g9g.g+hahbhchdhehfhghhhihjhkhlhmhnhohphqhrhshthuhvhwhxhyhzhAhBhChDhEhFhGhHhIhJhKhLhMhNhOhPhQhRhShThUhVhWhXhYhZh0h1h2h3h4h5h6h7h8h9h.h+",
"aaabacadaeafagahaiajakalamanaoapaqarasatauavawaxayazaAaBaCaDaEaFaGaHaIaJaKaLaMaNaOaPaQaRaSaTaUaVaWaXaYaZa0a1a2a3a4a5a6a7a8a9a.a+babbbcbdbebfbgbhbibjbkblbmbnbobpbqbrbsbtbubvbwbxbybzbAbBbCbDbEbFbGbHbIbJbKbLbMbNbObPbQbRbSbTbUbVbWbXbYbZb0b1b2b3b4b5b6b7b8b9b.b+cacbcccdcecfcgchcicjckclcmcncocpcqcrcsctcucvcwcxcyczcAcBcCcDcEcFcGcHcIcJcKcLcMcNcOcPcQcRcScTcUcVcWcXcYcZc0c1c2c3c4c5c6c7c8c9c.c+dadbdcdddedfdgdhdidjdkdldmdndodpdqdrdsdtdudvdwdxdydzdAdBdCdDdEdFdGdHdIdJdKdLdMdNdOdPdQdRdSdTdUdVdWdXdYdZd0d1d2d3d4d5d6d7d8d9d.d+eaebecedeeefegeheiejekelemeneoepeqereseteuevewexeyezeAeBeCeDeEeFeGeHeIeJeKeLeMeNeOePeQeReSeTeUeVeWeXeYeZe0e1e2e3e4e5e6e7e8e9e.e+fafbfcfdfefffgfhfifjfkflfmfnfofpfqfrfsftfufvfwfxfyfzfAfBfCfDfEfFfGfHfIfJfKfLfMfNfOfPfQfRfSfTfUfVfWfXfYfZf0f1f2f3f4f5f6f7f8f9f.f+gagbgcgdgegfggghgigjgkglgmgngogpgqgrgsgtgugvgwgxgygzgAgBgCgDgEgFgGgHgIgJgKgLgMgNgOgPgQgRgSgTgUgVgWgXgYgZg0g1g2g3g4g5g6g7g8g9g.g+hahbhchdhehfhghhhihjhkhlhmhnhohphqhrhshthuhvhwhxhyhzhAhBhChDhEhFhGhHhIhJhKhLhMhNhOhPhQhRhShThUhVhWhXhYhZh0h1h2h3h4h5h6h7h8h9h.h+",
"aaabacadaeafagahaiajakalamanaoapaqarasatauavawaxayazaAaBaCaDaEaFaGaHaIaJaKaLaMaNaOaPaQaRaSaTaUaVaWaXaYaZa0a1a2a3a4a5a6a7a8a9a.a+babbbcbdbebfbgbhbibjbkblbmbnbobpbqbrbsbtbubvbwbxbybzbAbBbCbDbEbFbGbHbIbJbKbLbMbNbObPbQbRbSbTbUbVbWbXbYbZb0b1b2b3b4b5b6b7b8b9b.b+cacbcccdcecfcgchcicjckclcmcncocpcqcrcsctcucvcwcxcyczcAcBcCcDcEcFcGcHcIcJcKcLcMcNcOcPcQcRcScTcUcVcWcXcYcZc0c1c2c3c4c5c6c7c8c9c.c+dadbdcdddedfdgdhdidjdkdldmdndodpdqdrdsdtdudvdwdxdydzdAdBdCdDdEdFdGdHdIdJdKdLdMdNdOdPdQdRdSdTdUdVdWdXdYdZd0d1d2d3d4d5d6d7d8d9d.d+eaebecedeeefegeheiejekelemeneoepeqereseteuevewexeyezeAeBeCeDeEeFeGeHeIeJeKeLeMeNeOePeQeReSeTeUeVeWeXeYeZe0e1e2e3e4e5e6e7e8e9e.e+fafbfcfdfefffgfhfifjfkflfmfnfofpfqfrfsftfufvfwfxfyfzfAfBfCfDfEfFfGfHfIfJfKfLfMfNfOfPfQfRfSfTfUfVfWfXfYfZf0f1f2f3f4f5f6f7f8f9f.f+gagbgcgdgegfggghgigjgkglgmgngogpgqgrgsgtgugvgwgxgygzgAgBgCgDgEgFgGgHgIgJgKgLgMgNgOgPgQgRgSgTgUgVgWgXgYgZg0g1g2g3g4g5g6g7g8g9g.g+hahbhchdhehfhghhhihjhkhlhmhnhohphqhrhshthuhvhwhxhyhzhAhBhChDhEhFhGhHhIhJhKhLhMhNhOhPhQhRhShThUhVhWhXhYhZh0h1h2h3h4h5h6h7h8h9h.h+",
"aaabacadaeafagahaiajakalamanaoapaqarasatauavawaxayazaAaBaCaDaEaFaGaHaIaJaKaLaMaNaOaPaQaRaSaTaUaVaWaXaYaZa0a1a2a3a4a5a6a7a8a9a.a+babbbcbdbebfbgbhbibjbkblbmbnbobpbqbrbsbtbubvbwbxbybzbAbBbCbDbEbFbGbHbIbJbKbLbMbNbObPbQbRbSbTbUbVbWbXbYbZb0b1b2b3b4b5b6b7b8b9b.b+cacbcccdcecfcgchcicjckclcmcncocpcqcrcsctcucvcwcxcyczcAcBcCcDcEcFcGcHcIcJcKcLcMcNcOcPcQcRcScTcUcVcWcXcYcZc0c1c2c3c4c5c6c7c8c9c.c+dadbdcdddedfdgdhdidjdkdldmdndodpdqdrdsdtdudvdwdxdydzdAdBdCdDdEdFdGdHdIdJdKdLdMdNdOdPdQdRdSdTdUdVdWdXdYdZd0d1d2d3d4d5d6d7d8d9d.d+eaebecedeeefegeheiejekelemeneoepeqereseteuevewexeyezeAeBeCeDeEeFeGeHeIeJeKeLeMeNeOePeQeReSeTeUeVeWeXeYeZe0e1e2e3e4e5e6e7e8e9e.e+fafbfcfdfefffgfhfifjfkflfmfnfofpfqfrfsftfufvfwfxfyfzfAfBfCfDfEfFfGfHfIfJfKfLfMfNfOfPfQfRfSfTfUfVfWfXfYfZf0f1f2f3f4f5f6f7f8f9f.f+gagbgcgdgegfggghgigjgkglgmgngogpgqgrgsgtgugvgwgxgygzgAgBgCgDgEgFgGgHgIgJgKgLgMgNgOgPgQgRgSgTgUgVgWgXgYgZg0g1g2g3g4g5g6g7g8g9g.g+hahbhchdhehfhghhhihjhkhlhmhnhohphqhrhshthuhvhwhxhyhzhAhBhChDhEhFhGhHhIhJhKhLhMhNhOhPhQhRhShThUhVhWhXhYhZh0h1h2h3h4h5h6h7h8h9h.h+",
"aaabacadaeafagahaiajakalamanaoapaqarasatauavawaxayazaAaBaCaDaEaFaGaHaIaJaKaLaMaNaOaPaQaRaSaTaUaVaWaXaYaZa0a1a2a3a4a5a6a7a8a9a.a+babbbcbdbebfbgbhbibjbkblbmbnbobpbqbrbsbtbubvbwbxbybzbAbBbCbDbEbFbGbHbIbJbKbLbMbNbObPbQbRbSbTbUbVbWbXbYbZb0b1b2b3b4b5b6b7b8b9b.b+cacbcccdcecfcgchcicjckclcmcncocpcqcrcsctcucvcwcxcyczcAcBcCcDcEcFcGcHcIcJcKcLcMcNcOcPcQcRcScTcUcVcWcXcYcZc0c1c2c3c4c5c6c7c8c9c.c+dadbdcdddedfdgdhdidjdkdldmdndodpdqdrdsdtdudvdwdxdydzdAdBdCdDdEdFdGdHdIdJdKdLdMdNdOdPdQdRdSdTdUdVdWdXdYdZd0d1d2d3d4d5d6d7d8d9d.d+eaebecedeeefegeheiejekelemeneoepeqereseteuevewexeyezeAeBeCeDeEeFeGeHeIeJeKeLeMeNeOePeQeReSeTeUeVeWeXeYeZe0e1e2e3e4e5e6e7e8e9e.e+fafbfcfdfefffgfhfifjfkflfmfnfofpfqfrfsftfufvfwfxfyfzfAfBfCfDfEfFfGfHfIfJfKfLfMfNfOfPfQfRfSfTfUfVfWfXfYfZf0f1f2f3f4f5f6f7f8f9f.f+gagbgcgdgegfggghgigjgkglgmgngogpgqgrgsgtgugvgwgxgygzgAgBgCgDgEgFgGgHgIgJgKgLgMgNgOgPgQgRgSgTgUgVgWgXgYgZg0g1g2g3g4g5g6g7g8g9g.g+hahbhchdhehfhghhhihjhkhlhmhnhohphqhrhshthuhvhwhxhyhzhAhBhChDhEhFhGhHhIhJhKhLhMhNhOhPhQhRhShThUhVhWhXhYhZh0h1h2h3h4h5h6h7h8h9h.h+",
"aaabacadaeafagahaiajakalamanaoapaqarasatauavawaxayazaAaBaCaDaEaFaGaHaIaJaKaLaMaNaOaPaQaRaSaTaUaVaWaXaYaZa0a1a2a3a4a5a6a7a8a9a.a+babbbcbdbebfbgbhbibjbkblbmbnbobpbqbrbsbtbubvbwbxbybzbAbBbCbDbEbFbGbHbIbJbKbLbMbNbObPbQbRbSbTbUbVbWbXbYbZb0b1b2b3b4b5b6b7b8b9b.b+cacbcccdcecfcgchcicjckclcmcncocpcqcrcsctcucvcwcxcyczcAcBcCcDcEcFcGcHcIcJcKcLcMcNcOcPcQcRcScTcUcVcWcXcYcZc0c1c2c3c4c5c6c7c8c9c.c+dadbdcdddedfdgdhdidjdkdldmdndodpdqdrdsdtdudvdwdxdydzdAdBdCdDdEdFdGdHdIdJdKdLdMdNdOdPdQdRdSdTdUdVdWdXdYdZd0d1d2d3d4d5d6d7d8d9d.d+eaebecedeeefegeheiejekelemeneoepeqereseteuevewexeyezeAeBeCeDeEeFeGeHeIeJeKeLeMeNeOePeQeReSeTeUeVeWeXeYeZe0e1e2e3e4e5e6e7e8e9e.e+fafbfcfdfefffgfhfifjfkflfmfnfofpfqfrfsftfufvfwfxfyfzfAfBfCfDfEfFfGfHfIfJfKfLfMfNfOfPfQfRfSfTfUfVfWfXfYfZf0f1f2f3f4f5f6f7f8f9f.f+gagbgcgdgegfggghgigjgkglgmgngogpgqgrgsgtgugvgwgxgygzgAgBgCgDgEgFgGgHgIgJgKgLgMgNgOgPgQgRgSgTgUgVgWgXgYgZg0g1g2g3g4g5g6g7g8g9g.g+hahbhchdhehfhghhhihjhkhlhmhnhohphqhrhshthuhvhwhxhyhzhAhBhChDhEhFhGhHhIhJhKhLhMhNhOhPhQhRhShThUhVhWhXhYhZh0h1h2h3h4h5h6h7h8h9h.h+",
"aaabacadaeafagahaiajakalamanaoapaqarasatauavawaxayazaAaBaCaDaEaFaGaHaIaJaKaLaMaNaOaPaQaRaSaTaUaVaWaXaYaZa0a1a2a3a4a5a6a7a8a9a.a+babbbcbdbebfbgbhbibjbkblbmbnbobpbqbrbsbtbubvbwbxbybzbAbBbCbDbEbFbGbHbIbJbKbLbMbNbObPbQbRbSbTbUbVbWbXbYbZb0b1b2b3b4b5b6b7b8b9b.b+cacbcccdcecfcgchcicjckclcmcncocpcqcrcsctcucvcwcxcyczcAcBcCcDcEcFcGcHcIcJcKcLcMcNcOcPcQcRcScTcUcVcWcXcYcZc0c1c2c3c4c5c6c7c8c9c.c+dadbdcdddedfdgdhdidjdkdldmdndodpdqdrdsdtdudvdwdxdydzdAdBdCdDdEdFdGdHdIdJdKdLdMdNdOdPdQdRdSdTdUdVdWdXdYdZd0d1d2d3d4d5d6d7d8d9d.d+eaebecedeeefegeheiejekelemeneoepeqereseteuevewexeyezeAeBeCeDeEeFeGeHeIeJeKeLeMeNeOePeQeReSeTeUeVeWeXeYeZe0e1e2e3e4e5e6e7e8e9e.e+fafbfcfdfefffgfhfifjfkflfmfnfofpfqfrfsftfufvfwfxfyfzfAfBfCfDfEfFfGfHfIfJfKfLfMfNfOfPfQfRfSfTfUfVfWfXfYfZf0f1f2f3f4f5f6f7f8f9f.f+gagbgcgdgegfggghgigjgkglgmgngogpgqgrgsgtgugvgwgxgygzgAgBgCgDgEgFgGgHgIgJgKgLgMgNgOgPgQgRgSgTgUgVgWgXgYgZg0g1g2g3g4g5g6g7g8g9g.g+hahbhchdhehfhghhhihjhkhlhmhnhohphqhrhshthuhvhwhxhyhzhAhBhChDhEhFhGhHhIhJhKhLhMhNhOhPhQhRhShThUhVhWhXhYhZh0h1h2h3h4h5h6h7h8h9h.h+",
"aaabacadaeafagahaiajakalamanaoapaqarasatauavawaxayazaAaBaCaDaEaFaGaHaIaJaKaLaMaNaOaPaQaRaSaTaUaVaWaXaYaZa0a1a2a3a4a5a6a7a8a9a.a+babbbcbdbebfbgbhbibjbkblbmbnbobpbqbrbsbtbubvbwbxbybzbAbBbCbDbEbFbGbHbIbJbKbLbMbNbObPbQbRbSbTbUbVbWbXbYbZb0b1b2b3b4b5b6b7b8b9b.b+cacbcccdcecfcgchcicjckclcmcncocpcqcrcsctcucvcwcxcyczcAcBcCcDcEcFcGcHcIcJcKcLcMcNcOcPcQcRcScTcUcVcWcXcYcZc0c1c2c3c4c5c6c7c8c9c.c+dadbdcdddedfdgdhdidjdkdldmdndodpdqdrdsdtdudvdwdxdydzdAdBdCdDdEdFdGdHdIdJdKdLdMdNdOdPdQdRdSdTdUdVdWdXdYdZd0d1d2d3d4d5d6d7d8d9d.d+eaebecedeeefegeheiejekelemeneoepeqereseteuevewexeyezeAeBeCeDeEeFeGeHeIeJeKeLeMeNeOePeQeReSeTeUeVeWeXeYeZe0e1e2e3e4e5e6e7e8e9e.e+fafbfcfdfefffgfhfifjfkflfmfnfofpfqfrfsftfufvfwfxfyfzfAfBfCfDfEfFfGfHfIfJfKfLfMfNfOfPfQfRfSfTfUfVfWfXfYfZf0f1f2f3f4f5f6f7f8f9f.f+gagbgcgdgegfggghgigjgkglgmgngogpgqgrgsgtgugvgwgxgygzgAgBgCgDgEgFgGgHgIgJgKgLgMgNgOgPgQgRgSgTgUgVgWgXgYgZg0g1g2g3g4g5g6g7g8g9g.g+hahbhchdhehfhghhhihjhkhlhmhnhohphqhrhshthuhvhwhxhyhzhAhBhChDhEhFhGhHhIhJhKhLhMhNhOhPhQhRhShThUhVhWhXhYhZh0h1h2h3h4h5h6h7h8h9h.h+",
"aaabacadaeafagahaiajakalamanaoapaqarasatauavawaxayazaAaBaCaDaEaFaGaHaIaJaKaLaMaNaOaPaQaRaSaTaUaVaWaXaYaZa0a1a2a3a4a5a6a7a8a9a.a+babbbcbdbebfbgbhbibjbkblbmbnbobpbqbrbsbtbubvbwbxbybzbAbBbCbDbEbFbGbHbIbJbKbLbMbNbObPbQbRbSbTbUbVbWbXbYbZb0b1b2b3b4b5b6b7b8b9b.b+cacbcccdcecfcgchcicjckclcmcncocpcqcrcsctcucvcwcxcyczcAcBcCcDcEcFcGcHcIcJcKcLcMcNcOcPcQcRcScTcUcVcWcXcYcZc0c1c2c3c4c5c6c7c8c9c.c+dadbdcdddedfdgdhdidjdkdldmdndodpdqdrdsdtdudvdwdxdydzdAdBdCdDdEdFdGdHdIdJdKdLdMdNdOdPdQdRdSdTdUdVdWdXdYdZd0d1d2d3d4d5d6d7d8d9d.d+eaebecedeeefegeheiejekelemeneoepeqereseteuevewexeyezeAeBeCeDeEeFeGeHeIeJeKeLeMeNeOePeQeReSeTeUeVeWeXeYeZe0e1e2e3e4e5e6e7e8e9e.e+fafbfcfdfefffgfhfifjfkflfmfnfofpfqfrfsftfufvfwfxfyfzfAfBfCfDfEfFfGfHfIfJfKfLfMfNfOfPfQfRfSfTfUfVfWfXfYfZf0f1f2f3f4f5f6f7f8f9f.f+gagbgcgdgegfggghgigjgkglgmgngogpgqgrgsgtgugvgwgxgygzgAgBgCgDgEgFgGgHgIgJgKgLgMgNgOgPgQgRgSgTgUgVgWgXgYgZg0g1g2g3g4g5g6g7g8g9g.g+hahbhchdhehfhghhhihjhkhlhmhnhohphqhrhshthuhvhwhxhyhzhAhBhChDhEhFhGhHhIhJhKhLhMhNhOhPhQhRhShThUhVhWhXhYhZh0h1h2h3h4h5h6h7h8h9h.h+",
"aaabacadaeafagahaiajakalamanaoapaqarasatauavawaxayazaAaBaCaDaEaFaGaHaIaJaKaLaMaNaOaPaQaRaSaTaUaVaWaXaYaZa0a1a2a3a4a5a6a7a8a9a.a+babbbcbdbebfbgbhbibjbkblbmbnbobpbqbrbsbtbubvbwbxbybzbAbBbCbDbEbFbGbHbIbJbKbLbMbNbObPbQbRbSbTbUbVbWbXbYbZb0b1b2b3b4b5b6b7b8b9b.b+cacbcccdcecfcgchcicjckclcmcncocpcqcrcsctcucvcwcxcyczcAcBcCcDcEcFcGcHcIcJcKcLcMcNcOcPcQcRcScTcUcVcWcXcYcZc0c1c2c3c4c5c6c7c8c9c.c+dadbdcdddedfdgdhdidjdkdldmdndodpdqdrdsdtdudvdwdxdydzdAdBdCdDdEdFdGdHdIdJdKdLdMdNdOdPdQdRdSdTdUdVdWdXdYdZd0d1d2d3d4d5d6d7d8d9d.d+eaebecedeeefegeheiejekelemeneoepeqereseteuevewexeyezeAeBeCeDeEeFeGeHeIeJeKeLeMeNeOePeQeReSeTeUeVeWeXeYeZe0e1e2e3e4e5e6e7e8e9e.e+fafbfcfdfefffgfhfifjfkflfmfnfofpfqfrfsftfufvfwfxfyfzfAfBfCfDfEfFfGfHfIfJfKfLfMfNfOfPfQfRfSfTfUfVfWfXfYfZf0f1f2f3f4f5f6f7f8f9f.f+gagbgcgdgegfggghgigjgkglgmgngogpgqgrgsgtgugvgwgxgygzgAgBgCgDgEgFgGgHgIgJgKgLgMgNgOgPgQgRgSgTgUgVgWgXgYgZg0g1g2g3g4g5g6g7g8g9g.g+hahbhchdhehfhghhhihjhkhlhmhnhohphqhrhshthuhvhwhxhyhzhAhBhChDhEhFhGhHhIhJhKhLhMhNhOhPhQhRhShThUhVhWhXhYhZh0h1h2h3h4h5h6h7h8h9h.h+",
"aaabacadaeafagahaiajakalamanaoapaqarasatauavawaxayazaAaBaCaDaEaFaGaHaIaJaKaLaMaNaOaPaQaRaSaTaUaVaWaXaYaZa0a1a2a3a4a5a6a7a8a9a.a+babbbcbdbebfbgbhbibjbkblbmbnbobpbqbrbsbtbubvbwbxbybzbAbBbCbDbEbFbGbHbIbJbKbLbMbNbObPbQbRbSbTbUbVbWbXbYbZb0b1b2b3b4b5b6b7b8b9b.b+cacbcccdcecfcgchcicjckclcmcncocpcqcrcsctcucvcwcxcyczcAcBcCcDcEcFcGcHcIcJcKcLcMcNcOcPcQcRcScTcUcVcWcXcYcZc0c1c2c3c4c5c6c7c8c9c.c+dadbdcdddedfdgdhdidjdkdldmdndodpdqdrdsdtdudvdwdxdydzdAdBdCdDdEdFdGdHdIdJdKdLdMdNdOdPdQdRdSdTdUdVdWdXdYdZd0d1d2d3d4d5d6d7d8d9d.d+eaebecedeeefegeheiejekelemeneoepeqereseteuevewexeyezeAeBeCeDeEeFeGeHeIeJeKeLeMeNeOePeQeReSeTeUeVeWeXeYeZe0e1e2e3e4e5e6e7e8e9e.e+fafbfcfdfefffgfhfifjfkflfmfnfofpfqfrfsftfufvfwfxfyfzfAfBfCfDfEfFfGfHfIfJfKfLfMfNfOfPfQfRfSfTfUfVfWfXfYfZf0f1f2f3f4f5f6f7f8f9f.f+gagbgcgdgegfggghgigjgkglgmgngogpgqgrgsgtgugvgwgxgygzgAgBgCgDgEgFgGgHgIgJgKgLgMgNgOgPgQgRgSgTgUgVgWgXgYgZg0g1g2g3g4g5g6g7g8g9g.g+hahbhchdhehfhghhhihjhkhlhmhnhohphqhrhshthuhvhwhxhyhzhAhBhChDhEhFhGhHhIhJhKhLhMhNhOhPhQhRhShThUhVhWhXhYhZh0h1h2h3h4h5h6h7h8h9h.h+",
"aaabacadaeafagahaiajakalamanaoapaqarasatauavawaxayazaAaBaCaDaEaFaGaHaIaJaKaLaMaNaOaPaQaRaSaTaUaVaWaXaYaZa0a1a2a3a4a5a6a7a8a9a.a+babbbcbdbebfbgbhbibjbkblbmbnbobpbqbrbsbtbubvbwbxbybzbAbBbCbDbEbFbGbHbIbJbKbLbMbNbObPbQbRbSbTbUbVbWbXbYbZb0b1b2b3b4b5b6b7b8b9b.b+cacbcccdcecfcgchcicjckclcmcncocpcqcrcsctcucvcwcxcyczcAcBcCcDcEcFcGcHcIcJcKcLcMcNcOcPcQcRcScTcUcVcWcXcYcZc0c1c2c3c4c5c6c7c8c9c.c+dadbdcdddedfdgdhdidjdkdldmdndodpdqdrdsdtdudvdwdxdydzdAdBdCdDdEdFdGdHdIdJdKdLdMdNdOdPdQdRdSdTdUdVdWdXdYdZd0d1d2d3d4d5d6d7d8d9d.d+eaebecedeeefegeheiejekelemeneoepeqereseteuevewexeyezeAeBeCeDeEeFeGeHeIeJeKeLeMeNeOePeQeReSeTeUeVeWeXeYeZe0e1e2e3e4e5e6e7e8e9e.e+fafbfcfdfefffgfhfifjfkflfmfnfofpfqfrfsftfufvfwfxfyfzfAfBfCfDfEfFfGfHfIfJfKfLfMfNfOfPfQfRfSfTfUfVfWfXfYfZf0f1f2f3f4f5f6f7f8f9f.f+gagbgcgdgegfggghgigjgkglgmgngogpgqgrgsgtgugvgwgxgygzgAgBgCgDgEgFgGgHgIgJgKgLgMgNgOgPgQgRgSgTgUgVgWgXgYgZg0g1g2g3g4g5g6g7g8g9g.g+hahbhchdhehfhghhhihjhkhlhmhnhohphqhrhshthuhvhwhxhyhzhAhBhChDhEhFhGhHhIhJhKhLhMhNhOhPhQhRhShThUhVhWhXhYhZh0h1h2h3h4h5h6h7h8h9h.h+",
"aaabacadaeafagahaiajakalamanaoapaqarasatauavawaxayazaAaBaCaDaEaFaGaHaIaJaKaLaMaNaOaPaQaRaSaTaUaVaWaXaYaZa0a1a2a3a4a5a6a7a8a9a.a+babbbcbdbebfbgbhbibjbkblbmbnbobpbqbrbsbtbubvbwbxbybzbAbBbCbDbEbFbGbHbIbJbKbLbMbNbObPbQbRbSbTbUbVbWbXbYbZb0b1b2b3b4b5b6b7b8b9b.b+cacbcccdcecfcgchcicjckclcmcncocpcqcrcsctcucvcwcxcyczcAcBcCcDcEcFcGcHcIcJcKcLcMcNcOcPcQcRcScTcUcVcWcXcYcZc0c1c2c3c4c5c6c7c8c9c.c+dadbdcdddedfdgdhdidjdkdldmdndodpdqdrdsdtdudvdwdxdydzdAdBdCdDdEdFdGdHdIdJdKdLdMdNdOdPdQdRdSdTdUdVdWdXdYdZd0d1d2d3d4d5d6d7d8d9d.d+eaebecedeeefegeheiejekelemeneoepeqereseteuevewexeyezeAeBeCeDeEeFeGeHeIeJeKeLeMeNeOePeQeReSeTeUeVeWeXeYeZe0e1e2e3e4e5e6e7e8e9e.e+fafbfcfdfefffgfhfifjfkflfmfnfofpfqfrfsftfufvfwfxfyfzfAfBfCfDfEfFfGfHfIfJfKfLfMfNfOfPfQfRfSfTfUfVfWfXfYfZf0f1f2f3f4f5f6f7f8f9f.f+gagbgcgdgegfggghgigjgkglgmgngogpgqgrgsgtgugvgwgxgygzgAgBgCgDgEgFgGgHgIgJgKgLgMgNgOgPgQgRgSgTgUgVgWgXgYgZg0g1g2g3g4g5g6g7g8g9g.g+hahbhchdhehfhghhhihjhkhlhmhnhohphqhrhshthuhvhwhxhyhzhAhBhChDhEhFhGhHhIhJhKhLhMhNhOhPhQhRhShThUhVhWhXhYhZh0h1h2h3h4h5h6h7h8h9h.h+",
"aaabacadaeafagahaiajakalamanaoapaqarasatauavawaxayazaAaBaCaDaEaFaGaHaIaJaKaLaMaNaOaPaQaRaSaTaUaVaWaXaYaZa0a1a2a3a4a5a6a7a8a9a.a+babbbcbdbebfbgbhbibjbkblbmbnbobpbqbrbsbtbubvbwbxbybzbAbBbCbDbEbFbGbHbIbJbKbLbMbNbObPbQbRbSbTbUbVbWbXbYbZb0b1b2b3b4b5b6b7b8b9b.b+cacbcccdcecfcgchcicjckclcmcncocpcqcrcsctcucvcwcxcyczcAcBcCcDcEcFcGcHcIcJcKcLcMcNcOcPcQcRcScTcUcVcWcXcYcZc0c1c2c3c4c5c6c7c8c9c.c+dadbdcdddedfdgdhdidjdkdldmdndodpdqdrdsdtdudvdwdxdydzdAdBdCdDdEdFdGdHdIdJdKdLdMdNdOdPdQdRdSdTdUdVdWdXdYdZd0d1d2d3d4d5d6d7d8d9d.d+eaebecedeeefegeheiejekelemeneoepeqereseteuevewexeyezeAeBeCeDeEeFeGeHeIeJeKeLeMeNeOePeQeReSeTeUeVeWeXeYeZe0e1e2e3e4e5e6e7e8e9e.e+fafbfcfdfefffgfhfifjfkflfmfnfofpfqfrfsftfufvfwfxfyfzfAfBfCfDfEfFfGfHfIfJfKfLfMfNfOfPfQfRfSfTfUfVfWfXfYfZf0f1f2f3f4f5f6f7f8f9f.f+gagbgcgdgegfggghgigjgkglgmgngogpgqgrgsgtgugvgwgxgygzgAgBgCgDgEgFgGgHgIgJgKgLgMgNgOgPgQgRgSgTgUgVgWgXgYgZg0g1g2g3g4g5g6g7g8g9g.g+hahbhchdhehfhghhhihjhkhlhmhnhohphqhrhshthuhvhwhxhyhzhAhBhChDhEhFhGhHhIhJhKhLhMhNhOhPhQhRhShThUhVhWhXhYhZh0h1h2h3h4h5h6h7h8h9h.h+",
"aaabacadaeafagahaiajakalamanaoapaqarasatauavawaxayazaAaBaCaDaEaFaGaHaIaJaKaLaMaNaOaPaQaRaSaTaUaVaWaXaYaZa0a1a2a3a4a5a6a7a8a9a.a+babbbcbdbebfbgbhbibjbkblbmbnbobpbqbrbsbtbubvbwbxbybzbAbBbCbDbEbFbGbHbIbJbKbLbMbNbObPbQbRbSbTbUbVbWbXbYbZb0b1b2b3b4b5b6b7b8b9b.b+cacbcccdcecfcgchcicjckclcmcncocpcqcrcsctcucvcwcxcyczcAcBcCcDcEcFcGcHcIcJcKcLcMcNcOcPcQcRcScTcUcVcWcXcYcZc0c1c2c3c4c5c6c7c8c9c.c+dadbdcdddedfdgdhdidjdkdldmdndodpdqdrdsdtdudvdwdxdydzdAdBdCdDdEdFdGdHdIdJdKdLdMdNdOdPdQdRdSdTdUdVdWdXdYdZd0d1d2d3d4d5d6d7d8d9d.d+eaebecedeeefegeheiejekelemeneoepeqereseteuevewexeyezeAeBeCeDeEeFeGeHeIeJeKeLeMeNeOePeQeReSeTeUeVeWeXeYeZe0e1e2e3e4e5e6e7e8e9e.e+fafbfcfdfefffgfhfifjfkflfmfnfofpfqfrfsftfufvfwfxfyfzfAfBfCfDfEfFfGfHfIfJfKfLfMfNfOfPfQfRfSfTfUfVfWfXfYfZf0f1f2f3f4f5f6f7f8f9f.f+gagbgcgdgegfggghgigjgkglgmgngogpgqgrgsgtgugvgwgxgygzgAgBgCgDgEgFgGgHgIgJgKgLgMgNgOgPgQgRgSgTgUgVgWgXgYgZg0g1g2g3g4g5g6g7g8g9g.g+hahbhchdhehfhghhhihjhkhlhmhnhohphqhrhshthuhvhwhxhyhzhAhBhChDhEhFhGhHhIhJhKhLhMhNhOhPhQhRhShThUhVhWhXhYhZh0h1h2h3h4h5h6h7h8h9h.h+",
"aaabacadaeafagahaiajakalamanaoapaqarasatauavawaxayazaAaBaCaDaEaFaGaHaIaJaKaLaMaNaOaPaQaRaSaTaUaVaWaXaYaZa0a1a2a3a4a5a6a7a8a9a.a+babbbcbdbebfbgbhbibjbkblbmbnbobpbqbrbsbtbubvbwbxbybzbAbBbCbDbEbFbGbHbIbJbKbLbMbNbObPbQbRbSbTbUbVbWbXbYbZb0b1b2b3b4b5b6b7b8b9b.b+cacbcccdcecfcgchcicjckclcmcncocpcqcrcsctcucvcwcxcyczcAcBcCcDcEcFcGcHcIcJcKcLcMcNcOcPcQcRcScTcUcVcWcXcYcZc0c1c2c3c4c5c6c7c8c9c.c+dadbdcdddedfdgdhdidjdkdldmdndodpdqdrdsdtdudvdwdxdydzdAdBdCdDdEdFdGdHdIdJdKdLdMdNdOdPdQdRdSdTdUdVdWdXdYdZd0d1d2d3d4d5d6d7d8d9d.d+eaebecedeeefegeheiejekelemeneoepeqereseteuevewexeyezeAeBeCeDeEeFeGeHeIeJeKeLeMeNeOePeQeReSeTeUeVeWeXeYeZe0e1e2e3e4e5e6e7e8e9e.e+fafbfcfdfefffgfhfifjfkflfmfnfofpfqfrfsftfufvfwfxfyfzfAfBfCfDfEfFfGfHfIfJfKfLfMfNfOfPfQfRfSfTfUfVfWfXfYfZf0f1f2f3f4f5f6f7f8f9f.f+gagbgcgdgegfggghgigjgkglgmgngogpgqgrgsgtgugvgwgxgygzgAgBgCgDgEgFgGgHgIgJgKgLgMgNgOgPgQgRgSgTgUgVgWgXgYgZg0g1g2g3g4g5g6g7g8g9g.g+hahbhchdhehfhghhhihjhkhlhmhnhohphqhrhshthuhvhwhxhyhzhAhBhChDhEhFhGhHhIhJhKhLhMhNhOhPhQhRhShThUhVhWhXhYhZh0h1h2h3h4h5h6h7h8h9h.h+",
"aaabacadaeafagahaiajakalamanaoapaqarasatauavawaxayazaAaBaCaDaEaFaGaHaIaJaKaLaMaNaOaPaQaRaSaTaUaVaWaXaYaZa0a1a2a3a4a5a6a7a8a9a.a+babbbcbdbebfbgbhbibjbkblbmbnbobpbqbrbsbtbubvbwbxbybzbAbBbCbDbEbFbGbHbIbJbKbLbMbNbObPbQbRbSbTbUbVbWbXbYbZb0b1b2b3b4b5b6b7b8b9b.b+cacbcccdcecfcgchcicjckclcmcncocpcqcrcsctcucvcwcxcyczcAcBcCcDcEcFcGcHcIcJcKcLcMcNcOcPcQcRcScTcUcVcWcXcYcZc0c1c2c3c4c5c6c7c8c9c.c+dadbdcdddedfdgdhdidjdkdldmdndodpdqdrdsdtdudvdwdxdydzdAdBdCdDdEdFdGdHdIdJdKdLdMdNdOdPdQdRdSdTdUdVdWdXdYdZd0d1d2d3d4d5d6d7d8d9d.d+eaebecedeeefegeheiejekelemeneoepeqereseteuevewexeyezeAeBeCeDeEeFeGeHeIeJeKeLeMeNeOePeQeReSeTeUeVeWeXeYeZe0e1e2e3e4e5e6e7e8e9e.e+fafbfcfdfefffgfhfifjfkflfmfnfofpfqfrfsftfufvfwfxfyfzfAfBfCfDfEfFfGfHfIfJfKfLfMfNfOfPfQfRfSfTfUfVfWfXfYfZf0f1f2f3f4f5f6f7f8f9f.f+gagbgcgdgegfggghgigjgkglgmgngogpgqgrgsgtgugvgwgxgygzgAgBgCgDgEgFgGgHgIgJgKgLgMgNgOgPgQgRgSgTgUgVgWgXgYgZg0g1g2g3g4g5g6g7g8g9g.g+hahbhchdhehfhghhhihjhkhlhmhnhohphqhrhshthuhvhwhxhyhzhAhBhChDhEhFhGhHhIhJhKhLhMhNhOhPhQhRhShThUhVhWhXhYhZh0h1h2h3h4h5h6h7h8h9h.h+",
"aaabacadaeafagahaiajakalamanaoapaqarasatauavawaxayazaAaBaCaDaEaFaGaHaIaJaKaLaMaNaOaPaQaRaSaTaUaVaWaXaYaZa0a1a2a3a4a5a6a7a8a9a.a+babbbcbdbebfbgbhbibjbkblbmbnbobpbqbrbsbtbubvbwbxbybzbAbBbCbDbEbFbGbHbIbJbKbLbMbNbObPbQbRbSbTbUbVbWbXbYbZb0b1b2b3b4b5b6b7b8b9b.b+cacbcccdcecfcgchcicjckclcmcncocpcqcrcsctcucvcwcxcyczcAcBcCcDcEcFcGcHcIcJcKcLcMcNcOcPcQcRcScTcUcVcWcXcYcZc0c1c2c3c4c5c6c7c8c9c.c+dadbdcdddedfdgdhdidjdkdldmdndodpdqdrdsdtdudvdwdxdydzdAdBdCdDdEdFdGdHdIdJdKdLdMdNdOdPdQdRdSdTdUdVdWdXdYdZd0d1d2d3d4d5d6d7d8d9d.d+eaebecedeeefegeheiejekelemeneoepeqereseteuevewexeyezeAeBeCeDeEeFeGeHeIeJeKeLeMeNeOePeQeReSeTeUeVeWeXeYeZe0e1e2e3e4e5e6e7e8e9e.e+fafbfcfdfefffgfhfifjfkflfmfnfofpfqfrfsftfufvfwfxfyfzfAfBfCfDfEfFfGfHfIfJfKfLfMfNfOfPfQfRfSfTfUfVfWfXfYfZf0f1f2f3f4f5f6f7f8f9f.f+gagbgcgdgegfggghgigjgkglgmgngogpgqgrgsgtgugvgwgxgygzgAgBgCgDgEgFgGgHgIgJgKgLgMgNgOgPgQgRgSgTgUgVgWgXgYgZg0g1g2g3g4g5g6g7g8g9g.g+hahbhchdhehfhghhhihjhkhlhmhnhohphqhrhshthuhvhwhxhyhzhAhBhChDhEhFhGhHhIhJhKhLhMhNhOhPhQhRhShThUhVhWhXhYhZh0h1h2h3h4h5h6h7h8h9h.h+",
"aaabacadaeafagahaiajakalamanaoapaqarasatauavawaxayazaAaBaCaDaEaFaGaHaIaJaKaLaMaNaOaPaQaRaSaTaUaVaWaXaYaZa0a1a2a3a4a5a6a7a8a9a.a+babbbcbdbebfbgbhbibjbkblbmbnbobpbqbrbsbtbubvbwbxbybzbAbBbCbDbEbFbGbHbIbJbKbLbMbNbObPbQbRbSbTbUbVbWbXbYbZb0b1b2b3b4b5b6b7b8b9b.b+cacbcccdcecfcgchcicjckclcmcncocpcqcrcsctcucvcwcxcyczcAcBcCcDcEcFcGcHcIcJcKcLcMcNcOcPcQcRcScTcUcVcWcXcYcZc0c1c2c3c4c5c6c7c8c9c.c+dadbdcdddedfdgdhdidjdkdldmdndodpdqdrdsdtdudvdwdxdydzdAdBdCdDdEdFdGdHdIdJdKdLdMdNdOdPdQdRdSdTdUdVdWdXdYdZd0d1d2d3d4d5d6d7d8d9d.d+eaebecedeeefegeheiejekelemeneoepeqereseteuevewexeyezeAeBeCeDeEeFeGeHeIeJeKeLeMeNeOePeQeReSeTeUeVeWeXeYeZe0e1e2e3e4e5e6e7e8e9e.e+fafbfcfdfefffgfhfifjfkflfmfnfofpfqfrfsftfufvfwfxfyfzfAfBfCfDfEfFfGfHfIfJfKfLfMfNfOfPfQfRfSfTfUfVfWfXfYfZf0f1f2f3f4f5f6f7f8f9f.f+gagbgcgdgegfggghgigjgkglgmgngogpgqgrgsgtgugvgwgxgygzgAgBgCgDgEgFgGgHgIgJgKgLgMgNgOgPgQgRgSgTgUgVgWgXgYgZg0g1g2g3g4g5g6g7g8g9g.g+hahbhchdhehfhghhhihjhkhlhmhnhohphqhrhshthuhvhwhxhyhzhAhBhChDhEhFhGhHhIhJhKhLhMhNhOhPhQhRhShThUhVhWhXhYhZh0h1h2h3h4h5h6h7h8h9h.h+",
"aaabacadaeafagahaiajakalamanaoapaqarasatauavawaxayazaAaBaCaDaEaFaGaHaIaJaKaLaMaNaOaPaQaRaSaTaUaVaWaXaYaZa0a1a2a3a4a5a6a7a8a9a.a+babbbcbdbebfbgbhbibjbkblbmbnbobpbqbrbsbtbubvbwbxbybzbAbBbCbDbEbFbGbHbIbJbKbLbMbNbObPbQbRbSbTbUbVbWbXbYbZb0b1b2b3b4b5b6b7b8b9b.b+cacbcccdcecfcgchcicjckclcmcncocpcqcrcsctcucvcwcxcyczcAcBcCcDcEcFcGcHcIcJcKcLcMcNcOcPcQcRcScTcUcVcWcXcYcZc0c1c2c3c4c5c6c7c8c9c.c+dadbdcdddedfdgdhdidjdkdldmdndodpdqdrdsdtdudvdwdxdydzdAdBdCdDdEdFdGdHdIdJdKdLdMdNdOdPdQdRdSdTdUdVdWdXdYdZd0d1d2d3d4d5d6d7d8d9d.d+eaebecedeeefegeheiejekelemeneoepeqereseteuevewexeyezeAeBeCeDeEeFeGeHeIeJeKeLeMeNeOePeQeReSeTeUeVeWeXeYeZe0e1e2e3e4e5e6e7e8e9e.e+fafbfcfdfefffgfhfifjfkflfmfnfofpfqfrfsftfufvfwfxfyfzfAfBfCfDfEfFfGfHfIfJfKfLfMfNfOfPfQfRfSfTfUfVfWfXfYfZf0f1f2f3f4f5f6f7f8f9f.f+gagbgcgdgegfggghgigjgkglgmgngogpgqgrgsgtgugvgwgxgygzgAgBgCgDgEgFgGgHgIgJgKgLgMgNgOgPgQgRgSgTgUgVgWgXgYgZg0g1g2g3g4g5g6g7g8g9g.g+hahbhchdhehfhghhhihjhkhlhmhnhohphqhrhshthuhvhwhxhyhzhAhBhChDhEhFhGhHhIhJhKhLhMhNhOhPhQhRhShThUhVhWhXhYhZh0h1h2h3h4h5h6h7h8h9h.h+",
"aaabacadaeafagahaiajakalamanaoapaqarasatauavawaxayazaAaBaCaDaEaFaGaHaIaJaKaLaMaNaOaPaQaRaSaTaUaVaWaXaYaZa0a1a2a3a4a5a6a7a8a9a.a+babbbcbdbebfbgbhbibjbkblbmbnbobpbqbrbsbtbubvbwbxbybzbAbBbCbDbEbFbGbHbIbJbKbLbMbNbObPbQbRbSbTbUbVbWbXbYbZb0b1b2b3b4b5b6b7b8b9b.b+cacbcccdcecfcgchcicjckclcmcncocpcqcrcsctcucvcwcxcyczcAcBcCcDcEcFcGcHcIcJcKcLcMcNcOcPcQcRcScTcUcVcWcXcYcZc0c1c2c3c4c5c6c7c8c9c.c+dadbdcdddedfdgdhdidjdkdldmdndodpdqdrdsdtdudvdwdxdydzdAdBdCdDdEdFdGdHdIdJdKdLdMdNdOdPdQdRdSdTdUdVdWdXdYdZd0d1d2d3d4d5d6d7d8d9d.d+eaebecedeeefegeheiejekelemeneoepeqereseteuevewexeyezeAeBeCeDeEeFeGeHeIeJeKeLeMeNeOePeQeReSeTeUeVeWeXeYeZe0e1e2e3e4e5e6e7e8e9e.e+fafbfcfdfefffgfhfifjfkflfmfnfofpfqfrfsftfufvfwfxfyfzfAfBfCfDfEfFfGfHfIfJfKfLfMfNfOfPfQfRfSfTfUfVfWfXfYfZf0f1f2f3f4f5f6f7f8f9f.f+gagbgcgdgegfggghgigjgkglgmgngogpgqgrgsgtgugvgwgxgygzgAgBgCgDgEgFgGgHgIgJgKgLgMgNgOgPgQgRgSgTgUgVgWgXgYgZg0g1g2g3g4g5g6g7g8g9g.g+hahbhchdhehfhghhhihjhkhlhmhnhohphqhrhshthuhvhwhxhyhzhAhBhChDhEhFhGhHhIhJhKhLhMhNhOhPhQhRhShThUhVhWhXhYhZh0h1h2h3h4h5h6h7h8h9h.h+",
"aaabacadaeafagahaiajakalamanaoapaqarasatauavawaxayazaAaBaCaDaEaFaGaHaIaJaKaLaMaNaOaPaQaRaSaTaUaVaWaXaYaZa0a1a2a3a4a5a6a7a8a9a.a+babbbcbdbebfbgbhbibjbkblbmbnbobpbqbrbsbtbubvbwbxbybzbAbBbCbDbEbFbGbHbIbJbKbLbMbNbObPbQbRbSbTbUbVbWbXbYbZb0b1b2b3b4b5b6b7b8b9b.b+cacbcccdcecfcgchcicjckclcmcncocpcqcrcsctcucvcwcxcyczcAcBcCcDcEcFcGcHcIcJcKcLcMcNcOcPcQcRcScTcUcVcWcXcYcZc0c1c2c3c4c5c6c7c8c9c.c+dadbdcdddedfdgdhdidjdkdldmdndodpdqdrdsdtdudvdwdxdydzdAdBdCdDdEdFdGdHdIdJdKdLdMdNdOdPdQdRdSdTdUdVdWdXdYdZd0d1d2d3d4d5d6d7d8d9d.d+eaebecedeeefegeheiejekelemeneoepeqereseteuevewexeyezeAeBeCeDeEeFeGeHeIeJeKeLeMeNeOePeQeReSeTeUeVeWeXeYeZe0e1e2e3e4e5e6e7e8e9e.e+fafbfcfdfefffgfhfifjfkflfmfnfofpfqfrfsftfufvfwfxfyfzfAfBfCfDfEfFfGfHfIfJfKfLfMfNfOfPfQfRfSfTfUfVfWfXfYfZf0f1f2f3f4f5f6f7f8f9f.f+gagbgcgdgegfggghgigjgkglgmgngogpgqgrgsgtgugvgwgxgygzgAgBgCgDgEgFgGgHgIgJgKgLgMgNgOgPgQgRgSgTgUgVgWgXgYgZg0g1g2g3g4g5g6g7g8g9g.g+hahbhchdhehfhghhhihjhkhlhmhnhohphqhrhshthuhvhwhxhyhzhAhBhChDhEhFhGhHhIhJhKhLhMhNhOhPhQhRhShThUhVhWhXhYhZh0h1h2h3h4h5h6h7h8h9h.h+",
"aaabacadaeafagahaiajakalamanaoapaqarasatauavawaxayazaAaBaCaDaEaFaGaHaIaJaKaLaMaNaOaPaQaRaSaTaUaVaWaXaYaZa0a1a2a3a4a5a6a7a8a9a.a+babbbcbdbebfbgbhbibjbkblbmbnbobpbqbrbsbtbubvbwbxbybzbAbBbCbDbEbFbGbHbIbJbKbLbMbNbObPbQbRbSbTbUbVbWbXbYbZb0b1b2b3b4b5b6b7b8b9b.b+cacbcccdcecfcgchcicjckclcmcncocpcqcrcsctcucvcwcxcyczcAcBcCcDcEcFcGcHcIcJcKcLcMcNcOcPcQcRcScTcUcVcWcXcYcZc0c1c2c3c4c5c6c7c8c9c.c+dadbdcdddedfdgdhdidjdkdldmdndodpdqdrdsdtdudvdwdxdydzdAdBdCdDdEdFdGdHdIdJdKdLdMdNdOdPdQdRdSdTdUdVdWdXdYdZd0d1d2d3d4d5d6d7d8d9d.d+eaebecedeeefegeheiejekelemeneoepeqereseteuevewexeyezeAeBeCeDeEeFeGeHeIeJeKeLeMeNeOePeQeReSeTeUeVeWeXeYeZe0e1e2e3e4e5e6e7e8e9e.e+fafbfcfdfefffgfhfifjfkflfmfnfofpfqfrfsftfufvfwfxfyfzfAfBfCfDfEfFfGfHfIfJfKfLfMfNfOfPfQfRfSfTfUfVfWfXfYfZf0f1f2f3f4f5f6f7f8f9f.f+gagbgcgdgegfggghgigjgkglgmgngogpgqgrgsgtgugvgwgxgygzgAgBgCgDgEgFgGgHgIgJgKgLgMgNgOgPgQgRgSgTgUgVgWgXgYgZg0g1g2g3g4g5g6g7g8g9g.g+hahbhchdhehfhghhhihjhkhlhmhnhohphqhrhshthuhvhwhxhyhzhAhBhChDhEhFhGhHhIhJhKhLhMhNhOhPhQhRhShThUhVhWhXhYhZh0h1h2h3h4h5h6h7h8h9h.h+",
"aaabacadaeafagahaiajakalamanaoapaqarasatauavawaxayazaAaBaCaDaEaFaGaHaIaJaKaLaMaNaOaPaQaRaSaTaUaVaWaXaYaZa0a1a2a3a4a5a6a7a8a9a.a+babbbcbdbebfbgbhbibjbkblbmbnbobpbqbrbsbtbubvbwbxbybzbAbBbCbDbEbFbGbHbIbJbKbLbMbNbObPbQbRbSbTbUbVbWbXbYbZb0b1b2b3b4b5b6b7b8b9b.b+cacbcccdcecfcgchcicjckclcmcncocpcqcrcsctcucvcwcxcyczcAcBcCcDcEcFcGcHcIcJcKcLcMcNcOcPcQcRcScTcUcVcWcXcYcZc0c1c2c3c4c5c6c7c8c9c.c+dadbdcdddedfdgdhdidjdkdldmdndodpdqdrdsdtdudvdwdxdydzdAdBdCdDdEdFdGdHdIdJdKdLdMdNdOdPdQdRdSdTdUdVdWdXdYdZd0d1d2d3d4d5d6d7d8d9d.d+eaebecedeeefegeheiejekelemeneoepeqereseteuevewexeyezeAeBeCeDeEeFeGeHeIeJeKeLeMeNeOePeQeReSeTeUeVeWeXeYeZe0e1e2e3e4e5e6e7e8e9e.e+fafbfcfdfefffgfhfifjfkflfmfnfofpfqfrfsftfufvfwfxfyfzfAfBfCfDfEfFfGfHfIfJfKfLfMfNfOfPfQfRfSfTfUfVfWfXfYfZf0f1f2f3f4f5f6f7f8f9f.f+gagbgcgdgegfggghgigjgkglgmgngogpgqgrgsgtgugvgwgxgygzgAgBgCgDgEgFgGgHgIgJgKgLgMgNgOgPgQgRgSgTgUgVgWgXgYgZg0g1g2g3g4g5g6g7g8g9g.g+hahbhchdhehfhghhhihjhkhlhmhnhohphqhrhshthuhvhwhxhyhzhAhBhChDhEhFhGhHhIhJhKhLhMhNhOhPhQhRhShThUhVhWhXhYhZh0h1h2h3h4h5h6h7h8h9h.h+",
"aaabacadaeafagahaiajakalamanaoapaqarasatauavawaxayazaAaBaCaDaEaFaGaHaIaJaKaLaMaNaOaPaQaRaSaTaUaVaWaXaYaZa0a1a2a3a4a5a6a7a8a9a.a+babbbcbdbebfbgbhbibjbkblbmbnbobpbqbrbsbtbubvbwbxbybzbAbBbCbDbEbFbGbHbIbJbKbLbMbNbObPbQbRbSbTbUbVbWbXbYbZb0b1b2b3b4b5b6b7b8b9b.b+cacbcccdcecfcgchcicjckclcmcncocpcqcrcsctcucvcwcxcyczcAcBcCcDcEcFcGcHcIcJcKcLcMcNcOcPcQcRcScTcUcVcWcXcYcZc0c1c2c3c4c5c6c7c8c9c.c+dadbdcdddedfdgdhdidjdkdldmdndodpdqdrdsdtdudvdwdxdydzdAdBdCdDdEdFdGdHdIdJdKdLdMdNdOdPdQdRdSdTdUdVdWdXdYdZd0d1d2d3d4d5d6d7d8d9d.d+eaebecedeeefegeheiejekelemeneoepeqereseteuevewexeyezeAeBeCeDeEeFeGeHeIeJeKeLeMeNeOePeQeReSeTeUeVeWeXeYeZe0e1e2e3e4e5e6e7e8e9e.e+fafbfcfdfefffgfhfifjfkflfmfnfofpfqfrfsftfufvfwfxfyfzfAfBfCfDfEfFfGfHfIfJfKfLfMfNfOfPfQfRfSfTfUfVfWfXfYfZf0f1f2f3f4f5f6f7f8f9f.f+gagbgcgdgegfggghgigjgkglgmgngogpgqgrgsgtgugvgwgxgygzgAgBgCgDgEgFgGgHgIgJgKgLgMgNgOgPgQgRgSgTgUgVgWgXgYgZg0g1g2g3g4g5g6g7g8g9g.g+hahbhchdhehfhghhhihjhkhlhmhnhohphqhrhshthuhvhwhxhyhzhAhBhChDhEhFhGhHhIhJhKhLhMhNhOhPhQhRhShThUhVhWhXhYhZh0h1h2h3h4h5h6h7h8h9h.h+",
"aaabacadaeafagahaiajakalamanaoapaqarasatauavawaxayazaAaBaCaDaEaFaGaHaIaJaKaLaMaNaOaPaQaRaSaTaUaVaWaXaYaZa0a1a2a3a4a5a6a7a8a9a.a+babbbcbdbebfbgbhbibjbkblbmbnbobpbqbrbsbtbubvbwbxbybzbAbBbCbDbEbFbGbHbIbJbKbLbMbNbObPbQbRbSbTbUbVbWbXbYbZb0b1b2b3b4b5b6b7b8b9b.b+cacbcccdcecfcgchcicjckclcmcncocpcqcrcsctcucvcwcxcyczcAcBcCcDcEcFcGcHcIcJcKcLcMcNcOcPcQcRcScTcUcVcWcXcYcZc0c1c2c3c4c5c6c7c8c9c.c+dadbdcdddedfdgdhdidjdkdldmdndodpdqdrdsdtdudvdwdxdydzdAdBdCdDdEdFdGdHdIdJdKdLdMdNdOdPdQdRdSdTdUdVdWdXdYdZd0d1d2d3d4d5d6d7d8d9d.d+eaebecedeeefegeheiejekelemeneoepeqereseteuevewexeyezeAeBeCeDeEeFeGeHeIeJeKeLeMeNeOePeQeReSeTeUeVeWeXeYeZe0e1e2e3e4e5e6e7e8e9e.e+fafbfcfdfefffgfhfifjfkflfmfnfofpfqfrfsftfufvfwfxfyfzfAfBfCfDfEfFfGfHfIfJfKfLfMfNfOfPfQfRfSfTfUfVfWfXfYfZf0f1f2f3f4f5f6f7f8f9f.f+gagbgcgdgegfggghgigjgkglgmgngogpgqgrgsgtgugvgwgxgygzgAgBgCgDgEgFgGgHgIgJgKgLgMgNgOgPgQgRgSgTgUgVgWgXgYgZg0g1g2g3g4g5g6g7g8g9g.g+hahbhchdhehfhghhhihjhkhlhmhnhohphqhrhshthuhvhwhxhyhzhAhBhChDhEhFhGhHhIhJhKhLhMhNhOhPhQhRhShThUhVhWhXhYhZh0h1h2h3h4h5h6h7h8h9h.h+",
"aaabacadaeafagahaiajakalamanaoapaqarasatauavawaxayazaAaBaCaDaEaFaGaHaIaJaKaLaMaNaOaPaQaRaSaTaUaVaWaXaYaZa0a1a2a3a4a5a6a7a8a9a.a+babbbcbdbebfbgbhbibjbkblbmbnbobpbqbrbsbtbubvbwbxbybzbAbBbCbDbEbFbGbHbIbJbKbLbMbNbObPbQbRbSbTbUbVbWbXbYbZb0b1b2b3b4b5b6b7b8b9b.b+cacbcccdcecfcgchcicjckclcmcncocpcqcrcsctcucvcwcxcyczcAcBcCcDcEcFcGcHcIcJcKcLcMcNcOcPcQcRcScTcUcVcWcXcYcZc0c1c2c3c4c5c6c7c8c9c.c+dadbdcdddedfdgdhdidjdkdldmdndodpdqdrdsdtdudvdwdxdydzdAdBdCdDdEdFdGdHdIdJdKdLdMdNdOdPdQdRdSdTdUdVdWdXdYdZd0d1d2d3d4d5d6d7d8d9d.d+eaebecedeeefegeheiejekelemeneoepeqereseteuevewexeyezeAeBeCeDeEeFeGeHeIeJeKeLeMeNeOePeQeReSeTeUeVeWeXeYeZe0e1e2e3e4e5e6e7e8e9e.e+fafbfcfdfefffgfhfifjfkflfmfnfofpfqfrfsftfufvfwfxfyfzfAfBfCfDfEfFfGfHfIfJfKfLfMfNfOfPfQfRfSfTfUfVfWfXfYfZf0f1f2f3f4f5f6f7f8f9f.f+gagbgcgdgegfggghgigjgkglgmgngogpgqgrgsgtgugvgwgxgygzgAgBgCgDgEgFgGgHgIgJgKgLgMgNgOgPgQgRgSgTgUgVgWgXgYgZg0g1g2g3g4g5g6g7g8g9g.g+hahbhchdhehfhghhhihjhkhlhmhnhohphqhrhshthuhvhwhxhyhzhAhBhChDhEhFhGhHhIhJhKhLhMhNhOhPhQhRhShThUhVhWhXhYhZh0h1h2h3h4h5h6h7h8h9h.h+",
"aaabacadaeafagahaiajakalamanaoapaqarasatauavawaxayazaAaBaCaDaEaFaGaHaIaJaKaLaMaNaOaPaQaRaSaTaUaVaWaXaYaZa0a1a2a3a4a5a6a7a8a9a.a+babbbcbdbebfbgbhbibjbkblbmbnbobpbqbrbsbtbubvbwbxbybzbAbBbCbDbEbFbGbHbIbJbKbLbMbNbObPbQbRbSbTbUbVbWbXbYbZb0b1b2b3b4b5b6b7b8b9b.b+cacbcccdcecfcgchcicjckclcmcncocpcqcrcsctcucvcwcxcyczcAcBcCcDcEcFcGcHcIcJcKcLcMcNcOcPcQcRcScTcUcVcWcXcYcZc0c1c2c3c4c5c6c7c8c9c.c+dadbdcdddedfdgdhdidjdkdldmdndodpdqdrdsdtdudvdwdxdydzdAdBdCdDdEdFdGdHdIdJdKdLdMdNdOdPdQdRdSdTdUdVdWdXdYdZd0d1d2d3d4d5d6d7d8d9d.d+eaebecedeeefegeheiejekelemeneoepeqereseteuevewexeyezeAeBeCeDeEeFeGeHeIeJeKeLeMeNeOePeQeReSeTeUeVeWeXeYeZe0e1e2e3e4e5e6e7e8e9e.e+fafbfcfdfefffgfhfifjfkflfmfnfofpfqfrfsftfufvfwfxfyfzfAfBfCfDfEfFfGfHfIfJfKfLfMfNfOfPfQfRfSfTfUfVfWfXfYfZf0f1f2f3f4f5f6f7f8f9f.f+gagbgcgdgegfggghgigjgkglgmgngogpgqgrgsgtgugvgwgxgygzgAgBgCgDgEgFgGgHgIgJgKgLgMgNgOgPgQgRgSgTgUgVgWgXgYgZg0g1g2g3g4g5g6g7g8g9g.g+hahbhchdhehfhghhhihjhkhlhmhnhohphqhrhshthuhvhwhxhyhzhAhBhChDhEhFhGhHhIhJhKhLhMhNhOhPhQhRhShThUhVhWhXhYhZh0h1h2h3h4h5h6h7h8h9h.h+",
"aaabacadaeafagahaiajakalamanaoapaqarasatauavawaxayazaAaBaCaDaEaFaGaHaIaJaKaLaMaNaOaPaQaRaSaTaUaVaWaXaYaZa0a1a2a3a4a5a6a7a8a9a.a+babbbcbdbebfbgbhbibjbkblbmbnbobpbqbrbsbtbubvbwbxbybzbAbBbCbDbEbFbGbHbIbJbKbLbMbNbObPbQbRbSbTbUbVbWbXbYbZb0b1b2b3b4b5b6b7b8b9b.b+cacbcccdcecfcgchcicjckclcmcncocpcqcrcsctcucvcwcxcyczcAcBcCcDcEcFcGcHcIcJcKcLcMcNcOcPcQcRcScTcUcVcWcXcYcZc0c1c2c3c4c5c6c7c8c9c.c+dadbdcdddedfdgdhdidjdkdldmdndodpdqdrdsdtdudvdwdxdydzdAdBdCdDdEdFdGdHdIdJdKdLdMdNdOdPdQdRdSdTdUdVdWdXdYdZd0d1d2d3d4d5d6d7d8d9d.d+eaebecedeeefegeheiejekelemeneoepeqereseteuevewexeyezeAeBeCeDeEeFeGeHeIeJeKeLeMeNeOePeQeReSeTeUeVeWeXeYeZe0e1e2e3e4e5e6e7e8e9e.e+fafbfcfdfefffgfhfifjfkflfmfnfofpfqfrfsftfufvfwfxfyfzfAfBfCfDfEfFfGfHfIfJfKfLfMfNfOfPfQfRfSfTfUfVfWfXfYfZf0f1f2f3f4f5f6f7f8f9f.f+gagbgcgdgegfggghgigjgkglgmgngogpgqgrgsgtgugvgwgxgygzgAgBgCgDgEgFgGgHgIgJgKgLgMgNgOgPgQgRgSgTgUgVgWgXgYgZg0g1g2g3g4g5g6g7g8g9g.g+hahbhchdhehfhghhhihjhkhlhmhnhohphqhrhshthuhvhwhxhyhzhAhBhChDhEhFhGhHhIhJhKhLhMhNhOhPhQhRhShThUhVhWhXhYhZh0h1h2h3h4h5h6h7h8h9h.h+",
"aaabacadaeafagahaiajakalamanaoapaqarasatauavawaxayazaAaBaCaDaEaFaGaHaIaJaKaLaMaNaOaPaQaRaSaTaUaVaWaXaYaZa0a1a2a3a4a5a6a7a8a9a.a+babbbcbdbebfbgbhbibjbkblbmbnbobpbqbrbsbtbubvbwbxbybzbAbBbCbDbEbFbGbHbIbJbKbLbMbNbObPbQbRbSbTbUbVbWbXbYbZb0b1b2b3b4b5b6b7b8b9b.b+cacbcccdcecfcgchcicjckclcmcncocpcqcrcsctcucvcwcxcyczcAcBcCcDcEcFcGcHcIcJcKcLcMcNcOcPcQcRcScTcUcVcWcXcYcZc0c1c2c3c4c5c6c7c8c9c.c+dadbdcdddedfdgdhdidjdkdldmdndodpdqdrdsdtdudvdwdxdydzdAdBdCdDdEdFdGdHdIdJdKdLdMdNdOdPdQdRdSdTdUdVdWdXdYdZd0d1d2d3d4d5d6d7d8d9d.d+eaebecedeeefegeheiejekelemeneoepeqereseteuevewexeyezeAeBeCeDeEeFeGeHeIeJeKeLeMeNeOePeQeReSeTeUeVeWeXeYeZe0e1e2e3e4e5e6e7e8e9e.e+fafbfcfdfefffgfhfifjfkflfmfnfofpfqfrfsftfufvfwfxfyfzfAfBfCfDfEfFfGfHfIfJfKfLfMfNfOfPfQfRfSfTfUfVfWfXfYfZf0f1f2f3f4f5f6f7f8f9f.f+gagbgcgdgegfggghgigjgkglgmgngogpgqgrgsgtgugvgwgxgygzgAgBgCgDgEgFgGgHgIgJgKgLgMgNgOgPgQgRgSgTgUgVgWgXgYgZg0g1g2g3g4g5g6g7g8g9g.g+hahbhchdhehfhghhhihjhkhlhmhnhohphqhrhshthuhvhwhxhyhzhAhBhChDhEhFhGhHhIhJhKhLhMhNhOhPhQhRhShThUhVhWhXhYhZh0h1h2h3h4h5h6h7h8h9h.h+",
"aaabacadaeafagahaiajakalamanaoapaqarasatauavawaxayazaAaBaCaDaEaFaGaHaIaJaKaLaMaNaOaPaQaRaSaTaUaVaWaXaYaZa0a1a2a3a4a5a6a7a8a9a.a+babbbcbdbebfbgbhbibjbkblbmbnbobpbqbrbsbtbubvbwbxbybzbAbBbCbDbEbFbGbHbIbJbKbLbMbNbObPbQbRbSbTbUbVbWbXbYbZb0b1b2b3b4b5b6b7b8b9b.b+cacbcccdcecfcgchcicjckclcmcncocpcqcrcsctcucvcwcxcyczcAcBcCcDcEcFcGcHcIcJcKcLcMcNcOcPcQcRcScTcUcVcWcXcYcZc0c1c2c3c4c5c6c7c8c9c.c+dadbdcdddedfdgdhdidjdkdldmdndodpdqdrdsdtdudvdwdxdydzdAdBdCdDdEdFdGdHdIdJdKdLdMdNdOdPdQdRdSdTdUdVdWdXdYdZd0d1d2d3d4d5d6d7d8d9d.d+eaebecedeeefegeheiejekelemeneoepeqereseteuevewexeyezeAeBeCeDeEeFeGeHeIeJeKeLeMeNeOePeQeReSeTeUeVeWeXeYeZe0e1e2e3e4e5e6e7e8e9e.e+fafbfcfdfefffgfhfifjfkflfmfnfofpfqfrfsftfufvfwfxfyfzfAfBfCfDfEfFfGfHfIfJfKfLfMfNfOfPfQfRfSfTfUfVfWfXfYfZf0f1f2f3f4f5f6f7f8f9f.f+gagbgcgdgegfggghgigjgkglgmgngogpgqgrgsgtgugvgwgxgygzgAgBgCgDgEgFgGgHgIgJgKgLgMgNgOgPgQgRgSgTgUgVgWgXgYgZg0g1g2g3g4g5g6g7g8g9g.g+hahbhchdhehfhghhhihjhkhlhmhnhohphqhrhshthuhvhwhxhyhzhAhBhChDhEhFhGhHhIhJhKhLhMhNhOhPhQhRhShThUhVhWhXhYhZh0h1h2h3h4h5h6h7h8h9h.h+",
"aaabacadaeafagahaiajakalamanaoapaqarasatauavawaxayazaAaBaCaDaEaFaGaHaIaJaKaLaMaNaOaPaQaRaSaTaUaVaWaXaYaZa0a1a2a3a4a5a6a7a8a9a.a+babbbcbdbebfbgbhbibjbkblbmbnbobpbqbrbsbtbubvbwbxbybzbAbBbCbDbEbFbGbHbIbJbKbLbMbNbObPbQbRbSbTbUbVbWbXbYbZb0b1b2b3b4b5b6b7b8b9b.b+cacbcccdcecfcgchcicjckclcmcncocpcqcrcsctcucvcwcxcyczcAcBcCcDcEcFcGcHcIcJcKcLcMcNcOcPcQcRcScTcUcVcWcXcYcZc0c1c2c3c4c5c6c7c8c9c.c+dadbdcdddedfdgdhdidjdkdldmdndodpdqdrdsdtdudvdwdxdydzdAdBdCdDdEdFdGdHdIdJdKdLdMdNdOdPdQdRdSdTdUdVdWdXdYdZd0d1d2d3d4d5d6d7d8d9d.d+eaebecedeeefegeheiejekelemeneoepeqereseteuevewexeyezeAeBeCeDeEeFeGeHeIeJeKeLeMeNeOePeQeReSeTeUeVeWeXeYeZe0e1e2e3e4e5e6e7e8e9e.e+fafbfcfdfefffgfhfifjfkflfmfnfofpfqfrfsftfufvfwfxfyfzfAfBfCfDfEfFfGfHfIfJfKfLfMfNfOfPfQfRfSfTfUfVfWfXfYfZf0f1f2f3f4f5f6f7f8f9f.f+gagbgcgdgegfggghgigjgkglgmgngogpgqgrgsgtgugvgwgxgygzgAgBgCgDgEgFgGgHgIgJgKgLgMgNgOgPgQgRgSgTgUgVgWgXgYgZg0g1g2g3g4g5g6g7g8g9g.g+hahbhchdhehfhghhhihjhkhlhmhnhohphqhrhshthuhvhwhxhyhzhAhBhChDhEhFhGhHhIhJhKhLhMhNhOhPhQhRhShThUhVhWhXhYhZh0h1h2h3h4h5h6h7h8h9h.h+",
"aaabacadaeafagahaiajakalamanaoapaqarasatauavawaxayazaAaBaCaDaEaFaGaHaIaJaKaLaMaNaOaPaQaRaSaTaUaVaWaXaYaZa0a1a2a3a4a5a6a7a8a9a.a+babbbcbdbebfbgbhbibjbkblbmbnbobpbqbrbsbtbubvbwbxbybzbAbBbCbDbEbFbGbHbIbJbKbLbMbNbObPbQbRbSbTbUbVbWbXbYbZb0b1b2b3b4b5b6b7b8b9b.b+cacbcccdcecfcgchcicjckclcmcncocpcqcrcsctcucvcwcxcyczcAcBcCcDcEcFcGcHcIcJcKcLcMcNcOcPcQcRcScTcUcVcWcXcYcZc0c1c2c3c4c5c6c7c8c9c.c+dadbdcdddedfdgdhdidjdkdldmdndodpdqdrdsdtdudvdwdxdydzdAdBdCdDdEdFdGdHdIdJdKdLdMdNdOdPdQdRdSdTdUdVdWdXdYdZd0d1d2d3d4d5d6d7d8d9d.d+eaebecedeeefegeheiejekelemeneoepeqereseteuevewexeyezeAeBeCeDeEeFeGeHeIeJeKeLeMeNeOePeQeReSeTeUeVeWeXeYeZe0e1e2e3e4e5e6e7e8e9e.e+fafbfcfdfefffgfhfifjfkflfmfnfofpfqfrfsftfufvfwfxfyfzfAfBfCfDfEfFfGfHfIfJfKfLfMfNfOfPfQfRfSfTfUfVfWfXfYfZf0f1f2f3f4f5f6f7f8f9f.f+gagbgcgdgegfggghgigjgkglgmgngogpgqgrgsgtgugvgwgxgygzgAgBgCgDgEgFgGgHgIgJgKgLgMgNgOgPgQgRgSgTgUgVgWgXgYgZg0g1g2g3g4g5g6g7g8g9g.g+hahbhchdhehfhghhhihjhkhlhmhnhohphqhrhshthuhvhwhxhyhzhAhBhChDhEhFhGhHhIhJhKhLhMhNhOhPhQhRhShThUhVhWhXhYhZh0h1h2h3h4h5h6h7h8h9h.h+",
"aaabacadaeafagahaiajakalamanaoapaqarasatauavawaxayazaAaBaCaDaEaFaGaHaIaJaKaLaMaNaOaPaQaRaSaTaUaVaWaXaYaZa0a1a2a3a4a5a6a7a8a9a.a+babbbcbdbebfbgbhbibjbkblbmbnbobpbqbrbsbtbubvbwbxbybzbAbBbCbDbEbFbGbHbIbJbKbLbMbNbObPbQbRbSbTbUbVbWbXbYbZb0b1b2b3b4b5b6b7b8b9b.b+cacbcccdcecfcgchcicjckclcmcncocpcqcrcsctcucvcwcxcyczcAcBcCcDcEcFcGcHcIcJcKcLcMcNcOcPcQcRcScTcUcVcWcXcYcZc0c1c2c3c4c5c6c7c8c9c.c+dadbdcdddedfdgdhdidjdkdldmdndodpdqdrdsdtdudvdwdxdydzdAdBdCdDdEdFdGdHdIdJdKdLdMdNdOdPdQdRdSdTdUdVdWdXdYdZd0d1d2d3d4d5d6d7d8d9d.d+eaebecedeeefegeheiejekelemeneoepeqereseteuevewexeyezeAeBeCeDeEeFeGeHeIeJeKeLeMeNeOePeQeReSeTeUeVeWeXeYeZe0e1e2e3e4e5e6e7e8e9e.e+fafbfcfdfefffgfhfifjfkflfmfnfofpfqfrfsftfufvfwfxfyfzfAfBfCfDfEfFfGfHfIfJfKfLfMfNfOfPfQfRfSfTfUfVfWfXfYfZf0f1f2f3f4f5f6f7f8f9f.f+gagbgcgdgegfggghgigjgkglgmgngogpgqgrgsgtgugvgwgxgygzgAgBgCgDgEgFgGgHgIgJgKgLgMgNgOgPgQgRgSgTgUgVgWgXgYgZg0g1g2g3g4g5g6g7g8g9g.g+hahbhchdhehfhghhhihjhkhlhmhnhohphqhrhshthuhvhwhxhyhzhAhBhChDhEhFhGhHhIhJhKhLhMhNhOhPhQhRhShThUhVhWhXhYhZh0h1h2h3h4h5h6h7h8h9h.h+",
"aaabacadaeafagahaiajakalamanaoapaqarasatauavawaxayazaAaBaCaDaEaFaGaHaIaJaKaLaMaNaOaPaQaRaSaTaUaVaWaXaYaZa0a1a2a3a4a5a6a7a8a9a.a+babbbcbdbebfbgbhbibjbkblbmbnbobpbqbrbsbtbubvbwbxbybzbAbBbCbDbEbFbGbHbIbJbKbLbMbNbObPbQbRbSbTbUbVbWbXbYbZb0b1b2b3b4b5b6b7b8b9b.b+cacbcccdcecfcgchcicjckclcmcncocpcqcrcsctcucvcwcxcyczcAcBcCcDcEcFcGcHcIcJcKcLcMcNcOcPcQcRcScTcUcVcWcXcYcZc0c1c2c3c4c5c6c7c8c9c.c+dadbdcdddedfdgdhdidjdkdldmdndodpdqdrdsdtdudvdwdxdydzdAdBdCdDdEdFdGdHdIdJdKdLdMdNdOdPdQdRdSdTdUdVdWdXdYdZd0d1d2d3d4d5d6d7d8d9d.d+eaebecedeeefegeheiejekelemeneoepeqereseteuevewexeyezeAeBeCeDeEeFeGeHeIeJeKeLeMeNeOePeQeReSeTeUeVeWeXeYeZe0e1e2e3e4e5e6e7e8e9e.e+fafbfcfdfefffgfhfifjfkflfmfnfofpfqfrfsftfufvfwfxfyfzfAfBfCfDfEfFfGfHfIfJfKfLfMfNfOfPfQfRfSfTfUfVfWfXfYfZf0f1f2f3f4f5f6f7f8f9f.f+gagbgcgdgegfggghgigjgkglgmgngogpgqgrgsgtgugvgwgxgygzgAgBgCgDgEgFgGgHgIgJgKgLgMgNgOgPgQgRgSgTgUgVgWgXgYgZg0g1g2g3g4g5g6g7g8g9g.g+hahbhchdhehfhghhhihjhkhlhmhnhohphqhrhshthuhvhwhxhyhzhAhBhChDhEhFhGhHhIhJhKhLhMhNhOhPhQhRhShThUhVhWhXhYhZh0h1h2h3h4h5h6h7h8h9h.h+",
"aaabacadaeafagahaiajakalamanaoapaqarasatauavawaxayazaAaBaCaDaEaFaGaHaIaJaKaLaMaNaOaPaQaRaSaTaUaVaWaXaYaZa0a1a2a3a4a5a6a7a8a9a.a+babbbcbdbebfbgbhbibjbkblbmbnbobpbqbrbsbtbubvbwbxbybzbAbBbCbDbEbFbGbHbIbJbKbLbMbNbObPbQbRbSbTbUbVbWbXbYbZb0b1b2b3b4b5b6b7b8b9b.b+cacbcccdcecfcgchcicjckclcmcncocpcqcrcsctcucvcwcxcyczcAcBcCcDcEcFcGcHcIcJcKcLcMcNcOcPcQcRcScTcUcVcWcXcYcZc0c1c2c3c4c5c6c7c8c9c.c+dadbdcdddedfdgdhdidjdkdldmdndodpdqdrdsdtdudvdwdxdydzdAdBdCdDdEdFdGdHdIdJdKdLdMdNdOdPdQdRdSdTdUdVdWdXdYdZd0d1d2d3d4d5d6d7d8d9d.d+eaebecedeeefegeheiejekelemeneoepeqereseteuevewexeyezeAeBeCeDeEeFeGeHeIeJeKeLeMeNeOePeQeReSeTeUeVeWeXeYeZe0e1e2e3e4e5e6e7e8e9e.e+fafbfcfdfefffgfhfifjfkflfmfnfofpfqfrfsftfufvfwfxfyfzfAfBfCfDfEfFfGfHfIfJfKfLfMfNfOfPfQfRfSfTfUfVfWfXfYfZf0f1f2f3f4f5f6f7f8f9f.f+gagbgcgdgegfggghgigjgkglgmgngogpgqgrgsgtgugvgwgxgygzgAgBgCgDgEgFgGgHgIgJgKgLgMgNgOgPgQgRgSgTgUgVgWgXgYgZg0g1g2g3g4g5g6g7g8g9g.g+hahbhchdhehfhghhhihjhkhlhmhnhohphqhrhshthuhvhwhxhyhzhAhBhChDhEhFhGhHhIhJhKhLhMhNhOhPhQhRhShThUhVhWhXhYhZh0h1h2h3h4h5h6h7h8h9h.h+",
"aaabacadaeafagahaiajakalamanaoapaqarasatauavawaxayazaAaBaCaDaEaFaGaHaIaJaKaLaMaNaOaPaQaRaSaTaUaVaWaXaYaZa0a1a2a3a4a5a6a7a8a9a.a+babbbcbdbebfbgbhbibjbkblbmbnbobpbqbrbsbtbubvbwbxbybzbAbBbCbDbEbFbGbHbIbJbKbLbMbNbObPbQbRbSbTbUbVbWbXbYbZb0b1b2b3b4b5b6b7b8b9b.b+cacbcccdcecfcgchcicjckclcmcncocpcqcrcsctcucvcwcxcyczcAcBcCcDcEcFcGcHcIcJcKcLcMcNcOcPcQcRcScTcUcVcWcXcYcZc0c1c2c3c4c5c6c7c8c9c.c+dadbdcdddedfdgdhdidjdkdldmdndodpdqdrdsdtdudvdwdxdydzdAdBdCdDdEdFdGdHdIdJdKdLdMdNdOdPdQdRdSdTdUdVdWdXdYdZd0d1d2d3d4d5d6d7d8d9d.d+eaebecedeeefegeheiejekelemeneoepeqereseteuevewexeyezeAeBeCeDeEeFeGeHeIeJeKeLeMeNeOePeQeReSeTeUeVeWeXeYeZe0e1e2e3e4e5e6e7e8e9e.e+fafbfcfdfefffgfhfifjfkflfmfnfofpfqfrfsftfufvfwfxfyfzfAfBfCfDfEfFfGfHfIfJfKfLfMfNfOfPfQfRfSfTfUfVfWfXfYfZf0f1f2f3f4f5f6f7f8f9f.f+gagbgcgdgegfggghgigjgkglgmgngogpgqgrgsgtgugvgwgxgygzgAgBgCgDgEgFgGgHgIgJgKgLgMgNgOgPgQgRgSgTgUgVgWgXgYgZg0g1g2g3g4g5g6g7g8g9g.g+hahbhchdhehfhghhhihjhkhlhmhnhohphqhrhshthuhvhwhxhyhzhAhBhChDhEhFhGhHhIhJhKhLhMhNhOhPhQhRhShThUhVhWhXhYhZh0h1h2h3h4h5h6h7h8h9h.h+",
"aaabacadaeafagahaiajakalamanaoapaqarasatauavawaxayazaAaBaCaDaEaFaGaHaIaJaKaLaMaNaOaPaQaRaSaTaUaVaWaXaYaZa0a1a2a3a4a5a6a7a8a9a.a+babbbcbdbebfbgbhbibjbkblbmbnbobpbqbrbsbtbubvbwbxbybzbAbBbCbDbEbFbGbHbIbJbKbLbMbNbObPbQbRbSbTbUbVbWbXbYbZb0b1b2b3b4b5b6b7b8b9b.b+cacbcccdcecfcgchcicjckclcmcncocpcqcrcsctcucvcwcxcyczcAcBcCcDcEcFcGcHcIcJcKcLcMcNcOcPcQcRcScTcUcVcWcXcYcZc0c1c2c3c4c5c6c7c8c9c.c+dadbdcdddedfdgdhdidjdkdldmdndodpdqdrdsdtdudvdwdxdydzdAdBdCdDdEdFdGdHdIdJdKdLdMdNdOdPdQdRdSdTdUdVdWdXdYdZd0d1d2d3d4d5d6d7d8d9d.d+eaebecedeeefegeheiejekelemeneoepeqereseteuevewexeyezeAeBeCeDeEeFeGeHeIeJeKeLeMeNeOePeQeReSeTeUeVeWeXeYeZe0e1e2e3e4e5e6e7e8e9e.e+fafbfcfdfefffgfhfifjfkflfmfnfofpfqfrfsftfufvfwfxfyfzfAfBfCfDfEfFfGfHfIfJfKfLfMfNfOfPfQfRfSfTfUfVfWfXfYfZf0f1f2f3f4f5f6f7f8f9f.f+gagbgcgdgegfggghgigjgkglgmgngogpgqgrgsgtgugvgwgxgygzgAgBgCgDgEgFgGgHgIgJgKgLgMgNgOgPgQgRgSgTgUgVgWgXgYgZg0g1g2g3g4g5g6g7g8g9g.g+hahbhchdhehfhghhhihjhkhlhmhnhohphqhrhshthuhvhwhxhyhzhAhBhChDhEhFhGhHhIhJhKhLhMhNhOhPhQhRhShThUhVhWhXhYhZh0h1h2h3h4h5h6h7h8h9h.h+",
"aaabacadaeafagahaiajakalamanaoapaqarasatauavawaxayazaAaBaCaDaEaFaGaHaIaJaKaLaMaNaOaPaQaRaSaTaUaVaWaXaYaZa0a1a2a3a4a5a6a7a8a9a.a+babbbcbdbebfbgbhbibjbkblbmbnbobpbqbrbsbtbubvbwbxbybzbAbBbCbDbEbFbGbHbIbJbKbLbMbNbObPbQbRbSbTbUbVbWbXbYbZb0b1b2b3b4b5b6b7b8b9b.b+cacbcccdcecfcgchcicjckclcmcncocpcqcrcsctcucvcwcxcyczcAcBcCcDcEcFcGcHcIcJcKcLcMcNcOcPcQcRcScTcUcVcWcXcYcZc0c1c2c3c4c5c6c7c8c9c.c+dadbdcdddedfdgdhdidjdkdldmdndodpdqdrdsdtdudvdwdxdydzdAdBdCdDdEdFdGdHdIdJdKdLdMdNdOdPdQdRdSdTdUdVdWdXdYdZd0d1d2d3d4d5d6d7d8d9d.d+eaebecedeeefegeheiejekelemeneoepeqereseteuevewexeyezeAeBeCeDeEeFeGeHeIeJeKeLeMeNeOePeQeReSeTeUeVeWeXeYeZe0e1e2e3e4e5e6e7e8e9e.e+fafbfcfdfefffgfhfifjfkflfmfnfofpfqfrfsftfufvfwfxfyfzfAfBfCfDfEfFfGfHfIfJfKfLfMfNfOfPfQfRfSfTfUfVfWfXfYfZf0f1f2f3f4f5f6f7f8f9f.f+gagbgcgdgegfggghgigjgkglgmgngogpgqgrgsgtgugvgwgxgygzgAgBgCgDgEgFgGgHgIgJgKgLgMgNgOgPgQgRgSgTgUgVgWgXgYgZg0g1g2g3g4g5g6g7g8g9g.g+hahbhchdhehfhghhhihjhkhlhmhnhohphqhrhshthuhvhwhxhyhzhAhBhChDhEhFhGhHhIhJhKhLhMhNhOhPhQhRhShThUhVhWhXhYhZh0h1h2h3h4h5h6h7h8h9h.h+",
"aaabacadaeafagahaiajakalamanaoapaqarasatauavawaxayazaAaBaCaDaEaFaGaHaIaJaKaLaMaNaOaPaQaRaSaTaUaVaWaXaYaZa0a1a2a3a4a5a6a7a8a9a.a+babbbcbdbebfbgbhbibjbkblbmbnbobpbqbrbsbtbubvbwbxbybzbAbBbCbDbEbFbGbHbIbJbKbLbMbNbObPbQbRbSbTbUbVbWbXbYbZb0b1b2b3b4b5b6b7b8b9b.b+cacbcccdcecfcgchcicjckclcmcncocpcqcrcsctcucvcwcxcyczcAcBcCcDcEcFcGcHcIcJcKcLcMcNcOcPcQcRcScTcUcVcWcXcYcZc0c1c2c3c4c5c6c7c8c9c.c+dadbdcdddedfdgdhdidjdkdldmdndodpdqdrdsdtdudvdwdxdydzdAdBdCdDdEdFdGdHdIdJdKdLdMdNdOdPdQdRdSdTdUdVdWdXdYdZd0d1d2d3d4d5d6d7d8d9d.d+eaebecedeeefegeheiejekelemeneoepeqereseteuevewexeyezeAeBeCeDeEeFeGeHeIeJeKeLeMeNeOePeQeReSeTeUeVeWeXeYeZe0e1e2e3e4e5e6e7e8e9e.e+fafbfcfdfefffgfhfifjfkflfmfnfofpfqfrfsftfufvfwfxfyfzfAfBfCfDfEfFfGfHfIfJfKfLfMfNfOfPfQfRfSfTfUfVfWfXfYfZf0f1f2f3f4f5f6f7f8f9f.f+gagbgcgdgegfggghgigjgkglgmgngogpgqgrgsgtgugvgwgxgygzgAgBgCgDgEgFgGgHgIgJgKgLgMgNgOgPgQgRgSgTgUgVgWgXgYgZg0g1g2g3g4g5g6g7g8g9g.g+hahbhchdhehfhghhhihjhkhlhmhnhohphqhrhshthuhvhwhxhyhzhAhBhChDhEhFhGhHhIhJhKhLhMhNhOhPhQhRhShThUhVhWhXhYhZh0h1h2h3h4h5h6h7h8h9h.h+",
"aaabacadaeafagahaiajakalamanaoapaqarasatauavawaxayazaAaBaCaDaEaFaGaHaIaJaKaLaMaNaOaPaQaRaSaTaUaVaWaXaYaZa0a1a2a3a4a5a6a7a8a9a.a+babbbcbdbebfbgbhbibjbkblbmbnbobpbqbrbsbtbubvbwbxbybzbAbBbCbDbEbFbGbHbIbJbKbLbMbNbObPbQbRbSbTbUbVbWbXbYbZb0b1b2b3b4b5b6b7b8b9b.b+cacbcccdcecfcgchcicjckclcmcncocpcqcrcsctcucvcwcxcyczcAcBcCcDcEcFcGcHcIcJcKcLcMcNcOcPcQcRcScTcUcVcWcXcYcZc0c1c2c3c4c5c6c7c8c9c.c+dadbdcdddedfdgdhdidjdkdldmdndodpdqdrdsdtdudvdwdxdydzdAdBdCdDdEdFdGdHdIdJdKdLdMdNdOdPdQdRdSdTdUdVdWdXdYdZd0d1d2d3d4d5d6d7d8d9d.d+eaebecedeeefegeheiejekelemeneoepeqereseteuevewexeyezeAeBeCeDeEeFeGeHeIeJeKeLeMeNeOePeQeReSeTeUeVeWeXeYeZe0e1e2e3e4e5e6e7e8e9e.e+fafbfcfdfefffgfhfifjfkflfmfnfofpfqfrfsftfufvfwfxfyfzfAfBfCfDfEfFfGfHfIfJfKfLfMfNfOfPfQfRfSfTfUfVfWfXfYfZf0f1f2f3f4f5f6f7f8f9f.f+gagbgcgdgegfggghgigjgkglgmgngogpgqgrgsgtgugvgwgxgygzgAgBgCgDgEgFgGgHgIgJgKgLgMgNgOgPgQgRgSgTgUgVgWgXgYgZg0g1g2g3g4g5g6g7g8g9g.g+hahbhchdhehfhghhhihjhkhlhmhnhohphqhrhshthuhvhwhxhyhzhAhBhChDhEhFhGhHhIhJhKhLhMhNhOhPhQhRhShThUhVhWhXhYhZh0h1h2h3h4h5h6h7h8h9h.h+",
"aaabacadaeafagahaiajakalamanaoapaqarasatauavawaxayazaAaBaCaDaEaFaGaHaIaJaKaLaMaNaOaPaQaRaSaTaUaVaWaXaYaZa0a1a2a3a4a5a6a7a8a9a.a+babbbcbdbebfbgbhbibjbkblbmbnbobpbqbrbsbtbubvbwbxbybzbAbBbCbDbEbFbGbHbIbJbKbLbMbNbObPbQbRbSbTbUbVbWbXbYbZb0b1b2b3b4b5b6b7b8b9b.b+cacbcccdcecfcgchcicjckclcmcncocpcqcrcsctcucvcwcxcyczcAcBcCcDcEcFcGcHcIcJcKcLcMcNcOcPcQcRcScTcUcVcWcXcYcZc0c1c2c3c4c5c6c7c8c9c.c+dadbdcdddedfdgdhdidjdkdldmdndodpdqdrdsdtdudvdwdxdydzdAdBdCdDdEdFdGdHdIdJdKdLdMdNdOdPdQdRdSdTdUdVdWdXdYdZd0d1d2d3d4d5d6d7d8d9d.d+eaebecedeeefegeheiejekelemeneoepeqereseteuevewexeyezeAeBeCeDeEeFeGeHeIeJeKeLeMeNeOePeQeReSeTeUeVeWeXeYeZe0e1e2e3e4e5e6e7e8e9e.e+fafbfcfdfefffgfhfifjfkflfmfnfofpfqfrfsftfufvfwfxfyfzfAfBfCfDfEfFfGfHfIfJfKfLfMfNfOfPfQfRfSfTfUfVfWfXfYfZf0f1f2f3f4f5f6f7f8f9f.f+gagbgcgdgegfggghgigjgkglgmgngogpgqgrgsgtgugvgwgxgygzgAgBgCgDgEgFgGgHgIgJgKgLgMgNgOgPgQgRgSgTgUgVgWgXgYgZg0g1g2g3g4g5g6g7g8g9g.g+hahbhchdhehfhghhhihjhkhlhmhnhohphqhrhshthuhvhwhxhyhzhAhBhChDhEhFhGhHhIhJhKhLhMhNhOhPhQhRhShThUhVhWhXhYhZh0h1h2h3h4h5h6h7h8h9h.h+",
"aaabacadaeafagahaiajakalamanaoapaqarasatauavawaxayazaAaBaCaDaEaFaGaHaIaJaKaLaMaNaOaPaQaRaSaTaUaVaWaXaYaZa0a1a2a3a4a5a6a7a8a9a.a+babbbcbdbebfbgbhbibjbkblbmbnbobpbqbrbsbtbubvbwbxbybzbAbBbCbDbEbFbGbHbIbJbKbLbMbNbObPbQbRbSbTbUbVbWbXbYbZb0b1b2b3b4b5b6b7b8b9b.b+cacbcccdcecfcgchcicjckclcmcncocpcqcrcsctcucvcwcxcyczcAcBcCcDcEcFcGcHcIcJcKcLcMcNcOcPcQcRcScTcUcVcWcXcYcZc0c1c2c3c4c5c6c7c8c9c.c+dadbdcdddedfdgdhdidjdkdldmdndodpdqdrdsdtdudvdwdxdydzdAdBdCdDdEdFdGdHdIdJdKdLdMdNdOdPdQdRdSdTdUdVdWdXdYdZd0d1d2d3d4d5d6d7d8d9d.d+eaebecedeeefegeheiejekelemeneoepeqereseteuevewexeyezeAeBeCeDeEeFeGeHeIeJeKeLeMeNeOePeQeReSeTeUeVeWeXeYeZe0e1e2e3e4e5e6e7e8e9e.e+fafbfcfdfefffgfhfifjfkflfmfnfofpfqfrfsftfufvfwfxfyfzfAfBfCfDfEfFfGfHfIfJfKfLfMfNfOfPfQfRfSfTfUfVfWfXfYfZf0f1f2f3f4f5f6f7f8f9f.f+gagbgcgdgegfggghgigjgkglgmgngogpgqgrgsgtgugvgwgxgygzgAgBgCgDgEgFgGgHgIgJgKgLgMgNgOgPgQgRgSgTgUgVgWgXgYgZg0g1g2g3g4g5g6g7g8g9g.g+hahbhchdhehfhghhhihjhkhlhmhnhohphqhrhshthuhvhwhxhyhzhAhBhChDhEhFhGhHhIhJhKhLhMhNhOhPhQhRhShThUhVhWhXhYhZh0h1h2h3h4h5h6h7h8h9h.h+",
"aaabacadaeafagahaiajakalamanaoapaqarasatauavawaxayazaAaBaCaDaEaFaGaHaIaJaKaLaMaNaOaPaQaRaSaTaUaVaWaXaYaZa0a1a2a3a4a5a6a7a8a9a.a+babbbcbdbebfbgbhbibjbkblbmbnbobpbqbrbsbtbubvbwbxbybzbAbBbCbDbEbFbGbHbIbJbKbLbMbNbObPbQbRbSbTbUbVbWbXbYbZb0b1b2b3b4b5b6b7b8b9b.b+cacbcccdcecfcgchcicjckclcmcncocpcqcrcsctcucvcwcxcyczcAcBcCcDcEcFcGcHcIcJcKcLcMcNcOcPcQcRcScTcUcVcWcXcYcZc0c1c2c3c4c5c6c7c8c9c.c+dadbdcdddedfdgdhdidjdkdldmdndodpdqdrdsdtdudvdwdxdydzdAdBdCdDdEdFdGdHdIdJdKdLdMdNdOdPdQdRdSdTdUdVdWdXdYdZd0d1d2d3d4d5d6d7d8d9d.d+eaebecedeeefegeheiejekelemeneoepeqereseteuevewexeyezeAeBeCeDeEeFeGeHeIeJeKeLeMeNeOePeQeReSeTeUeVeWeXeYeZe0e1e2e3e4e5e6e7e8e9e.e+fafbfcfdfefffgfhfifjfkflfmfnfofpfqfrfsftfufvfwfxfyfzfAfBfCfDfEfFfGfHfIfJfKfLfMfNfOfPfQfRfSfTfUfVfWfXfYfZf0f1f2f3f4f5f6f7f8f9f.f+gagbgcgdgegfggghgigjgkglgmgngogpgqgrgsgtgugvgwgxgygzgAgBgCgDgEgFgGgHgIgJgKgLgMgNgOgPgQgRgSgTgUgVgWgXgYgZg0g1g2g3g4g5g6g7g8g9g.g+hahbhchdhehfhghhhihjhkhlhmhnhohphqhrhshthuhvhwhxhyhzhAhBhChDhEhFhGhHhIhJhKhLhMhNhOhPhQhRhShThUhVhWhXhYhZh0h1h2h3h4h5h6h7h8h9h.h+",
"aaabacadaeafagahaiajakalamanaoapaqarasatauavawaxayazaAaBaCaDaEaFaGaHaIaJaKaLaMaNaOaPaQaRaSaTaUaVaWaXaYaZa0a1a2a3a4a5a6a7a8a9a.a+babbbcbdbebfbgbhbibjbkblbmbnbobpbqbrbsbtbubvbwbxbybzbAbBbCbDbEbFbGbHbIbJbKbLbMbNbObPbQbRbSbTbUbVbWbXbYbZb0b1b2b3b4b5b6b7b8b9b.b+cacbcccdcecfcgchcicjckclcmcncocpcqcrcsctcucvcwcxcyczcAcBcCcDcEcFcGcHcIcJcKcLcMcNcOcPcQcRcScTcUcVcWcXcYcZc0c1c2c3c4c5c6c7c8c9c.c+dadbdcdddedfdgdhdidjdkdldmdndodpdqdrdsdtdudvdwdxdydzdAdBdCdDdEdFdGdHdIdJdKdLdMdNdOdPdQdRdSdTdUdVdWdXdYdZd0d1d2d3d4d5d6d7d8d9d.d+eaebecedeeefegeheiejekelemeneoepeqereseteuevewexeyezeAeBeCeDeEeFeGeHeIeJeKeLeMeNeOePeQeReSeTeUeVeWeXeYeZe0e1e2e3e4e5e6e7e8e9e.e+fafbfcfdfefffgfhfifjfkflfmfnfofpfqfrfsftfufvfwfxfyfzfAfBfCfDfEfFfGfHfIfJfKfLfMfNfOfPfQfRfSfTfUfVfWfXfYfZf0f1f2f3f4f5f6f7f8f9f.f+gagbgcgdgegfggghgigjgkglgmgngogpgqgrgsgtgugvgwgxgygzgAgBgCgDgEgFgGgHgIgJgKgLgMgNgOgPgQgRgSgTgUgVgWgXgYgZg0g1g2g3g4g5g6g7g8g9g.g+hahbhchdhehfhghhhihjhkhlhmhnhohphqhrhshthuhvhwhxhyhzhAhBhChDhEhFhGhHhIhJhKhLhMhNhOhPhQhRhShThUhVhWhXhYhZh0h1h2h3h4h5h6h7h8h9h.h+",
"aaabacadaeafagahaiajakalamanaoapaqarasatauavawaxayazaAaBaCaDaEaFaGaHaIaJaKaLaMaNaOaPaQaRaSaTaUaVaWaXaYaZa0a1a2a3a4a5a6a7a8a9a.a+babbbcbdbebfbgbhbibjbkblbmbnbobpbqbrbsbtbubvbwbxbybzbAbBbCbDbEbFbGbHbIbJbKbLbMbNbObPbQbRbSbTbUbVbWbXbYbZb0b1b2b3b4b5b6b7b8b9b.b+cacbcccdcecfcgchcicjckclcmcncocpcqcrcsctcucvcwcxcyczcAcBcCcDcEcFcGcHcIcJcKcLcMcNcOcPcQcRcScTcUcVcWcXcYcZc0c1c2c3c4c5c6c7c8c9c.c+dadbdcdddedfdgdhdidjdkdldmdndodpdqdrdsdtdudvdwdxdydzdAdBdCdDdEdFdGdHdIdJdKdLdMdNdOdPdQdRdSdTdUdVdWdXdYdZd0d1d2d3d4d5d6d7d8d9d.d+eaebecedeeefegeheiejekelemeneoepeqereseteuevewexeyezeAeBeCeDeEeFeGeHeIeJeKeLeMeNeOePeQeReSeTeUeVeWeXeYeZe0e1e2e3e4e5e6e7e8e9e.e+fafbfcfdfefffgfhfifjfkflfmfnfofpfqfrfsftfufvfwfxfyfzfAfBfCfDfEfFfGfHfIfJfKfLfMfNfOfPfQfRfSfTfUfVfWfXfYfZf0f1f2f3f4f5f6f7f8f9f.f+gagbgcgdgegfggghgigjgkglgmgngogpgqgrgsgtgugvgwgxgygzgAgBgCgDgEgFgGgHgIgJgKgLgMgNgOgPgQgRgSgTgUgVgWgXgYgZg0g1g2g3g4g5g6g7g8g9g.g+hahbhchdhehfhghhhihjhkhlhmhnhohphqhrhshthuhvhwhxhyhzhAhBhChDhEhFhGhHhIhJhKhLhMhNhOhPhQhRhShThUhVhWhXhYhZh0h1h2h3h4h5h6h7h8h9h.h+",
"aaabacadaeafagahaiajakalamanaoapaqarasatauavawaxayazaAaBaCaDaEaFaGaHaIaJaKaLaMaNaOaPaQaRaSaTaUaVaWaXaYaZa0a1a2a3a4a5a6a7a8a9a.a+babbbcbdbebfbgbhbibjbkblbmbnbobpbqbrbsbtbubvbwbxbybzbAbBbCbDbEbFbGbHbIbJbKbLbMbNbObPbQbRbSbTbUbVbWbXbYbZb0b1b2b3b4b5b6b7b8b9b.b+cacbcccdcecfcgchcicjckclcmcncocpcqcrcsctcucvcwcxcyczcAcBcCcDcEcFcGcHcIcJcKcLcMcNcOcPcQcRcScTcUcVcWcXcYcZc0c1c2c3c4c5c6c7c8c9c.c+dadbdcdddedfdgdhdidjdkdldmdndodpdqdrdsdtdudvdwdxdydzdAdBdCdDdEdFdGdHdIdJdKdLdMdNdOdPdQdRdSdTdUdVdWdXdYdZd0d1d2d3d4d5d6d7d8d9d.d+eaebecedeeefegeheiejekelemeneoepeqereseteuevewexeyezeAeBeCeDeEeFeGeHeIeJeKeLeMeNeOePeQeReSeTeUeVeWeXeYeZe0e1e2e3e4e5e6e7e8e9e.e+fafbfcfdfefffgfhfifjfkflfmfnfofpfqfrfsftfufvfwfxfyfzfAfBfCfDfEfFfGfHfIfJfKfLfMfNfOfPfQfRfSfTfUfVfWfXfYfZf0f1f2f3f4f5f6f7f8f9f.f+gagbgcgdgegfggghgigjgkglgmgngogpgqgrgsgtgugvgwgxgygzgAgBgCgDgEgFgGgHgIgJgKgLgMgNgOgPgQgRgSgTgUgVgWgXgYgZg0g1g2g3g4g5g6g7g8g9g.g+hahbhchdhehfhghhhihjhkhlhmhnhohphqhrhshthuhvhwhxhyhzhAhBhChDhEhFhGhHhIhJhKhLhMhNhOhPhQhRhShThUhVhWhXhYhZh0h1h2h3h4h5h6h7h8h9h.h+",
"aaabacadaeafagahaiajakalamanaoapaqarasatauavawaxayazaAaBaCaDaEaFaGaHaIaJaKaLaMaNaOaPaQaRaSaTaUaVaWaXaYaZa0a1a2a3a4a5a6a7a8a9a.a+babbbcbdbebfbgbhbibjbkblbmbnbobpbqbrbsbtbubvbwbxbybzbAbBbCbDbEbFbGbHbIbJbKbLbMbNbObPbQbRbSbTbUbVbWbXbYbZb0b1b2b3b4b5b6b7b8b9b.b+cacbcccdcecfcgchcicjckclcmcncocpcqcrcsctcucvcwcxcyczcAcBcCcDcEcFcGcHcIcJcKcLcMcNcOcPcQcRcScTcUcVcWcXcYcZc0c1c2c3c4c5c6c7c8c9c.c+dadbdcdddedfdgdhdidjdkdldmdndodpdqdrdsdtdudvdwdxdydzdAdBdCdDdEdFdGdHdIdJdKdLdMdNdOdPdQdRdSdTdUdVdWdXdYdZd0d1d2d3d4d5d6d7d8d9d.d+eaebecedeeefegeheiejekelemeneoepeqereseteuevewexeyezeAeBeCeDeEeFeGeHeIeJeKeLeMeNeOePeQeReSeTeUeVeWeXeYeZe0e1e2e3e4e5e6e7e8e9e.e+fafbfcfdfefffgfhfifjfkflfmfnfofpfqfrfsftfufvfwfxfyfzfAfBfCfDfEfFfGfHfIfJfKfLfMfNfOfPfQfRfSfTfUfVfWfXfYfZf0f1f2f3f4f5f6f7f8f9f.f+gagbgcgdgegfggghgigjgkglgmgngogpgqgrgsgtgugvgwgxgygzgAgBgCgDgEgFgGgHgIgJgKgLgMgNgOgPgQgRgSgTgUgVgWgXgYgZg0g1g2g3g4g5g6g7g8g9g.g+hahbhchdhehfhghhhihjhkhlhmhnhohphqhrhshthuhvhwhxhyhzhAhBhChDhEhFhGhHhIhJhKhLhMhNhOhPhQhRhShThUhVhWhXhYhZh0h1h2h3h4h5h6h7h8h9h.h+",
"aaabacadaeafagahaiajakalamanaoapaqarasatauavawaxayazaAaBaCaDaEaFaGaHaIaJaKaLaMaNaOaPaQaRaSaTaUaVaWaXaYaZa0a1a2a3a4a5a6a7a8a9a.a+babbbcbdbebfbgbhbibjbkblbmbnbobpbqbrbsbtbubvbwbxbybzbAbBbCbDbEbFbGbHbIbJbKbLbMbNbObPbQbRbSbTbUbVbWbXbYbZb0b1b2b3b4b5b6b7b8b9b.b+cacbcccdcecfcgchcicjckclcmcncocpcqcrcsctcucvcwcxcyczcAcBcCcDcEcFcGcHcIcJcKcLcMcNcOcPcQcRcScTcUcVcWcXcYcZc0c1c2c3c4c5c6c7c8c9c.c+dadbdcdddedfdgdhdidjdkdldmdndodpdqdrdsdtdudvdwdxdydzdAdBdCdDdEdFdGdHdIdJdKdLdMdNdOdPdQdRdSdTdUdVdWdXdYdZd0d1d2d3d4d5d6d7d8d9d.d+eaebecedeeefegeheiejekelemeneoepeqereseteuevewexeyezeAeBeCeDeEeFeGeHeIeJeKeLeMeNeOePeQeReSeTeUeVeWeXeYeZe0e1e2e3e4e5e6e7e8e9e.e+fafbfcfdfefffgfhfifjfkflfmfnfofpfqfrfsftfufvfwfxfyfzfAfBfCfDfEfFfGfHfIfJfKfLfMfNfOfPfQfRfSfTfUfVfWfXfYfZf0f1f2f3f4f5f6f7f8f9f.f+gagbgcgdgegfggghgigjgkglgmgngogpgqgrgsgtgugvgwgxgygzgAgBgCgDgEgFgGgHgIgJgKgLgMgNgOgPgQgRgSgTgUgVgWgXgYgZg0g1g2g3g4g5g6g7g8g9g.g+hahbhchdhehfhghhhihjhkhlhmhnhohphqhrhshthuhvhwhxhyhzhAhBhChDhEhFhGhHhIhJhKhLhMhNhOhPhQhRhShThUhVhWhXhYhZh0h1h2h3h4h5h6h7h8h9h.h+",
"aaabacadaeafagahaiajakalamanaoapaqarasatauavawaxayazaAaBaCaDaEaFaGaHaIaJaKaLaMaNaOaPaQaRaSaTaUaVaWaXaYaZa0a1a2a3a4a5a6a7a8a9a.a+babbbcbdbebfbgbhbibjbkblbmbnbobpbqbrbsbtbubvbwbxbybzbAbBbCbDbEbFbGbHbIbJbKbLbMbNbObPbQbRbSbTbUbVbWbXbYbZb0b1b2b3b4b5b6b7b8b9b.b+cacbcccdcecfcgchcicjckclcmcncocpcqcrcsctcucvcwcxcyczcAcBcCcDcEcFcGcHcIcJcKcLcMcNcOcPcQcRcScTcUcVcWcXcYcZc0c1c2c3c4c5c6c7c8c9c.c+dadbdcdddedfdgdhdidjdkdldmdndodpdqdrdsdtdudvdwdxdydzdAdBdCdDdEdFdGdHdIdJdKdLdMdNdOdPdQdRdSdTdUdVdWdXdYdZd0d1d2d3d4d5d6d7d8d9d.d+eaebecedeeefegeheiejekelemeneoepeqereseteuevewexeyezeAeBeCeDeEeFeGeHeIeJeKeLeMeNeOePeQeReSeTeUeVeWeXeYeZe0e1e2e3e4e5e6e7e8e9e.e+fafbfcfdfefffgfhfifjfkflfmfnfofpfqfrfsftfufvfwfxfyfzfAfBfCfDfEfFfGfHfIfJfKfLfMfNfOfPfQfRfSfTfUfVfWfXfYfZf0f1f2f3f4f5f6f7f8f9f.f+gagbgcgdgegfggghgigjgkglgmgngogpgqgrgsgtgugvgwgxgygzgAgBgCgDgEgFgGgHgIgJgKgLgMgNgOgPgQgRgSgTgUgVgWgXgYgZg0g1g2g3g4g5g6g7g8g9g.g+hahbhchdhehfhghhhihjhkhlhmhnhohphqhrhshthuhvhwhxhyhzhAhBhChDhEhFhGhHhIhJhKhLhMhNhOhPhQhRhShThUhVhWhXhYhZh0h1h2h3h4h5h6h7h8h9h.h+",
"aaabacadaeafagahaiajakalamanaoapaqarasatauavawaxayazaAaBaCaDaEaFaGaHaIaJaKaLaMaNaOaPaQaRaSaTaUaVaWaXaYaZa0a1a2a3a4a5a6a7a8a9a.a+babbbcbdbebfbgbhbibjbkblbmbnbobpbqbrbsbtbubvbwbxbybzbAbBbCbDbEbFbGbHbIbJbKbLbMbNbObPbQbRbSbTbUbVbWbXbYbZb0b1b2b3b4b5b6b7b8b9b.b+cacbcccdcecfcgchcicjckclcmcncocpcqcrcsctcucvcwcxcyczcAcBcCcDcEcFcGcHcIcJcKcLcMcNcOcPcQcRcScTcUcVcWcXcYcZc0c1c2c3c4c5c6c7c8c9c.c+dadbdcdddedfdgdhdidjdkdldmdndodpdqdrdsdtdudvdwdxdydzdAdBdCdDdEdFdGdHdIdJdKdLdMdNdOdPdQdRdSdTdUdVdWdXdYdZd0d1d2d3d4d5d6d7d8d9d.d+eaebecedeeefegeheiejekelemeneoepeqereseteuevewexeyezeAeBeCeDeEeFeGeHeIeJeKeLeMeNeOePeQeReSeTeUeVeWeXeYeZe0e1e2e3e4e5e6e7e8e9e.e+fafbfcfdfefffgfhfifjfkflfmfnfofpfqfrfsftfufvfwfxfyfzfAfBfCfDfEfFfGfHfIfJfKfLfMfNfOfPfQfRfSfTfUfVfWfXfYfZf0f1f2f3f4f5f6f7f8f9f.f+gagbgcgdgegfggghgigjgkglgmgngogpgqgrgsgtgugvgwgxgygzgAgBgCgDgEgFgGgHgIgJgKgLgMgNgOgPgQgRgSgTgUgVgWgXgYgZg0g1g2g3g4g5g6g7g8g9g.g+hahbhchdhehfhghhhihjhkhlhmhnhohphqhrhshthuhvhwhxhyhzhAhBhChDhEhFhGhHhIhJhKhLhMhNhOhPhQhRhShThUhVhWhXhYhZh0h1h2h3h4h5h6h7h8h9h.h+",
"aaabacadaeafagahaiajakalamanaoapaqarasatauavawaxayazaAaBaCaDaEaFaGaHaIaJaKaLaMaNaOaPaQaRaSaTaUaVaWaXaYaZa0a1a2a3a4a5a6a7a8a9a.a+babbbcbdbebfbgbhbibjbkblbmbnbobpbqbrbsbtbubvbwbxbybzbAbBbCbDbEbFbGbHbIbJbKbLbMbNbObPbQbRbSbTbUbVbWbXbYbZb0b1b2b3b4b5b6b7b8b9b.b+cacbcccdcecfcgchcicjckclcmcncocpcqcrcsctcucvcwcxcyczcAcBcCcDcEcFcGcHcIcJcKcLcMcNcOcPcQcRcScTcUcVcWcXcYcZc0c1c2c3c4c5c6c7c8c9c.c+dadbdcdddedfdgdhdidjdkdldmdndodpdqdrdsdtdudvdwdxdydzdAdBdCdDdEdFdGdHdIdJdKdLdMdNdOdPdQdRdSdTdUdVdWdXdYdZd0d1d2d3d4d5d6d7d8d9d.d+eaebecedeeefegeheiejekelemeneoepeqereseteuevewexeyezeAeBeCeDeEeFeGeHeIeJeKeLeMeNeOePeQeReSeTeUeVeWeXeYeZe0e1e2e3e4e5e6e7e8e9e.e+fafbfcfdfefffgfhfifjfkflfmfnfofpfqfrfsftfufvfwfxfyfzfAfBfCfDfEfFfGfHfIfJfKfLfMfNfOfPfQfRfSfTfUfVfWfXfYfZf0f1f2f3f4f5f6f7f8f9f.f+gagbgcgdgegfggghgigjgkglgmgngogpgqgrgsgtgugvgwgxgygzgAgBgCgDgEgFgGgHgIgJgKgLgMgNgOgPgQgRgSgTgUgVgWgXgYgZg0g1g2g3g4g5g6g7g8g9g.g+hahbhchdhehfhghhhihjhkhlhmhnhohphqhrhshthuhvhwhxhyhzhAhBhChDhEhFhGhHhIhJhKhLhMhNhOhPhQhRhShThUhVhWhXhYhZh0h1h2h3h4h5h6h7h8h9h.h+",
"aaabacadaeafagahaiajakalamanaoapaqarasatauavawaxayazaAaBaCaDaEaFaGaHaIaJaKaLaMaNaOaPaQaRaSaTaUaVaWaXaYaZa0a1a2a3a4a5a6a7a8a9a.a+babbbcbdbebfbgbhbibjbkblbmbnbobpbqbrbsbtbubvbwbxbybzbAbBbCbDbEbFbGbHbIbJbKbLbMbNbObPbQbRbSbTbUbVbWbXbYbZb0b1b2b3b4b5b6b7b8b9b.b+cacbcccdcecfcgchcicjckclcmcncocpcqcrcsctcucvcwcxcyczcAcBcCcDcEcFcGcHcIcJcKcLcMcNcOcPcQcRcScTcUcVcWcXcYcZc0c1c2c3c4c5c6c7c8c9c.c+dadbdcdddedfdgdhdidjdkdldmdndodpdqdrdsdtdudvdwdxdydzdAdBdCdDdEdFdGdHdIdJdKdLdMdNdOdPdQdRdSdTdUdVdWdXdYdZd0d1d2d3d4d5d6d7d8d9d.d+eaebecedeeefegeheiejekelemeneoepeqereseteuevewexeyezeAeBeCeDeEeFeGeHeIeJeKeLeMeNeOePeQeReSeTeUeVeWeXeYeZe0e1e2e3e4e5e6e7e8e9e.e+fafbfcfdfefffgfhfifjfkflfmfnfofpfqfrfsftfufvfwfxfyfzfAfBfCfDfEfFfGfHfIfJfKfLfMfNfOfPfQfRfSfTfUfVfWfXfYfZf0f1f2f3f4f5f6f7f8f9f.f+gagbgcgdgegfggghgigjgkglgmgngogpgqgrgsgtgugvgwgxgygzgAgBgCgDgEgFgGgHgIgJgKgLgMgNgOgPgQgRgSgTgUgVgWgXgYgZg0g1g2g3g4g5g6g7g8g9g.g+hahbhchdhehfhghhhihjhkhlhmhnhohphqhrhshthuhvhwhxhyhzhAhBhChDhEhFhGhHhIhJhKhLhMhNhOhPhQhRhShThUhVhWhXhYhZh0h1h2h3h4h5h6h7h8h9h.h+",
"aaabacadaeafagahaiajakalamanaoapaqarasatauavawaxayazaAaBaCaDaEaFaGaHaIaJaKaLaMaNaOaPaQaRaSaTaUaVaWaXaYaZa0a1a2a3a4a5a6a7a8a9a.a+babbbcbdbebfbgbhbibjbkblbmbnbobpbqbrbsbtbubvbwbxbybzbAbBbCbDbEbFbGbHbIbJbKbLbMbNbObPbQbRbSbTbUbVbWbXbYbZb0b1b2b3b4b5b6b7b8b9b.b+cacbcccdcecfcgchcicjckclcmcncocpcqcrcsctcucvcwcxcyczcAcBcCcDcEcFcGcHcIcJcKcLcMcNcOcPcQcRcScTcUcVcWcXcYcZc0c1c2c3c4c5c6c7c8c9c.c+dadbdcdddedfdgdhdidjdkdldmdndodpdqdrdsdtdudvdwdxdydzdAdBdCdDdEdFdGdHdIdJdKdLdMdNdOdPdQdRdSdTdUdVdWdXdYdZd0d1d2d3d4d5d6d7d8d9d.d+eaebecedeeefegeheiejekelemeneoepeqereseteuevewexeyezeAeBeCeDeEeFeGeHeIeJeKeLeMeNeOePeQeReSeTeUeVeWeXeYeZe0e1e2e3e4e5e6e7e8e9e.e+fafbfcfdfefffgfhfifjfkflfmfnfofpfqfrfsftfufvfwfxfyfzfAfBfCfDfEfFfGfHfIfJfKfLfMfNfOfPfQfRfSfTfUfVfWfXfYfZf0f1f2f3f4f5f6f7f8f9f.f+gagbgcgdgegfggghgigjgkglgmgngogpgqgrgsgtgugvgwgxgygzgAgBgCgDgEgFgGgHgIgJgKgLgMgNgOgPgQgRgSgTgUgVgWgXgYgZg0g1g2g3g4g5g6g7g8g9g.g+hahbhchdhehfhghhhihjhkhlhmhnhohphqhrhshthuhvhwhxhyhzhAhBhChDhEhFhGhHhIhJhKhLhMhNhOhPhQhRhShThUhVhWhXhYhZh0h1h2h3h4h5h6h7h8h9h.h+",
"aaabacadaeafagahaiajakalamanaoapaqarasatauavawaxayazaAaBaCaDaEaFaGaHaIaJaKaLaMaNaOaPaQaRaSaTaUaVaWaXaYaZa0a1a2a3a4a5a6a7a8a9a.a+babbbcbdbebfbgbhbibjbkblbmbnbobpbqbrbsbtbubvbwbxbybzbAbBbCbDbEbFbGbHbIbJbKbLbMbNbObPbQbRbSbTbUbVbWbXbYbZb0b1b2b3b4b5b6b7b8b9b.b+cacbcccdcecfcgchcicjckclcmcncocpcqcrcsctcucvcwcxcyczcAcBcCcDcEcFcGcHcIcJcKcLcMcNcOcPcQcRcScTcUcVcWcXcYcZc0c1c2c3c4c5c6c7c8c9c.c+dadbdcdddedfdgdhdidjdkdldmdndodpdqdrdsdtdudvdwdxdydzdAdBdCdDdEdFdGdHdIdJdKdLdMdNdOdPdQdRdSdTdUdVdWdXdYdZd0d1d2d3d4d5d6d7d8d9d.d+eaebecedeeefegeheiejekelemeneoepeqereseteuevewexeyezeAeBeCeDeEeFeGeHeIeJeKeLeMeNeOePeQeReSeTeUeVeWeXeYeZe0e1e2e3e4e5e6e7e8e9e.e+fafbfcfdfefffgfhfifjfkflfmfnfofpfqfrfsftfufvfwfxfyfzfAfBfCfDfEfFfGfHfIfJfKfLfMfNfOfPfQfRfSfTfUfVfWfXfYfZf0f1f2f3f4f5f6f7f8f9f.f+gagbgcgdgegfggghgigjgkglgmgngogpgqgrgsgtgugvgwgxgygzgAgBgCgDgEgFgGgHgIgJgKgLgMgNgOgPgQgRgSgTgUgVgWgXgYgZg0g1g2g3g4g5g6g7g8g9g.g+hahbhchdhehfhghhhihjhkhlhmhnhohphqhrhshthuhvhwhxhyhzhAhBhChDhEhFhGhHhIhJhKhLhMhNhOhPhQhRhShThUhVhWhXhYhZh0h1h2h3h4h5h6h7h8h9h.h+",
"aaabacadaeafagahaiajakalamanaoapaqarasatauavawaxayazaAaBaCaDaEaFaGaHaIaJaKaLaMaNaOaPaQaRaSaTaUaVaWaXaYaZa0a1a2a3a4a5a6a7a8a9a.a+babbbcbdbebfbgbhbibjbkblbmbnbobpbqbrbsbtbubvbwbxbybzbAbBbCbDbEbFbGbHbIbJbKbLbMbNbObPbQbRbSbTbUbVbWbXbYbZb0b1b2b3b4b5b6b7b8b9b.b+cacbcccdcecfcgchcicjckclcmcncocpcqcrcsctcucvcwcxcyczcAcBcCcDcEcFcGcHcIcJcKcLcMcNcOcPcQcRcScTcUcVcWcXcYcZc0c1c2c3c4c5c6c7c8c9c.c+dadbdcdddedfdgdhdidjdkdldmdndodpdqdrdsdtdudvdwdxdydzdAdBdCdDdEdFdGdHdIdJdKdLdMdNdOdPdQdRdSdTdUdVdWdXdYdZd0d1d2d3d4d5d6d7d8d9d.d+eaebecedeeefegeheiejekelemeneoepeqereseteuevewexeyezeAeBeCeDeEeFeGeHeIeJeKeLeMeNeOePeQeReSeTeUeVeWeXeYeZe0e1e2e3e4e5e6e7e8e9e.e+fafbfcfdfefffgfhfifjfkflfmfnfofpfqfrfsftfufvfwfxfyfzfAfBfCfDfEfFfGfHfIfJfKfLfMfNfOfPfQfRfSfTfUfVfWfXfYfZf0f1f2f3f4f5f6f7f8f9f.f+gagbgcgdgegfggghgigjgkglgmgngogpgqgrgsgtgugvgwgxgygzgAgBgCgDgEgFgGgHgIgJgKgLgMgNgOgPgQgRgSgTgUgVgWgXgYgZg0g1g2g3g4g5g6g7g8g9g.g+hahbhchdhehfhghhhihjhkhlhmhnhohphqhrhshthuhvhwhxhyhzhAhBhChDhEhFhGhHhIhJhKhLhMhNhOhPhQhRhShThUhVhWhXhYhZh0h1h2h3h4h5h6h7h8h9h.h+",
"aaabacadaeafagahaiajakalamanaoapaqarasatauavawaxayazaAaBaCaDaEaFaGaHaIaJaKaLaMaNaOaPaQaRaSaTaUaVaWaXaYaZa0a1a2a3a4a5a6a7a8a9a.a+babbbcbdbebfbgbhbibjbkblbmbnbobpbqbrbsbtbubvbwbxbybzbAbBbCbDbEbFbGbHbIbJbKbLbMbNbObPbQbRbSbTbUbVbWbXbYbZb0b1b2b3b4b5b6b7b8b9b.b+cacbcccdcecfcgchcicjckclcmcncocpcqcrcsctcucvcwcxcyczcAcBcCcDcEcFcGcHcIcJcKcLcMcNcOcPcQcRcScTcUcVcWcXcYcZc0c1c2c3c4c5c6c7c8c9c.c+dadbdcdddedfdgdhdidjdkdldmdndodpdqdrdsdtdudvdwdxdydzdAdBdCdDdEdFdGdHdIdJdKdLdMdNdOdPdQdRdSdTdUdVdWdXdYdZd0d1d2d3d4d5d6d7d8d9d.d+eaebecedeeefegeheiejekelemeneoepeqereseteuevewexeyezeAeBeCeDeEeFeGeHeIeJeKeLeMeNeOePeQeReSeTeUeVeWeXeYeZe0e1e2e3e4e5e6e7e8e9e.e+fafbfcfdfefffgfhfifjfkflfmfnfofpfqfrfsftfufvfwfxfyfzfAfBfCfDfEfFfGfHfIfJfKfLfMfNfOfPfQfRfSfTfUfVfWfXfYfZf0f1f2f3f4f5f6f7f8f9f.f+gagbgcgdgegfggghgigjgkglgmgngogpgqgrgsgtgugvgwgxgygzgAgBgCgDgEgFgGgHgIgJgKgLgMgNgOgPgQgRgSgTgUgVgWgXgYgZg0g1g2g3g4g5g6g7g8g9g.g+hahbhchdhehfhghhhihjhkhlhmhnhohphqhrhshthuhvhwhxhyhzhAhBhChDhEhFhGhHhIhJhKhLhMhNhOhPhQhRhShThUhVhWhXhYhZh0h1h2h3h4h5h6h7h8h9h.h+",
"aaabacadaeafagahaiajakalamanaoapaqarasatauavawaxayazaAaBaCaDaEaFaGaHaIaJaKaLaMaNaOaPaQaRaSaTaUaVaWaXaYaZa0a1a2a3a4a5a6a7a8a9a.a+babbbcbdbebfbgbhbibjbkblbmbnbobpbqbrbsbtbubvbwbxbybzbAbBbCbDbEbFbGbHbIbJbKbLbMbNbObPbQbRbSbTbUbVbWbXbYbZb0b1b2b3b4b5b6b7b8b9b.b+cacbcccdcecfcgchcicjckclcmcncocpcqcrcsctcucvcwcxcyczcAcBcCcDcEcFcGcHcIcJcKcLcMcNcOcPcQcRcScTcUcVcWcXcYcZc0c1c2c3c4c5c6c7c8c9c.c+dadbdcdddedfdgdhdidjdkdldmdndodpdqdrdsdtdudvdwdxdydzdAdBdCdDdEdFdGdHdIdJdKdLdMdNdOdPdQdRdSdTdUdVdWdXdYdZd0d1d2d3d4d5d6d7d8d9d.d+eaebecedeeefegeheiejekelemeneoepeqereseteuevewexeyezeAeBeCeDeEeFeGeHeIeJeKeLeMeNeOePeQeReSeTeUeVeWeXeYeZe0e1e2e3e4e5e6e7e8e9e.e+fafbfcfdfefffgfhfifjfkflfmfnfofpfqfrfsftfufvfwfxfyfzfAfBfCfDfEfFfGfHfIfJfKfLfMfNfOfPfQfRfSfTfUfVfWfXfYfZf0f1f2f3f4f5f6f7f8f9f.f+gagbgcgdgegfggghgigjgkglgmgngogpgqgrgsgtgugvgwgxgygzgAgBgCgDgEgFgGgHgIgJgKgLgMgNgOgPgQgRgSgTgUgVgWgXgYgZg0g1g2g3g4g5g6g7g8g9g.g+hahbhchdhehfhghhhihjhkhlhmhnhohphqhrhshthuhvhwhxhyhzhAhBhChDhEhFhGhHhIhJhKhLhMhNhOhPhQhRhShThUhVhWhXhYhZh0h1h2h3h4h5h6h7h8h9h.h+",
"aaabacadaeafagahaiajakalamanaoapaqarasatauavawaxayazaAaBaCaDaEaFaGaHaIaJaKaLaMaNaOaPaQaRaSaTaUaVaWaXaYaZa0a1a2a3a4a5a6a7a8a9a.a+babbbcbdbebfbgbhbibjbkblbmbnbobpbqbrbsbtbubvbwbxbybzbAbBbCbDbEbFbGbHbIbJbKbLbMbNbObPbQbRbSbTbUbVbWbXbYbZb0b1b2b3b4b5b6b7b8b9b.b+cacbcccdcecfcgchcicjckclcmcncocpcqcrcsctcucvcwcxcyczcAcBcCcDcEcFcGcHcIcJcKcLcMcNcOcPcQcRcScTcUcVcWcXcYcZc0c1c2c3c4c5c6c7c8c9c.c+dadbdcdddedfdgdhdidjdkdldmdndodpdqdrdsdtdudvdwdxdydzdAdBdCdDdEdFdGdHdIdJdKdLdMdNdOdPdQdRdSdTdUdVdWdXdYdZd0d1d2d3d4d5d6d7d8d9d.d+eaebecedeeefegeheiejekelemeneoepeqereseteuevewexeyezeAeBeCeDeEeFeGeHeIeJeKeLeMeNeOePeQeReSeTeUeVeWeXeYeZe0e1e2e3e4e5e6e7e8e9e.e+fafbfcfdfefffgfhfifjfkflfmfnfofpfqfrfsftfufvfwfxfyfzfAfBfCfDfEfFfGfHfIfJfKfLfMfNfOfPfQfRfSfTfUfVfWfXfYfZf0f1f2f3f4f5f6f7f8f9f.f+gagbgcgdgegfggghgigjgkglgmgngogpgqgrgsgtgugvgwgxgygzgAgBgCgDgEgFgGgHgIgJgKgLgMgNgOgPgQgRgSgTgUgVgWgXgYgZg0g1g2g3g4g5g6g7g8g9g.g+hahbhchdhehfhghhhihjhkhlhmhnhohphqhrhshthuhvhwhxhyhzhAhBhChDhEhFhGhHhIhJhKhLhMhNhOhPhQhRhShThUhVhWhXhYhZh0h1h2h3h4h5h6h7h8h9h.h+",
"aaabacadaeafagahaiajakalamanaoapaqarasatauavawaxayazaAaBaCaDaEaFaGaHaIaJaKaLaMaNaOaPaQaRaSaTaUaVaWaXaYaZa0a1a2a3a4a5a6a7a8a9a.a+babbbcbdbebfbgbhbibjbkblbmbnbobpbqbrbsbtbubvbwbxbybzbAbBbCbDbEbFbGbHbIbJbKbLbMbNbObPbQbRbSbTbUbVbWbXbYbZb0b1b2b3b4b5b6b7b8b9b.b+cacbcccdcecfcgchcicjckclcmcncocpcqcrcsctcucvcwcxcyczcAcBcCcDcEcFcGcHcIcJcKcLcMcNcOcPcQcRcScTcUcVcWcXcYcZc0c1c2c3c4c5c6c7c8c9c.c+dadbdcdddedfdgdhdidjdkdldmdndodpdqdrdsdtdudvdwdxdydzdAdBdCdDdEdFdGdHdIdJdKdLdMdNdOdPdQdRdSdTdUdVdWdXdYdZd0d1d2d3d4d5d6d7d8d9d.d+eaebecedeeefegeheiejekelemeneoepeqereseteuevewexeyezeAeBeCeDeEeFeGeHeIeJeKeLeMeNeOePeQeReSeTeUeVeWeXeYeZe0e1e2e3e4e5e6e7e8e9e.e+fafbfcfdfefffgfhfifjfkflfmfnfofpfqfrfsftfufvfwfxfyfzfAfBfCfDfEfFfGfHfIfJfKfLfMfNfOfPfQfRfSfTfUfVfWfXfYfZf0f1f2f3f4f5f6f7f8f9f.f+gagbgcgdgegfggghgigjgkglgmgngogpgqgrgsgtgugvgwgxgygzgAgBgCgDgEgFgGgHgIgJgKgLgMgNgOgPgQgRgSgTgUgVgWgXgYgZg0g1g2g3g4g5g6g7g8g9g.g+hahbhchdhehfhghhhihjhkhlhmhnhohphqhrhshthuhvhwhxhyhzhAhBhChDhEhFhGhHhIhJhKhLhMhNhOhPhQhRhShThUhVhWhXhYhZh0h1h2h3h4h5h6h7h8h9h.h+",
"aaabacadaeafagahaiajakalamanaoapaqarasatauavawaxayazaAaBaCaDaEaFaGaHaIaJaKaLaMaNaOaPaQaRaSaTaUaVaWaXaYaZa0a1a2a3a4a5a6a7a8a9a.a+babbbcbdbebfbgbhbibjbkblbmbnbobpbqbrbsbtbubvbwbxbybzbAbBbCbDbEbFbGbHbIbJbKbLbMbNbObPbQbRbSbTbUbVbWbXbYbZb0b1b2b3b4b5b6b7b8b9b.b+cacbcccdcecfcgchcicjckclcmcncocpcqcrcsctcucvcwcxcyczcAcBcCcDcEcFcGcHcIcJcKcLcMcNcOcPcQcRcScTcUcVcWcXcYcZc0c1c2c3c4c5c6c7c8c9c.c+dadbdcdddedfdgdhdidjdkdldmdndodpdqdrdsdtdudvdwdxdydzdAdBdCdDdEdFdGdHdIdJdKdLdMdNdOdPdQdRdSdTdUdVdWdXdYdZd0d1d2d3d4d5d6d7d8d9d.d+eaebecedeeefegeheiejekelemeneoepeqereseteuevewexeyezeAeBeCeDeEeFeGeHeIeJeKeLeMeNeOePeQeReSeTeUeVeWeXeYeZe0e1e2e3e4e5e6e7e8e9e.e+fafbfcfdfefffgfhfifjfkflfmfnfofpfqfrfsftfufvfwfxfyfzfAfBfCfDfEfFfGfHfIfJfKfLfMfNfOfPfQfRfSfTfUfVfWfXfYfZf0f1f2f3f4f5f6f7f8f9f.f+gagbgcgdgegfggghgigjgkglgmgngogpgqgrgsgtgugvgwgxgygzgAgBgCgDgEgFgGgHgIgJgKgLgMgNgOgPgQgRgSgTgUgVgWgXgYgZg0g1g2g3g4g5g6g7g8g9g.g+hahbhchdhehfhghhhihjhkhlhmhnhohphqhrhshthuhvhwhxhyhzhAhBhChDhEhFhGhHhIhJhKhLhMhNhOhPhQhRhShThUhVhWhXhYhZh0h1h2h3h4h5h6h7h8h9h.h+",
"aaabacadaeafagahaiajakalamanaoapaqarasatauavawaxayazaAaBaCaDaEaFaGaHaIaJaKaLaMaNaOaPaQaRaSaTaUaVaWaXaYaZa0a1a2a3a4a5a6a7a8a9a.a+babbbcbdbebfbgbhbibjbkblbmbnbobpbqbrbsbtbubvbwbxbybzbAbBbCbDbEbFbGbHbIbJbKbLbMbNbObPbQbRbSbTbUbVbWbXbYbZb0b1b2b3b4b5b6b7b8b9b.b+cacbcccdcecfcgchcicjckclcmcncocpcqcrcsctcucvcwcxcyczcAcBcCcDcEcFcGcHcIcJcKcLcMcNcOcPcQcRcScTcUcVcWcXcYcZc0c1c2c3c4c5c6c7c8c9c.c+dadbdcdddedfdgdhdidjdkdldmdndodpdqdrdsdtdudvdwdxdydzdAdBdCdDdEdFdGdHdIdJdKdLdMdNdOdPdQdRdSdTdUdVdWdXdYdZd0d1d2d3d4d5d6d7d8d9d.d+eaebecedeeefegeheiejekelemeneoepeqereseteuevewexeyezeAeBeCeDeEeFeGeHeIeJeKeLeMeNeOePeQeReSeTeUeVeWeXeYeZe0e1e2e3e4e5e6e7e8e9e.e+fafbfcfdfefffgfhfifjfkflfmfnfofpfqfrfsftfufvfwfxfyfzfAfBfCfDfEfFfGfHfIfJfKfLfMfNfOfPfQfRfSfTfUfVfWfXfYfZf0f1f2f3f4f5f6f7f8f9f.f+gagbgcgdgegfggghgigjgkglgmgngogpgqgrgsgtgugvgwgxgygzgAgBgCgDgEgFgGgHgIgJgKgLgMgNgOgPgQgRgSgTgUgVgWgXgYgZg0g1g2g3g4g5g6g7g8g9g.g+hahbhchdhehfhghhhihjhkhlhmhnhohphqhrhshthuhvhwhxhyhzhAhBhChDhEhFhGhHhIhJhKhLhMhNhOhPhQhRhShThUhVhWhXhYhZh0h1h2h3h4h5h6h7h8h9h.h+",
"aaabacadaeafagahaiajakalamanaoapaqarasatauavawaxayazaAaBaCaDaEaFaGaHaIaJaKaLaMaNaOaPaQaRaSaTaUaVaWaXaYaZa0a1a2a3a4a5a6a7a8a9a.a+babbbcbdbebfbgbhbibjbkblbmbnbobpbqbrbsbtbubvbwbxbybzbAbBbCbDbEbFbGbHbIbJbKbLbMbNbObPbQbRbSbTbUbVbWbXbYbZb0b1b2b3b4b5b6b7b8b9b.b+cacbcccdcecfcgchcicjckclcmcncocpcqcrcsctcucvcwcxcyczcAcBcCcDcEcFcGcHcIcJcKcLcMcNcOcPcQcRcScTcUcVcWcXcYcZc0c1c2c3c4c5c6c7c8c9c.c+dadbdcdddedfdgdhdidjdkdldmdndodpdqdrdsdtdudvdwdxdydzdAdBdCdDdEdFdGdHdIdJdKdLdMdNdOdPdQdRdSdTdUdVdWdXdYdZd0d1d2d3d4d5d6d7d8d9d.d+eaebecedeeefegeheiejekelemeneoepeqereseteuevewexeyezeAeBeCeDeEeFeGeHeIeJeKeLeMeNeOePeQeReSeTeUeVeWeXeYeZe0e1e2e3e4e5e6e7e8e9e.e+fafbfcfdfefffgfhfifjfkflfmfnfofpfqfrfsftfufvfwfxfyfzfAfBfCfDfEfFfGfHfIfJfKfLfMfNfOfPfQfRfSfTfUfVfWfXfYfZf0f1f2f3f4f5f6f7f8f9f.f+gagbgcgdgegfggghgigjgkglgmgngogpgqgrgsgtgugvgwgxgygzgAgBgCgDgEgFgGgHgIgJgKgLgMgNgOgPgQgRgSgTgUgVgWgXgYgZg0g1g2g3g4g5g6g7g8g9g.g+hahbhchdhehfhghhhihjhkhlhmhnhohphqhrhshthuhvhwhxhyhzhAhBhChDhEhFhGhHhIhJhKhLhMhNhOhPhQhRhShThUhVhWhXhYhZh0h1h2h3h4h5h6h7h8h9h.h+",
"aaabacadaeafagahaiajakalamanaoapaqarasatauavawaxayazaAaBaCaDaEaFaGaHaIaJaKaLaMaNaOaPaQaRaSaTaUaVaWaXaYaZa0a1a2a3a4a5a6a7a8a9a.a+babbbcbdbebfbgbhbibjbkblbmbnbobpbqbrbsbtbubvbwbxbybzbAbBbCbDbEbFbGbHbIbJbKbLbMbNbObPbQbRbSbTbUbVbWbXbYbZb0b1b2b3b4b5b6b7b8b9b.b+cacbcccdcecfcgchcicjckclcmcncocpcqcrcsctcucvcwcxcyczcAcBcCcDcEcFcGcHcIcJcKcLcMcNcOcPcQcRcScTcUcVcWcXcYcZc0c1c2c3c4c5c6c7c8c9c.c+dadbdcdddedfdgdhdidjdkdldmdndodpdqdrdsdtdudvdwdxdydzdAdBdCdDdEdFdGdHdIdJdKdLdMdNdOdPdQdRdSdTdUdVdWdXdYdZd0d1d2d3d4d5d6d7d8d9d.d+eaebecedeeefegeheiejekelemeneoepeqereseteuevewexeyezeAeBeCeDeEeFeGeHeIeJeKeLeMeNeOePeQeReSeTeUeVeWeXeYeZe0e1e2e3e4e5e6e7e8e9e.e+fafbfcfdfefffgfhfifjfkflfmfnfofpfqfrfsftfufvfwfxfyfzfAfBfCfDfEfFfGfHfIfJfKfLfMfNfOfPfQfRfSfTfUfVfWfXfYfZf0f1f2f3f4f5f6f7f8f9f.f+gagbgcgdgegfggghgigjgkglgmgngogpgqgrgsgtgugvgwgxgygzgAgBgCgDgEgFgGgHgIgJgKgLgMgNgOgPgQgRgSgTgUgVgWgXgYgZg0g1g2g3g4g5g6g7g8g9g.g+hahbhchdhehfhghhhihjhkhlhmhnhohphqhrhshthuhvhwhxhyhzhAhBhChDhEhFhGhHhIhJhKhLhMhNhOhPhQhRhShThUhVhWhXhYhZh0h1h2h3h4h5h6h7h8h9h.h+",
"aaabacadaeafagahaiajakalamanaoapaqarasatauavawaxayazaAaBaCaDaEaFaGaHaIaJaKaLaMaNaOaPaQaRaSaTaUaVaWaXaYaZa0a1a2a3a4a5a6a7a8a9a.a+babbbcbdbebfbgbhbibjbkblbmbnbobpbqbrbsbtbubvbwbxbybzbAbBbCbDbEbFbGbHbIbJbKbLbMbNbObPbQbRbSbTbUbVbWbXbYbZb0b1b2b3b4b5b6b7b8b9b.b+cacbcccdcecfcgchcicjckclcmcncocpcqcrcsctcucvcwcxcyczcAcBcCcDcEcFcGcHcIcJcKcLcMcNcOcPcQcRcScTcUcVcWcXcYcZc0c1c2c3c4c5c6c7c8c9c.c+dadbdcdddedfdgdhdidjdkdldmdndodpdqdrdsdtdudvdwdxdydzdAdBdCdDdEdFdGdHdIdJdKdLdMdNdOdPdQdRdSdTdUdVdWdXdYdZd0d1d2d3d4d5d6d7d8d9d.d+eaebecedeeefegeheiejekelemeneoepeqereseteuevewexeyezeAeBeCeDeEeFeGeHeIeJeKeLeMeNeOePeQeReSeTeUeVeWeXeYeZe0e1e2e3e4e5e6e7e8e9e.e+fafbfcfdfefffgfhfifjfkflfmfnfofpfqfrfsftfufvfwfxfyfzfAfBfCfDfEfFfGfHfIfJfKfLfMfNfOfPfQfRfSfTfUfVfWfXfYfZf0f1f2f3f4f5f6f7f8f9f.f+gagbgcgdgegfggghgigjgkglgmgngogpgqgrgsgtgugvgwgxgygzgAgBgCgDgEgFgGgHgIgJgKgLgMgNgOgPgQgRgSgTgUgVgWgXgYgZg0g1g2g3g4g5g6g7g8g9g.g+hahbhchdhehfhghhhihjhkhlhmhnhohphqhrhshthuhvhwhxhyhzhAhBhChDhEhFhGhHhIhJhKhLhMhNhOhPhQhRhShThUhVhWhXhYhZh0h1h2h3h4h5h6h7h8h9h.h+",
"aaabacadaeafagahaiajakalamanaoapaqarasatauavawaxayazaAaBaCaDaEaFaGaHaIaJaKaLaMaNaOaPaQaRaSaTaUaVaWaXaYaZa0a1a2a3a4a5a6a7a8a9a.a+babbbcbdbebfbgbhbibjbkblbmbnbobpbqbrbsbtbubvbwbxbybzbAbBbCbDbEbFbGbHbIbJbKbLbMbNbObPbQbRbSbTbUbVbWbXbYbZb0b1b2b3b4b5b6b7b8b9b.b+cacbcccdcecfcgchcicjckclcmcncocpcqcrcsctcucvcwcxcyczcAcBcCcDcEcFcGcHcIcJcKcLcMcNcOcPcQcRcScTcUcVcWcXcYcZc0c1c2c3c4c5c6c7c8c9c.c+dadbdcdddedfdgdhdidjdkdldmdndodpdqdrdsdtdudvdwdxdydzdAdBdCdDdEdFdGdHdIdJdKdLdMdNdOdPdQdRdSdTdUdVdWdXdYdZd0d1d2d3d4d5d6d7d8d9d.d+eaebecedeeefegeheiejekelemeneoepeqereseteuevewexeyezeAeBeCeDeEeFeGeHeIeJeKeLeMeNeOePeQeReSeTeUeVeWeXeYeZe0e1e2e3e4e5e6e7e8e9e.e+fafbfcfdfefffgfhfifjfkflfmfnfofpfqfrfsftfufvfwfxfyfzfAfBfCfDfEfFfGfHfIfJfKfLfMfNfOfPfQfRfSfTfUfVfWfXfYfZf0f1f2f3f4f5f6f7f8f9f.f+gagbgcgdgegfggghgigjgkglgmgngogpgqgrgsgtgugvgwgxgygzgAgBgCgDgEgFgGgHgIgJgKgLgMgNgOgPgQgRgSgTgUgVgWgXgYgZg0g1g2g3g4g5g6g7g8g9g.g+hahbhchdhehfhghhhihjhkhlhmhnhohphqhrhshthuhvhwhxhyhzhAhBhChDhEhFhGhHhIhJhKhLhMhNhOhPhQhRhShThUhVhWhXhYhZh0h1h2h3h4h5h6h7h8h9h.h+",
"aaabacadaeafagahaiajakalamanaoapaqarasatauavawaxayazaAaBaCaDaEaFaGaHaIaJaKaLaMaNaOaPaQaRaSaTaUaVaWaXaYaZa0a1a2a3a4a5a6a7a8a9a.a+babbbcbdbebfbgbhbibjbkblbmbnbobpbqbrbsbtbubvbwbxbybzbAbBbCbDbEbFbGbHbIbJbKbLbMbNbObPbQbRbSbTbUbVbWbXbYbZb0b1b2b3b4b5b6b7b8b9b.b+cacbcccdcecfcgchcicjckclcmcncocpcqcrcsctcucvcwcxcyczcAcBcCcDcEcFcGcHcIcJcKcLcMcNcOcPcQcRcScTcUcVcWcXcYcZc0c1c2c3c4c5c6c7c8c9c.c+dadbdcdddedfdgdhdidjdkdldmdndodpdqdrdsdtdudvdwdxdydzdAdBdCdDdEdFdGdHdIdJdKdLdMdNdOdPdQdRdSdTdUdVdWdXdYdZd0d1d2d3d4d5d6d7d8d9d.d+eaebecedeeefegeheiejekelemeneoepeqereseteuevewexeyezeAeBeCeDeEeFeGeHeIeJeKeLeMeNeOePeQeReSeTeUeVeWeXeYeZe0e1e2e3e4e5e6e7e8e9e.e+fafbfcfdfefffgfhfifjfkflfmfnfofpfqfrfsftfufvfwfxfyfzfAfBfCfDfEfFfGfHfIfJfKfLfMfNfOfPfQfRfSfTfUfVfWfXfYfZf0f1f2f3f4f5f6f7f8f9f.f+gagbgcgdgegfggghgigjgkglgmgngogpgqgrgsgtgugvgwgxgygzgAgBgCgDgEgFgGgHgIgJgKgLgMgNgOgPgQgRgSgTgUgVgWgXgYgZg0g1g2g3g4g5g6g7g8g9g.g+hahbhchdhehfhghhhihjhkhlhmhnhohphqhrhshthuhvhwhxhyhzhAhBhChDhEhFhGhHhIhJhKhLhMhNhOhPhQhRhShThUhVhWhXhYhZh0h1h2h3h4h5h6h7h8h9h.h+",
"aaabacadaeafagahaiajakalamanaoapaqarasatauavawaxayazaAaBaCaDaEaFaGaHaIaJaKaLaMaNaOaPaQaRaSaTaUaVaWaXaYaZa0a1a2a3a4a5a6a7a8a9a.a+babbbcbdbebfbgbhbibjbkblbmbnbobpbqbrbsbtbubvbwbxbybzbAbBbCbDbEbFbGbHbIbJbKbLbMbNbObPbQbRbSbTbUbVbWbXbYbZb0b1b2b3b4b5b6b7b8b9b.b+cacbcccdcecfcgchcicjckclcmcncocpcqcrcsctcucvcwcxcyczcAcBcCcDcEcFcGcHcIcJcKcLcMcNcOcPcQcRcScTcUcVcWcXcYcZc0c1c2c3c4c5c6c7c8c9c.c+dadbdcdddedfdgdhdidjdkdldmdndodpdqdrdsdtdudvdwdxdydzdAdBdCdDdEdFdGdHdIdJdKdLdMdNdOdPdQdRdSdTdUdVdWdXdYdZd0d1d2d3d4d5d6d7d8d9d.d+eaebecedeeefegeheiejekelemeneoepeqereseteuevewexeyezeAeBeCeDeEeFeGeHeIeJeKeLeMeNeOePeQeReSeTeUeVeWeXeYeZe0e1e2e3e4e5e6e7e8e9e.e+fafbfcfdfefffgfhfifjfkflfmfnfofpfqfrfsftfufvfwfxfyfzfAfBfCfDfEfFfGfHfIfJfKfLfMfNfOfPfQfRfSfTfUfVfWfXfYfZf0f1f2f3f4f5f6f7f8f9f.f+gagbgcgdgegfggghgigjgkglgmgngogpgqgrgsgtgugvgwgxgygzgAgBgCgDgEgFgGgHgIgJgKgLgMgNgOgPgQgRgSgTgUgVgWgXgYgZg0g1g2g3g4g5g6g7g8g9g.g+hahbhchdhehfhghhhihjhkhlhmhnhohphqhrhshthuhvhwhxhyhzhAhBhChDhEhFhGhHhIhJhKhLhMhNhOhPhQhRhShThUhVhWhXhYhZh0h1h2h3h4h5h6h7h8h9h.h+",
"aaabacadaeafagahaiajakalamanaoapaqarasatauavawaxayazaAaBaCaDaEaFaGaHaIaJaKaLaMaNaOaPaQaRaSaTaUaVaWaXaYaZa0a1a2a3a4a5a6a7a8a9a.a+babbbcbdbebfbgbhbibjbkblbmbnbobpbqbrbsbtbubvbwbxbybzbAbBbCbDbEbFbGbHbIbJbKbLbMbNbObPbQbRbSbTbUbVbWbXbYbZb0b1b2b3b4b5b6b7b8b9b.b+cacbcccdcecfcgchcicjckclcmcncocpcqcrcsctcucvcwcxcyczcAcBcCcDcEcFcGcHcIcJcKcLcMcNcOcPcQcRcScTcUcVcWcXcYcZc0c1c2c3c4c5c6c7c8c9c.c+dadbdcdddedfdgdhdidjdkdldmdndodpdqdrdsdtdudvdwdxdydzdAdBdCdDdEdFdGdHdIdJdKdLdMdNdOdPdQdRdSdTdUdVdWdXdYdZd0d1d2d3d4d5d6d7d8d9d.d+eaebecedeeefegeheiejekelemeneoepeqereseteuevewexeyezeAeBeCeDeEeFeGeHeIeJeKeLeMeNeOePeQeReSeTeUeVeWeXeYeZe0e1e2e3e4e5e6e7e8e9e.e+fafbfcfdfefffgfhfifjfkflfmfnfofpfqfrfsftfufvfwfxfyfzfAfBfCfDfEfFfGfHfIfJfKfLfMfNfOfPfQfRfSfTfUfVfWfXfYfZf0f1f2f3f4f5f6f7f8f9f.f+gagbgcgdgegfggghgigjgkglgmgngogpgqgrgsgtgugvgwgxgygzgAgBgCgDgEgFgGgHgIgJgKgLgMgNgOgPgQgRgSgTgUgVgWgXgYgZg0g1g2g3g4g5g6g7g8g9g.g+hahbhchdhehfhghhhihjhkhlhmhnhohphqhrhshthuhvhwhxhyhzhAhBhChDhEhFhGhHhIhJhKhLhMhNhOhPhQhRhShThUhVhWhXhYhZh0h1h2h3h4h5h6h7h8h9h.h+",
"aaabacadaeafagahaiajakalamanaoapaqarasatauavawaxayazaAaBaCaDaEaFaGaHaIaJaKaLaMaNaOaPaQaRaSaTaUaVaWaXaYaZa0a1a2a3a4a5a6a7a8a9a.a+babbbcbdbebfbgbhbibjbkblbmbnbobpbqbrbsbtbubvbwbxbybzbAbBbCbDbEbFbGbHbIbJbKbLbMbNbObPbQbRbSbTbUbVbWbXbYbZb0b1b2b3b4b5b6b7b8b9b.b+cacbcccdcecfcgchcicjckclcmcncocpcqcrcsctcucvcwcxcyczcAcBcCcDcEcFcGcHcIcJcKcLcMcNcOcPcQcRcScTcUcVcWcXcYcZc0c1c2c3c4c5c6c7c8c9c.c+dadbdcdddedfdgdhdidjdkdldmdndodpdqdrdsdtdudvdwdxdydzdAdBdCdDdEdFdGdHdIdJdKdLdMdNdOdPdQdRdSdTdUdVdWdXdYdZd0d1d2d3d4d5d6d7d8d9d.d+eaebecedeeefegeheiejekelemeneoepeqereseteuevewexeyezeAeBeCeDeEeFeGeHeIeJeKeLeMeNeOePeQeReSeTeUeVeWeXeYeZe0e1e2e3e4e5e6e7e8e9e.e+fafbfcfdfefffgfhfifjfkflfmfnfofpfqfrfsftfufvfwfxfyfzfAfBfCfDfEfFfGfHfIfJfKfLfMfNfOfPfQfRfSfTfUfVfWfXfYfZf0f1f2f3f4f5f6f7f8f9f.f+gagbgcgdgegfggghgigjgkglgmgngogpgqgrgsgtgugvgwgxgygzgAgBgCgDgEgFgGgHgIgJgKgLgMgNgOgPgQgRgSgTgUgVgWgXgYgZg0g1g2g3g4g5g6g7g8g9g.g+hahbhchdhehfhghhhihjhkhlhmhnhohphqhrhshthuhvhwhxhyhzhAhBhChDhEhFhGhHhIhJhKhLhMhNhOhPhQhRhShThUhVhWhXhYhZh0h1h2h3h4h5h6h7h8h9h.h+",
"aaabacadaeafagahaiajakalamanaoapaqarasatauavawaxayazaAaBaCaDaEaFaGaHaIaJaKaLaMaNaOaPaQaRaSaTaUaVaWaXaYaZa0a1a2a3a4a5a6a7a8a9a.a+babbbcbdbebfbgbhbibjbkblbmbnbobpbqbrbsbtbubvbwbxbybzbAbBbCbDbEbFbGbHbIbJbKbLbMbNbObPbQbRbSbTbUbVbWbXbYbZb0b1b2b3b4b5b6b7b8b9b.b+cacbcccdcecfcgchcicjckclcmcncocpcqcrcsctcucvcwcxcyczcAcBcCcDcEcFcGcHcIcJcKcLcMcNcOcPcQcRcScTcUcVcWcXcYcZc0c1c2c3c4c5c6c7c8c9c.c+dadbdcdddedfdgdhdidjdkdldmdndodpdqdrdsdtdudvdwdxdydzdAdBdCdDdEdFdGdHdIdJdKdLdMdNdOdPdQdRdSdTdUdVdWdXdYdZd0d1d2d3d4d5d6d7d8d9d.d+eaebecedeeefegeheiejekelemeneoepeqereseteuevewexeyezeAeBeCeDeEeFeGeHeIeJeKeLeMeNeOePeQeReSeTeUeVeWeXeYeZe0e1e2e3e4e5e6e7e8e9e.e+fafbfcfdfefffgfhfifjfkflfmfnfofpfqfrfsftfufvfwfxfyfzfAfBfCfDfEfFfGfHfIfJfKfLfMfNfOfPfQfRfSfTfUfVfWfXfYfZf0f1f2f3f4f5f6f7f8f9f.f+gagbgcgdgegfggghgigjgkglgmgngogpgqgrgsgtgugvgwgxgygzgAgBgCgDgEgFgGgHgIgJgKgLgMgNgOgPgQgRgSgTgUgVgWgXgYgZg0g1g2g3g4g5g6g7g8g9g.g+hahbhchdhehfhghhhihjhkhlhmhnhohphqhrhshthuhvhwhxhyhzhAhBhChDhEhFhGhHhIhJhKhLhMhNhOhPhQhRhShThUhVhWhXhYhZh0h1h2h3h4h5h6h7h8h9h.h+",
"aaabacadaeafagahaiajakalamanaoapaqarasatauavawaxayazaAaBaCaDaEaFaGaHaIaJaKaLaMaNaOaPaQaRaSaTaUaVaWaXaYaZa0a1a2a3a4a5a6a7a8a9a.a+babbbcbdbebfbgbhbibjbkblbmbnbobpbqbrbsbtbubvbwbxbybzbAbBbCbDbEbFbGbHbIbJbKbLbMbNbObPbQbRbSbTbUbVbWbXbYbZb0b1b2b3b4b5b6b7b8b9b.b+cacbcccdcecfcgchcicjckclcmcncocpcqcrcsctcucvcwcxcyczcAcBcCcDcEcFcGcHcIcJcKcLcMcNcOcPcQcRcScTcUcVcWcXcYcZc0c1c2c3c4c5c6c7c8c9c.c+dadbdcdddedfdgdhdidjdkdldmdndodpdqdrdsdtdudvdwdxdydzdAdBdCdDdEdFdGdHdIdJdKdLdMdNdOdPdQdRdSdTdUdVdWdXdYdZd0d1d2d3d4d5d6d7d8d9d.d+eaebecedeeefegeheiejekelemeneoepeqereseteuevewexeyezeAeBeCeDeEeFeGeHeIeJeKeLeMeNeOePeQeReSeTeUeVeWeXeYeZe0e1e2e3e4e5e6e7e8e9e.e+fafbfcfdfefffgfhfifjfkflfmfnfofpfqfrfsftfufvfwfxfyfzfAfBfCfDfEfFfGfHfIfJfKfLfMfNfOfPfQfRfSfTfUfVfWfXfYfZf0f1f2f3f4f5f6f7f8f9f.f+gagbgcgdgegfggghgigjgkglgmgngogpgqgrgsgtgugvgwgxgygzgAgBgCgDgEgFgGgHgIgJgKgLgMgNgOgPgQgRgSgTgUgVgWgXgYgZg0g1g2g3g4g5g6g7g8g9g.g+hahbhchdhehfhghhhihjhkhlhmhnhohphqhrhshthuhvhwhxhyhzhAhBhChDhEhFhGhHhIhJhKhLhMhNhOhPhQhRhShThUhVhWhXhYhZh0h1h2h3h4h5h6h7h8h9h.h+",
"aaabacadaeafagahaiajakalamanaoapaqarasatauavawaxayazaAaBaCaDaEaFaGaHaIaJaKaLaMaNaOaPaQaRaSaTaUaVaWaXaYaZa0a1a2a3a4a5a6a7a8a9a.a+babbbcbdbebfbgbhbibjbkblbmbnbobpbqbrbsbtbubvbwbxbybzbAbBbCbDbEbFbGbHbIbJbKbLbMbNbObPbQbRbSbTbUbVbWbXbYbZb0b1b2b3b4b5b6b7b8b9b.b+cacbcccdcecfcgchcicjckclcmcncocpcqcrcsctcucvcwcxcyczcAcBcCcDcEcFcGcHcIcJcKcLcMcNcOcPcQcRcScTcUcVcWcXcYcZc0c1c2c3c4c5c6c7c8c9c.c+dadbdcdddedfdgdhdidjdkdldmdndodpdqdrdsdtdudvdwdxdydzdAdBdCdDdEdFdGdHdIdJdKdLdMdNdOdPdQdRdSdTdUdVdWdXdYdZd0d1d2d3d4d5d6d7d8d9d.d+eaebecedeeefegeheiejekelemeneoepeqereseteuevewexeyezeAeBeCeDeEeFeGeHeIeJeKeLeMeNeOePeQeReSeTeUeVeWeXeYeZe0e1e2e3e4e5e6e7e8e9e.e+fafbfcfdfefffgfhfifjfkflfmfnfofpfqfrfsftfufvfwfxfyfzfAfBfCfDfEfFfGfHfIfJfKfLfMfNfOfPfQfRfSfTfUfVfWfXfYfZf0f1f2f3f4f5f6f7f8f9f.f+gagbgcgdgegfggghgigjgkglgmgngogpgqgrgsgtgugvgwgxgygzgAgBgCgDgEgFgGgHgIgJgKgLgMgNgOgPgQgRgSgTgUgVgWgXgYgZg0g1g2g3g4g5g6g7g8g9g.g+hahbhchdhehfhghhhihjhkhlhmhnhohphqhrhshthuhvhwhxhyhzhAhBhChDhEhFhGhHhIhJhKhLhMhNhOhPhQhRhShThUhVhWhXhYhZh0h1h2h3h4h5h6h7h8h9h.h+",
"aaabacadaeafagahaiajakalamanaoapaqarasatauavawaxayazaAaBaCaDaEaFaGaHaIaJaKaLaMaNaOaPaQaRaSaTaUaVaWaXaYaZa0a1a2a3a4a5a6a7a8a9a.a+babbbcbdbebfbgbhbibjbkblbmbnbobpbqbrbsbtbubvbwbxbybzbAbBbCbDbEbFbGbHbIbJbKbLbMbNbObPbQbRbSbTbUbVbWbXbYbZb0b1b2b3b4b5b6b7b8b9b.b+cacbcccdcecfcgchcicjckclcmcncocpcqcrcsctcucvcwcxcyczcAcBcCcDcEcFcGcHcIcJcKcLcMcNcOcPcQcRcScTcUcVcWcXcYcZc0c1c2c3c4c5c6c7c8c9c.c+dadbdcdddedfdgdhdidjdkdldmdndodpdqdrdsdtdudvdwdxdydzdAdBdCdDdEdFdGdHdIdJdKdLdMdNdOdPdQdRdSdTdUdVdWdXdYdZd0d1d2d3d4d5d6d7d8d9d.d+eaebecedeeefegeheiejekelemeneoepeqereseteuevewexeyezeAeBeCeDeEeFeGeHeIeJeKeLeMeNeOePeQeReSeTeUeVeWeXeYeZe0e1e2e3e4e5e6e7e8e9e.e+fafbfcfdfefffgfhfifjfkflfmfnfofpfqfrfsftfufvfwfxfyfzfAfBfCfDfEfFfGfHfIfJfKfLfMfNfOfPfQfRfSfTfUfVfWfXfYfZf0f1f2f3f4f5f6f7f8f9f.f+gagbgcgdgegfggghgigjgkglgmgngogpgqgrgsgtgugvgwgxgygzgAgBgCgDgEgFgGgHgIgJgKgLgMgNgOgPgQgRgSgTgUgVgWgXgYgZg0g1g2g3g4g5g6g7g8g9g.g+hahbhchdhehfhghhhihjhkhlhmhnhohphqhrhshthuhvhwhxhyhzhAhBhChDhEhFhGhHhIhJhKhLhMhNhOhPhQhRhShThUhVhWhXhYhZh0h1h2h3h4h5h6h7h8h9h.h+",
"aaabacadaeafagahaiajakalamanaoapaqarasatauavawaxayazaAaBaCaDaEaFaGaHaIaJaKaLaMaNaOaPaQaRaSaTaUaVaWaXaYaZa0a1a2a3a4a5a6a7a8a9a.a+babbbcbdbebfbgbhbibjbkblbmbnbobpbqbrbsbtbubvbwbxbybzbAbBbCbDbEbFbGbHbIbJbKbLbMbNbObPbQbRbSbTbUbVbWbXbYbZb0b1b2b3b4b5b6b7b8b9b.b+cacbcccdcecfcgchcicjckclcmcncocpcqcrcsctcucvcwcxcyczcAcBcCcDcEcFcGcHcIcJcKcLcMcNcOcPcQcRcScTcUcVcWcXcYcZc0c1c2c3c4c5c6c7c8c9c.c+dadbdcdddedfdgdhdidjdkdldmdndodpdqdrdsdtdudvdwdxdydzdAdBdCdDdEdFdGdHdIdJdKdLdMdNdOdPdQdRdSdTdUdVdWdXdYdZd0d1d2d3d4d5d6d7d8d9d.d+eaebecedeeefegeheiejekelemeneoepeqereseteuevewexeyezeAeBeCeDeEeFeGeHeIeJeKeLeMeNeOePeQeReSeTeUeVeWeXeYeZe0e1e2e3e4e5e6e7e8e9e.e+fafbfcfdfefffgfhfifjfkflfmfnfofpfqfrfsftfufvfwfxfyfzfAfBfCfDfEfFfGfHfIfJfKfLfMfNfOfPfQfRfSfTfUfVfWfXfYfZf0f1f2f3f4f5f6f7f8f9f.f+gagbgcgdgegfggghgigjgkglgmgngogpgqgrgsgtgugvgwgxgygzgAgBgCgDgEgFgGgHgIgJgKgLgMgNgOgPgQgRgSgTgUgVgWgXgYgZg0g1g2g3g4g5g6g7g8g9g.g+hahbhchdhehfhghhhihjhkhlhmhnhohphqhrhshthuhvhwhxhyhzhAhBhChDhEhFhGhHhIhJhKhLhMhNhOhPhQhRhShThUhVhWhXhYhZh0h1h2h3h4h5h6h7h8h9h.h+",
"aaabacadaeafagahaiajakalamanaoapaqarasatauavawaxayazaAaBaCaDaEaFaGaHaIaJaKaLaMaNaOaPaQaRaSaTaUaVaWaXaYaZa0a1a2a3a4a5a6a7a8a9a.a+babbbcbdbebfbgbhbibjbkblbmbnbobpbqbrbsbtbubvbwbxbybzbAbBbCbDbEbFbGbHbIbJbKbLbMbNbObPbQbRbSbTbUbVbWbXbYbZb0b1b2b3b4b5b6b7b8b9b.b+cacbcccdcecfcgchcicjckclcmcncocpcqcrcsctcucvcwcxcyczcAcBcCcDcEcFcGcHcIcJcKcLcMcNcOcPcQcRcScTcUcVcWcXcYcZc0c1c2c3c4c5c6c7c8c9c.c+dadbdcdddedfdgdhdidjdkdldmdndodpdqdrdsdtdudvdwdxdydzdAdBdCdDdEdFdGdHdIdJdKdLdMdNdOdPdQdRdSdTdUdVdWdXdYdZd0d1d2d3d4d5d6d7d8d9d.d+eaebecedeeefegeheiejekelemeneoepeqereseteuevewexeyezeAeBeCeDeEeFeGeHeIeJeKeLeMeNeOePeQeReSeTeUeVeWeXeYeZe0e1e2e3e4e5e6e7e8e9e.e+fafbfcfdfefffgfhfifjfkflfmfnfofpfqfrfsftfufvfwfxfyfzfAfBfCfDfEfFfGfHfIfJfKfLfMfNfOfPfQfRfSfTfUfVfWfXfYfZf0f1f2f3f4f5f6f7f8f9f.f+gagbgcgdgegfggghgigjgkglgmgngogpgqgrgsgtgugvgwgxgygzgAgBgCgDgEgFgGgHgIgJgKgLgMgNgOgPgQgRgSgTgUgVgWgXgYgZg0g1g2g3g4g5g6g7g8g9g.g+hahbhchdhehfhghhhihjhkhlhmhnhohphqhrhshthuhvhwhxhyhzhAhBhChDhEhFhGhHhIhJhKhLhMhNhOhPhQhRhShThUhVhWhXhYhZh0h1h2h3h4h5h6h7h8h9h.h+",
"aaabacadaeafagahaiajakalamanaoapaqarasatauavawaxayazaAaBaCaDaEaFaGaHaIaJaKaLaMaNaOaPaQaRaSaTaUaVaWaXaYaZa0a1a2a3a4a5a6a7a8a9a.a+babbbcbdbebfbgbhbibjbkblbmbnbobpbqbrbsbtbubvbwbxbybzbAbBbCbDbEbFbGbHbIbJbKbLbMbNbObPbQbRbSbTbUbVbWbXbYbZb0b1b2b3b4b5b6b7b8b9b.b+cacbcccdcecfcgchcicjckclcmcncocpcqcrcsctcucvcwcxcyczcAcBcCcDcEcFcGcHcIcJcKcLcMcNcOcPcQcRcScTcUcVcWcXcYcZc0c1c2c3c4c5c6c7c8c9c.c+dadbdcdddedfdgdhdidjdkdldmdndodpdqdrdsdtdudvdwdxdydzdAdBdCdDdEdFdGdHdIdJdKdLdMdNdOdPdQdRdSdTdUdVdWdXdYdZd0d1d2d3d4d5d6d7d8d9d.d+eaebecedeeefegeheiejekelemeneoepeqereseteuevewexeyezeAeBeCeDeEeFeGeHeIeJeKeLeMeNeOePeQeReSeTeUeVeWeXeYeZe0e1e2e3e4e5e6e7e8e9e.e+fafbfcfdfefffgfhfifjfkflfmfnfofpfqfrfsftfufvfwfxfyfzfAfBfCfDfEfFfGfHfIfJfKfLfMfNfOfPfQfRfSfTfUfVfWfXfYfZf0f1f2f3f4f5f6f7f8f9f.f+gagbgcgdgegfggghgigjgkglgmgngogpgqgrgsgtgugvgwgxgygzgAgBgCgDgEgFgGgHgIgJgKgLgMgNgOgPgQgRgSgTgUgVgWgXgYgZg0g1g2g3g4g5g6g7g8g9g.g+hahbhchdhehfhghhhihjhkhlhmhnhohphqhrhshthuhvhwhxhyhzhAhBhChDhEhFhGhHhIhJhKhLhMhNhOhPhQhRhShThUhVhWhXhYhZh0h1h2h3h4h5h6h7h8h9h.h+",
"aaabacadaeafagahaiajakalamanaoapaqarasatauavawaxayazaAaBaCaDaEaFaGaHaIaJaKaLaMaNaOaPaQaRaSaTaUaVaWaXaYaZa0a1a2a3a4a5a6a7a8a9a.a+babbbcbdbebfbgbhbibjbkblbmbnbobpbqbrbsbtbubvbwbxbybzbAbBbCbDbEbFbGbHbIbJbKbLbMbNbObPbQbRbSbTbUbVbWbXbYbZb0b1b2b3b4b5b6b7b8b9b.b+cacbcccdcecfcgchcicjckclcmcncocpcqcrcsctcucvcwcxcyczcAcBcCcDcEcFcGcHcIcJcKcLcMcNcOcPcQcRcScTcUcVcWcXcYcZc0c1c2c3c4c5c6c7c8c9c.c+dadbdcdddedfdgdhdidjdkdldmdndodpdqdrdsdtdudvdwdxdydzdAdBdCdDdEdFdGdHdIdJdKdLdMdNdOdPdQdRdSdTdUdVdWdXdYdZd0d1d2d3d4d5d6d7d8d9d.d+eaebecedeeefegeheiejekelemeneoepeqereseteuevewexeyezeAeBeCeDeEeFeGeHeIeJeKeLeMeNeOePeQeReSeTeUeVeWeXeYeZe0e1e2e3e4e5e6e7e8e9e.e+fafbfcfdfefffgfhfifjfkflfmfnfofpfqfrfsftfufvfwfxfyfzfAfBfCfDfEfFfGfHfIfJfKfLfMfNfOfPfQfRfSfTfUfVfWfXfYfZf0f1f2f3f4f5f6f7f8f9f.f+gagbgcgdgegfggghgigjgkglgmgngogpgqgrgsgtgugvgwgxgygzgAgBgCgDgEgFgGgHgIgJgKgLgMgNgOgPgQgRgSgTgUgVgWgXgYgZg0g1g2g3g4g5g6g7g8g9g.g+hahbhchdhehfhghhhihjhkhlhmhnhohphqhrhshthuhvhwhxhyhzhAhBhChDhEhFhGhHhIhJhKhLhMhNhOhPhQhRhShThUhVhWhXhYhZh0h1h2h3h4h5h6h7h8h9h.h+",
"aaabacadaeafagahaiajakalamanaoapaqarasatauavawaxayazaAaBaCaDaEaFaGaHaIaJaKaLaMaNaOaPaQaRaSaTaUaVaWaXaYaZa0a1a2a3a4a5a6a7a8a9a.a+babbbcbdbebfbgbhbibjbkblbmbnbobpbqbrbsbtbubvbwbxbybzbAbBbCbDbEbFbGbHbIbJbKbLbMbNbObPbQbRbSbTbUbVbWbXbYbZb0b1b2b3b4b5b6b7b8b9b.b+cacbcccdcecfcgchcicjckclcmcncocpcqcrcsctcucvcwcxcyczcAcBcCcDcEcFcGcHcIcJcKcLcMcNcOcPcQcRcScTcUcVcWcXcYcZc0c1c2c3c4c5c6c7c8c9c.c+dadbdcdddedfdgdhdidjdkdldmdndodpdqdrdsdtdudvdwdxdydzdAdBdCdDdEdFdGdHdIdJdKdLdMdNdOdPdQdRdSdTdUdVdWdXdYdZd0d1d2d3d4d5d6d7d8d9d.d+eaebecedeeefegeheiejekelemeneoepeqereseteuevewexeyezeAeBeCeDeEeFeGeHeIeJeKeLeMeNeOePeQeReSeTeUeVeWeXeYeZe0e1e2e3e4e5e6e7e8e9e.e+fafbfcfdfefffgfhfifjfkflfmfnfofpfqfrfsftfufvfwfxfyfzfAfBfCfDfEfFfGfHfIfJfKfLfMfNfOfPfQfRfSfTfUfVfWfXfYfZf0f1f2f3f4f5f6f7f8f9f.f+gagbgcgdgegfggghgigjgkglgmgngogpgqgrgsgtgugvgwgxgygzgAgBgCgDgEgFgGgHgIgJgKgLgMgNgOgPgQgRgSgTgUgVgWgXgYgZg0g1g2g3g4g5g6g7g8g9g.g+hahbhchdhehfhghhhihjhkhlhmhnhohphqhrhshthuhvhwhxhyhzhAhBhChDhEhFhGhHhIhJhKhLhMhNhOhPhQhRhShThUhVhWhXhYhZh0h1h2h3h4h5h6h7h8h9h.h+",
"aaabacadaeafagahaiajakalamanaoapaqarasatauavawaxayazaAaBaCaDaEaFaGaHaIaJaKaLaMaNaOaPaQaRaSaTaUaVaWaXaYaZa0a1a2a3a4a5a6a7a8a9a.a+babbbcbdbebfbgbhbibjbkblbmbnbobpbqbrbsbtbubvbwbxbybzbAbBbCbDbEbFbGbHbIbJbKbLbMbNbObPbQbRbSbTbUbVbWbXbYbZb0b1b2b3b4b5b6b7b8b9b.b+cacbcccdcecfcgchcicjckclcmcncocpcqcrcsctcucvcwcxcyczcAcBcCcDcEcFcGcHcIcJcKcLcMcNcOcPcQcRcScTcUcVcWcXcYcZc0c1c2c3c4c5c6c7c8c9c.c+dadbdcdddedfdgdhdidjdkdldmdndodpdqdrdsdtdudvdwdxdydzdAdBdCdDdEdFdGdHdIdJdKdLdMdNdOdPdQdRdSdTdUdVdWdXdYdZd0d1d2d3d4d5d6d7d8d9d.d+eaebecedeeefegeheiejekelemeneoepeqereseteuevewexeyezeAeBeCeDeEeFeGeHeIeJeKeLeMeNeOePeQeReSeTeUeVeWeXeYeZe0e1e2e3e4e5e6e7e8e9e.e+fafbfcfdfefffgfhfifjfkflfmfnfofpfqfrfsftfufvfwfxfyfzfAfBfCfDfEfFfGfHfIfJfKfLfMfNfOfPfQfRfSfTfUfVfWfXfYfZf0f1f2f3f4f5f6f7f8f9f.f+gagbgcgdgegfggghgigjgkglgmgngogpgqgrgsgtgugvgwgxgygzgAgBgCgDgEgFgGgHgIgJgKgLgMgNgOgPgQgRgSgTgUgVgWgXgYgZg0g1g2g3g4g5g6g7g8g9g.g+hahbhchdhehfhghhhihjhkhlhmhnhohphqhrhshthuhvhwhxhyhzhAhBhChDhEhFhGhHhIhJhKhLhMhNhOhPhQhRhShThUhVhWhXhYhZh0h1h2h3h4h5h6h7h8h9h.h+",
"aaabacadaeafagahaiajakalamanaoapaqarasatauavawaxayazaAaBaCaDaEaFaGaHaIaJaKaLaMaNaOaPaQaRaSaTaUaVaWaXaYaZa0a1a2a3a4a5a6a7a8a9a.a+babbbcbdbebfbgbhbibjbkblbmbnbobpbqbrbsbtbubvbwbxbybzbAbBbCbDbEbFbGbHbIbJbKbLbMbNbObPbQbRbSbTbUbVbWbXbYbZb0b1b2b3b4b5b6b7b8b9b.b+cacbcccdcecfcgchcicjckclcmcncocpcqcrcsctcucvcwcxcyczcAcBcCcDcEcFcGcHcIcJcKcLcMcNcOcPcQcRcScTcUcVcWcXcYcZc0c1c2c3c4c5c6c7c8c9c.c+dadbdcdddedfdgdhdidjdkdldmdndodpdqdrdsdtdudvdwdxdydzdAdBdCdDdEdFdGdHdIdJdKdLdMdNdOdPdQdRdSdTdUdVdWdXdYdZd0d1d2d3d4d5d6d7d8d9d.d+eaebecedeeefegeheiejekelemeneoepeqereseteuevewexeyezeAeBeCeDeEeFeGeHeIeJeKeLeMeNeOePeQeReSeTeUeVeWeXeYeZe0e1e2e3e4e5e6e7e8e9e.e+fafbfcfdfefffgfhfifjfkflfmfnfofpfqfrfsftfufvfwfxfyfzfAfBfCfDfEfFfGfHfIfJfKfLfMfNfOfPfQfRfSfTfUfVfWfXfYfZf0f1f2f3f4f5f6f7f8f9f.f+gagbgcgdgegfggghgigjgkglgmgngogpgqgrgsgtgugvgwgxgygzgAgBgCgDgEgFgGgHgIgJgKgLgMgNgOgPgQgRgSgTgUgVgWgXgYgZg0g1g2g3g4g5g6g7g8g9g.g+hahbhchdhehfhghhhihjhkhlhmhnhohphqhrhshthuhvhwhxhyhzhAhBhChDhEhFhGhHhIhJhKhLhMhNhOhPhQhRhShThUhVhWhXhYhZh0h1h2h3h4h5h6h7h8h9h.h+",
"aaabacadaeafagahaiajakalamanaoapaqarasatauavawaxayazaAaBaCaDaEaFaGaHaIaJaKaLaMaNaOaPaQaRaSaTaUaVaWaXaYaZa0a1a2a3a4a5a6a7a8a9a.a+babbbcbdbebfbgbhbibjbkblbmbnbobpbqbrbsbtbubvbwbxbybzbAbBbCbDbEbFbGbHbIbJbKbLbMbNbObPbQbRbSbTbUbVbWbXbYbZb0b1b2b3b4b5b6b7b8b9b.b+cacbcccdcecfcgchcicjckclcmcncocpcqcrcsctcucvcwcxcyczcAcBcCcDcEcFcGcHcIcJcKcLcMcNcOcPcQcRcScTcUcVcWcXcYcZc0c1c2c3c4c5c6c7c8c9c.c+dadbdcdddedfdgdhdidjdkdldmdndodpdqdrdsdtdudvdwdxdydzdAdBdCdDdEdFdGdHdIdJdKdLdMdNdOdPdQdRdSdTdUdVdWdXdYdZd0d1d2d3d4d5d6d7d8d9d.d+eaebecedeeefegeheiejekelemeneoepeqereseteuevewexeyezeAeBeCeDeEeFeGeHeIeJeKeLeMeNeOePeQeReSeTeUeVeWeXeYeZe0e1e2e3e4e5e6e7e8e9e.e+fafbfcfdfefffgfhfifjfkflfmfnfofpfqfrfsftfufvfwfxfyfzfAfBfCfDfEfFfGfHfIfJfKfLfMfNfOfPfQfRfSfTfUfVfWfXfYfZf0f1f2f3f4f5f6f7f8f9f.f+gagbgcgdgegfggghgigjgkglgmgngogpgqgrgsgtgugvgwgxgygzgAgBgCgDgEgFgGgHgIgJgKgLgMgNgOgPgQgRgSgTgUgVgWgXgYgZg0g1g2g3g4g5g6g7g8g9g.g+hahbhchdhehfhghhhihjhkhlhmhnhohphqhrhshthuhvhwhxhyhzhAhBhChDhEhFhGhHhIhJhKhLhMhNhOhPhQhRhShThUhVhWhXhYhZh0h1h2h3h4h5h6h7h8h9h.h+",
"aaabacadaeafagahaiajakalamanaoapaqarasatauavawaxayazaAaBaCaDaEaFaGaHaIaJaKaLaMaNaOaPaQaRaSaTaUaVaWaXaYaZa0a1a2a3a4a5a6a7a8a9a.a+babbbcbdbebfbgbhbibjbkblbmbnbobpbqbrbsbtbubvbwbxbybzbAbBbCbDbEbFbGbHbIbJbKbLbMbNbObPbQbRbSbTbUbVbWbXbYbZb0b1b2b3b4b5b6b7b8b9b.b+cacbcccdcecfcgchcicjckclcmcncocpcqcrcsctcucvcwcxcyczcAcBcCcDcEcFcGcHcIcJcKcLcMcNcOcPcQcRcScTcUcVcWcXcYcZc0c1c2c3c4c5c6c7c8c9c.c+dadbdcdddedfdgdhdidjdkdldmdndodpdqdrdsdtdudvdwdxdydzdAdBdCdDdEdFdGdHdIdJdKdLdMdNdOdPdQdRdSdTdUdVdWdXdYdZd0d1d2d3d4d5d6d7d8d9d.d+eaebecedeeefegeheiejekelemeneoepeqereseteuevewexeyezeAeBeCeDeEeFeGeHeIeJeKeLeMeNeOePeQeReSeTeUeVeWeXeYeZe0e1e2e3e4e5e6e7e8e9e.e+fafbfcfdfefffgfhfifjfkflfmfnfofpfqfrfsftfufvfwfxfyfzfAfBfCfDfEfFfGfHfIfJfKfLfMfNfOfPfQfRfSfTfUfVfWfXfYfZf0f1f2f3f4f5f6f7f8f9f.f+gagbgcgdgegfggghgigjgkglgmgngogpgqgrgsgtgugvgwgxgygzgAgBgCgDgEgFgGgHgIgJgKgLgMgNgOgPgQgRgSgTgUgVgWgXgYgZg0g1g2g3g4g5g6g7g8g9g.g+hahbhchdhehfhghhhihjhkhlhmhnhohphqhrhshthuhvhwhxhyhzhAhBhChDhEhFhGhHhIhJhKhLhMhNhOhPhQhRhShThUhVhWhXhYhZh0h1h2h3h4h5h6h7h8h9h.h+",
"aaabacadaeafagahaiajakalamanaoapaqarasatauavawaxayazaAaBaCaDaEaFaGaHaIaJaKaLaMaNaOaPaQaRaSaTaUaVaWaXaYaZa0a1a2a3a4a5a6a7a8a9a.a+babbbcbdbebfbgbhbibjbkblbmbnbobpbqbrbsbtbubvbwbxbybzbAbBbCbDbEbFbGbHbIbJbKbLbMbNbObPbQbRbSbTbUbVbWbXbYbZb0b1b2b3b4b5b6b7b8b9b.b+cacbcccdcecfcgchcicjckclcmcncocpcqcrcsctcucvcwcxcyczcAcBcCcDcEcFcGcHcIcJcKcLcMcNcOcPcQcRcScTcUcVcWcXcYcZc0c1c2c3c4c5c6c7c8c9c.c+dadbdcdddedfdgdhdidjdkdldmdndodpdqdrdsdtdudvdwdxdydzdAdBdCdDdEdFdGdHdIdJdKdLdMdNdOdPdQdRdSdTdUdVdWdXdYdZd0d1d2d3d4d5d6d7d8d9d.d+eaebecedeeefegeheiejekelemeneoepeqereseteuevewexeyezeAeBeCeDeEeFeGeHeIeJeKeLeMeNeOePeQeReSeTeUeVeWeXeYeZe0e1e2e3e4e5e6e7e8e9e.e+fafbfcfdfefffgfhfifjfkflfmfnfofpfqfrfsftfufvfwfxfyfzfAfBfCfDfEfFfGfHfIfJfKfLfMfNfOfPfQfRfSfTfUfVfWfXfYfZf0f1f2f3f4f5f6f7f8f9f.f+gagbgcgdgegfggghgigjgkglgmgngogpgqgrgsgtgugvgwgxgygzgAgBgCgDgEgFgGgHgIgJgKgLgMgNgOgPgQgRgSgTgUgVgWgXgYgZg0g1g2g3g4g5g6g7g8g9g.g+hahbhchdhehfhghhhihjhkhlhmhnhohphqhrhshthuhvhwhxhyhzhAhBhChDhEhFhGhHhIhJhKhLhMhNhOhPhQhRhShThUhVhWhXhYhZh0h1h2h3h4h5h6h7h8h9h.h+",
"aaabacadaeafagahaiajakalamanaoapaqarasatauavawaxayazaAaBaCaDaEaFaGaHaIaJaKaLaMaNaOaPaQaRaSaTaUaVaWaXaYaZa0a1a2a3a4a5a6a7a8a9a.a+babbbcbdbebfbgbhbibjbkblbmbnbobpbqbrbsbtbubvbwbxbybzbAbBbCbDbEbFbGbHbIbJbKbLbMbNbObPbQbRbSbTbUbVbWbXbYbZb0b1b2b3b4b5b6b7b8b9b.b+cacbcccdcecfcgchcicjckclcmcncocpcqcrcsctcucvcwcxcyczcAcBcCcDcEcFcGcHcIcJcKcLcMcNcOcPcQcRcScTcUcVcWcXcYcZc0c1c2c3c4c5c6c7c8c9c.c+dadbdcdddedfdgdhdidjdkdldmdndodpdqdrdsdtdudvdwdxdydzdAdBdCdDdEdFdGdHdIdJdKdLdMdNdOdPdQdRdSdTdUdVdWdXdYdZd0d1d2d3d4d5d6d7d8d9d.d+eaebecedeeefegeheiejekelemeneoepeqereseteuevewexeyezeAeBeCeDeEeFeGeHeIeJeKeLeMeNeOePeQeReSeTeUeVeWeXeYeZe0e1e2e3e4e5e6e7e8e9e.e+fafbfcfdfefffgfhfifjfkflfmfnfofpfqfrfsftfufvfwfxfyfzfAfBfCfDfEfFfGfHfIfJfKfLfMfNfOfPfQfRfSfTfUfVfWfXfYfZf0f1f2f3f4f5f6f7f8f9f.f+gagbgcgdgegfggghgigjgkglgmgngogpgqgrgsgtgugvgwgxgygzgAgBgCgDgEgFgGgHgIgJgKgLgMgNgOgPgQgRgSgTgUgVgWgXgYgZg0g1g2g3g4g5g6g7g8g9g.g+hahbhchdhehfhghhhihjhkhlhmhnhohphqhrhshthuhvhwhxhyhzhAhBhChDhEhFhGhHhIhJhKhLhMhNhOhPhQhRhShThUhVhWhXhYhZh0h1h2h3h4h5h6h7h8h9h.h+",
"aaabacadaeafagahaiajakalamanaoapaqarasatauavawaxayazaAaBaCaDaEaFaGaHaIaJaKaLaMaNaOaPaQaRaSaTaUaVaWaXaYaZa0a1a2a3a4a5a6a7a8a9a.a+babbbcbdbebfbgbhbibjbkblbmbnbobpbqbrbsbtbubvbwbxbybzbAbBbCbDbEbFbGbHbIbJbKbLbMbNbObPbQbRbSbTbUbVbWbXbYbZb0b1b2b3b4b5b6b7b8b9b.b+cacbcccdcecfcgchcicjckclcmcncocpcqcrcsctcucvcwcxcyczcAcBcCcDcEcFcGcHcIcJcKcLcMcNcOcPcQcRcScTcUcVcWcXcYcZc0c1c2c3c4c5c6c7c8c9c.c+dadbdcdddedfdgdhdidjdkdldmdndodpdqdrdsdtdudvdwdxdydzdAdBdCdDdEdFdGdHdIdJdKdLdMdNdOdPdQdRdSdTdUdVdWdXdYdZd0d1d2d3d4d5d6d7d8d9d.d+eaebecedeeefegeheiejekelemeneoepeqereseteuevewexeyezeAeBeCeDeEeFeGeHeIeJeKeLeMeNeOePeQeReSeTeUeVeWeXeYeZe0e1e2e3e4e5e6e7e8e9e.e+fafbfcfdfefffgfhfifjfkflfmfnfofpfqfrfsftfufvfwfxfyfzfAfBfCfDfEfFfGfHfIfJfKfLfMfNfOfPfQfRfSfTfUfVfWfXfYfZf0f1f2f3f4f5f6f7f8f9f.f+gagbgcgdgegfggghgigjgkglgmgngogpgqgrgsgtgugvgwgxgygzgAgBgCgDgEgFgGgHgIgJgKgLgMgNgOgPgQgRgSgTgUgVgWgXgYgZg0g1g2g3g4g5g6g7g8g9g.g+hahbhchdhehfhghhhihjhkhlhmhnhohphqhrhshthuhvhwhxhyhzhAhBhChDhEhFhGhHhIhJhKhLhMhNhOhPhQhRhShThUhVhWhXhYhZh0h1h2h3h4h5h6h7h8h9h.h+",
"aaabacadaeafagahaiajakalamanaoapaqarasatauavawaxayazaAaBaCaDaEaFaGaHaIaJaKaLaMaNaOaPaQaRaSaTaUaVaWaXaYaZa0a1a2a3a4a5a6a7a8a9a.a+babbbcbdbebfbgbhbibjbkblbmbnbobpbqbrbsbtbubvbwbxbybzbAbBbCbDbEbFbGbHbIbJbKbLbMbNbObPbQbRbSbTbUbVbWbXbYbZb0b1b2b3b4b5b6b7b8b9b.b+cacbcccdcecfcgchcicjckclcmcncocpcqcrcsctcucvcwcxcyczcAcBcCcDcEcFcGcHcIcJcKcLcMcNcOcPcQcRcScTcUcVcWcXcYcZc0c1c2c3c4c5c6c7c8c9c.c+dadbdcdddedfdgdhdidjdkdldmdndodpdqdrdsdtdudvdwdxdydzdAdBdCdDdEdFdGdHdIdJdKdLdMdNdOdPdQdRdSdTdUdVdWdXdYdZd0d1d2d3d4d5d6d7d8d9d.d+eaebecedeeefegeheiejekelemeneoepeqereseteuevewexeyezeAeBeCeDeEeFeGeHeIeJeKeLeMeNeOePeQeReSeTeUeVeWeXeYeZe0e1e2e3e4e5e6e7e8e9e.e+fafbfcfdfefffgfhfifjfkflfmfnfofpfqfrfsftfufvfwfxfyfzfAfBfCfDfEfFfGfHfIfJfKfLfMfNfOfPfQfRfSfTfUfVfWfXfYfZf0f1f2f3f4f5f6f7f8f9f.f+gagbgcgdgegfggghgigjgkglgmgngogpgqgrgsgtgugvgwgxgygzgAgBgCgDgEgFgGgHgIgJgKgLgMgNgOgPgQgRgSgTgUgVgWgXgYgZg0g1g2g3g4g5g6g7g8g9g.g+hahbhchdhehfhghhhihjhkhlhmhnhohphqhrhshthuhvhwhxhyhzhAhBhChDhEhFhGhHhIhJhKhLhMhNhOhPhQhRhShThUhVhWhXhYhZh0h1h2h3h4h5h6h7h8h9h.h+",
"aaabacadaeafagahaiajakalamanaoapaqarasatauavawaxayazaAaBaCaDaEaFaGaHaIaJaKaLaMaNaOaPaQaRaSaTaUaVaWaXaYaZa0a1a2a3a4a5a6a7a8a9a.a+babbbcbdbebfbgbhbibjbkblbmbnbobpbqbrbsbtbubvbwbxbybzbAbBbCbDbEbFbGbHbIbJbKbLbMbNbObPbQbRbSbTbUbVbWbXbYbZb0b1b2b3b4b5b6b7b8b9b.b+cacbcccdcecfcgchcicjckclcmcncocpcqcrcsctcucvcwcxcyczcAcBcCcDcEcFcGcHcIcJcKcLcMcNcOcPcQcRcScTcUcVcWcXcYcZc0c1c2c3c4c5c6c7c8c9c.c+dadbdcdddedfdgdhdidjdkdldmdndodpdqdrdsdtdudvdwdxdydzdAdBdCdDdEdFdGdHdIdJdKdLdMdNdOdPdQdRdSdTdUdVdWdXdYdZd0d1d2d3d4d5d6d7d8d9d.d+eaebecedeeefegeheiejekelemeneoepeqereseteuevewexeyezeAeBeCeDeEeFeGeHeIeJeKeLeMeNeOePeQeReSeTeUeVeWeXeYeZe0e1e2e3e4e5e6e7e8e9e.e+fafbfcfdfefffgfhfifjfkflfmfnfofpfqfrfsftfufvfwfxfyfzfAfBfCfDfEfFfGfHfIfJfKfLfMfNfOfPfQfRfSfTfUfVfWfXfYfZf0f1f2f3f4f5f6f7f8f9f.f+gagbgcgdgegfggghgigjgkglgmgngogpgqgrgsgtgugvgwgxgygzgAgBgCgDgEgFgGgHgIgJgKgLgMgNgOgPgQgRgSgTgUgVgWgXgYgZg0g1g2g3g4g5g6g7g8g9g.g+hahbhchdhehfhghhhihjhkhlhmhnhohphqhrhshthuhvhwhxhyhzhAhBhChDhEhFhGhHhIhJhKhLhMhNhOhPhQhRhShThUhVhWhXhYhZh0h1h2h3h4h5h6h7h8h9h.h+",
"aaabacadaeafagahaiajakalamanaoapaqarasatauavawaxayazaAaBaCaDaEaFaGaHaIaJaKaLaMaNaOaPaQaRaSaTaUaVaWaXaYaZa0a1a2a3a4a5a6a7a8a9a.a+babbbcbdbebfbgbhbibjbkblbmbnbobpbqbrbsbtbubvbwbxbybzbAbBbCbDbEbFbGbHbIbJbKbLbMbNbObPbQbRbSbTbUbVbWbXbYbZb0b1b2b3b4b5b6b7b8b9b.b+cacbcccdcecfcgchcicjckclcmcncocpcqcrcsctcucvcwcxcyczcAcBcCcDcEcFcGcHcIcJcKcLcMcNcOcPcQcRcScTcUcVcWcXcYcZc0c1c2c3c4c5c6c7c8c9c.c+dadbdcdddedfdgdhdidjdkdldmdndodpdqdrdsdtdudvdwdxdydzdAdBdCdDdEdFdGdHdIdJdKdLdMdNdOdPdQdRdSdTdUdVdWdXdYdZd0d1d2d3d4d5d6d7d8d9d.d+eaebecedeeefegeheiejekelemeneoepeqereseteuevewexeyezeAeBeCeDeEeFeGeHeIeJeKeLeMeNeOePeQeReSeTeUeVeWeXeYeZe0e1e2e3e4e5e6e7e8e9e.e+fafbfcfdfefffgfhfifjfkflfmfnfofpfqfrfsftfufvfwfxfyfzfAfBfCfDfEfFfGfHfIfJfKfLfMfNfOfPfQfRfSfTfUfVfWfXfYfZf0f1f2f3f4f5f6f7f8f9f.f+gagbgcgdgegfggghgigjgkglgmgngogpgqgrgsgtgugvgwgxgygzgAgBgCgDgEgFgGgHgIgJgKgLgMgNgOgPgQgRgSgTgUgVgWgXgYgZg0g1g2g3g4g5g6g7g8g9g.g+hahbhchdhehfhghhhihjhkhlhmhnhohphqhrhshthuhvhwhxhyhzhAhBhChDhEhFhGhHhIhJhKhLhMhNhOhPhQhRhShThUhVhWhXhYhZh0h1h2h3h4h5h6h7h8h9h.h+",
"aaabacadaeafagahaiajakalamanaoapaqarasatauavawaxayazaAaBaCaDaEaFaGaHaIaJaKaLaMaNaOaPaQaRaSaTaUaVaWaXaYaZa0a1a2a3a4a5a6a7a8a9a.a+babbbcbdbebfbgbhbibjbkblbmbnbobpbqbrbsbtbubvbwbxbybzbAbBbCbDbEbFbGbHbIbJbKbLbMbNbObPbQbRbSbTbUbVbWbXbYbZb0b1b2b3b4b5b6b7b8b9b.b+cacbcccdcecfcgchcicjckclcmcncocpcqcrcsctcucvcwcxcyczcAcBcCcDcEcFcGcHcIcJcKcLcMcNcOcPcQcRcScTcUcVcWcXcYcZc0c1c2c3c4c5c6c7c8c9c.c+dadbdcdddedfdgdhdidjdkdldmdndodpdqdrdsdtdudvdwdxdydzdAdBdCdDdEdFdGdHdIdJdKdLdMdNdOdPdQdRdSdTdUdVdWdXdYdZd0d1d2d3d4d5d6d7d8d9d.d+eaebecedeeefegeheiejekelemeneoepeqereseteuevewexeyezeAeBeCeDeEeFeGeHeIeJeKeLeMeNeOePeQeReSeTeUeVeWeXeYeZe0e1e2e3e4e5e6e7e8e9e.e+fafbfcfdfefffgfhfifjfkflfmfnfofpfqfrfsftfufvfwfxfyfzfAfBfCfDfEfFfGfHfIfJfKfLfMfNfOfPfQfRfSfTfUfVfWfXfYfZf0f1f2f3f4f5f6f7f8f9f.f+gagbgcgdgegfggghgigjgkglgmgngogpgqgrgsgtgugvgwgxgygzgAgBgCgDgEgFgGgHgIgJgKgLgMgNgOgPgQgRgSgTgUgVgWgXgYgZg0g1g2g3g4g5g6g7g8g9g.g+hahbhchdhehfhghhhihjhkhlhmhnhohphqhrhshthuhvhwhxhyhzhAhBhChDhEhFhGhHhIhJhKhLhMhNhOhPhQhRhShThUhVhWhXhYhZh0h1h2h3h4h5h6h7h8h9h.h+",
"aaabacadaeafagahaiajakalamanaoapaqarasatauavawaxayazaAaBaCaDaEaFaGaHaIaJaKaLaMaNaOaPaQaRaSaTaUaVaWaXaYaZa0a1a2a3a4a5a6a7a8a9a.a+babbbcbdbebfbgbhbibjbkblbmbnbobpbqbrbsbtbubvbwbxbybzbAbBbCbDbEbFbGbHbIbJbKbLbMbNbObPbQbRbSbTbUbVbWbXbYbZb0b1b2b3b4b5b6b7b8b9b.b+cacbcccdcecfcgchcicjckclcmcncocpcqcrcsctcucvcwcxcyczcAcBcCcDcEcFcGcHcIcJcKcLcMcNcOcPcQcRcScTcUcVcWcXcYcZc0c1c2c3c4c5c6c7c8c9c.c+dadbdcdddedfdgdhdidjdkdldmdndodpdqdrdsdtdudvdwdxdydzdAdBdCdDdEdFdGdHdIdJdKdLdMdNdOdPdQdRdSdTdUdVdWdXdYdZd0d1d2d3d4d5d6d7d8d9d.d+eaebecedeeefegeheiejekelemeneoepeqereseteuevewexeyezeAeBeCeDeEeFeGeHeIeJeKeLeMeNeOePeQeReSeTeUeVeWeXeYeZe0e1e2e3e4e5e6e7e8e9e.e+fafbfcfdfefffgfhfifjfkflfmfnfofpfqfrfsftfufvfwfxfyfzfAfBfCfDfEfFfGfHfIfJfKfLfMfNfOfPfQfRfSfTfUfVfWfXfYfZf0f1f2f3f4f5f6f7f8f9f.f+gagbgcgdgegfggghgigjgkglgmgngogpgqgrgsgtgugvgwgxgygzgAgBgCgDgEgFgGgHgIgJgKgLgMgNgOgPgQgRgSgTgUgVgWgXgYgZg0g1g2g3g4g5g6g7g8g9g.g+hahbhchdhehfhghhhihjhkhlhmhnhohphqhrhshthuhvhwhxhyhzhAhBhChDhEhFhGhHhIhJhKhLhMhNhOhPhQhRhShThUhVhWhXhYhZh0h1h2h3h4h5h6h7h8h9h.h+",
"aaabacadaeafagahaiajakalamanaoapaqarasatauavawaxayazaAaBaCaDaEaFaGaHaIaJaKaLaMaNaOaPaQaRaSaTaUaVaWaXaYaZa0a1a2a3a4a5a6a7a8a9a.a+babbbcbdbebfbgbhbibjbkblbmbnbobpbqbrbsbtbubvbwbxbybzbAbBbCbDbEbFbGbHbIbJbKbLbMbNbObPbQbRbSbTbUbVbWbXbYbZb0b1b2b3b4b5b6b7b8b9b.b+cacbcccdcecfcgchcicjckclcmcncocpcqcrcsctcucvcwcxcyczcAcBcCcDcEcFcGcHcIcJcKcLcMcNcOcPcQcRcScTcUcVcWcXcYcZc0c1c2c3c4c5c6c7c8c9c.c+dadbdcdddedfdgdhdidjdkdldmdndodpdqdrdsdtdudvdwdxdydzdAdBdCdDdEdFdGdHdIdJdKdLdMdNdOdPdQdRdSdTdUdVdWdXdYdZd0d1d2d3d4d5d6d7d8d9d.d+eaebecedeeefegeheiejekelemeneoepeqereseteuevewexeyezeAeBeCeDeEeFeGeHeIeJeKeLeMeNeOePeQeReSeTeUeVeWeXeYeZe0e1e2e3e4e5e6e7e8e9e.e+fafbfcfdfefffgfhfifjfkflfmfnfofpfqfrfsftfufvfwfxfyfzfAfBfCfDfEfFfGfHfIfJfKfLfMfNfOfPfQfRfSfTfUfVfWfXfYfZf0f1f2f3f4f5f6f7f8f9f.f+gagbgcgdgegfggghgigjgkglgmgngogpgqgrgsgtgugvgwgxgygzgAgBgCgDgEgFgGgHgIgJgKgLgMgNgOgPgQgRgSgTgUgVgWgXgYgZg0g1g2g3g4g5g6g7g8g9g.g+hahbhchdhehfhghhhihjhkhlhmhnhohphqhrhshthuhvhwhxhyhzhAhBhChDhEhFhGhHhIhJhKhLhMhNhOhPhQhRhShThUhVhWhXhYhZh0h1h2h3h4h5h6h7h8h9h.h+",
"aaabacadaeafagahaiajakalamanaoapaqarasatauavawaxayazaAaBaCaDaEaFaGaHaIaJaKaLaMaNaOaPaQaRaSaTaUaVaWaXaYaZa0a1a2a3a4a5a6a7a8a9a.a+babbbcbdbebfbgbhbibjbkblbmbnbobpbqbrbsbtbubvbwbxbybzbAbBbCbDbEbFbGbHbIbJbKbLbMbNbObPbQbRbSbTbUbVbWbXbYbZb0b1b2b3b4b5b6b7b8b9b.b+cacbcccdcecfcgchcicjckclcmcncocpcqcrcsctcucvcwcxcyczcAcBcCcDcEcFcGcHcIcJcKcLcMcNcOcPcQcRcScTcUcVcWcXcYcZc0c1c2c3c4c5c6c7c8c9c.c+dadbdcdddedfdgdhdidjdkdldmdndodpdqdrdsdtdudvdwdxdydzdAdBdCdDdEdFdGdHdIdJdKdLdMdNdOdPdQdRdSdTdUdVdWdXdYdZd0d1d2d3d4d5d6d7d8d9d.d+eaebecedeeefegeheiejekelemeneoepeqereseteuevewexeyezeAeBeCeDeEeFeGeHeIeJeKeLeMeNeOePeQeReSeTeUeVeWeXeYeZe0e1e2e3e4e5e6e7e8e9e.e+fafbfcfdfefffgfhfifjfkflfmfnfofpfqfrfsftfufvfwfxfyfzfAfBfCfDfEfFfGfHfIfJfKfLfMfNfOfPfQfRfSfTfUfVfWfXfYfZf0f1f2f3f4f5f6f7f8f9f.f+gagbgcgdgegfggghgigjgkglgmgngogpgqgrgsgtgugvgwgxgygzgAgBgCgDgEgFgGgHgIgJgKgLgMgNgOgPgQgRgSgTgUgVgWgXgYgZg0g1g2g3g4g5g6g7g8g9g.g+hahbhchdhehfhghhhihjhkhlhmhnhohphqhrhshthuhvhwhxhyhzhAhBhChDhEhFhGhHhIhJhKhLhMhNhOhPhQhRhShThUhVhWhXhYhZh0h1h2h3h4h5h6h7h8h9h.h+",
"aaabacadaeafagahaiajakalamanaoapaqarasatauavawaxayazaAaBaCaDaEaFaGaHaIaJaKaLaMaNaOaPaQaRaSaTaUaVaWaXaYaZa0a1a2a3a4a5a6a7a8a9a.a+babbbcbdbebfbgbhbibjbkblbmbnbobpbqbrbsbtbubvbwbxbybzbAbBbCbDbEbFbGbHbIbJbKbLbMbNbObPbQbRbSbTbUbVbWbXbYbZb0b1b2b3b4b5b6b7b8b9b.b+cacbcccdcecfcgchcicjckclcmcncocpcqcrcsctcucvcwcxcyczcAcBcCcDcEcFcGcHcIcJcKcLcMcNcOcPcQcRcScTcUcVcWcXcYcZc0c1c2c3c4c5c6c7c8c9c.c+dadbdcdddedfdgdhdidjdkdldmdndodpdqdrdsdtdudvdwdxdydzdAdBdCdDdEdFdGdHdIdJdKdLdMdNdOdPdQdRdSdTdUdVdWdXdYdZd0d1d2d3d4d5d6d7d8d9d.d+eaebecedeeefegeheiejekelemeneoepeqereseteuevewexeyezeAeBeCeDeEeFeGeHeIeJeKeLeMeNeOePeQeReSeTeUeVeWeXeYeZe0e1e2e3e4e5e6e7e8e9e.e+fafbfcfdfefffgfhfifjfkflfmfnfofpfqfrfsftfufvfwfxfyfzfAfBfCfDfEfFfGfHfIfJfKfLfMfNfOfPfQfRfSfTfUfVfWfXfYfZf0f1f2f3f4f5f6f7f8f9f.f+gagbgcgdgegfggghgigjgkglgmgngogpgqgrgsgtgugvgwgxgygzgAgBgCgDgEgFgGgHgIgJgKgLgMgNgOgPgQgRgSgTgUgVgWgXgYgZg0g1g2g3g4g5g6g7g8g9g.g+hahbhchdhehfhghhhihjhkhlhmhnhohphqhrhshthuhvhwhxhyhzhAhBhChDhEhFhGhHhIhJhKhLhMhNhOhPhQhRhShThUhVhWhXhYhZh0h1h2h3h4h5h6h7h8h9h.h+",
"aaabacadaeafagahaiajakalamanaoapaqarasatauavawaxayazaAaBaCaDaEaFaGaHaIaJaKaLaMaNaOaPaQaRaSaTaUaVaWaXaYaZa0a1a2a3a4a5a6a7a8a9a.a+babbbcbdbebfbgbhbibjbkblbmbnbobpbqbrbsbtbubvbwbxbybzbAbBbCbDbEbFbGbHbIbJbKbLbMbNbObPbQbRbSbTbUbVbWbXbYbZb0b1b2b3b4b5b6b7b8b9b.b+cacbcccdcecfcgchcicjckclcmcncocpcqcrcsctcucvcwcxcyczcAcBcCcDcEcFcGcHcIcJcKcLcMcNcOcPcQcRcScTcUcVcWcXcYcZc0c1c2c3c4c5c6c7c8c9c.c+dadbdcdddedfdgdhdidjdkdldmdndodpdqdrdsdtdudvdwdxdydzdAdBdCdDdEdFdGdHdIdJdKdLdMdNdOdPdQdRdSdTdUdVdWdXdYdZd0d1d2d3d4d5d6d7d8d9d.d+eaebecedeeefegeheiejekelemeneoepeqereseteuevewexeyezeAeBeCeDeEeFeGeHeIeJeKeLeMeNeOePeQeReSeTeUeVeWeXeYeZe0e1e2e3e4e5e6e7e8e9e.e+fafbfcfdfefffgfhfifjfkflfmfnfofpfqfrfsftfufvfwfxfyfzfAfBfCfDfEfFfGfHfIfJfKfLfMfNfOfPfQfRfSfTfUfVfWfXfYfZf0f1f2f3f4f5f6f7f8f9f.f+gagbgcgdgegfggghgigjgkglgmgngogpgqgrgsgtgugvgwgxgygzgAgBgCgDgEgFgGgHgIgJgKgLgMgNgOgPgQgRgSgTgUgVgWgXgYgZg0g1g2g3g4g5g6g7g8g9g.g+hahbhchdhehfhghhhihjhkhlhmhnhohphqhrhshthuhvhwhxhyhzhAhBhChDhEhFhGhHhIhJhKhLhMhNhOhPhQhRhShThUhVhWhXhYhZh0h1h2h3h4h5h6h7h8h9h.h+",
"aaabacadaeafagahaiajakalamanaoapaqarasatauavawaxayazaAaBaCaDaEaFaGaHaIaJaKaLaMaNaOaPaQaRaSaTaUaVaWaXaYaZa0a1a2a3a4a5a6a7a8a9a.a+babbbcbdbebfbgbhbibjbkblbmbnbobpbqbrbsbtbubvbwbxbybzbAbBbCbDbEbFbGbHbIbJbKbLbMbNbObPbQbRbSbTbUbVbWbXbYbZb0b1b2b3b4b5b6b7b8b9b.b+cacbcccdcecfcgchcicjckclcmcncocpcqcrcsctcucvcwcxcyczcAcBcCcDcEcFcGcHcIcJcKcLcMcNcOcPcQcRcScTcUcVcWcXcYcZc0c1c2c3c4c5c6c7c8c9c.c+dadbdcdddedfdgdhdidjdkdldmdndodpdqdrdsdtdudvdwdxdydzdAdBdCdDdEdFdGdHdIdJdKdLdMdNdOdPdQdRdSdTdUdVdWdXdYdZd0d1d2d3d4d5d6d7d8d9d.d+eaebecedeeefegeheiejekelemeneoepeqereseteuevewexeyezeAeBeCeDeEeFeGeHeIeJeKeLeMeNeOePeQeReSeTeUeVeWeXeYeZe0e1e2e3e4e5e6e7e8e9e.e+fafbfcfdfefffgfhfifjfkflfmfnfofpfqfrfsftfufvfwfxfyfzfAfBfCfDfEfFfGfHfIfJfKfLfMfNfOfPfQfRfSfTfUfVfWfXfYfZf0f1f2f3f4f5f6f7f8f9f.f+gagbgcgdgegfggghgigjgkglgmgngogpgqgrgsgtgugvgwgxgygzgAgBgCgDgEgFgGgHgIgJgKgLgMgNgOgPgQgRgSgTgUgVgWgXgYgZg0g1g2g3g4g5g6g7g8g9g.g+hahbhchdhehfhghhhihjhkhlhmhnhohphqhrhshthuhvhwhxhyhzhAhBhChDhEhFhGhHhIhJhKhLhMhNhOhPhQhRhShThUhVhWhXhYhZh0h1h2h3h4h5h6h7h8h9h.h+",
"aaabacadaeafagahaiajakalamanaoapaqarasatauavawaxayazaAaBaCaDaEaFaGaHaIaJaKaLaMaNaOaPaQaRaSaTaUaVaWaXaYaZa0a1a2a3a4a5a6a7a8a9a.a+babbbcbdbebfbgbhbibjbkblbmbnbobpbqbrbsbtbubvbwbxbybzbAbBbCbDbEbFbGbHbIbJbKbLbMbNbObPbQbRbSbTbUbVbWbXbYbZb0b1b2b3b4b5b6b7b8b9b.b+cacbcccdcecfcgchcicjckclcmcncocpcqcrcsctcucvcwcxcyczcAcBcCcDcEcFcGcHcIcJcKcLcMcNcOcPcQcRcScTcUcVcWcXcYcZc0c1c2c3c4c5c6c7c8c9c.c+dadbdcdddedfdgdhdidjdkdldmdndodpdqdrdsdtdudvdwdxdydzdAdBdCdDdEdFdGdHdIdJdKdLdMdNdOdPdQdRdSdTdUdVdWdXdYdZd0d1d2d3d4d5d6d7d8d9d.d+eaebecedeeefegeheiejekelemeneoepeqereseteuevewexeyezeAeBeCeDeEeFeGeHeIeJeKeLeMeNeOePeQeReSeTeUeVeWeXeYeZe0e1e2e3e4e5e6e7e8e9e.e+fafbfcfdfefffgfhfifjfkflfmfnfofpfqfrfsftfufvfwfxfyfzfAfBfCfDfEfFfGfHfIfJfKfLfMfNfOfPfQfRfSfTfUfVfWfXfYfZf0f1f2f3f4f5f6f7f8f9f.f+gagbgcgdgegfggghgigjgkglgmgngogpgqgrgsgtgugvgwgxgygzgAgBgCgDgEgFgGgHgIgJgKgLgMgNgOgPgQgRgSgTgUgVgWgXgYgZg0g1g2g3g4g5g6g7g8g9g.g+hahbhchdhehfhghhhihjhkhlhmhnhohphqhrhshthuhvhwhxhyhzhAhBhChDhEhFhGhHhIhJhKhLhMhNhOhPhQhRhShThUhVhWhXhYhZh0h1h2h3h4h5h6h7h8h9h.h+",
"aaabacadaeafagahaiajakalamanaoapaqarasatauavawaxayazaAaBaCaDaEaFaGaHaIaJaKaLaMaNaOaPaQaRaSaTaUaVaWaXaYaZa0a1a2a3a4a5a6a7a8a9a.a+babbbcbdbebfbgbhbibjbkblbmbnbobpbqbrbsbtbubvbwbxbybzbAbBbCbDbEbFbGbHbIbJbKbLbMbNbObPbQbRbSbTbUbVbWbXbYbZb0b1b2b3b4b5b6b7b8b9b.b+cacbcccdcecfcgchcicjckclcmcncocpcqcrcsctcucvcwcxcyczcAcBcCcDcEcFcGcHcIcJcKcLcMcNcOcPcQcRcScTcUcVcWcXcYcZc0c1c2c3c4c5c6c7c8c9c.c+dadbdcdddedfdgdhdidjdkdldmdndodpdqdrdsdtdudvdwdxdydzdAdBdCdDdEdFdGdHdIdJdKdLdMdNdOdPdQdRdSdTdUdVdWdXdYdZd0d1d2d3d4d5d6d7d8d9d.d+eaebecedeeefegeheiejekelemeneoepeqereseteuevewexeyezeAeBeCeDeEeFeGeHeIeJeKeLeMeNeOePeQeReSeTeUeVeWeXeYeZe0e1e2e3e4e5e6e7e8e9e.e+fafbfcfdfefffgfhfifjfkflfmfnfofpfqfrfsftfufvfwfxfyfzfAfBfCfDfEfFfGfHfIfJfKfLfMfNfOfPfQfRfSfTfUfVfWfXfYfZf0f1f2f3f4f5f6f7f8f9f.f+gagbgcgdgegfggghgigjgkglgmgngogpgqgrgsgtgugvgwgxgygzgAgBgCgDgEgFgGgHgIgJgKgLgMgNgOgPgQgRgSgTgUgVgWgXgYgZg0g1g2g3g4g5g6g7g8g9g.g+hahbhchdhehfhghhhihjhkhlhmhnhohphqhrhshthuhvhwhxhyhzhAhBhChDhEhFhGhHhIhJhKhLhMhNhOhPhQhRhShThUhVhWhXhYhZh0h1h2h3h4h5h6h7h8h9h.h+",
"aaabacadaeafagahaiajakalamanaoapaqarasatauavawaxayazaAaBaCaDaEaFaGaHaIaJaKaLaMaNaOaPaQaRaSaTaUaVaWaXaYaZa0a1a2a3a4a5a6a7a8a9a.a+babbbcbdbebfbgbhbibjbkblbmbnbobpbqbrbsbtbubvbwbxbybzbAbBbCbDbEbFbGbHbIbJbKbLbMbNbObPbQbRbSbTbUbVbWbXbYbZb0b1b2b3b4b5b6b7b8b9b.b+cacbcccdcecfcgchcicjckclcmcncocpcqcrcsctcucvcwcxcyczcAcBcCcDcEcFcGcHcIcJcKcLcMcNcOcPcQcRcScTcUcVcWcXcYcZc0c1c2c3c4c5c6c7c8c9c.c+dadbdcdddedfdgdhdidjdkdldmdndodpdqdrdsdtdudvdwdxdydzdAdBdCdDdEdFdGdHdIdJdKdLdMdNdOdPdQdRdSdTdUdVdWdXdYdZd0d1d2d3d4d5d6d7d8d9d.d+eaebecedeeefegeheiejekelemeneoepeqereseteuevewexeyezeAeBeCeDeEeFeGeHeIeJeKeLeMeNeOePeQeReSeTeUeVeWeXeYeZe0e1e2e3e4e5e6e7e8e9e.e+fafbfcfdfefffgfhfifjfkflfmfnfofpfqfrfsftfufvfwfxfyfzfAfBfCfDfEfFfGfHfIfJfKfLfMfNfOfPfQfRfSfTfUfVfWfXfYfZf0f1f2f3f4f5f6f7f8f9f.f+gagbgcgdgegfggghgigjgkglgmgngogpgqgrgsgtgugvgwgxgygzgAgBgCgDgEgFgGgHgIgJgKgLgMgNgOgPgQgRgSgTgUgVgWgXgYgZg0g1g2g3g4g5g6g7g8g9g.g+hahbhchdhehfhghhhihjhkhlhmhnhohphqhrhshthuhvhwhxhyhzhAhBhChDhEhFhGhHhIhJhKhLhMhNhOhPhQhRhShThUhVhWhXhYhZh0h1h2h3h4h5h6h7h8h9h.h+",
"aaabacadaeafagahaiajakalamanaoapaqarasatauavawaxayazaAaBaCaDaEaFaGaHaIaJaKaLaMaNaOaPaQaRaSaTaUaVaWaXaYaZa0a1a2a3a4a5a6a7a8a9a.a+babbbcbdbebfbgbhbibjbkblbmbnbobpbqbrbsbtbubvbwbxbybzbAbBbCbDbEbFbGbHbIbJbKbLbMbNbObPbQbRbSbTbUbVbWbXbYbZb0b1b2b3b4b5b6b7b8b9b.b+cacbcccdcecfcgchcicjckclcmcncocpcqcrcsctcucvcwcxcyczcAcBcCcDcEcFcGcHcIcJcKcLcMcNcOcPcQcRcScTcUcVcWcXcYcZc0c1c2c3c4c5c6c7c8c9c.c+dadbdcdddedfdgdhdidjdkdldmdndodpdqdrdsdtdudvdwdxdydzdAdBdCdDdEdFdGdHdIdJdKdLdMdNdOdPdQdRdSdTdUdVdWdXdYdZd0d1d2d3d4d5d6d7d8d9d.d+eaebecedeeefegeheiejekelemeneoepeqereseteuevewexeyezeAeBeCeDeEeFeGeHeIeJeKeLeMeNeOePeQeReSeTeUeVeWeXeYeZe0e1e2e3e4e5e6e7e8e9e.e+fafbfcfdfefffgfhfifjfkflfmfnfofpfqfrfsftfufvfwfxfyfzfAfBfCfDfEfFfGfHfIfJfKfLfMfNfOfPfQfRfSfTfUfVfWfXfYfZf0f1f2f3f4f5f6f7f8f9f.f+gagbgcgdgegfggghgigjgkglgmgngogpgqgrgsgtgugvgwgxgygzgAgBgCgDgEgFgGgHgIgJgKgLgMgNgOgPgQgRgSgTgUgVgWgXgYgZg0g1g2g3g4g5g6g7g8g9g.g+hahbhchdhehfhghhhihjhkhlhmhnhohphqhrhshthuhvhwhxhyhzhAhBhChDhEhFhGhHhIhJhKhLhMhNhOhPhQhRhShThUhVhWhXhYhZh0h1h2h3h4h5h6h7h8h9h.h+",
"aaabacadaeafagahaiajakalamanaoapaqarasatauavawaxayazaAaBaCaDaEaFaGaHaIaJaKaLaMaNaOaPaQaRaSaTaUaVaWaXaYaZa0a1a2a3a4a5a6a7a8a9a.a+babbbcbdbebfbgbhbibjbkblbmbnbobpbqbrbsbtbubvbwbxbybzbAbBbCbDbEbFbGbHbIbJbKbLbMbNbObPbQbRbSbTbUbVbWbXbYbZb0b1b2b3b4b5b6b7b8b9b.b+cacbcccdcecfcgchcicjckclcmcncocpcqcrcsctcucvcwcxcyczcAcBcCcDcEcFcGcHcIcJcKcLcMcNcOcPcQcRcScTcUcVcWcXcYcZc0c1c2c3c4c5c6c7c8c9c.c+dadbdcdddedfdgdhdidjdkdldmdndodpdqdrdsdtdudvdwdxdydzdAdBdCdDdEdFdGdHdIdJdKdLdMdNdOdPdQdRdSdTdUdVdWdXdYdZd0d1d2d3d4d5d6d7d8d9d.d+eaebecedeeefegeheiejekelemeneoepeqereseteuevewexeyezeAeBeCeDeEeFeGeHeIeJeKeLeMeNeOePeQeReSeTeUeVeWeXeYeZe0e1e2e3e4e5e6e7e8e9e.e+fafbfcfdfefffgfhfifjfkflfmfnfofpfqfrfsftfufvfwfxfyfzfAfBfCfDfEfFfGfHfIfJfKfLfMfNfOfPfQfRfSfTfUfVfWfXfYfZf0f1f2f3f4f5f6f7f8f9f.f+gagbgcgdgegfggghgigjgkglgmgngogpgqgrgsgtgugvgwgxgygzgAgBgCgDgEgFgGgHgIgJgKgLgMgNgOgPgQgRgSgTgUgVgWgXgYgZg0g1g2g3g4g5g6g7g8g9g.g+hahbhchdhehfhghhhihjhkhlhmhnhohphqhrhshthuhvhwhxhyhzhAhBhChDhEhFhGhHhIhJhKhLhMhNhOhPhQhRhShThUhVhWhXhYhZh0h1h2h3h4h5h6h7h8h9h.h+",
"aaabacadaeafagahaiajakalamanaoapaqarasatauavawaxayazaAaBaCaDaEaFaGaHaIaJaKaLaMaNaOaPaQaRaSaTaUaVaWaXaYaZa0a1a2a3a4a5a6a7a8a9a.a+babbbcbdbebfbgbhbibjbkblbmbnbobpbqbrbsbtbubvbwbxbybzbAbBbCbDbEbFbGbHbIbJbKbLbMbNbObPbQbRbSbTbUbVbWbXbYbZb0b1b2b3b4b5b6b7b8b9b.b+cacbcccdcecfcgchcicjckclcmcncocpcqcrcsctcucvcwcxcyczcAcBcCcDcEcFcGcHcIcJcKcLcMcNcOcPcQcRcScTcUcVcWcXcYcZc0c1c2c3c4c5c6c7c8c9c.c+dadbdcdddedfdgdhdidjdkdldmdndodpdqdrdsdtdudvdwdxdydzdAdBdCdDdEdFdGdHdIdJdKdLdMdNdOdPdQdRdSdTdUdVdWdXdYdZd0d1d2d3d4d5d6d7d8d9d.d+eaebecedeeefegeheiejekelemeneoepeqereseteuevewexeyezeAeBeCeDeEeFeGeHeIeJeKeLeMeNeOePeQeReSeTeUeVeWeXeYeZe0e1e2e3e4e5e6e7e8e9e.e+fafbfcfdfefffgfhfifjfkflfmfnfofpfqfrfsftfufvfwfxfyfzfAfBfCfDfEfFfGfHfIfJfKfLfMfNfOfPfQfRfSfTfUfVfWfXfYfZf0f1f2f3f4f5f6f7f8f9f.f+gagbgcgdgegfggghgigjgkglgmgngogpgqgrgsgtgugvgwgxgygzgAgBgCgDgEgFgGgHgIgJgKgLgMgNgOgPgQgRgSgTgUgVgWgXgYgZg0g1g2g3g4g5g6g7g8g9g.g+hahbhchdhehfhghhhihjhkhlhmhnhohphqhrhshthuhvhwhxhyhzhAhBhChDhEhFhGhHhIhJhKhLhMhNhOhPhQhRhShThUhVhWhXhYhZh0h1h2h3h4h5h6h7h8h9h.h+",
"aaabacadaeafagahaiajakalamanaoapaqarasatauavawaxayazaAaBaCaDaEaFaGaHaIaJaKaLaMaNaOaPaQaRaSaTaUaVaWaXaYaZa0a1a2a3a4a5a6a7a8a9a.a+babbbcbdbebfbgbhbibjbkblbmbnbobpbqbrbsbtbubvbwbxbybzbAbBbCbDbEbFbGbHbIbJbKbLbMbNbObPbQbRbSbTbUbVbWbXbYbZb0b1b2b3b4b5b6b7b8b9b.b+cacbcccdcecfcgchcicjckclcmcncocpcqcrcsctcucvcwcxcyczcAcBcCcDcEcFcGcHcIcJcKcLcMcNcOcPcQcRcScTcUcVcWcXcYcZc0c1c2c3c4c5c6c7c8c9c.c+dadbdcdddedfdgdhdidjdkdldmdndodpdqdrdsdtdudvdwdxdydzdAdBdCdDdEdFdGdHdIdJdKdLdMdNdOdPdQdRdSdTdUdVdWdXdYdZd0d1d2d3d4d5d6d7d8d9d.d+eaebecedeeefegeheiejekelemeneoepeqereseteuevewexeyezeAeBeCeDeEeFeGeHeIeJeKeLeMeNeOePeQeReSeTeUeVeWeXeYeZe0e1e2e3e4e5e6e7e8e9e.e+fafbfcfdfefffgfhfifjfkflfmfnfofpfqfrfsftfufvfwfxfyfzfAfBfCfDfEfFfGfHfIfJfKfLfMfNfOfPfQfRfSfTfUfVfWfXfYfZf0f1f2f3f4f5f6f7f8f9f.f+gagbgcgdgegfggghgigjgkglgmgngogpgqgrgsgtgugvgwgxgygzgAgBgCgDgEgFgGgHgIgJgKgLgMgNgOgPgQgRgSgTgUgVgWgXgYgZg0g1g2g3g4g5g6g7g8g9g.g+hahbhchdhehfhghhhihjhkhlhmhnhohphqhrhshthuhvhwhxhyhzhAhBhChDhEhFhGhHhIhJhKhLhMhNhOhPhQhRhShThUhVhWhXhYhZh0h1h2h3h4h5h6h7h8h9h.h+",
"aaabacadaeafagahaiajakalamanaoapaqarasatauavawaxayazaAaBaCaDaEaFaGaHaIaJaKaLaMaNaOaPaQaRaSaTaUaVaWaXaYaZa0a1a2a3a4a5a6a7a8a9a.a+babbbcbdbebfbgbhbibjbkblbmbnbobpbqbrbsbtbubvbwbxbybzbAbBbCbDbEbFbGbHbIbJbKbLbMbNbObPbQbRbSbTbUbVbWbXbYbZb0b1b2b3b4b5b6b7b8b9b.b+cacbcccdcecfcgchcicjckclcmcncocpcqcrcsctcucvcwcxcyczcAcBcCcDcEcFcGcHcIcJcKcLcMcNcOcPcQcRcScTcUcVcWcXcYcZc0c1c2c3c4c5c6c7c8c9c.c+dadbdcdddedfdgdhdidjdkdldmdndodpdqdrdsdtdudvdwdxdydzdAdBdCdDdEdFdGdHdIdJdKdLdMdNdOdPdQdRdSdTdUdVdWdXdYdZd0d1d2d3d4d5d6d7d8d9d.d+eaebecedeeefegeheiejekelemeneoepeqereseteuevewexeyezeAeBeCeDeEeFeGeHeIeJeKeLeMeNeOePeQeReSeTeUeVeWeXeYeZe0e1e2e3e4e5e6e7e8e9e.e+fafbfcfdfefffgfhfifjfkflfmfnfofpfqfrfsftfufvfwfxfyfzfAfBfCfDfEfFfGfHfIfJfKfLfMfNfOfPfQfRfSfTfUfVfWfXfYfZf0f1f2f3f4f5f6f7f8f9f.f+gagbgcgdgegfggghgigjgkglgmgngogpgqgrgsgtgugvgwgxgygzgAgBgCgDgEgFgGgHgIgJgKgLgMgNgOgPgQgRgSgTgUgVgWgXgYgZg0g1g2g3g4g5g6g7g8g9g.g+hahbhchdhehfhghhhihjhkhlhmhnhohphqhrhshthuhvhwhxhyhzhAhBhChDhEhFhGhHhIhJhKhLhMhNhOhPhQhRhShThUhVhWhXhYhZh0h1h2h3h4h5h6h7h8h9h.h+",
"aaabacadaeafagahaiajakalamanaoapaqarasatauavawaxayazaAaBaCaDaEaFaGaHaIaJaKaLaMaNaOaPaQaRaSaTaUaVaWaXaYaZa0a1a2a3a4a5a6a7a8a9a.a+babbbcbdbebfbgbhbibjbkblbmbnbobpbqbrbsbtbubvbwbxbybzbAbBbCbDbEbFbGbHbIbJbKbLbMbNbObPbQbRbSbTbUbVbWbXbYbZb0b1b2b3b4b5b6b7b8b9b.b+cacbcccdcecfcgchcicjckclcmcncocpcqcrcsctcucvcwcxcyczcAcBcCcDcEcFcGcHcIcJcKcLcMcNcOcPcQcRcScTcUcVcWcXcYcZc0c1c2c3c4c5c6c7c8c9c.c+dadbdcdddedfdgdhdidjdkdldmdndodpdqdrdsdtdudvdwdxdydzdAdBdCdDdEdFdGdHdIdJdKdLdMdNdOdPdQdRdSdTdUdVdWdXdYdZd0d1d2d3d4d5d6d7d8d9d.d+eaebecedeeefegeheiejekelemeneoepeqereseteuevewexeyezeAeBeCeDeEeFeGeHeIeJeKeLeMeNeOePeQeReSeTeUeVeWeXeYeZe0e1e2e3e4e5e6e7e8e9e.e+fafbfcfdfefffgfhfifjfkflfmfnfofpfqfrfsftfufvfwfxfyfzfAfBfCfDfEfFfGfHfIfJfKfLfMfNfOfPfQfRfSfTfUfVfWfXfYfZf0f1f2f3f4f5f6f7f8f9f.f+gagbgcgdgegfggghgigjgkglgmgngogpgqgrgsgtgugvgwgxgygzgAgBgCgDgEgFgGgHgIgJgKgLgMgNgOgPgQgRgSgTgUgVgWgXgYgZg0g1g2g3g4g5g6g7g8g9g.g+hahbhchdhehfhghhhihjhkhlhmhnhohphqhrhshthuhvhwhxhyhzhAhBhChDhEhFhGhHhIhJhKhLhMhNhOhPhQhRhShThUhVhWhXhYhZh0h1h2h3h4h5h6h7h8h9h.h+",
"aaabacadaeafagahaiajakalamanaoapaqarasatauavawaxayazaAaBaCaDaEaFaGaHaIaJaKaLaMaNaOaPaQaRaSaTaUaVaWaXaYaZa0a1a2a3a4a5a6a7a8a9a.a+babbbcbdbebfbgbhbibjbkblbmbnbobpbqbrbsbtbubvbwbxbybzbAbBbCbDbEbFbGbHbIbJbKbLbMbNbObPbQbRbSbTbUbVbWbXbYbZb0b1b2b3b4b5b6b7b8b9b.b+cacbcccdcecfcgchcicjckclcmcncocpcqcrcsctcucvcwcxcyczcAcBcCcDcEcFcGcHcIcJcKcLcMcNcOcPcQcRcScTcUcVcWcXcYcZc0c1c2c3c4c5c6c7c8c9c.c+dadbdcdddedfdgdhdidjdkdldmdndodpdqdrdsdtdudvdwdxdydzdAdBdCdDdEdFdGdHdIdJdKdLdMdNdOdPdQdRdSdTdUdVdWdXdYdZd0d1d2d3d4d5d6d7d8d9d.d+eaebecedeeefegeheiejekelemeneoepeqereseteuevewexeyezeAeBeCeDeEeFeGeHeIeJeKeLeMeNeOePeQeReSeTeUeVeWeXeYeZe0e1e2e3e4e5e6e7e8e9e.e+fafbfcfdfefffgfhfifjfkflfmfnfofpfqfrfsftfufvfwfxfyfzfAfBfCfDfEfFfGfHfIfJfKfLfMfNfOfPfQfRfSfTfUfVfWfXfYfZf0f1f2f3f4f5f6f7f8f9f.f+gagbgcgdgegfggghgigjgkglgmgngogpgqgrgsgtgugvgwgxgygzgAgBgCgDgEgFgGgHgIgJgKgLgMgNgOgPgQgRgSgTgUgVgWgXgYgZg0g1g2g3g4g5g6g7g8g9g.g+hahbhchdhehfhghhhihjhkhlhmhnhohphqhrhshthuhvhwhxhyhzhAhBhChDhEhFhGhHhIhJhKhLhMhNhOhPhQhRhShThUhVhWhXhYhZh0h1h2h3h4h5h6h7h8h9h.h+",
"aaabacadaeafagahaiajakalamanaoapaqarasatauavawaxayazaAaBaCaDaEaFaGaHaIaJaKaLaMaNaOaPaQaRaSaTaUaVaWaXaYaZa0a1a2a3a4a5a6a7a8a9a.a+babbbcbdbebfbgbhbibjbkblbmbnbobpbqbrbsbtbubvbwbxbybzbAbBbCbDbEbFbGbHbIbJbKbLbMbNbObPbQbRbSbTbUbVbWbXbYbZb0b1b2b3b4b5b6b7b8b9b.b+cacbcccdcecfcgchcicjckclcmcncocpcqcrcsctcucvcwcxcyczcAcBcCcDcEcFcGcHcIcJcKcLcMcNcOcPcQcRcScTcUcVcWcXcYcZc0c1c2c3c4c5c6c7c8c9c.c+dadbdcdddedfdgdhdidjdkdldmdndodpdqdrdsdtdudvdwdxdydzdAdBdCdDdEdFdGdHdIdJdKdLdMdNdOdPdQdRdSdTdUdVdWdXdYdZd0d1d2d3d4d5d6d7d8d9d.d+eaebecedeeefegeheiejekelemeneoepeqereseteuevewexeyezeAeBeCeDeEeFeGeHeIeJeKeLeMeNeOePeQeReSeTeUeVeWeXeYeZe0e1e2e3e4e5e6e7e8e9e.e+fafbfcfdfefffgfhfifjfkflfmfnfofpfqfrfsftfufvfwfxfyfzfAfBfCfDfEfFfGfHfIfJfKfLfMfNfOfPfQfRfSfTfUfVfWfXfYfZf0f1f2f3f4f5f6f7f8f9f.f+gagbgcgdgegfggghgigjgkglgmgngogpgqgrgsgtgugvgwgxgygzgAgBgCgDgEgFgGgHgIgJgKgLgMgNgOgPgQgRgSgTgUgVgWgXgYgZg0g1g2g3g4g5g6g7g8g9g.g+hahbhchdhehfhghhhihjhkhlhmhnhohphqhrhshthuhvhwhxhyhzhAhBhChDhEhFhGhHhIhJhKhLhMhNhOhPhQhRhShThUhVhWhXhYhZh0h1h2h3h4h5h6h7h8h9h.h+",
"aaabacadaeafagahaiajakalamanaoapaqarasatauavawaxayazaAaBaCaDaEaFaGaHaIaJaKaLaMaNaOaPaQaRaSaTaUaVaWaXaYaZa0a1a2a3a4a5a6a7a8a9a.a+babbbcbdbebfbgbhbibjbkblbmbnbobpbqbrbsbtbubvbwbxbybzbAbBbCbDbEbFbGbHbIbJbKbLbMbNbObPbQbRbSbTbUbVbWbXbYbZb0b1b2b3b4b5b6b7b8b9b.b+cacbcccdcecfcgchcicjckclcmcncocpcqcrcsctcucvcwcxcyczcAcBcCcDcEcFcGcHcIcJcKcLcMcNcOcPcQcRcScTcUcVcWcXcYcZc0c1c2c3c4c5c6c7c8c9c.c+dadbdcdddedfdgdhdidjdkdldmdndodpdqdrdsdtdudvdwdxdydzdAdBdCdDdEdFdGdHdIdJdKdLdMdNdOdPdQdRdSdTdUdVdWdXdYdZd0d1d2d3d4d5d6d7d8d9d.d+eaebecedeeefegeheiejekelemeneoepeqereseteuevewexeyezeAeBeCeDeEeFeGeHeIeJeKeLeMeNeOePeQeReSeTeUeVeWeXeYeZe0e1e2e3e4e5e6e7e8e9e.e+fafbfcfdfefffgfhfifjfkflfmfnfofpfqfrfsftfufvfwfxfyfzfAfBfCfDfEfFfGfHfIfJfKfLfMfNfOfPfQfRfSfTfUfVfWfXfYfZf0f1f2f3f4f5f6f7f8f9f.f+gagbgcgdgegfggghgigjgkglgmgngogpgqgrgsgtgugvgwgxgygzgAgBgCgDgEgFgGgHgIgJgKgLgMgNgOgPgQgRgSgTgUgVgWgXgYgZg0g1g2g3g4g5g6g7g8g9g.g+hahbhchdhehfhghhhihjhkhlhmhnhohphqhrhshthuhvhwhxhyhzhAhBhChDhEhFhGhHhIhJhKhLhMhNhOhPhQhRhShThUhVhWhXhYhZh0h1h2h3h4h5h6h7h8h9h.h+",
"aaabacadaeafagahaiajakalamanaoapaqarasatauavawaxayazaAaBaCaDaEaFaGaHaIaJaKaLaMaNaOaPaQaRaSaTaUaVaWaXaYaZa0a1a2a3a4a5a6a7a8a9a.a+babbbcbdbebfbgbhbibjbkblbmbnbobpbqbrbsbtbubvbwbxbybzbAbBbCbDbEbFbGbHbIbJbKbLbMbNbObPbQbRbSbTbUbVbWbXbYbZb0b1b2b3b4b5b6b7b8b9b.b+cacbcccdcecfcgchcicjckclcmcncocpcqcrcsctcucvcwcxcyczcAcBcCcDcEcFcGcHcIcJcKcLcMcNcOcPcQcRcScTcUcVcWcXcYcZc0c1c2c3c4c5c6c7c8c9c.c+dadbdcdddedfdgdhdidjdkdldmdndodpdqdrdsdtdudvdwdxdydzdAdBdCdDdEdFdGdHdIdJdKdLdMdNdOdPdQdRdSdTdUdVdWdXdYdZd0d1d2d3d4d5d6d7d8d9d.d+eaebecedeeefegeheiejekelemeneoepeqereseteuevewexeyezeAeBeCeDeEeFeGeHeIeJeKeLeMeNeOePeQeReSeTeUeVeWeXeYeZe0e1e2e3e4e5e6e7e8e9e.e+fafbfcfdfefffgfhfifjfkflfmfnfofpfqfrfsftfufvfwfxfyfzfAfBfCfDfEfFfGfHfIfJfKfLfMfNfOfPfQfRfSfTfUfVfWfXfYfZf0f1f2f3f4f5f6f7f8f9f.f+gagbgcgdgegfggghgigjgkglgmgngogpgqgrgsgtgugvgwgxgygzgAgBgCgDgEgFgGgHgIgJgKgLgMgNgOgPgQgRgSgTgUgVgWgXgYgZg0g1g2g3g4g5g6g7g8g9g.g+hahbhchdhehfhghhhihjhkhlhmhnhohphqhrhshthuhvhwhxhyhzhAhBhChDhEhFhGhHhIhJhKhLhMhNhOhPhQhRhShThUhVhWhXhYhZh0h1h2h3h4h5h6h7h8h9h.h+",
"aaabacadaeafagahaiajakalamanaoapaqarasatauavawaxayazaAaBaCaDaEaFaGaHaIaJaKaLaMaNaOaPaQaRaSaTaUaVaWaXaYaZa0a1a2a3a4a5a6a7a8a9a.a+babbbcbdbebfbgbhbibjbkblbmbnbobpbqbrbsbtbubvbwbxbybzbAbBbCbDbEbFbGbHbIbJbKbLbMbNbObPbQbRbSbTbUbVbWbXbYbZb0b1b2b3b4b5b6b7b8b9b.b+cacbcccdcecfcgchcicjckclcmcncocpcqcrcsctcucvcwcxcyczcAcBcCcDcEcFcGcHcIcJcKcLcMcNcOcPcQcRcScTcUcVcWcXcYcZc0c1c2c3c4c5c6c7c8c9c.c+dadbdcdddedfdgdhdidjdkdldmdndodpdqdrdsdtdudvdwdxdydzdAdBdCdDdEdFdGdHdIdJdKdLdMdNdOdPdQdRdSdTdUdVdWdXdYdZd0d1d2d3d4d5d6d7d8d9d.d+eaebecedeeefegeheiejekelemeneoepeqereseteuevewexeyezeAeBeCeDeEeFeGeHeIeJeKeLeMeNeOePeQeReSeTeUeVeWeXeYeZe0e1e2e3e4e5e6e7e8e9e.e+fafbfcfdfefffgfhfifjfkflfmfnfofpfqfrfsftfufvfwfxfyfzfAfBfCfDfEfFfGfHfIfJfKfLfMfNfOfPfQfRfSfTfUfVfWfXfYfZf0f1f2f3f4f5f6f7f8f9f.f+gagbgcgdgegfggghgigjgkglgmgngogpgqgrgsgtgugvgwgxgygzgAgBgCgDgEgFgGgHgIgJgKgLgMgNgOgPgQgRgSgTgUgVgWgXgYgZg0g1g2g3g4g5g6g7g8g9g.g+hahbhchdhehfhghhhihjhkhlhmhnhohphqhrhshthuhvhwhxhyhzhAhBhChDhEhFhGhHhIhJhKhLhMhNhOhPhQhRhShThUhVhWhXhYhZh0h1h2h3h4h5h6h7h8h9h.h+",
"aaabacadaeafagahaiajakalamanaoapaqarasatauavawaxayazaAaBaCaDaEaFaGaHaIaJaKaLaMaNaOaPaQaRaSaTaUaVaWaXaYaZa0a1a2a3a4a5a6a7a8a9a.a+babbbcbdbebfbgbhbibjbkblbmbnbobpbqbrbsbtbubvbwbxbybzbAbBbCbDbEbFbGbHbIbJbKbLbMbNbObPbQbRbSbTbUbVbWbXbYbZb0b1b2b3b4b5b6b7b8b9b.b+cacbcccdcecfcgchcicjckclcmcncocpcqcrcsctcucvcwcxcyczcAcBcCcDcEcFcGcHcIcJcKcLcMcNcOcPcQcRcScTcUcVcWcXcYcZc0c1c2c3c4c5c6c7c8c9c.c+dadbdcdddedfdgdhdidjdkdldmdndodpdqdrdsdtdudvdwdxdydzdAdBdCdDdEdFdGdHdIdJdKdLdMdNdOdPdQdRdSdTdUdVdWdXdYdZd0d1d2d3d4d5d6d7d8d9d.d+eaebecedeeefegeheiejekelemeneoepeqereseteuevewexeyezeAeBeCeDeEeFeGeHeIeJeKeLeMeNeOePeQeReSeTeUeVeWeXeYeZe0e1e2e3e4e5e6e7e8e9e.e+fafbfcfdfefffgfhfifjfkflfmfnfofpfqfrfsftfufvfwfxfyfzfAfBfCfDfEfFfGfHfIfJfKfLfMfNfOfPfQfRfSfTfUfVfWfXfYfZf0f1f2f3f4f5f6f7f8f9f.f+gagbgcgdgegfggghgigjgkglgmgngogpgqgrgsgtgugvgwgxgygzgAgBgCgDgEgFgGgHgIgJgKgLgMgNgOgPgQgRgSgTgUgVgWgXgYgZg0g1g2g3g4g5g6g7g8g9g.g+hahbhchdhehfhghhhihjhkhlhmhnhohphqhrhshthuhvhwhxhyhzhAhBhChDhEhFhGhHhIhJhKhLhMhNhOhPhQhRhShThUhVhWhXhYhZh0h1h2h3h4h5h6h7h8h9h.h+",
"aaabacadaeafagahaiajakalamanaoapaqarasatauavawaxayazaAaBaCaDaEaFaGaHaIaJaKaLaMaNaOaPaQaRaSaTaUaVaWaXaYaZa0a1a2a3a4a5a6a7a8a9a.a+babbbcbdbebfbgbhbibjbkblbmbnbobpbqbrbsbtbubvbwbxbybzbAbBbCbDbEbFbGbHbIbJbKbLbMbNbObPbQbRbSbTbUbVbWbXbYbZb0b1b2b3b4b5b6b7b8b9b.b+cacbcccdcecfcgchcicjckclcmcncocpcqcrcsctcucvcwcxcyczcAcBcCcDcEcFcGcHcIcJcKcLcMcNcOcPcQcRcScTcUcVcWcXcYcZc0c1c2c3c4c5c6c7c8c9c.c+dadbdcdddedfdgdhdidjdkdldmdndodpdqdrdsdtdudvdwdxdydzdAdBdCdDdEdFdGdHdIdJdKdLdMdNdOdPdQdRdSdTdUdVdWdXdYdZd0d1d2d3d4d5d6d7d8d9d.d+eaebecedeeefegeheiejekelemeneoepeqereseteuevewexeyezeAeBeCeDeEeFeGeHeIeJeKeLeMeNeOePeQeReSeTeUeVeWeXeYeZe0e1e2e3e4e5e6e7e8e9e.e+fafbfcfdfefffgfhfifjfkflfmfnfofpfqfrfsftfufvfwfxfyfzfAfBfCfDfEfFfGfHfIfJfKfLfMfNfOfPfQfRfSfTfUfVfWfXfYfZf0f1f2f3f4f5f6f7f8f9f.f+gagbgcgdgegfggghgigjgkglgmgngogpgqgrgsgtgugvgwgxgygzgAgBgCgDgEgFgGgHgIgJgKgLgMgNgOgPgQgRgSgTgUgVgWgXgYgZg0g1g2g3g4g5g6g7g8g9g.g+hahbhchdhehfhghhhihjhkhlhmhnhohphqhrhshthuhvhwhxhyhzhAhBhChDhEhFhGhHhIhJhKhLhMhNhOhPhQhRhShThUhVhWhXhYhZh0h1h2h3h4h5h6h7h8h9h.h+",
"aaabacadaeafagahaiajakalamanaoapaqarasatauavawaxayazaAaBaCaDaEaFaGaHaIaJaKaLaMaNaOaPaQaRaSaTaUaVaWaXaYaZa0a1a2a3a4a5a6a7a8a9a.a+babbbcbdbebfbgbhbibjbkblbmbnbobpbqbrbsbtbubvbwbxbybzbAbBbCbDbEbFbGbHbIbJbKbLbMbNbObPbQbRbSbTbUbVbWbXbYbZb0b1b2b3b4b5b6b7b8b9b.b+cacbcccdcecfcgchcicjckclcmcncocpcqcrcsctcucvcwcxcyczcAcBcCcDcEcFcGcHcIcJcKcLcMcNcOcPcQcRcScTcUcVcWcXcYcZc0c1c2c3c4c5c6c7c8c9c.c+dadbdcdddedfdgdhdidjdkdldmdndodpdqdrdsdtdudvdwdxdydzdAdBdCdDdEdFdGdHdIdJdKdLdMdNdOdPdQdRdSdTdUdVdWdXdYdZd0d1d2d3d4d5d6d7d8d9d.d+eaebecedeeefegeheiejekelemeneoepeqereseteuevewexeyezeAeBeCeDeEeFeGeHeIeJeKeLeMeNeOePeQeReSeTeUeVeWeXeYeZe0e1e2e3e4e5e6e7e8e9e.e+fafbfcfdfefffgfhfifjfkflfmfnfofpfqfrfsftfufvfwfxfyfzfAfBfCfDfEfFfGfHfIfJfKfLfMfNfOfPfQfRfSfTfUfVfWfXfYfZf0f1f2f3f4f5f6f7f8f9f.f+gagbgcgdgegfggghgigjgkglgmgngogpgqgrgsgtgugvgwgxgygzgAgBgCgDgEgFgGgHgIgJgKgLgMgNgOgPgQgRgSgTgUgVgWgXgYgZg0g1g2g3g4g5g6g7g8g9g.g+hahbhchdhehfhghhhihjhkhlhmhnhohphqhrhshthuhvhwhxhyhzhAhBhChDhEhFhGhHhIhJhKhLhMhNhOhPhQhRhShThUhVhWhXhYhZh0h1h2h3h4h5h6h7h8h9h.h+",
"aaabacadaeafagahaiajakalamanaoapaqarasatauavawaxayazaAaBaCaDaEaFaGaHaIaJaKaLaMaNaOaPaQaRaSaTaUaVaWaXaYaZa0a1a2a3a4a5a6a7a8a9a.a+babbbcbdbebfbgbhbibjbkblbmbnbobpbqbrbsbtbubvbwbxbybzbAbBbCbDbEbFbGbHbIbJbKbLbMbNbObPbQbRbSbTbUbVbWbXbYbZb0b1b2b3b4b5b6b7b8b9b.b+cacbcccdcecfcgchcicjckclcmcncocpcqcrcsctcucvcwcxcyczcAcBcCcDcEcFcGcHcIcJcKcLcMcNcOcPcQcRcScTcUcVcWcXcYcZc0c1c2c3c4c5c6c7c8c9c.c+dadbdcdddedfdgdhdidjdkdldmdndodpdqdrdsdtdudvdwdxdydzdAdBdCdDdEdFdGdHdIdJdKdLdMdNdOdPdQdRdSdTdUdVdWdXdYdZd0d1d2d3d4d5d6d7d8d9d.d+eaebecedeeefegeheiejekelemeneoepeqereseteuevewexeyezeAeBeCeDeEeFeGeHeIeJeKeLeMeNeOePeQeReSeTeUeVeWeXeYeZe0e1e2e3e4e5e6e7e8e9e.e+fafbfcfdfefffgfhfifjfkflfmfnfofpfqfrfsftfufvfwfxfyfzfAfBfCfDfEfFfGfHfIfJfKfLfMfNfOfPfQfRfSfTfUfVfWfXfYfZf0f1f2f3f4f5f6f7f8f9f.f+gagbgcgdgegfggghgigjgkglgmgngogpgqgrgsgtgugvgwgxgygzgAgBgCgDgEgFgGgHgIgJgKgLgMgNgOgPgQgRgSgTgUgVgWgXgYgZg0g1g2g3g4g5g6g7g8g9g.g+hahbhchdhehfhghhhihjhkhlhmhnhohphqhrhshthuhvhwhxhyhzhAhBhChDhEhFhGhHhIhJhKhLhMhNhOhPhQhRhShThUhVhWhXhYhZh0h1h2h3h4h5h6h7h8h9h.h+",
"aaabacadaeafagahaiajakalamanaoapaqarasatauavawaxayazaAaBaCaDaEaFaGaHaIaJaKaLaMaNaOaPaQaRaSaTaUaVaWaXaYaZa0a1a2a3a4a5a6a7a8a9a.a+babbbcbdbebfbgbhbibjbkblbmbnbobpbqbrbsbtbubvbwbxbybzbAbBbCbDbEbFbGbHbIbJbKbLbMbNbObPbQbRbSbTbUbVbWbXbYbZb0b1b2b3b4b5b6b7b8b9b.b+cacbcccdcecfcgchcicjckclcmcncocpcqcrcsctcucvcwcxcyczcAcBcCcDcEcFcGcHcIcJcKcLcMcNcOcPcQcRcScTcUcVcWcXcYcZc0c1c2c3c4c5c6c7c8c9c.c+dadbdcdddedfdgdhdidjdkdldmdndodpdqdrdsdtdudvdwdxdydzdAdBdCdDdEdFdGdHdIdJdKdLdMdNdOdPdQdRdSdTdUdVdWdXdYdZd0d1d2d3d4d5d6d7d8d9d.d+eaebecedeeefegeheiejekelemeneoepeqereseteuevewexeyezeAeBeCeDeEeFeGeHeIeJeKeLeMeNeOePeQeReSeTeUeVeWeXeYeZe0e1e2e3e4e5e6e7e8e9e.e+fafbfcfdfefffgfhfifjfkflfmfnfofpfqfrfsftfufvfwfxfyfzfAfBfCfDfEfFfGfHfIfJfKfLfMfNfOfPfQfRfSfTfUfVfWfXfYfZf0f1f2f3f4f5f6f7f8f9f.f+gagbgcgdgegfggghgigjgkglgmgngogpgqgrgsgtgugvgwgxgygzgAgBgCgDgEgFgGgHgIgJgKgLgMgNgOgPgQgRgSgTgUgVgWgXgYgZg0g1g2g3g4g5g6g7g8g9g.g+hahbhchdhehfhghhhihjhkhlhmhnhohphqhrhshthuhvhwhxhyhzhAhBhChDhEhFhGhHhIhJhKhLhMhNhOhPhQhRhShThUhVhWhXhYhZh0h1h2h3h4h5h6h7h8h9h.h+",
"aaabacadaeafagahaiajakalamanaoapaqarasatauavawaxayazaAaBaCaDaEaFaGaHaIaJaKaLaMaNaOaPaQaRaSaTaUaVaWaXaYaZa0a1a2a3a4a5a6a7a8a9a.a+babbbcbdbebfbgbhbibjbkblbmbnbobpbqbrbsbtbubvbwbxbybzbAbBbCbDbEbFbGbHbIbJbKbLbMbNbObPbQbRbSbTbUbVbWbXbYbZb0b1b2b3b4b5b6b7b8b9b.b+cacbcccdcecfcgchcicjckclcmcncocpcqcrcsctcucvcwcxcyczcAcBcCcDcEcFcGcHcIcJcKcLcMcNcOcPcQcRcScTcUcVcWcXcYcZc0c1c2c3c4c5c6c7c8c9c.c+dadbdcdddedfdgdhdidjdkdldmdndodpdqdrdsdtdudvdwdxdydzdAdBdCdDdEdFdGdHdIdJdKdLdMdNdOdPdQdRdSdTdUdVdWdXdYdZd0d1d2d3d4d5d6d7d8d9d.d+eaebecedeeefegeheiejekelemeneoepeqereseteuevewexeyezeAeBeCeDeEeFeGeHeIeJeKeLeMeNeOePeQeReSeTeUeVeWeXeYeZe0e1e2e3e4e5e6e7e8e9e.e+fafbfcfdfefffgfhfifjfkflfmfnfofpfqfrfsftfufvfwfxfyfzfAfBfCfDfEfFfGfHfIfJfKfLfMfNfOfPfQfRfSfTfUfVfWfXfYfZf0f1f2f3f4f5f6f7f8f9f.f+gagbgcgdgegfggghgigjgkglgmgngogpgqgrgsgtgugvgwgxgygzgAgBgCgDgEgFgGgHgIgJgKgLgMgNgOgPgQgRgSgTgUgVgWgXgYgZg0g1g2g3g4g5g6g7g8g9g.g+hahbhchdhehfhghhhihjhkhlhmhnhohphqhrhshthuhvhwhxhyhzhAhBhChDhEhFhGhHhIhJhKhLhMhNhOhPhQhRhShThUhVhWhXhYhZh0h1h2h3h4h5h6h7h8h9h.h+",
"aaabacadaeafagahaiajakalamanaoapaqarasatauavawaxayazaAaBaCaDaEaFaGaHaIaJaKaLaMaNaOaPaQaRaSaTaUaVaWaXaYaZa0a1a2a3a4a5a6a7a8a9a.a+babbbcbdbebfbgbhbibjbkblbmbnbobpbqbrbsbtbubvbwbxbybzbAbBbCbDbEbFbGbHbIbJbKbLbMbNbObPbQbRbSbTbUbVbWbXbYbZb0b1b2b3b4b5b6b7b8b9b.b+cacbcccdcecfcgchcicjckclcmcncocpcqcrcsctcucvcwcxcyczcAcBcCcDcEcFcGcHcIcJcKcLcMcNcOcPcQcRcScTcUcVcWcXcYcZc0c1c2c3c4c5c6c7c8c9c.c+dadbdcdddedfdgdhdidjdkdldmdndodpdqdrdsdtdudvdwdxdydzdAdBdCdDdEdFdGdHdIdJdKdLdMdNdOdPdQdRdSdTdUdVdWdXdYdZd0d1d2d3d4d5d6d7d8d9d.d+eaebecedeeefegeheiejekelemeneoepeqereseteuevewexeyezeAeBeCeDeEeFeGeHeIeJeKeLeMeNeOePeQeReSeTeUeVeWeXeYeZe0e1e2e3e4e5e6e7e8e9e.e+fafbfcfdfefffgfhfifjfkflfmfnfofpfqfrfsftfufvfwfxfyfzfAfBfCfDfEfFfGfHfIfJfKfLfMfNfOfPfQfRfSfTfUfVfWfXfYfZf0f1f2f3f4f5f6f7f8f9f.f+gagbgcgdgegfggghgigjgkglgmgngogpgqgrgsgtgugvgwgxgygzgAgBgCgDgEgFgGgHgIgJgKgLgMgNgOgPgQgRgSgTgUgVgWgXgYgZg0g1g2g3g4g5g6g7g8g9g.g+hahbhchdhehfhghhhihjhkhlhmhnhohphqhrhshthuhvhwhxhyhzhAhBhChDhEhFhGhHhIhJhKhLhMhNhOhPhQhRhShThUhVhWhXhYhZh0h1h2h3h4h5h6h7h8h9h.h+",
"aaabacadaeafagahaiajakalamanaoapaqarasatauavawaxayazaAaBaCaDaEaFaGaHaIaJaKaLaMaNaOaPaQaRaSaTaUaVaWaXaYaZa0a1a2a3a4a5a6a7a8a9a.a+babbbcbdbebfbgbhbibjbkblbmbnbobpbqbrbsbtbubvbwbxbybzbAbBbCbDbEbFbGbHbIbJbKbLbMbNbObPbQbRbSbTbUbVbWbXbYbZb0b1b2b3b4b5b6b7b8b9b.b+cacbcccdcecfcgchcicjckclcmcncocpcqcrcsctcucvcwcxcyczcAcBcCcDcEcFcGcHcIcJcKcLcMcNcOcPcQcRcScTcUcVcWcXcYcZc0c1c2c3c4c5c6c7c8c9c.c+dadbdcdddedfdgdhdidjdkdldmdndodpdqdrdsdtdudvdwdxdydzdAdBdCdDdEdFdGdHdIdJdKdLdMdNdOdPdQdRdSdTdUdVdWdXdYdZd0d1d2d3d4d5d6d7d8d9d.d+eaebecedeeefegeheiejekelemeneoepeqereseteuevewexeyezeAeBeCeDeEeFeGeHeIeJeKeLeMeNeOePeQeReSeTeUeVeWeXeYeZe0e1e2e3e4e5e6e7e8e9e.e+fafbfcfdfefffgfhfifjfkflfmfnfofpfqfrfsftfufvfwfxfyfzfAfBfCfDfEfFfGfHfIfJfKfLfMfNfOfPfQfRfSfTfUfVfWfXfYfZf0f1f2f3f4f5f6f7f8f9f.f+gagbgcgdgegfggghgigjgkglgmgngogpgqgrgsgtgugvgwgxgygzgAgBgCgDgEgFgGgHgIgJgKgLgMgNgOgPgQgRgSgTgUgVgWgXgYgZg0g1g2g3g4g5g6g7g8g9g.g+hahbhchdhehfhghhhihjhkhlhmhnhohphqhrhshthuhvhwhxhyhzhAhBhChDhEhFhGhHhIhJhKhLhMhNhOhPhQhRhShThUhVhWhXhYhZh0h1h2h3h4h5h6h7h8h9h.h+",
"aaabacadaeafagahaiajakalamanaoapaqarasatauavawaxayazaAaBaCaDaEaFaGaHaIaJaKaLaMaNaOaPaQaRaSaTaUaVaWaXaYaZa0a1a2a3a4a5a6a7a8a9a.a+babbbcbdbebfbgbhbibjbkblbmbnbobpbqbrbsbtbubvbwbxbybzbAbBbCbDbEbFbGbHbIbJbKbLbMbNbObPbQbRbSbTbUbVbWbXbYbZb0b1b2b3b4b5b6b7b8b9b.b+cacbcccdcecfcgchcicjckclcmcncocpcqcrcsctcucvcwcxcyczcAcBcCcDcEcFcGcHcIcJcKcLcMcNcOcPcQcRcScTcUcVcWcXcYcZc0c1c2c3c4c5c6c7c8c9c.c+dadbdcdddedfdgdhdidjdkdldmdndodpdqdrdsdtdudvdwdxdydzdAdBdCdDdEdFdGdHdIdJdKdLdMdNdOdPdQdRdSdTdUdVdWdXdYdZd0d1d2d3d4d5d6d7d8d9d.d+eaebecedeeefegeheiejekelemeneoepeqereseteuevewexeyezeAeBeCeDeEeFeGeHeIeJeKeLeMeNeOePeQeReSeTeUeVeWeXeYeZe0e1e2e3e4e5e6e7e8e9e.e+fafbfcfdfefffgfhfifjfkflfmfnfofpfqfrfsftfufvfwfxfyfzfAfBfCfDfEfFfGfHfIfJfKfLfMfNfOfPfQfRfSfTfUfVfWfXfYfZf0f1f2f3f4f5f6f7f8f9f.f+gagbgcgdgegfggghgigjgkglgmgngogpgqgrgsgtgugvgwgxgygzgAgBgCgDgEgFgGgHgIgJgKgLgMgNgOgPgQgRgSgTgUgVgWgXgYgZg0g1g2g3g4g5g6g7g8g9g.g+hahbhchdhehfhghhhihjhkhlhmhnhohphqhrhshthuhvhwhxhyhzhAhBhChDhEhFhGhHhIhJhKhLhMhNhOhPhQhRhShThUhVhWhXhYhZh0h1h2h3h4h5h6h7h8h9h.h+",
"aaabacadaeafagahaiajakalamanaoapaqarasatauavawaxayazaAaBaCaDaEaFaGaHaIaJaKaLaMaNaOaPaQaRaSaTaUaVaWaXaYaZa0a1a2a3a4a5a6a7a8a9a.a+babbbcbdbebfbgbhbibjbkblbmbnbobpbqbrbsbtbubvbwbxbybzbAbBbCbDbEbFbGbHbIbJbKbLbMbNbObPbQbRbSbTbUbVbWbXbYbZb0b1b2b3b4b5b6b7b8b9b.b+cacbcccdcecfcgchcicjckclcmcncocpcqcrcsctcucvcwcxcyczcAcBcCcDcEcFcGcHcIcJcKcLcMcNcOcPcQcRcScTcUcVcWcXcYcZc0c1c2c3c4c5c6c7c8c9c.c+dadbdcdddedfdgdhdidjdkdldmdndodpdqdrdsdtdudvdwdxdydzdAdBdCdDdEdFdGdHdIdJdKdLdMdNdOdPdQdRdSdTdUdVdWdXdYdZd0d1d2d3d4d5d6d7d8d9d.d+eaebecedeeefegeheiejekelemeneoepeqereseteuevewexeyezeAeBeCeDeEeFeGeHeIeJeKeLeMeNeOePeQeReSeTeUeVeWeXeYeZe0e1e2e3e4e5e6e7e8e9e.e+fafbfcfdfefffgfhfifjfkflfmfnfofpfqfrfsftfufvfwfxfyfzfAfBfCfDfEfFfGfHfIfJfKfLfMfNfOfPfQfRfSfTfUfVfWfXfYfZf0f1f2f3f4f5f6f7f8f9f.f+gagbgcgdgegfggghgigjgkglgmgngogpgqgrgsgtgugvgwgxgygzgAgBgCgDgEgFgGgHgIgJgKgLgMgNgOgPgQgRgSgTgUgVgWgXgYgZg0g1g2g3g4g5g6g7g8g9g.g+hahbhchdhehfhghhhihjhkhlhmhnhohphqhrhshthuhvhwhxhyhzhAhBhChDhEhFhGhHhIhJhKhLhMhNhOhPhQhRhShThUhVhWhXhYhZh0h1h2h3h4h5h6h7h8h9h.h+",
"aaabacadaeafagahaiajakalamanaoapaqarasatauavawaxayazaAaBaCaDaEaFaGaHaIaJaKaLaMaNaOaPaQaRaSaTaUaVaWaXaYaZa0a1a2a3a4a5a6a7a8a9a.a+babbbcbdbebfbgbhbibjbkblbmbnbobpbqbrbsbtbubvbwbxbybzbAbBbCbDbEbFbGbHbIbJbKbLbMbNbObPbQbRbSbTbUbVbWbXbYbZb0b1b2b3b4b5b6b7b8b9b.b+cacbcccdcecfcgchcicjckclcmcncocpcqcrcsctcucvcwcxcyczcAcBcCcDcEcFcGcHcIcJcKcLcMcNcOcPcQcRcScTcUcVcWcXcYcZc0c1c2c3c4c5c6c7c8c9c.c+dadbdcdddedfdgdhdidjdkdldmdndodpdqdrdsdtdudvdwdxdydzdAdBdCdDdEdFdGdHdIdJdKdLdMdNdOdPdQdRdSdTdUdVdWdXdYdZd0d1d2d3d4d5d6d7d8d9d.d+eaebecedeeefegeheiejekelemeneoepeqereseteuevewexeyezeAeBeCeDeEeFeGeHeIeJeKeLeMeNeOePeQeReSeTeUeVeWeXeYeZe0e1e2e3e4e5e6e7e8e9e.e+fafbfcfdfefffgfhfifjfkflfmfnfofpfqfrfsftfufvfwfxfyfzfAfBfCfDfEfFfGfHfIfJfKfLfMfNfOfPfQfRfSfTfUfVfWfXfYfZf0f1f2f3f4f5f6f7f8f9f.f+gagbgcgdgegfggghgigjgkglgmgngogpgqgrgsgtgugvgwgxgygzgAgBgCgDgEgFgGgHgIgJgKgLgMgNgOgPgQgRgSgTgUgVgWgXgYgZg0g1g2g3g4g5g6g7g8g9g.g+hahbhchdhehfhghhhihjhkhlhmhnhohphqhrhshthuhvhwhxhyhzhAhBhChDhEhFhGhHhIhJhKhLhMhNhOhPhQhRhShThUhVhWhXhYhZh0h1h2h3h4h5h6h7h8h9h.h+",
"aaabacadaeafagahaiajakalamanaoapaqarasatauavawaxayazaAaBaCaDaEaFaGaHaIaJaKaLaMaNaOaPaQaRaSaTaUaVaWaXaYaZa0a1a2a3a4a5a6a7a8a9a.a+babbbcbdbebfbgbhbibjbkblbmbnbobpbqbrbsbtbubvbwbxbybzbAbBbCbDbEbFbGbHbIbJbKbLbMbNbObPbQbRbSbTbUbVbWbXbYbZb0b1b2b3b4b5b6b7b8b9b.b+cacbcccdcecfcgchcicjckclcmcncocpcqcrcsctcucvcwcxcyczcAcBcCcDcEcFcGcHcIcJcKcLcMcNcOcPcQcRcScTcUcVcWcXcYcZc0c1c2c3c4c5c6c7c8c9c.c+dadbdcdddedfdgdhdidjdkdldmdndodpdqdrdsdtdudvdwdxdydzdAdBdCdDdEdFdGdHdIdJdKdLdMdNdOdPdQdRdSdTdUdVdWdXdYdZd0d1d2d3d4d5d6d7d8d9d.d+eaebecedeeefegeheiejekelemeneoepeqereseteuevewexeyezeAeBeCeDeEeFeGeHeIeJeKeLeMeNeOePeQeReSeTeUeVeWeXeYeZe0e1e2e3e4e5e6e7e8e9e.e+fafbfcfdfefffgfhfifjfkflfmfnfofpfqfrfsftfufvfwfxfyfzfAfBfCfDfEfFfGfHfIfJfKfLfMfNfOfPfQfRfSfTfUfVfWfXfYfZf0f1f2f3f4f5f6f7f8f9f.f+gagbgcgdgegfggghgigjgkglgmgngogpgqgrgsgtgugvgwgxgygzgAgBgCgDgEgFgGgHgIgJgKgLgMgNgOgPgQgRgSgTgUgVgWgXgYgZg0g1g2g3g4g5g6g7g8g9g.g+hahbhchdhehfhghhhihjhkhlhmhnhohphqhrhshthuhvhwhxhyhzhAhBhChDhEhFhGhHhIhJhKhLhMhNhOhPhQhRhShThUhVhWhXhYhZh0h1h2h3h4h5h6h7h8h9h.h+",
"aaabacadaeafagahaiajakalamanaoapaqarasatauavawaxayazaAaBaCaDaEaFaGaHaIaJaKaLaMaNaOaPaQaRaSaTaUaVaWaXaYaZa0a1a2a3a4a5a6a7a8a9a.a+babbbcbdbebfbgbhbibjbkblbmbnbobpbqbrbsbtbubvbwbxbybzbAbBbCbDbEbFbGbHbIbJbKbLbMbNbObPbQbRbSbTbUbVbWbXbYbZb0b1b2b3b4b5b6b7b8b9b.b+cacbcccdcecfcgchcicjckclcmcncocpcqcrcsctcucvcwcxcyczcAcBcCcDcEcFcGcHcIcJcKcLcMcNcOcPcQcRcScTcUcVcWcXcYcZc0c1c2c3c4c5c6c7c8c9c.c+dadbdcdddedfdgdhdidjdkdldmdndodpdqdrdsdtdudvdwdxdydzdAdBdCdDdEdFdGdHdIdJdKdLdMdNdOdPdQdRdSdTdUdVdWdXdYdZd0d1d2d3d4d5d6d7d8d9d.d+eaebecedeeefegeheiejekelemeneoepeqereseteuevewexeyezeAeBeCeDeEeFeGeHeIeJeKeLeMeNeOePeQeReSeTeUeVeWeXeYeZe0e1e2e3e4e5e6e7e8e9e.e+fafbfcfdfefffgfhfifjfkflfmfnfofpfqfrfsftfufvfwfxfyfzfAfBfCfDfEfFfGfHfIfJfKfLfMfNfOfPfQfRfSfTfUfVfWfXfYfZf0f1f2f3f4f5f6f7f8f9f.f+gagbgcgdgegfggghgigjgkglgmgngogpgqgrgsgtgugvgwgxgygzgAgBgCgDgEgFgGgHgIgJgKgLgMgNgOgPgQgRgSgTgUgVgWgXgYgZg0g1g2g3g4g5g6g7g8g9g.g+hahbhchdhehfhghhhihjhkhlhmhnhohphqhrhshthuhvhwhxhyhzhAhBhChDhEhFhGhHhIhJhKhLhMhNhOhPhQhRhShThUhVhWhXhYhZh0h1h2h3h4h5h6h7h8h9h.h+",
"aaabacadaeafagahaiajakalamanaoapaqarasatauavawaxayazaAaBaCaDaEaFaGaHaIaJaKaLaMaNaOaPaQaRaSaTaUaVaWaXaYaZa0a1a2a3a4a5a6a7a8a9a.a+babbbcbdbebfbgbhbibjbkblbmbnbobpbqbrbsbtbubvbwbxbybzbAbBbCbDbEbFbGbHbIbJbKbLbMbNbObPbQbRbSbTbUbVbWbXbYbZb0b1b2b3b4b5b6b7b8b9b.b+cacbcccdcecfcgchcicjckclcmcncocpcqcrcsctcucvcwcxcyczcAcBcCcDcEcFcGcHcIcJcKcLcMcNcOcPcQcRcScTcUcVcWcXcYcZc0c1c2c3c4c5c6c7c8c9c.c+dadbdcdddedfdgdhdidjdkdldmdndodpdqdrdsdtdudvdwdxdydzdAdBdCdDdEdFdGdHdIdJdKdLdMdNdOdPdQdRdSdTdUdVdWdXdYdZd0d1d2d3d4d5d6d7d8d9d.d+eaebecedeeefegeheiejekelemeneoepeqereseteuevewexeyezeAeBeCeDeEeFeGeHeIeJeKeLeMeNeOePeQeReSeTeUeVeWeXeYeZe0e1e2e3e4e5e6e7e8e9e.e+fafbfcfdfefffgfhfifjfkflfmfnfofpfqfrfsftfufvfwfxfyfzfAfBfCfDfEfFfGfHfIfJfKfLfMfNfOfPfQfRfSfTfUfVfWfXfYfZf0f1f2f3f4f5f6f7f8f9f.f+gagbgcgdgegfggghgigjgkglgmgngogpgqgrgsgtgugvgwgxgygzgAgBgCgDgEgFgGgHgIgJgKgLgMgNgOgPgQgRgSgTgUgVgWgXgYgZg0g1g2g3g4g5g6g7g8g9g.g+hahbhchdhehfhghhhihjhkhlhmhnhohphqhrhshthuhvhwhxhyhzhAhBhChDhEhFhGhHhIhJhKhLhMhNhOhPhQhRhShThUhVhWhXhYhZh0h1h2h3h4h5h6h7h8h9h.h+",
"aaabacadaeafagahaiajakalamanaoapaqarasatauavawaxayazaAaBaCaDaEaFaGaHaIaJaKaLaMaNaOaPaQaRaSaTaUaVaWaXaYaZa0a1a2a3a4a5a6a7a8a9a.a+babbbcbdbebfbgbhbibjbkblbmbnbobpbqbrbsbtbubvbwbxbybzbAbBbCbDbEbFbGbHbIbJbKbLbMbNbObPbQbRbSbTbUbVbWbXbYbZb0b1b2b3b4b5b6b7b8b9b.b+cacbcccdcecfcgchcicjckclcmcncocpcqcrcsctcucvcwcxcyczcAcBcCcDcEcFcGcHcIcJcKcLcMcNcOcPcQcRcScTcUcVcWcXcYcZc0c1c2c3c4c5c6c7c8c9c.c+dadbdcdddedfdgdhdidjdkdldmdndodpdqdrdsdtdudvdwdxdydzdAdBdCdDdEdFdGdHdIdJdKdLdMdNdOdPdQdRdSdTdUdVdWdXdYdZd0d1d2d3d4d5d6d7d8d9d.d+eaebecedeeefegeheiejekelemeneoepeqereseteuevewexeyezeAeBeCeDeEeFeGeHeIeJeKeLeMeNeOePeQeReSeTeUeVeWeXeYeZe0e1e2e3e4e5e6e7e8e9e.e+fafbfcfdfefffgfhfifjfkflfmfnfofpfqfrfsftfufvfwfxfyfzfAfBfCfDfEfFfGfHfIfJfKfLfMfNfOfPfQfRfSfTfUfVfWfXfYfZf0f1f2f3f4f5f6f7f8f9f.f+gagbgcgdgegfggghgigjgkglgmgngogpgqgrgsgtgugvgwgxgygzgAgBgCgDgEgFgGgHgIgJgKgLgMgNgOgPgQgRgSgTgUgVgWgXgYgZg0g1g2g3g4g5g6g7g8g9g.g+hahbhchdhehfhghhhihjhkhlhmhnhohphqhrhshthuhvhwhxhyhzhAhBhChDhEhFhGhHhIhJhKhLhMhNhOhPhQhRhShThUhVhWhXhYhZh0h1h2h3h4h5h6h7h8h9h.h+",
"aaabacadaeafagahaiajakalamanaoapaqarasatauavawaxayazaAaBaCaDaEaFaGaHaIaJaKaLaMaNaOaPaQaRaSaTaUaVaWaXaYaZa0a1a2a3a4a5a6a7a8a9a.a+babbbcbdbebfbgbhbibjbkblbmbnbobpbqbrbsbtbubvbwbxbybzbAbBbCbDbEbFbGbHbIbJbKbLbMbNbObPbQbRbSbTbUbVbWbXbYbZb0b1b2b3b4b5b6b7b8b9b.b+cacbcccdcecfcgchcicjckclcmcncocpcqcrcsctcucvcwcxcyczcAcBcCcDcEcFcGcHcIcJcKcLcMcNcOcPcQcRcScTcUcVcWcXcYcZc0c1c2c3c4c5c6c7c8c9c.c+dadbdcdddedfdgdhdidjdkdldmdndodpdqdrdsdtdudvdwdxdydzdAdBdCdDdEdFdGdHdIdJdKdLdMdNdOdPdQdRdSdTdUdVdWdXdYdZd0d1d2d3d4d5d6d7d8d9d.d+eaebecedeeefegeheiejekelemeneoepeqereseteuevewexeyezeAeBeCeDeEeFeGeHeIeJeKeLeMeNeOePeQeReSeTeUeVeWeXeYeZe0e1e2e3e4e5e6e7e8e9e.e+fafbfcfdfefffgfhfifjfkflfmfnfofpfqfrfsftfufvfwfxfyfzfAfBfCfDfEfFfGfHfIfJfKfLfMfNfOfPfQfRfSfTfUfVfWfXfYfZf0f1f2f3f4f5f6f7f8f9f.f+gagbgcgdgegfggghgigjgkglgmgngogpgqgrgsgtgugvgwgxgygzgAgBgCgDgEgFgGgHgIgJgKgLgMgNgOgPgQgRgSgTgUgVgWgXgYgZg0g1g2g3g4g5g6g7g8g9g.g+hahbhchdhehfhghhhihjhkhlhmhnhohphqhrhshthuhvhwhxhyhzhAhBhChDhEhFhGhHhIhJhKhLhMhNhOhPhQhRhShThUhVhWhXhYhZh0h1h2h3h4h5h6h7h8h9h.h+",
"aaabacadaeafagahaiajakalamanaoapaqarasatauavawaxayazaAaBaCaDaEaFaGaHaIaJaKaLaMaNaOaPaQaRaSaTaUaVaWaXaYaZa0a1a2a3a4a5a6a7a8a9a.a+babbbcbdbebfbgbhbibjbkblbmbnbobpbqbrbsbtbubvbwbxbybzbAbBbCbDbEbFbGbHbIbJbKbLbMbNbObPbQbRbSbTbUbVbWbXbYbZb0b1b2b3b4b5b6b7b8b9b.b+cacbcccdcecfcgchcicjckclcmcncocpcqcrcsctcucvcwcxcyczcAcBcCcDcEcFcGcHcIcJcKcLcMcNcOcPcQcRcScTcUcVcWcXcYcZc0c1c2c3c4c5c6c7c8c9c.c+dadbdcdddedfdgdhdidjdkdldmdndodpdqdrdsdtdudvdwdxdydzdAdBdCdDdEdFdGdHdIdJdKdLdMdNdOdPdQdRdSdTdUdVdWdXdYdZd0d1d2d3d4d5d6d7d8d9d.d+eaebecedeeefegeheiejekelemeneoepeqereseteuevewexeyezeAeBeCeDeEeFeGeHeIeJeKeLeMeNeOePeQeReSeTeUeVeWeXeYeZe0e1e2e3e4e5e6e7e8e9e.e+fafbfcfdfefffgfhfifjfkflfmfnfofpfqfrfsftfufvfwfxfyfzfAfBfCfDfEfFfGfHfIfJfKfLfMfNfOfPfQfRfSfTfUfVfWfXfYfZf0f1f2f3f4f5f6f7f8f9f.f+gagbgcgdgegfggghgigjgkglgmgngogpgqgrgsgtgugvgwgxgygzgAgBgCgDgEgFgGgHgIgJgKgLgMgNgOgPgQgRgSgTgUgVgWgXgYgZg0g1g2g3g4g5g6g7g8g9g.g+hahbhchdhehfhghhhihjhkhlhmhnhohphqhrhshthuhvhwhxhyhzhAhBhChDhEhFhGhHhIhJhKhLhMhNhOhPhQhRhShThUhVhWhXhYhZh0h1h2h3h4h5h6h7h8h9h.h+",
"aaabacadaeafagahaiajakalamanaoapaqarasatauavawaxayazaAaBaCaDaEaFaGaHaIaJaKaLaMaNaOaPaQaRaSaTaUaVaWaXaYaZa0a1a2a3a4a5a6a7a8a9a.a+babbbcbdbebfbgbhbibjbkblbmbnbobpbqbrbsbtbubvbwbxbybzbAbBbCbDbEbFbGbHbIbJbKbLbMbNbObPbQbRbSbTbUbVbWbXbYbZb0b1b2b3b4b5b6b7b8b9b.b+cacbcccdcecfcgchcicjckclcmcncocpcqcrcsctcucvcwcxcyczcAcBcCcDcEcFcGcHcIcJcKcLcMcNcOcPcQcRcScTcUcVcWcXcYcZc0c1c2c3c4c5c6c7c8c9c.c+dadbdcdddedfdgdhdidjdkdldmdndodpdqdrdsdtdudvdwdxdydzdAdBdCdDdEdFdGdHdIdJdKdLdMdNdOdPdQdRdSdTdUdVdWdXdYdZd0d1d2d3d4d5d6d7d8d9d.d+eaebecedeeefegeheiejekelemeneoepeqereseteuevewexeyezeAeBeCeDeEeFeGeHeIeJeKeLeMeNeOePeQeReSeTeUeVeWeXeYeZe0e1e2e3e4e5e6e7e8e9e.e+fafbfcfdfefffgfhfifjfkflfmfnfofpfqfrfsftfufvfwfxfyfzfAfBfCfDfEfFfGfHfIfJfKfLfMfNfOfPfQfRfSfTfUfVfWfXfYfZf0f1f2f3f4f5f6f7f8f9f.f+gagbgcgdgegfggghgigjgkglgmgngogpgqgrgsgtgugvgwgxgygzgAgBgCgDgEgFgGgHgIgJgKgLgMgNgOgPgQgRgSgTgUgVgWgXgYgZg0g1g2g3g4g5g6g7g8g9g.g+hahbhchdhehfhghhhihjhkhlhmhnhohphqhrhshthuhvhwhxhyhzhAhBhChDhEhFhGhHhIhJhKhLhMhNhOhPhQhRhShThUhVhWhXhYhZh0h1h2h3h4h5h6h7h8h9h.h+",
"aaabacadaeafagahaiajakalamanaoapaqarasatauavawaxayazaAaBaCaDaEaFaGaHaIaJaKaLaMaNaOaPaQaRaSaTaUaVaWaXaYaZa0a1a2a3a4a5a6a7a8a9a.a+babbbcbdbebfbgbhbibjbkblbmbnbobpbqbrbsbtbubvbwbxbybzbAbBbCbDbEbFbGbHbIbJbKbLbMbNbObPbQbRbSbTbUbVbWbXbYbZb0b1b2b3b4b5b6b7b8b9b.b+cacbcccdcecfcgchcicjckclcmcncocpcqcrcsctcucvcwcxcyczcAcBcCcDcEcFcGcHcIcJcKcLcMcNcOcPcQcRcScTcUcVcWcXcYcZc0c1c2c3c4c5c6c7c8c9c.c+dadbdcdddedfdgdhdidjdkdldmdndodpdqdrdsdtdudvdwdxdydzdAdBdCdDdEdFdGdHdIdJdKdLdMdNdOdPdQdRdSdTdUdVdWdXdYdZd0d1d2d3d4d5d6d7d8d9d.d+eaebecedeeefegeheiejekelemeneoepeqereseteuevewexeyezeAeBeCeDeEeFeGeHeIeJeKeLeMeNeOePeQeReSeTeUeVeWeXeYeZe0e1e2e3e4e5e6e7e8e9e.e+fafbfcfdfefffgfhfifjfkflfmfnfofpfqfrfsftfufvfwfxfyfzfAfBfCfDfEfFfGfHfIfJfKfLfMfNfOfPfQfRfSfTfUfVfWfXfYfZf0f1f2f3f4f5f6f7f8f9f.f+gagbgcgdgegfggghgigjgkglgmgngogpgqgrgsgtgugvgwgxgygzgAgBgCgDgEgFgGgHgIgJgKgLgMgNgOgPgQgRgSgTgUgVgWgXgYgZg0g1g2g3g4g5g6g7g8g9g.g+hahbhchdhehfhghhhihjhkhlhmhnhohphqhrhshthuhvhwhxhyhzhAhBhChDhEhFhGhHhIhJhKhLhMhNhOhPhQhRhShThUhVhWhXhYhZh0h1h2h3h4h5h6h7h8h9h.h+",
"aaabacadaeafagahaiajakalamanaoapaqarasatauavawaxayazaAaBaCaDaEaFaGaHaIaJaKaLaMaNaOaPaQaRaSaTaUaVaWaXaYaZa0a1a2a3a4a5a6a7a8a9a.a+babbbcbdbebfbgbhbibjbkblbmbnbobpbqbrbsbtbubvbwbxbybzbAbBbCbDbEbFbGbHbIbJbKbLbMbNbObPbQbRbSbTbUbVbWbXbYbZb0b1b2b3b4b5b6b7b8b9b.b+cacbcccdcecfcgchcicjckclcmcncocpcqcrcsctcucvcwcxcyczcAcBcCcDcEcFcGcHcIcJcKcLcMcNcOcPcQcRcScTcUcVcWcXcYcZc0c1c2c3c4c5c6c7c8c9c.c+dadbdcdddedfdgdhdidjdkdldmdndodpdqdrdsdtdudvdwdxdydzdAdBdCdDdEdFdGdHdIdJdKdLdMdNdOdPdQdRdSdTdUdVdWdXdYdZd0d1d2d3d4d5d6d7d8d9d.d+eaebecedeeefegeheiejekelemeneoepeqereseteuevewexeyezeAeBeCeDeEeFeGeHeIeJeKeLeMeNeOePeQeReSeTeUeVeWeXeYeZe0e1e2e3e4e5e6e7e8e9e.e+fafbfcfdfefffgfhfifjfkflfmfnfofpfqfrfsftfufvfwfxfyfzfAfBfCfDfEfFfGfHfIfJfKfLfMfNfOfPfQfRfSfTfUfVfWfXfYfZf0f1f2f3f4f5f6f7f8f9f.f+gagbgcgdgegfggghgigjgkglgmgngogpgqgrgsgtgugvgwgxgygzgAgBgCgDgEgFgGgHgIgJgKgLgMgNgOgPgQgRgSgTgUgVgWgXgYgZg0g1g2g3g4g5g6g7g8g9g.g+hahbhchdhehfhghhhihjhkhlhmhnhohphqhrhshthuhvhwhxhyhzhAhBhChDhEhFhGhHhIhJhKhLhMhNhOhPhQhRhShThUhVhWhXhYhZh0h1h2h3h4h5h6h7h8h9h.h+",
"aaabacadaeafagahaiajakalamanaoapaqarasatauavawaxayazaAaBaCaDaEaFaGaHaIaJaKaLaMaNaOaPaQaRaSaTaUaVaWaXaYaZa0a1a2a3a4a5a6a7a8a9a.a+babbbcbdbebfbgbhbibjbkblbmbnbobpbqbrbsbtbubvbwbxbybzbAbBbCbDbEbFbGbHbIbJbKbLbMbNbObPbQbRbSbTbUbVbWbXbYbZb0b1b2b3b4b5b6b7b8b9b.b+cacbcccdcecfcgchcicjckclcmcncocpcqcrcsctcucvcwcxcyczcAcBcCcDcEcFcGcHcIcJcKcLcMcNcOcPcQcRcScTcUcVcWcXcYcZc0c1c2c3c4c5c6c7c8c9c.c+dadbdcdddedfdgdhdidjdkdldmdndodpdqdrdsdtdudvdwdxdydzdAdBdCdDdEdFdGdHdIdJdKdLdMdNdOdPdQdRdSdTdUdVdWdXdYdZd0d1d2d3d4d5d6d7d8d9d.d+eaebecedeeefegeheiejekelemeneoepeqereseteuevewexeyezeAeBeCeDeEeFeGeHeIeJeKeLeMeNeOePeQeReSeTeUeVeWeXeYeZe0e1e2e3e4e5e6e7e8e9e.e+fafbfcfdfefffgfhfifjfkflfmfnfofpfqfrfsftfufvfwfxfyfzfAfBfCfDfEfFfGfHfIfJfKfLfMfNfOfPfQfRfSfTfUfVfWfXfYfZf0f1f2f3f4f5f6f7f8f9f.f+gagbgcgdgegfggghgigjgkglgmgngogpgqgrgsgtgugvgwgxgygzgAgBgCgDgEgFgGgHgIgJgKgLgMgNgOgPgQgRgSgTgUgVgWgXgYgZg0g1g2g3g4g5g6g7g8g9g.g+hahbhchdhehfhghhhihjhkhlhmhnhohphqhrhshthuhvhwhxhyhzhAhBhChDhEhFhGhHhIhJhKhLhMhNhOhPhQhRhShThUhVhWhXhYhZh0h1h2h3h4h5h6h7h8h9h.h+",
"aaabacadaeafagahaiajakalamanaoapaqarasatauavawaxayazaAaBaCaDaEaFaGaHaIaJaKaLaMaNaOaPaQaRaSaTaUaVaWaXaYaZa0a1a2a3a4a5a6a7a8a9a.a+babbbcbdbebfbgbhbibjbkblbmbnbobpbqbrbsbtbubvbwbxbybzbAbBbCbDbEbFbGbHbIbJbKbLbMbNbObPbQbRbSbTbUbVbWbXbYbZb0b1b2b3b4b5b6b7b8b9b.b+cacbcccdcecfcgchcicjckclcmcncocpcqcrcsctcucvcwcxcyczcAcBcCcDcEcFcGcHcIcJcKcLcMcNcOcPcQcRcScTcUcVcWcXcYcZc0c1c2c3c4c5c6c7c8c9c.c+dadbdcdddedfdgdhdidjdkdldmdndodpdqdrdsdtdudvdwdxdydzdAdBdCdDdEdFdGdHdIdJdKdLdMdNdOdPdQdRdSdTdUdVdWdXdYdZd0d1d2d3d4d5d6d7d8d9d.d+eaebecedeeefegeheiejekelemeneoepeqereseteuevewexeyezeAeBeCeDeEeFeGeHeIeJeKeLeMeNeOePeQeReSeTeUeVeWeXeYeZe0e1e2e3e4e5e6e7e8e9e.e+fafbfcfdfefffgfhfifjfkflfmfnfofpfqfrfsftfufvfwfxfyfzfAfBfCfDfEfFfGfHfIfJfKfLfMfNfOfPfQfRfSfTfUfVfWfXfYfZf0f1f2f3f4f5f6f7f8f9f.f+gagbgcgdgegfggghgigjgkglgmgngogpgqgrgsgtgugvgwgxgygzgAgBgCgDgEgFgGgHgIgJgKgLgMgNgOgPgQgRgSgTgUgVgWgXgYgZg0g1g2g3g4g5g6g7g8g9g.g+hahbhchdhehfhghhhihjhkhlhmhnhohphqhrhshthuhvhwhxhyhzhAhBhChDhEhFhGhHhIhJhKhLhMhNhOhPhQhRhShThUhVhWhXhYhZh0h1h2h3h4h5h6h7h8h9h.h+",
"aaabacadaeafagahaiajakalamanaoapaqarasatauavawaxayazaAaBaCaDaEaFaGaHaIaJaKaLaMaNaOaPaQaRaSaTaUaVaWaXaYaZa0a1a2a3a4a5a6a7a8a9a.a+babbbcbdbebfbgbhbibjbkblbmbnbobpbqbrbsbtbubvbwbxbybzbAbBbCbDbEbFbGbHbIbJbKbLbMbNbObPbQbRbSbTbUbVbWbXbYbZb0b1b2b3b4b5b6b7b8b9b.b+cacbcccdcecfcgchcicjckclcmcncocpcqcrcsctcucvcwcxcyczcAcBcCcDcEcFcGcHcIcJcKcLcMcNcOcPcQcRcScTcUcVcWcXcYcZc0c1c2c3c4c5c6c7c8c9c.c+dadbdcdddedfdgdhdidjdkdldmdndodpdqdrdsdtdudvdwdxdydzdAdBdCdDdEdFdGdHdIdJdKdLdMdNdOdPdQdRdSdTdUdVdWdXdYdZd0d1d2d3d4d5d6d7d8d9d.d+eaebecedeeefegeheiejekelemeneoepeqereseteuevewexeyezeAeBeCeDeEeFeGeHeIeJeKeLeMeNeOePeQeReSeTeUeVeWeXeYeZe0e1e2e3e4e5e6e7e8e9e.e+fafbfcfdfefffgfhfifjfkflfmfnfofpfqfrfsftfufvfwfxfyfzfAfBfCfDfEfFfGfHfIfJfKfLfMfNfOfPfQfRfSfTfUfVfWfXfYfZf0f1f2f3f4f5f6f7f8f9f.f+gagbgcgdgegfggghgigjgkglgmgngogpgqgrgsgtgugvgwgxgygzgAgBgCgDgEgFgGgHgIgJgKgLgMgNgOgPgQgRgSgTgUgVgWgXgYgZg0g1g2g3g4g5g6g7g8g9g.g+hahbhchdhehfhghhhihjhkhlhmhnhohphqhrhshthuhvhwhxhyhzhAhBhChDhEhFhGhHhIhJhKhLhMhNhOhPhQhRhShThUhVhWhXhYhZh0h1h2h3h4h5h6h7h8h9h.h+",
"aaabacadaeafagahaiajakalamanaoapaqarasatauavawaxayazaAaBaCaDaEaFaGaHaIaJaKaLaMaNaOaPaQaRaSaTaUaVaWaXaYaZa0a1a2a3a4a5a6a7a8a9a.a+babbbcbdbebfbgbhbibjbkblbmbnbobpbqbrbsbtbubvbwbxbybzbAbBbCbDbEbFbGbHbIbJbKbLbMbNbObPbQbRbSbTbUbVbWbXbYbZb0b1b2b3b4b5b6b7b8b9b.b+cacbcccdcecfcgchcicjckclcmcncocpcqcrcsctcucvcwcxcyczcAcBcCcDcEcFcGcHcIcJcKcLcMcNcOcPcQcRcScTcUcVcWcXcYcZc0c1c2c3c4c5c6c7c8c9c.c+dadbdcdddedfdgdhdidjdkdldmdndodpdqdrdsdtdudvdwdxdydzdAdBdCdDdEdFdGdHdIdJdKdLdMdNdOdPdQdRdSdTdUdVdWdXdYdZd0d1d2d3d4d5d6d7d8d9d.d+eaebecedeeefegeheiejekelemeneoepeqereseteuevewexeyezeAeBeCeDeEeFeGeHeIeJeKeLeMeNeOePeQeReSeTeUeVeWeXeYeZe0e1e2e3e4e5e6e7e8e9e.e+fafbfcfdfefffgfhfifjfkflfmfnfofpfqfrfsftfufvfwfxfyfzfAfBfCfDfEfFfGfHfIfJfKfLfMfNfOfPfQfRfSfTfUfVfWfXfYfZf0f1f2f3f4f5f6f7f8f9f.f+gagbgcgdgegfggghgigjgkglgmgngogpgqgrgsgtgugvgwgxgygzgAgBgCgDgEgFgGgHgIgJgKgLgMgNgOgPgQgRgSgTgUgVgWgXgYgZg0g1g2g3g4g5g6g7g8g9g.g+hahbhchdhehfhghhhihjhkhlhmhnhohphqhrhshthuhvhwhxhyhzhAhBhChDhEhFhGhHhIhJhKhLhMhNhOhPhQhRhShThUhVhWhXhYhZh0h1h2h3h4h5h6h7h8h9h.h+",
"aaabacadaeafagahaiajakalamanaoapaqarasatauavawaxayazaAaBaCaDaEaFaGaHaIaJaKaLaMaNaOaPaQaRaSaTaUaVaWaXaYaZa0a1a2a3a4a5a6a7a8a9a.a+babbbcbdbebfbgbhbibjbkblbmbnbobpbqbrbsbtbubvbwbxbybzbAbBbCbDbEbFbGbHbIbJbKbLbMbNbObPbQbRbSbTbUbVbWbXbYbZb0b1b2b3b4b5b6b7b8b9b.b+cacbcccdcecfcgchcicjckclcmcncocpcqcrcsctcucvcwcxcyczcAcBcCcDcEcFcGcHcIcJcKcLcMcNcOcPcQcRcScTcUcVcWcXcYcZc0c1c2c3c4c5c6c7c8c9c.c+dadbdcdddedfdgdhdidjdkdldmdndodpdqdrdsdtdudvdwdxdydzdAdBdCdDdEdFdGdHdIdJdKdLdMdNdOdPdQdRdSdTdUdVdWdXdYdZd0d1d2d3d4d5d6d7d8d9d.d+eaebecedeeefegeheiejekelemeneoepeqereseteuevewexeyezeAeBeCeDeEeFeGeHeIeJeKeLeMeNeOePeQeReSeTeUeVeWeXeYeZe0e1e2e3e4e5e6e7e8e9e.e+fafbfcfdfefffgfhfifjfkflfmfnfofpfqfrfsftfufvfwfxfyfzfAfBfCfDfEfFfGfHfIfJfKfLfMfNfOfPfQfRfSfTfUfVfWfXfYfZf0f1f2f3f4f5f6f7f8f9f.f+gagbgcgdgegfggghgigjgkglgmgngogpgqgrgsgtgugvgwgxgygzgAgBgCgDgEgFgGgHgIgJgKgLgMgNgOgPgQgRgSgTgUgVgWgXgYgZg0g1g2g3g4g5g6g7g8g9g.g+hahbhchdhehfhghhhihjhkhlhmhnhohphqhrhshthuhvhwhxhyhzhAhBhChDhEhFhGhHhIhJhKhLhMhNhOhPhQhRhShThUhVhWhXhYhZh0h1h2h3h4h5h6h7h8h9h.h+",
"aaabacadaeafagahaiajakalamanaoapaqarasatauavawaxayazaAaBaCaDaEaFaGaHaIaJaKaLaMaNaOaPaQaRaSaTaUaVaWaXaYaZa0a1a2a3a4a5a6a7a8a9a.a+babbbcbdbebfbgbhbibjbkblbmbnbobpbqbrbsbtbubvbwbxbybzbAbBbCbDbEbFbGbHbIbJbKbLbMbNbObPbQbRbSbTbUbVbWbXbYbZb0b1b2b3b4b5b6b7b8b9b.b+cacbcccdcecfcgchcicjckclcmcncocpcqcrcsctcucvcwcxcyczcAcBcCcDcEcFcGcHcIcJcKcLcMcNcOcPcQcRcScTcUcVcWcXcYcZc0c1c2c3c4c5c6c7c8c9c.c+dadbdcdddedfdgdhdidjdkdldmdndodpdqdrdsdtdudvdwdxdydzdAdBdCdDdEdFdGdHdIdJdKdLdMdNdOdPdQdRdSdTdUdVdWdXdYdZd0d1d2d3d4d5d6d7d8d9d.d+eaebecedeeefegeheiejekelemeneoepeqereseteuevewexeyezeAeBeCeDeEeFeGeHeIeJeKeLeMeNeOePeQeReSeTeUeVeWeXeYeZe0e1e2e3e4e5e6e7e8e9e.e+fafbfcfdfefffgfhfifjfkflfmfnfofpfqfrfsftfufvfwfxfyfzfAfBfCfDfEfFfGfHfIfJfKfLfMfNfOfPfQfRfSfTfUfVfWfXfYfZf0f1f2f3f4f5f6f7f8f9f.f+gagbgcgdgegfggghgigjgkglgmgngogpgqgrgsgtgugvgwgxgygzgAgBgCgDgEgFgGgHgIgJgKgLgMgNgOgPgQgRgSgTgUgVgWgXgYgZg0g1g2g3g4g5g6g7g8g9g.g+hahbhchdhehfhghhhihjhkhlhmhnhohphqhrhshthuhvhwhxhyhzhAhBhChDhEhFhGhHhIhJhKhLhMhNhOhPhQhRhShThUhVhWhXhYhZh0h1h2h3h4h5h6h7h8h9h.h+",
"aaabacadaeafagahaiajakalamanaoapaqarasatauavawaxayazaAaBaCaDaEaFaGaHaIaJaKaLaMaNaOaPaQaRaSaTaUaVaWaXaYaZa0a1a2a3a4a5a6a7a8a9a.a+babbbcbdbebfbgbhbibjbkblbmbnbobpbqbrbsbtbubvbwbxbybzbAbBbCbDbEbFbGbHbIbJbKbLbMbNbObPbQbRbSbTbUbVbWbXbYbZb0b1b2b3b4b5b6b7b8b9b.b+cacbcccdcecfcgchcicjckclcmcncocpcqcrcsctcucvcwcxcyczcAcBcCcDcEcFcGcHcIcJcKcLcMcNcOcPcQcRcScTcUcVcWcXcYcZc0c1c2c3c4c5c6c7c8c9c.c+dadbdcdddedfdgdhdidjdkdldmdndodpdqdrdsdtdudvdwdxdydzdAdBdCdDdEdFdGdHdIdJdKdLdMdNdOdPdQdRdSdTdUdVdWdXdYdZd0d1d2d3d4d5d6d7d8d9d.d+eaebecedeeefegeheiejekelemeneoepeqereseteuevewexeyezeAeBeCeDeEeFeGeHeIeJeKeLeMeNeOePeQeReSeTeUeVeWeXeYeZe0e1e2e3e4e5e6e7e8e9e.e+fafbfcfdfefffgfhfifjfkflfmfnfofpfqfrfsftfufvfwfxfyfzfAfBfCfDfEfFfGfHfIfJfKfLfMfNfOfPfQfRfSfTfUfVfWfXfYfZf0f1f2f3f4f5f6f7f8f9f.f+gagbgcgdgegfggghgigjgkglgmgngogpgqgrgsgtgugvgwgxgygzgAgBgCgDgEgFgGgHgIgJgKgLgMgNgOgPgQgRgSgTgUgVgWgXgYgZg0g1g2g3g4g5g6g7g8g9g.g+hahbhchdhehfhghhhihjhkhlhmhnhohphqhrhshthuhvhwhxhyhzhAhBhChDhEhFhGhHhIhJhKhLhMhNhOhPhQhRhShThUhVhWhXhYhZh0h1h2h3h4h5h6h7h8h9h.h+",
"aaabacadaeafagahaiajakalamanaoapaqarasatauavawaxayazaAaBaCaDaEaFaGaHaIaJaKaLaMaNaOaPaQaRaSaTaUaVaWaXaYaZa0a1a2a3a4a5a6a7a8a9a.a+babbbcbdbebfbgbhbibjbkblbmbnbobpbqbrbsbtbubvbwbxbybzbAbBbCbDbEbFbGbHbIbJbKbLbMbNbObPbQbRbSbTbUbVbWbXbYbZb0b1b2b3b4b5b6b7b8b9b.b+cacbcccdcecfcgchcicjckclcmcncocpcqcrcsctcucvcwcxcyczcAcBcCcDcEcFcGcHcIcJcKcLcMcNcOcPcQcRcScTcUcVcWcXcYcZc0c1c2c3c4c5c6c7c8c9c.c+dadbdcdddedfdgdhdidjdkdldmdndodpdqdrdsdtdudvdwdxdydzdAdBdCdDdEdFdGdHdIdJdKdLdMdNdOdPdQdRdSdTdUdVdWdXdYdZd0d1d2d3d4d5d6d7d8d9d.d+eaebecedeeefegeheiejekelemeneoepeqereseteuevewexeyezeAeBeCeDeEeFeGeHeIeJeKeLeMeNeOePeQeReSeTeUeVeWeXeYeZe0e1e2e3e4e5e6e7e8e9e.e+fafbfcfdfefffgfhfifjfkflfmfnfofpfqfrfsftfufvfwfxfyfzfAfBfCfDfEfFfGfHfIfJfKfLfMfNfOfPfQfRfSfTfUfVfWfXfYfZf0f1f2f3f4f5f6f7f8f9f.f+gagbgcgdgegfggghgigjgkglgmgngogpgqgrgsgtgugvgwgxgygzgAgBgCgDgEgFgGgHgIgJgKgLgMgNgOgPgQgRgSgTgUgVgWgXgYgZg0g1g2g3g4g5g6g7g8g9g.g+hahbhchdhehfhghhhihjhkhlhmhnhohphqhrhshthuhvhwhxhyhzhAhBhChDhEhFhGhHhIhJhKhLhMhNhOhPhQhRhShThUhVhWhXhYhZh0h1h2h3h4h5h6h7h8h9h.h+",
"aaabacadaeafagahaiajakalamanaoapaqarasatauavawaxayazaAaBaCaDaEaFaGaHaIaJaKaLaMaNaOaPaQaRaSaTaUaVaWaXaYaZa0a1a2a3a4a5a6a7a8a9a.a+babbbcbdbebfbgbhbibjbkblbmbnbobpbqbrbsbtbubvbwbxbybzbAbBbCbDbEbFbGbHbIbJbKbLbMbNbObPbQbRbSbTbUbVbWbXbYbZb0b1b2b3b4b5b6b7b8b9b.b+cacbcccdcecfcgchcicjckclcmcncocpcqcrcsctcucvcwcxcyczcAcBcCcDcEcFcGcHcIcJcKcLcMcNcOcPcQcRcScTcUcVcWcXcYcZc0c1c2c3c4c5c6c7c8c9c.c+dadbdcdddedfdgdhdidjdkdldmdndodpdqdrdsdtdudvdwdxdydzdAdBdCdDdEdFdGdHdIdJdKdLdMdNdOdPdQdRdSdTdUdVdWdXdYdZd0d1d2d3d4d5d6d7d8d9d.d+eaebecedeeefegeheiejekelemeneoepeqereseteuevewexeyezeAeBeCeDeEeFeGeHeIeJeKeLeMeNeOePeQeReSeTeUeVeWeXeYeZe0e1e2e3e4e5e6e7e8e9e.e+fafbfcfdfefffgfhfifjfkflfmfnfofpfqfrfsftfufvfwfxfyfzfAfBfCfDfEfFfGfHfIfJfKfLfMfNfOfPfQfRfSfTfUfVfWfXfYfZf0f1f2f3f4f5f6f7f8f9f.f+gagbgcgdgegfggghgigjgkglgmgngogpgqgrgsgtgugvgwgxgygzgAgBgCgDgEgFgGgHgIgJgKgLgMgNgOgPgQgRgSgTgUgVgWgXgYgZg0g1g2g3g4g5g6g7g8g9g.g+hahbhchdhehfhghhhihjhkhlhmhnhohphqhrhshthuhvhwhxhyhzhAhBhChDhEhFhGhHhIhJhKhLhMhNhOhPhQhRhShThUhVhWhXhYhZh0h1h2h3h4h5h6h7h8h9h.h+",
"aaabacadaeafagahaiajakalamanaoapaqarasatauavawaxayazaAaBaCaDaEaFaGaHaIaJaKaLaMaNaOaPaQaRaSaTaUaVaWaXaYaZa0a1a2a3a4a5a6a7a8a9a.a+babbbcbdbebfbgbhbibjbkblbmbnbobpbqbrbsbtbubvbwbxbybzbAbBbCbDbEbFbGbHbIbJbKbLbMbNbObPbQbRbSbTbUbVbWbXbYbZb0b1b2b3b4b5b6b7b8b9b.b+cacbcccdcecfcgchcicjckclcmcncocpcqcrcsctcucvcwcxcyczcAcBcCcDcEcFcGcHcIcJcKcLcMcNcOcPcQcRcScTcUcVcWcXcYcZc0c1c2c3c4c5c6c7c8c9c.c+dadbdcdddedfdgdhdidjdkdldmdndodpdqdrdsdtdudvdwdxdydzdAdBdCdDdEdFdGdHdIdJdKdLdMdNdOdPdQdRdSdTdUdVdWdXdYdZd0d1d2d3d4d5d6d7d8d9d.d+eaebecedeeefegeheiejekelemeneoepeqereseteuevewexeyezeAeBeCeDeEeFeGeHeIeJeKeLeMeNeOePeQeReSeTeUeVeWeXeYeZe0e1e2e3e4e5e6e7e8e9e.e+fafbfcfdfefffgfhfifjfkflfmfnfofpfqfrfsftfufvfwfxfyfzfAfBfCfDfEfFfGfHfIfJfKfLfMfNfOfPfQfRfSfTfUfVfWfXfYfZf0f1f2f3f4f5f6f7f8f9f.f+gagbgcgdgegfggghgigjgkglgmgngogpgqgrgsgtgugvgwgxgygzgAgBgCgDgEgFgGgHgIgJgKgLgMgNgOgPgQgRgSgTgUgVgWgXgYgZg0g1g2g3g4g5g6g7g8g9g.g+hahbhchdhehfhghhhihjhkhlhmhnhohphqhrhshthuhvhwhxhyhzhAhBhChDhEhFhGhHhIhJhKhLhMhNhOhPhQhRhShThUhVhWhXhYhZh0h1h2h3h4h5h6h7h8h9h.h+",
"aaabacadaeafagahaiajakalamanaoapaqarasatauavawaxayazaAaBaCaDaEaFaGaHaIaJaKaLaMaNaOaPaQaRaSaTaUaVaWaXaYaZa0a1a2a3a4a5a6a7a8a9a.a+babbbcbdbebfbgbhbibjbkblbmbnbobpbqbrbsbtbubvbwbxbybzbAbBbCbDbEbFbGbHbIbJbKbLbMbNbObPbQbRbSbTbUbVbWbXbYbZb0b1b2b3b4b5b6b7b8b9b.b+cacbcccdcecfcgchcicjckclcmcncocpcqcrcsctcucvcwcxcyczcAcBcCcDcEcFcGcHcIcJcKcLcMcNcOcPcQcRcScTcUcVcWcXcYcZc0c1c2c3c4c5c6c7c8c9c.c+dadbdcdddedfdgdhdidjdkdldmdndodpdqdrdsdtdudvdwdxdydzdAdBdCdDdEdFdGdHdIdJdKdLdMdNdOdPdQdRdSdTdUdVdWdXdYdZd0d1d2d3d4d5d6d7d8d9d.d+eaebecedeeefegeheiejekelemeneoepeqereseteuevewexeyezeAeBeCeDeEeFeGeHeIeJeKeLeMeNeOePeQeReSeTeUeVeWeXeYeZe0e1e2e3e4e5e6e7e8e9e.e+fafbfcfdfefffgfhfifjfkflfmfnfofpfqfrfsftfufvfwfxfyfzfAfBfCfDfEfFfGfHfIfJfKfLfMfNfOfPfQfRfSfTfUfVfWfXfYfZf0f1f2f3f4f5f6f7f8f9f.f+gagbgcgdgegfggghgigjgkglgmgngogpgqgrgsgtgugvgwgxgygzgAgBgCgDgEgFgGgHgIgJgKgLgMgNgOgPgQgRgSgTgUgVgWgXgYgZg0g1g2g3g4g5g6g7g8g9g.g+hahbhchdhehfhghhhihjhkhlhmhnhohphqhrhshthuhvhwhxhyhzhAhBhChDhEhFhGhHhIhJhKhLhMhNhOhPhQhRhShThUhVhWhXhYhZh0h1h2h3h4h5h6h7h8h9h.h+",
"aaabacadaeafagahaiajakalamanaoapaqarasatauavawaxayazaAaBaCaDaEaFaGaHaIaJaKaLaMaNaOaPaQaRaSaTaUaVaWaXaYaZa0a1a2a3a4a5a6a7a8a9a.a+babbbcbdbebfbgbhbibjbkblbmbnbobpbqbrbsbtbubvbwbxbybzbAbBbCbDbEbFbGbHbIbJbKbLbMbNbObPbQbRbSbTbUbVbWbXbYbZb0b1b2b3b4b5b6b7b8b9b.b+cacbcccdcecfcgchcicjckclcmcncocpcqcrcsctcucvcwcxcyczcAcBcCcDcEcFcGcHcIcJcKcLcMcNcOcPcQcRcScTcUcVcWcXcYcZc0c1c2c3c4c5c6c7c8c9c.c+dadbdcdddedfdgdhdidjdkdldmdndodpdqdrdsdtdudvdwdxdydzdAdBdCdDdEdFdGdHdIdJdKdLdMdNdOdPdQdRdSdTdUdVdWdXdYdZd0d1d2d3d4d5d6d7d8d9d.d+eaebecedeeefegeheiejekelemeneoepeqereseteuevewexeyezeAeBeCeDeEeFeGeHeIeJeKeLeMeNeOePeQeReSeTeUeVeWeXeYeZe0e1e2e3e4e5e6e7e8e9e.e+fafbfcfdfefffgfhfifjfkflfmfnfofpfqfrfsftfufvfwfxfyfzfAfBfCfDfEfFfGfHfIfJfKfLfMfNfOfPfQfRfSfTfUfVfWfXfYfZf0f1f2f3f4f5f6f7f8f9f.f+gagbgcgdgegfggghgigjgkglgmgngogpgqgrgsgtgugvgwgxgygzgAgBgCgDgEgFgGgHgIgJgKgLgMgNgOgPgQgRgSgTgUgVgWgXgYgZg0g1g2g3g4g5g6g7g8g9g.g+hahbhchdhehfhghhhihjhkhlhmhnhohphqhrhshthuhvhwhxhyhzhAhBhChDhEhFhGhHhIhJhKhLhMhNhOhPhQhRhShThUhVhWhXhYhZh0h1h2h3h4h5h6h7h8h9h.h+",
"aaabacadaeafagahaiajakalamanaoapaqarasatauavawaxayazaAaBaCaDaEaFaGaHaIaJaKaLaMaNaOaPaQaRaSaTaUaVaWaXaYaZa0a1a2a3a4a5a6a7a8a9a.a+babbbcbdbebfbgbhbibjbkblbmbnbobpbqbrbsbtbubvbwbxbybzbAbBbCbDbEbFbGbHbIbJbKbLbMbNbObPbQbRbSbTbUbVbWbXbYbZb0b1b2b3b4b5b6b7b8b9b.b+cacbcccdcecfcgchcicjckclcmcncocpcqcrcsctcucvcwcxcyczcAcBcCcDcEcFcGcHcIcJcKcLcMcNcOcPcQcRcScTcUcVcWcXcYcZc0c1c2c3c4c5c6c7c8c9c.c+dadbdcdddedfdgdhdidjdkdldmdndodpdqdrdsdtdudvdwdxdydzdAdBdCdDdEdFdGdHdIdJdKdLdMdNdOdPdQdRdSdTdUdVdWdXdYdZd0d1d2d3d4d5d6d7d8d9d.d+eaebecedeeefegeheiejekelemeneoepeqereseteuevewexeyezeAeBeCeDeEeFeGeHeIeJeKeLeMeNeOePeQeReSeTeUeVeWeXeYeZe0e1e2e3e4e5e6e7e8e9e.e+fafbfcfdfefffgfhfifjfkflfmfnfofpfqfrfsftfufvfwfxfyfzfAfBfCfDfEfFfGfHfIfJfKfLfMfNfOfPfQfRfSfTfUfVfWfXfYfZf0f1f2f3f4f5f6f7f8f9f.f+gagbgcgdgegfggghgigjgkglgmgngogpgqgrgsgtgugvgwgxgygzgAgBgCgDgEgFgGgHgIgJgKgLgMgNgOgPgQgRgSgTgUgVgWgXgYgZg0g1g2g3g4g5g6g7g8g9g.g+hahbhchdhehfhghhhihjhkhlhmhnhohphqhrhshthuhvhwhxhyhzhAhBhChDhEhFhGhHhIhJhKhLhMhNhOhPhQhRhShThUhVhWhXhYhZh0h1h2h3h4h5h6h7h8h9h.h+",
"aaabacadaeafagahaiajakalamanaoapaqarasatauavawaxayazaAaBaCaDaEaFaGaHaIaJaKaLaMaNaOaPaQaRaSaTaUaVaWaXaYaZa0a1a2a3a4a5a6a7a8a9a.a+babbbcbdbebfbgbhbibjbkblbmbnbobpbqbrbsbtbubvbwbxbybzbAbBbCbDbEbFbGbHbIbJbKbLbMbNbObPbQbRbSbTbUbVbWbXbYbZb0b1b2b3b4b5b6b7b8b9b.b+cacbcccdcecfcgchcicjckclcmcncocpcqcrcsctcucvcwcxcyczcAcBcCcDcEcFcGcHcIcJcKcLcMcNcOcPcQcRcScTcUcVcWcXcYcZc0c1c2c3c4c5c6c7c8c9c.c+dadbdcdddedfdgdhdidjdkdldmdndodpdqdrdsdtdudvdwdxdydzdAdBdCdDdEdFdGdHdIdJdKdLdMdNdOdPdQdRdSdTdUdVdWdXdYdZd0d1d2d3d4d5d6d7d8d9d.d+eaebecedeeefegeheiejekelemeneoepeqereseteuevewexeyezeAeBeCeDeEeFeGeHeIeJeKeLeMeNeOePeQeReSeTeUeVeWeXeYeZe0e1e2e3e4e5e6e7e8e9e.e+fafbfcfdfefffgfhfifjfkflfmfnfofpfqfrfsftfufvfwfxfyfzfAfBfCfDfEfFfGfHfIfJfKfLfMfNfOfPfQfRfSfTfUfVfWfXfYfZf0f1f2f3f4f5f6f7f8f9f.f+gagbgcgdgegfggghgigjgkglgmgngogpgqgrgsgtgugvgwgxgygzgAgBgCgDgEgFgGgHgIgJgKgLgMgNgOgPgQgRgSgTgUgVgWgXgYgZg0g1g2g3g4g5g6g7g8g9g.g+hahbhchdhehfhghhhihjhkhlhmhnhohphqhrhshthuhvhwhxhyhzhAhBhChDhEhFhGhHhIhJhKhLhMhNhOhPhQhRhShThUhVhWhXhYhZh0h1h2h3h4h5h6h7h8h9h.h+",
"aaabacadaeafagahaiajakalamanaoapaqarasatauavawaxayazaAaBaCaDaEaFaGaHaIaJaKaLaMaNaOaPaQaRaSaTaUaVaWaXaYaZa0a1a2a3a4a5a6a7a8a9a.a+babbbcbdbebfbgbhbibjbkblbmbnbobpbqbrbsbtbubvbwbxbybzbAbBbCbDbEbFbGbHbIbJbKbLbMbNbObPbQbRbSbTbUbVbWbXbYbZb0b1b2b3b4b5b6b7b8b9b.b+cacbcccdcecfcgchcicjckclcmcncocpcqcrcsctcucvcwcxcyczcAcBcCcDcEcFcGcHcIcJcKcLcMcNcOcPcQcRcScTcUcVcWcXcYcZc0c1c2c3c4c5c6c7c8c9c.c+dadbdcdddedfdgdhdidjdkdldmdndodpdqdrdsdtdudvdwdxdydzdAdBdCdDdEdFdGdHdIdJdKdLdMdNdOdPdQdRdSdTdUdVdWdXdYdZd0d1d2d3d4d5d6d7d8d9d.d+eaebecedeeefegeheiejekelemeneoepeqereseteuevewexeyezeAeBeCeDeEeFeGeHeIeJeKeLeMeNeOePeQeReSeTeUeVeWeXeYeZe0e1e2e3e4e5e6e7e8e9e.e+fafbfcfdfefffgfhfifjfkflfmfnfofpfqfrfsftfufvfwfxfyfzfAfBfCfDfEfFfGfHfIfJfKfLfMfNfOfPfQfRfSfTfUfVfWfXfYfZf0f1f2f3f4f5f6f7f8f9f.f+gagbgcgdgegfggghgigjgkglgmgngogpgqgrgsgtgugvgwgxgygzgAgBgCgDgEgFgGgHgIgJgKgLgMgNgOgPgQgRgSgTgUgVgWgXgYgZg0g1g2g3g4g5g6g7g8g9g.g+hahbhchdhehfhghhhihjhkhlhmhnhohphqhrhshthuhvhwhxhyhzhAhBhChDhEhFhGhHhIhJhKhLhMhNhOhPhQhRhShThUhVhWhXhYhZh0h1h2h3h4h5h6h7h8h9h.h+",
"aaabacadaeafagahaiajakalamanaoapaqarasatauavawaxayazaAaBaCaDaEaFaGaHaIaJaKaLaMaNaOaPaQaRaSaTaUaVaWaXaYaZa0a1a2a3a4a5a6a7a8a9a.a+babbbcbdbebfbgbhbibjbkblbmbnbobpbqbrbsbtbubvbwbxbybzbAbBbCbDbEbFbGbHbIbJbKbLbMbNbObPbQbRbSbTbUbVbWbXbYbZb0b1b2b3b4b5b6b7b8b9b.b+cacbcccdcecfcgchcicjckclcmcncocpcqcrcsctcucvcwcxcyczcAcBcCcDcEcFcGcHcIcJcKcLcMcNcOcPcQcRcScTcUcVcWcXcYcZc0c1c2c3c4c5c6c7c8c9c.c+dadbdcdddedfdgdhdidjdkdldmdndodpdqdrdsdtdudvdwdxdydzdAdBdCdDdEdFdGdHdIdJdKdLdMdNdOdPdQdRdSdTdUdVdWdXdYdZd0d1d2d3d4d5d6d7d8d9d.d+eaebecedeeefegeheiejekelemeneoepeqereseteuevewexeyezeAeBeCeDeEeFeGeHeIeJeKeLeMeNeOePeQeReSeTeUeVeWeXeYeZe0e1e2e3e4e5e6e7e8e9e.e+fafbfcfdfefffgfhfifjfkflfmfnfofpfqfrfsftfufvfwfxfyfzfAfBfCfDfEfFfGfHfIfJfKfLfMfNfOfPfQfRfSfTfUfVfWfXfYfZf0f1f2f3f4f5f6f7f8f9f.f+gagbgcgdgegfggghgigjgkglgmgngogpgqgrgsgtgugvgwgxgygzgAgBgCgDgEgFgGgHgIgJgKgLgMgNgOgPgQgRgSgTgUgVgWgXgYgZg0g1g2g3g4g5g6g7g8g9g.g+hahbhchdhehfhghhhihjhkhlhmhnhohphqhrhshthuhvhwhxhyhzhAhBhChDhEhFhGhHhIhJhKhLhMhNhOhPhQhRhShThUhVhWhXhYhZh0h1h2h3h4h5h6h7h8h9h.h+",
"aaabacadaeafagahaiajakalamanaoapaqarasatauavawaxayazaAaBaCaDaEaFaGaHaIaJaKaLaMaNaOaPaQaRaSaTaUaVaWaXaYaZa0a1a2a3a4a5a6a7a8a9a.a+babbbcbdbebfbgbhbibjbkblbmbnbobpbqbrbsbtbubvbwbxbybzbAbBbCbDbEbFbGbHbIbJbKbLbMbNbObPbQbRbSbTbUbVbWbXbYbZb0b1b2b3b4b5b6b7b8b9b.b+cacbcccdcecfcgchcicjckclcmcncocpcqcrcsctcucvcwcxcyczcAcBcCcDcEcFcGcHcIcJcKcLcMcNcOcPcQcRcScTcUcVcWcXcYcZc0c1c2c3c4c5c6c7c8c9c.c+dadbdcdddedfdgdhdidjdkdldmdndodpdqdrdsdtdudvdwdxdydzdAdBdCdDdEdFdGdHdIdJdKdLdMdNdOdPdQdRdSdTdUdVdWdXdYdZd0d1d2d3d4d5d6d7d8d9d.d+eaebecedeeefegeheiejekelemeneoepeqereseteuevewexeyezeAeBeCeDeEeFeGeHeIeJeKeLeMeNeOePeQeReSeTeUeVeWeXeYeZe0e1e2e3e4e5e6e7e8e9e.e+fafbfcfdfefffgfhfifjfkflfmfnfofpfqfrfsftfufvfwfxfyfzfAfBfCfDfEfFfGfHfIfJfKfLfMfNfOfPfQfRfSfTfUfVfWfXfYfZf0f1f2f3f4f5f6f7f8f9f.f+gagbgcgdgegfggghgigjgkglgmgngogpgqgrgsgtgugvgwgxgygzgAgBgCgDgEgFgGgHgIgJgKgLgMgNgOgPgQgRgSgTgUgVgWgXgYgZg0g1g2g3g4g5g6g7g8g9g.g+hahbhchdhehfhghhhihjhkhlhmhnhohphqhrhshthuhvhwhxhyhzhAhBhChDhEhFhGhHhIhJhKhLhMhNhOhPhQhRhShThUhVhWhXhYhZh0h1h2h3h4h5h6h7h8h9h.h+",
"aaabacadaeafagahaiajakalamanaoapaqarasatauavawaxayazaAaBaCaDaEaFaGaHaIaJaKaLaMaNaOaPaQaRaSaTaUaVaWaXaYaZa0a1a2a3a4a5a6a7a8a9a.a+babbbcbdbebfbgbhbibjbkblbmbnbobpbqbrbsbtbubvbwbxbybzbAbBbCbDbEbFbGbHbIbJbKbLbMbNbObPbQbRbSbTbUbVbWbXbYbZb0b1b2b3b4b5b6b7b8b9b.b+cacbcccdcecfcgchcicjckclcmcncocpcqcrcsctcucvcwcxcyczcAcBcCcDcEcFcGcHcIcJcKcLcMcNcOcPcQcRcScTcUcVcWcXcYcZc0c1c2c3c4c5c6c7c8c9c.c+dadbdcdddedfdgdhdidjdkdldmdndodpdqdrdsdtdudvdwdxdydzdAdBdCdDdEdFdGdHdIdJdKdLdMdNdOdPdQdRdSdTdUdVdWdXdYdZd0d1d2d3d4d5d6d7d8d9d.d+eaebecedeeefegeheiejekelemeneoepeqereseteuevewexeyezeAeBeCeDeEeFeGeHeIeJeKeLeMeNeOePeQeReSeTeUeVeWeXeYeZe0e1e2e3e4e5e6e7e8e9e.e+fafbfcfdfefffgfhfifjfkflfmfnfofpfqfrfsftfufvfwfxfyfzfAfBfCfDfEfFfGfHfIfJfKfLfMfNfOfPfQfRfSfTfUfVfWfXfYfZf0f1f2f3f4f5f6f7f8f9f.f+gagbgcgdgegfggghgigjgkglgmgngogpgqgrgsgtgugvgwgxgygzgAgBgCgDgEgFgGgHgIgJgKgLgMgNgOgPgQgRgSgTgUgVgWgXgYgZg0g1g2g3g4g5g6g7g8g9g.g+hahbhchdhehfhghhhihjhkhlhmhnhohphqhrhshthuhvhwhxhyhzhAhBhChDhEhFhGhHhIhJhKhLhMhNhOhPhQhRhShThUhVhWhXhYhZh0h1h2h3h4h5h6h7h8h9h.h+",
"aaabacadaeafagahaiajakalamanaoapaqarasatauavawaxayazaAaBaCaDaEaFaGaHaIaJaKaLaMaNaOaPaQaRaSaTaUaVaWaXaYaZa0a1a2a3a4a5a6a7a8a9a.a+babbbcbdbebfbgbhbibjbkblbmbnbobpbqbrbsbtbubvbwbxbybzbAbBbCbDbEbFbGbHbIbJbKbLbMbNbObPbQbRbSbTbUbVbWbXbYbZb0b1b2b3b4b5b6b7b8b9b.b+cacbcccdcecfcgchcicjckclcmcncocpcqcrcsctcucvcwcxcyczcAcBcCcDcEcFcGcHcIcJcKcLcMcNcOcPcQcRcScTcUcVcWcXcYcZc0c1c2c3c4c5c6c7c8c9c.c+dadbdcdddedfdgdhdidjdkdldmdndodpdqdrdsdtdudvdwdxdydzdAdBdCdDdEdFdGdHdIdJdKdLdMdNdOdPdQdRdSdTdUdVdWdXdYdZd0d1d2d3d4d5d6d7d8d9d.d+eaebecedeeefegeheiejekelemeneoepeqereseteuevewexeyezeAeBeCeDeEeFeGeHeIeJeKeLeMeNeOePeQeReSeTeUeVeWeXeYeZe0e1e2e3e4e5e6e7e8e9e.e+fafbfcfdfefffgfhfifjfkflfmfnfofpfqfrfsftfufvfwfxfyfzfAfBfCfDfEfFfGfHfIfJfKfLfMfNfOfPfQfRfSfTfUfVfWfXfYfZf0f1f2f3f4f5f6f7f8f9f.f+gagbgcgdgegfggghgigjgkglgmgngogpgqgrgsgtgugvgwgxgygzgAgBgCgDgEgFgGgHgIgJgKgLgMgNgOgPgQgRgSgTgUgVgWgXgYgZg0g1g2g3g4g5g6g7g8g9g.g+hahbhchdhehfhghhhihjhkhlhmhnhohphqhrhshthuhvhwhxhyhzhAhBhChDhEhFhGhHhIhJhKhLhMhNhOhPhQhRhShThUhVhWhXhYhZh0h1h2h3h4h5h6h7h8h9h.h+",
"aaabacadaeafagahaiajakalamanaoapaqarasatauavawaxayazaAaBaCaDaEaFaGaHaIaJaKaLaMaNaOaPaQaRaSaTaUaVaWaXaYaZa0a1a2a3a4a5a6a7a8a9a.a+babbbcbdbebfbgbhbibjbkblbmbnbobpbqbrbsbtbubvbwbxbybzbAbBbCbDbEbFbGbHbIbJbKbLbMbNbObPbQbRbSbTbUbVbWbXbYbZb0b1b2b3b4b5b6b7b8b9b.b+cacbcccdcecfcgchcicjckclcmcncocpcqcrcsctcucvcwcxcyczcAcBcCcDcEcFcGcHcIcJcKcLcMcNcOcPcQcRcScTcUcVcWcXcYcZc0c1c2c3c4c5c6c7c8c9c.c+dadbdcdddedfdgdhdidjdkdldmdndodpdqdrdsdtdudvdwdxdydzdAdBdCdDdEdFdGdHdIdJdKdLdMdNdOdPdQdRdSdTdUdVdWdXdYdZd0d1d2d3d4d5d6d7d8d9d.d+eaebecedeeefegeheiejekelemeneoepeqereseteuevewexeyezeAeBeCeDeEeFeGeHeIeJeKeLeMeNeOePeQeReSeTeUeVeWeXeYeZe0e1e2e3e4e5e6e7e8e9e.e+fafbfcfdfefffgfhfifjfkflfmfnfofpfqfrfsftfufvfwfxfyfzfAfBfCfDfEfFfGfHfIfJfKfLfMfNfOfPfQfRfSfTfUfVfWfXfYfZf0f1f2f3f4f5f6f7f8f9f.f+gagbgcgdgegfggghgigjgkglgmgngogpgqgrgsgtgugvgwgxgygzgAgBgCgDgEgFgGgHgIgJgKgLgMgNgOgPgQgRgSgTgUgVgWgXgYgZg0g1g2g3g4g5g6g7g8g9g.g+hahbhchdhehfhghhhihjhkhlhmhnhohphqhrhshthuhvhwhxhyhzhAhBhChDhEhFhGhHhIhJhKhLhMhNhOhPhQhRhShThUhVhWhXhYhZh0h1h2h3h4h5h6h7h8h9h.h+",
"aaabacadaeafagahaiajakalamanaoapaqarasatauavawaxayazaAaBaCaDaEaFaGaHaIaJaKaLaMaNaOaPaQaRaSaTaUaVaWaXaYaZa0a1a2a3a4a5a6a7a8a9a.a+babbbcbdbebfbgbhbibjbkblbmbnbobpbqbrbsbtbubvbwbxbybzbAbBbCbDbEbFbGbHbIbJbKbLbMbNbObPbQbRbSbTbUbVbWbXbYbZb0b1b2b3b4b5b6b7b8b9b.b+cacbcccdcecfcgchcicjckclcmcncocpcqcrcsctcucvcwcxcyczcAcBcCcDcEcFcGcHcIcJcKcLcMcNcOcPcQcRcScTcUcVcWcXcYcZc0c1c2c3c4c5c6c7c8c9c.c+dadbdcdddedfdgdhdidjdkdldmdndodpdqdrdsdtdudvdwdxdydzdAdBdCdDdEdFdGdHdIdJdKdLdMdNdOdPdQdRdSdTdUdVdWdXdYdZd0d1d2d3d4d5d6d7d8d9d.d+eaebecedeeefegeheiejekelemeneoepeqereseteuevewexeyezeAeBeCeDeEeFeGeHeIeJeKeLeMeNeOePeQeReSeTeUeVeWeXeYeZe0e1e2e3e4e5e6e7e8e9e.e+fafbfcfdfefffgfhfifjfkflfmfnfofpfqfrfsftfufvfwfxfyfzfAfBfCfDfEfFfGfHfIfJfKfLfMfNfOfPfQfRfSfTfUfVfWfXfYfZf0f1f2f3f4f5f6f7f8f9f.f+gagbgcgdgegfggghgigjgkglgmgngogpgqgrgsgtgugvgwgxgygzgAgBgCgDgEgFgGgHgIgJgKgLgMgNgOgPgQgRgSgTgUgVgWgXgYgZg0g1g2g3g4g5g6g7g8g9g.g+hahbhchdhehfhghhhihjhkhlhmhnhohphqhrhshthuhvhwhxhyhzhAhBhChDhEhFhGhHhIhJhKhLhMhNhOhPhQhRhShThUhVhWhXhYhZh0h1h2h3h4h5h6h7h8h9h.h+",
"aaabacadaeafagahaiajakalamanaoapaqarasatauavawaxayazaAaBaCaDaEaFaGaHaIaJaKaLaMaNaOaPaQaRaSaTaUaVaWaXaYaZa0a1a2a3a4a5a6a7a8a9a.a+babbbcbdbebfbgbhbibjbkblbmbnbobpbqbrbsbtbubvbwbxbybzbAbBbCbDbEbFbGbHbIbJbKbLbMbNbObPbQbRbSbTbUbVbWbXbYbZb0b1b2b3b4b5b6b7b8b9b.b+cacbcccdcecfcgchcicjckclcmcncocpcqcrcsctcucvcwcxcyczcAcBcCcDcEcFcGcHcIcJcKcLcMcNcOcPcQcRcScTcUcVcWcXcYcZc0c1c2c3c4c5c6c7c8c9c.c+dadbdcdddedfdgdhdidjdkdldmdndodpdqdrdsdtdudvdwdxdydzdAdBdCdDdEdFdGdHdIdJdKdLdMdNdOdPdQdRdSdTdUdVdWdXdYdZd0d1d2d3d4d5d6d7d8d9d.d+eaebecedeeefegeheiejekelemeneoepeqereseteuevewexeyezeAeBeCeDeEeFeGeHeIeJeKeLeMeNeOePeQeReSeTeUeVeWeXeYeZe0e1e2e3e4e5e6e7e8e9e.e+fafbfcfdfefffgfhfifjfkflfmfnfofpfqfrfsftfufvfwfxfyfzfAfBfCfDfEfFfGfHfIfJfKfLfMfNfOfPfQfRfSfTfUfVfWfXfYfZf0f1f2f3f4f5f6f7f8f9f.f+gagbgcgdgegfggghgigjgkglgmgngogpgqgrgsgtgugvgwgxgygzgAgBgCgDgEgFgGgHgIgJgKgLgMgNgOgPgQgRgSgTgUgVgWgXgYgZg0g1g2g3g4g5g6g7g8g9g.g+hahbhchdhehfhghhhihjhkhlhmhnhohphqhrhshthuhvhwhxhyhzhAhBhChDhEhFhGhHhIhJhKhLhMhNhOhPhQhRhShThUhVhWhXhYhZh0h1h2h3h4h5h6h7h8h9h.h+",
"aaabacadaeafagahaiajakalamanaoapaqarasatauavawaxayazaAaBaCaDaEaFaGaHaIaJaKaLaMaNaOaPaQaRaSaTaUaVaWaXaYaZa0a1a2a3a4a5a6a7a8a9a.a+babbbcbdbebfbgbhbibjbkblbmbnbobpbqbrbsbtbubvbwbxbybzbAbBbCbDbEbFbGbHbIbJbKbLbMbNbObPbQbRbSbTbUbVbWbXbYbZb0b1b2b3b4b5b6b7b8b9b.b+cacbcccdcecfcgchcicjckclcmcncocpcqcrcsctcucvcwcxcyczcAcBcCcDcEcFcGcHcIcJcKcLcMcNcOcPcQcRcScTcUcVcWcXcYcZc0c1c2c3c4c5c6c7c8c9c.c+dadbdcdddedfdgdhdidjdkdldmdndodpdqdrdsdtdudvdwdxdydzdAdBdCdDdEdFdGdHdIdJdKdLdMdNdOdPdQdRdSdTdUdVdWdXdYdZd0d1d2d3d4d5d6d7d8d9d.d+eaebecedeeefegeheiejekelemeneoepeqereseteuevewexeyezeAeBeCeDeEeFeGeHeIeJeKeLeMeNeOePeQeReSeTeUeVeWeXeYeZe0e1e2e3e4e5e6e7e8e9e.e+fafbfcfdfefffgfhfifjfkflfmfnfofpfqfrfsftfufvfwfxfyfzfAfBfCfDfEfFfGfHfIfJfKfLfMfNfOfPfQfRfSfTfUfVfWfXfYfZf0f1f2f3f4f5f6f7f8f9f.f+gagbgcgdgegfggghgigjgkglgmgngogpgqgrgsgtgugvgwgxgygzgAgBgCgDgEgFgGgHgIgJgKgLgMgNgOgPgQgRgSgTgUgVgWgXgYgZg0g1g2g3g4g5g6g7g8g9g.g+hahbhchdhehfhghhhihjhkhlhmhnhohphqhrhshthuhvhwhxhyhzhAhBhChDhEhFhGhHhIhJhKhLhMhNhOhPhQhRhShThUhVhWhXhYhZh0h1h2h3h4h5h6h7h8h9h.h+",
"aaabacadaeafagahaiajakalamanaoapaqarasatauavawaxayazaAaBaCaDaEaFaGaHaIaJaKaLaMaNaOaPaQaRaSaTaUaVaWaXaYaZa0a1a2a3a4a5a6a7a8a9a.a+babbbcbdbebfbgbhbibjbkblbmbnbobpbqbrbsbtbubvbwbxbybzbAbBbCbDbEbFbGbHbIbJbKbLbMbNbObPbQbRbSbTbUbVbWbXbYbZb0b1b2b3b4b5b6b7b8b9b.b+cacbcccdcecfcgchcicjckclcmcncocpcqcrcsctcucvcwcxcyczcAcBcCcDcEcFcGcHcIcJcKcLcMcNcOcPcQcRcScTcUcVcWcXcYcZc0c1c2c3c4c5c6c7c8c9c.c+dadbdcdddedfdgdhdidjdkdldmdndodpdqdrdsdtdudvdwdxdydzdAdBdCdDdEdFdGdHdIdJdKdLdMdNdOdPdQdRdSdTdUdVdWdXdYdZd0d1d2d3d4d5d6d7d8d9d.d+eaebecedeeefegeheiejekelemeneoepeqereseteuevewexeyezeAeBeCeDeEeFeGeHeIeJeKeLeMeNeOePeQeReSeTeUeVeWeXeYeZe0e1e2e3e4e5e6e7e8e9e.e+fafbfcfdfefffgfhfifjfkflfmfnfofpfqfrfsftfufvfwfxfyfzfAfBfCfDfEfFfGfHfIfJfKfLfMfNfOfPfQfRfSfTfUfVfWfXfYfZf0f1f2f3f4f5f6f7f8f9f.f+gagbgcgdgegfggghgigjgkglgmgngogpgqgrgsgtgugvgwgxgygzgAgBgCgDgEgFgGgHgIgJgKgLgMgNgOgPgQgRgSgTgUgVgWgXgYgZg0g1g2g3g4g5g6g7g8g9g.g+hahbhchdhehfhghhhihjhkhlhmhnhohphqhrhshthuhvhwhxhyhzhAhBhChDhEhFhGhHhIhJhKhLhMhNhOhPhQhRhShThUhVhWhXhYhZh0h1h2h3h4h5h6h7h8h9h.h+",
"aaabacadaeafagahaiajakalamanaoapaqarasatauavawaxayazaAaBaCaDaEaFaGaHaIaJaKaLaMaNaOaPaQaRaSaTaUaVaWaXaYaZa0a1a2a3a4a5a6a7a8a9a.a+babbbcbdbebfbgbhbibjbkblbmbnbobpbqbrbsbtbubvbwbxbybzbAbBbCbDbEbFbGbHbIbJbKbLbMbNbObPbQbRbSbTbUbVbWbXbYbZb0b1b2b3b4b5b6b7b8b9b.b+cacbcccdcecfcgchcicjckclcmcncocpcqcrcsctcucvcwcxcyczcAcBcCcDcEcFcGcHcIcJcKcLcMcNcOcPcQcRcScTcUcVcWcXcYcZc0c1c2c3c4c5c6c7c8c9c.c+dadbdcdddedfdgdhdidjdkdldmdndodpdqdrdsdtdudvdwdxdydzdAdBdCdDdEdFdGdHdIdJdKdLdMdNdOdPdQdRdSdTdUdVdWdXdYdZd0d1d2d3d4d5d6d7d8d9d.d+eaebecedeeefegeheiejekelemeneoepeqereseteuevewexeyezeAeBeCeDeEeFeGeHeIeJeKeLeMeNeOePeQeReSeTeUeVeWeXeYeZe0e1e2e3e4e5e6e7e8e9e.e+fafbfcfdfefffgfhfifjfkflfmfnfofpfqfrfsftfufvfwfxfyfzfAfBfCfDfEfFfGfHfIfJfKfLfMfNfOfPfQfRfSfTfUfVfWfXfYfZf0f1f2f3f4f5f6f7f8f9f.f+gagbgcgdgegfggghgigjgkglgmgngogpgqgrgsgtgugvgwgxgygzgAgBgCgDgEgFgGgHgIgJgKgLgMgNgOgPgQgRgSgTgUgVgWgXgYgZg0g1g2g3g4g5g6g7g8g9g.g+hahbhchdhehfhghhhihjhkhlhmhnhohphqhrhshthuhvhwhxhyhzhAhBhChDhEhFhGhHhIhJhKhLhMhNhOhPhQhRhShThUhVhWhXhYhZh0h1h2h3h4h5h6h7h8h9h.h+",
"aaabacadaeafagahaiajakalamanaoapaqarasatauavawaxayazaAaBaCaDaEaFaGaHaIaJaKaLaMaNaOaPaQaRaSaTaUaVaWaXaYaZa0a1a2a3a4a5a6a7a8a9a.a+babbbcbdbebfbgbhbibjbkblbmbnbobpbqbrbsbtbubvbwbxbybzbAbBbCbDbEbFbGbHbIbJbKbLbMbNbObPbQbRbSbTbUbVbWbXbYbZb0b1b2b3b4b5b6b7b8b9b.b+cacbcccdcecfcgchcicjckclcmcncocpcqcrcsctcucvcwcxcyczcAcBcCcDcEcFcGcHcIcJcKcLcMcNcOcPcQcRcScTcUcVcWcXcYcZc0c1c2c3c4c5c6c7c8c9c.c+dadbdcdddedfdgdhdidjdkdldmdndodpdqdrdsdtdudvdwdxdydzdAdBdCdDdEdFdGdHdIdJdKdLdMdNdOdPdQdRdSdTdUdVdWdXdYdZd0d1d2d3d4d5d6d7d8d9d.d+eaebecedeeefegeheiejekelemeneoepeqereseteuevewexeyezeAeBeCeDeEeFeGeHeIeJeKeLeMeNeOePeQeReSeTeUeVeWeXeYeZe0e1e2e3e4e5e6e7e8e9e.e+fafbfcfdfefffgfhfifjfkflfmfnfofpfqfrfsftfufvfwfxfyfzfAfBfCfDfEfFfGfHfIfJfKfLfMfNfOfPfQfRfSfTfUfVfWfXfYfZf0f1f2f3f4f5f6f7f8f9f.f+gagbgcgdgegfggghgigjgkglgmgngogpgqgrgsgtgugvgwgxgygzgAgBgCgDgEgFgGgHgIgJgKgLgMgNgOgPgQgRgSgTgUgVgWgXgYgZg0g1g2g3g4g5g6g7g8g9g.g+hahbhchdhehfhghhhihjhkhlhmhnhohphqhrhshthuhvhwhxhyhzhAhBhChDhEhFhGhHhIhJhKhLhMhNhOhPhQhRhShThUhVhWhXhYhZh0h1h2h3h4h5h6h7h8h9h.h+",
"aaabacadaeafagahaiajakalamanaoapaqarasatauavawaxayazaAaBaCaDaEaFaGaHaIaJaKaLaMaNaOaPaQaRaSaTaUaVaWaXaYaZa0a1a2a3a4a5a6a7a8a9a.a+babbbcbdbebfbgbhbibjbkblbmbnbobpbqbrbsbtbubvbwbxbybzbAbBbCbDbEbFbGbHbIbJbKbLbMbNbObPbQbRbSbTbUbVbWbXbYbZb0b1b2b3b4b5b6b7b8b9b.b+cacbcccdcecfcgchcicjckclcmcncocpcqcrcsctcucvcwcxcyczcAcBcCcDcEcFcGcHcIcJcKcLcMcNcOcPcQcRcScTcUcVcWcXcYcZc0c1c2c3c4c5c6c7c8c9c.c+dadbdcdddedfdgdhdidjdkdldmdndodpdqdrdsdtdudvdwdxdydzdAdBdCdDdEdFdGdHdIdJdKdLdMdNdOdPdQdRdSdTdUdVdWdXdYdZd0d1d2d3d4d5d6d7d8d9d.d+eaebecedeeefegeheiejekelemeneoepeqereseteuevewexeyezeAeBeCeDeEeFeGeHeIeJeKeLeMeNeOePeQeReSeTeUeVeWeXeYeZe0e1e2e3e4e5e6e7e8e9e.e+fafbfcfdfefffgfhfifjfkflfmfnfofpfqfrfsftfufvfwfxfyfzfAfBfCfDfEfFfGfHfIfJfKfLfMfNfOfPfQfRfSfTfUfVfWfXfYfZf0f1f2f3f4f5f6f7f8f9f.f+gagbgcgdgegfggghgigjgkglgmgngogpgqgrgsgtgugvgwgxgygzgAgBgCgDgEgFgGgHgIgJgKgLgMgNgOgPgQgRgSgTgUgVgWgXgYgZg0g1g2g3g4g5g6g7g8g9g.g+hahbhchdhehfhghhhihjhkhlhmhnhohphqhrhshthuhvhwhxhyhzhAhBhChDhEhFhGhHhIhJhKhLhMhNhOhPhQhRhShThUhVhWhXhYhZh0h1h2h3h4h5h6h7h8h9h.h+",
"aaabacadaeafagahaiajakalamanaoapaqarasatauavawaxayazaAaBaCaDaEaFaGaHaIaJaKaLaMaNaOaPaQaRaSaTaUaVaWaXaYaZa0a1a2a3a4a5a6a7a8a9a.a+babbbcbdbebfbgbhbibjbkblbmbnbobpbqbrbsbtbubvbwbxbybzbAbBbCbDbEbFbGbHbIbJbKbLbMbNbObPbQbRbSbTbUbVbWbXbYbZb0b1b2b3b4b5b6b7b8b9b.b+cacbcccdcecfcgchcicjckclcmcncocpcqcrcsctcucvcwcxcyczcAcBcCcDcEcFcGcHcIcJcKcLcMcNcOcPcQcRcScTcUcVcWcXcYcZc0c1c2c3c4c5c6c7c8c9c.c+dadbdcdddedfdgdhdidjdkdldmdndodpdqdrdsdtdudvdwdxdydzdAdBdCdDdEdFdGdHdIdJdKdLdMdNdOdPdQdRdSdTdUdVdWdXdYdZd0d1d2d3d4d5d6d7d8d9d.d+eaebecedeeefegeheiejekelemeneoepeqereseteuevewexeyezeAeBeCeDeEeFeGeHeIeJeKeLeMeNeOePeQeReSeTeUeVeWeXeYeZe0e1e2e3e4e5e6e7e8e9e.e+fafbfcfdfefffgfhfifjfkflfmfnfofpfqfrfsftfufvfwfxfyfzfAfBfCfDfEfFfGfHfIfJfKfLfMfNfOfPfQfRfSfTfUfVfWfXfYfZf0f1f2f3f4f5f6f7f8f9f.f+gagbgcgdgegfggghgigjgkglgmgngogpgqgrgsgtgugvgwgxgygzgAgBgCgDgEgFgGgHgIgJgKgLgMgNgOgPgQgRgSgTgUgVgWgXgYgZg0g1g2g3g4g5g6g7g8g9g.g+hahbhchdhehfhghhhihjhkhlhmhnhohphqhrhshthuhvhwhxhyhzhAhBhChDhEhFhGhHhIhJhKhLhMhNhOhPhQhRhShThUhVhWhXhYhZh0h1h2h3h4h5h6h7h8h9h.h+",
"aaabacadaeafagahaiajakalamanaoapaqarasatauavawaxayazaAaBaCaDaEaFaGaHaIaJaKaLaMaNaOaPaQaRaSaTaUaVaWaXaYaZa0a1a2a3a4a5a6a7a8a9a.a+babbbcbdbebfbgbhbibjbkblbmbnbobpbqbrbsbtbubvbwbxbybzbAbBbCbDbEbFbGbHbIbJbKbLbMbNbObPbQbRbSbTbUbVbWbXbYbZb0b1b2b3b4b5b6b7b8b9b.b+cacbcccdcecfcgchcicjckclcmcncocpcqcrcsctcucvcwcxcyczcAcBcCcDcEcFcGcHcIcJcKcLcMcNcOcPcQcRcScTcUcVcWcXcYcZc0c1c2c3c4c5c6c7c8c9c.c+dadbdcdddedfdgdhdidjdkdldmdndodpdqdrdsdtdudvdwdxdydzdAdBdCdDdEdFdGdHdIdJdKdLdMdNdOdPdQdRdSdTdUdVdWdXdYdZd0d1d2d3d4d5d6d7d8d9d.d+eaebecedeeefegeheiejekelemeneoepeqereseteuevewexeyezeAeBeCeDeEeFeGeHeIeJeKeLeMeNeOePeQeReSeTeUeVeWeXeYeZe0e1e2e3e4e5e6e7e8e9e.e+fafbfcfdfefffgfhfifjfkflfmfnfofpfqfrfsftfufvfwfxfyfzfAfBfCfDfEfFfGfHfIfJfKfLfMfNfOfPfQfRfSfTfUfVfWfXfYfZf0f1f2f3f4f5f6f7f8f9f.f+gagbgcgdgegfggghgigjgkglgmgngogpgqgrgsgtgugvgwgxgygzgAgBgCgDgEgFgGgHgIgJgKgLgMgNgOgPgQgRgSgTgUgVgWgXgYgZg0g1g2g3g4g5g6g7g8g9g.g+hahbhchdhehfhghhhihjhkhlhmhnhohphqhrhshthuhvhwhxhyhzhAhBhChDhEhFhGhHhIhJhKhLhMhNhOhPhQhRhShThUhVhWhXhYhZh0h1h2h3h4h5h6h7h8h9h.h+",
"aaabacadaeafagahaiajakalamanaoapaqarasatauavawaxayazaAaBaCaDaEaFaGaHaIaJaKaLaMaNaOaPaQaRaSaTaUaVaWaXaYaZa0a1a2a3a4a5a6a7a8a9a.a+babbbcbdbebfbgbhbibjbkblbmbnbobpbqbrbsbtbubvbwbxbybzbAbBbCbDbEbFbGbHbIbJbKbLbMbNbObPbQbRbSbTbUbVbWbXbYbZb0b1b2b3b4b5b6b7b8b9b.b+cacbcccdcecfcgchcicjckclcmcncocpcqcrcsctcucvcwcxcyczcAcBcCcDcEcFcGcHcIcJcKcLcMcNcOcPcQcRcScTcUcVcWcXcYcZc0c1c2c3c4c5c6c7c8c9c.c+dadbdcdddedfdgdhdidjdkdldmdndodpdqdrdsdtdudvdwdxdydzdAdBdCdDdEdFdGdHdIdJdKdLdMdNdOdPdQdRdSdTdUdVdWdXdYdZd0d1d2d3d4d5d6d7d8d9d.d+eaebecedeeefegeheiejekelemeneoepeqereseteuevewexeyezeAeBeCeDeEeFeGeHeIeJeKeLeMeNeOePeQeReSeTeUeVeWeXeYeZe0e1e2e3e4e5e6e7e8e9e.e+fafbfcfdfefffgfhfifjfkflfmfnfofpfqfrfsftfufvfwfxfyfzfAfBfCfDfEfFfGfHfIfJfKfLfMfNfOfPfQfRfSfTfUfVfWfXfYfZf0f1f2f3f4f5f6f7f8f9f.f+gagbgcgdgegfggghgigjgkglgmgngogpgqgrgsgtgugvgwgxgygzgAgBgCgDgEgFgGgHgIgJgKgLgMgNgOgPgQgRgSgTgUgVgWgXgYgZg0g1g2g3g4g5g6g7g8g9g.g+hahbhchdhehfhghhhihjhkhlhmhnhohphqhrhshthuhvhwhxhyhzhAhBhChDhEhFhGhHhIhJhKhLhMhNhOhPhQhRhShThUhVhWhXhYhZh0h1h2h3h4h5h6h7h8h9h.h+",
"aaabacadaeafagahaiajakalamanaoapaqarasatauavawaxayazaAaBaCaDaEaFaGaHaIaJaKaLaMaNaOaPaQaRaSaTaUaVaWaXaYaZa0a1a2a3a4a5a6a7a8a9a.a+babbbcbdbebfbgbhbibjbkblbmbnbobpbqbrbsbtbubvbwbxbybzbAbBbCbDbEbFbGbHbIbJbKbLbMbNbObPbQbRbSbTbUbVbWbXbYbZb0b1b2b3b4b5b6b7b8b9b.b+cacbcccdcecfcgchcicjckclcmcncocpcqcrcsctcucvcwcxcyczcAcBcCcDcEcFcGcHcIcJcKcLcMcNcOcPcQcRcScTcUcVcWcXcYcZc0c1c2c3c4c5c6c7c8c9c.c+dadbdcdddedfdgdhdidjdkdldmdndodpdqdrdsdtdudvdwdxdydzdAdBdCdDdEdFdGdHdIdJdKdLdMdNdOdPdQdRdSdTdUdVdWdXdYdZd0d1d2d3d4d5d6d7d8d9d.d+eaebecedeeefegeheiejekelemeneoepeqereseteuevewexeyezeAeBeCeDeEeFeGeHeIeJeKeLeMeNeOePeQeReSeTeUeVeWeXeYeZe0e1e2e3e4e5e6e7e8e9e.e+fafbfcfdfefffgfhfifjfkflfmfnfofpfqfrfsftfufvfwfxfyfzfAfBfCfDfEfFfGfHfIfJfKfLfMfNfOfPfQfRfSfTfUfVfWfXfYfZf0f1f2f3f4f5f6f7f8f9f.f+gagbgcgdgegfggghgigjgkglgmgngogpgqgrgsgtgugvgwgxgygzgAgBgCgDgEgFgGgHgIgJgKgLgMgNgOgPgQgRgSgTgUgVgWgXgYgZg0g1g2g3g4g5g6g7g8g9g.g+hahbhchdhehfhghhhihjhkhlhmhnhohphqhrhshthuhvhwhxhyhzhAhBhChDhEhFhGhHhIhJhKhLhMhNhOhPhQhRhShThUhVhWhXhYhZh0h1h2h3h4h5h6h7h8h9h.h+",
"aaabacadaeafagahaiajakalamanaoapaqarasatauavawaxayazaAaBaCaDaEaFaGaHaIaJaKaLaMaNaOaPaQaRaSaTaUaVaWaXaYaZa0a1a2a3a4a5a6a7a8a9a.a+babbbcbdbebfbgbhbibjbkblbmbnbobpbqbrbsbtbubvbwbxbybzbAbBbCbDbEbFbGbHbIbJbKbLbMbNbObPbQbRbSbTbUbVbWbXbYbZb0b1b2b3b4b5b6b7b8b9b.b+cacbcccdcecfcgchcicjckclcmcncocpcqcrcsctcucvcwcxcyczcAcBcCcDcEcFcGcHcIcJcKcLcMcNcOcPcQcRcScTcUcVcWcXcYcZc0c1c2c3c4c5c6c7c8c9c.c+dadbdcdddedfdgdhdidjdkdldmdndodpdqdrdsdtdudvdwdxdydzdAdBdCdDdEdFdGdHdIdJdKdLdMdNdOdPdQdRdSdTdUdVdWdXdYdZd0d1d2d3d4d5d6d7d8d9d.d+eaebecedeeefegeheiejekelemeneoepeqereseteuevewexeyezeAeBeCeDeEeFeGeHeIeJeKeLeMeNeOePeQeReSeTeUeVeWeXeYeZe0e1e2e3e4e5e6e7e8e9e.e+fafbfcfdfefffgfhfifjfkflfmfnfofpfqfrfsftfufvfwfxfyfzfAfBfCfDfEfFfGfHfIfJfKfLfMfNfOfPfQfRfSfTfUfVfWfXfYfZf0f1f2f3f4f5f6f7f8f9f.f+gagbgcgdgegfggghgigjgkglgmgngogpgqgrgsgtgugvgwgxgygzgAgBgCgDgEgFgGgHgIgJgKgLgMgNgOgPgQgRgSgTgUgVgWgXgYgZg0g1g2g3g4g5g6g7g8g9g.g+hahbhchdhehfhghhhihjhkhlhmhnhohphqhrhshthuhvhwhxhyhzhAhBhChDhEhFhGhHhIhJhKhLhMhNhOhPhQhRhShThUhVhWhXhYhZh0h1h2h3h4h5h6h7h8h9h.h+",
"aaabacadaeafagahaiajakalamanaoapaqarasatauavawaxayazaAaBaCaDaEaFaGaHaIaJaKaLaMaNaOaPaQaRaSaTaUaVaWaXaYaZa0a1a2a3a4a5a6a7a8a9a.a+babbbcbdbebfbgbhbibjbkblbmbnbobpbqbrbsbtbubvbwbxbybzbAbBbCbDbEbFbGbHbIbJbKbLbMbNbObPbQbRbSbTbUbVbWbXbYbZb0b1b2b3b4b5b6b7b8b9b.b+cacbcccdcecfcgchcicjckclcmcncocpcqcrcsctcucvcwcxcyczcAcBcCcDcEcFcGcHcIcJcKcLcMcNcOcPcQcRcScTcUcVcWcXcYcZc0c1c2c3c4c5c6c7c8c9c.c+dadbdcdddedfdgdhdidjdkdldmdndodpdqdrdsdtdudvdwdxdydzdAdBdCdDdEdFdGdHdIdJdKdLdMdNdOdPdQdRdSdTdUdVdWdXdYdZd0d1d2d3d4d5d6d7d8d9d.d+eaebecedeeefegeheiejekelemeneoepeqereseteuevewexeyezeAeBeCeDeEeFeGeHeIeJeKeLeMeNeOePeQeReSeTeUeVeWeXeYeZe0e1e2e3e4e5e6e7e8e9e.e+fafbfcfdfefffgfhfifjfkflfmfnfofpfqfrfsftfufvfwfxfyfzfAfBfCfDfEfFfGfHfIfJfKfLfMfNfOfPfQfRfSfTfUfVfWfXfYfZf0f1f2f3f4f5f6f7f8f9f.f+gagbgcgdgegfggghgigjgkglgmgngogpgqgrgsgtgugvgwgxgygzgAgBgCgDgEgFgGgHgIgJgKgLgMgNgOgPgQgRgSgTgUgVgWgXgYgZg0g1g2g3g4g5g6g7g8g9g.g+hahbhchdhehfhghhhihjhkhlhmhnhohphqhrhshthuhvhwhxhyhzhAhBhChDhEhFhGhHhIhJhKhLhMhNhOhPhQhRhShThUhVhWhXhYhZh0h1h2h3h4h5h6h7h8h9h.h+",
"aaabacadaeafagahaiajakalamanaoapaqarasatauavawaxayazaAaBaCaDaEaFaGaHaIaJaKaLaMaNaOaPaQaRaSaTaUaVaWaXaYaZa0a1a2a3a4a5a6a7a8a9a.a+babbbcbdbebfbgbhbibjbkblbmbnbobpbqbrbsbtbubvbwbxbybzbAbBbCbDbEbFbGbHbIbJbKbLbMbNbObPbQbRbSbTbUbVbWbXbYbZb0b1b2b3b4b5b6b7b8b9b.b+cacbcccdcecfcgchcicjckclcmcncocpcqcrcsctcucvcwcxcyczcAcBcCcDcEcFcGcHcIcJcKcLcMcNcOcPcQcRcScTcUcVcWcXcYcZc0c1c2c3c4c5c6c7c8c9c.c+dadbdcdddedfdgdhdidjdkdldmdndodpdqdrdsdtdudvdwdxdydzdAdBdCdDdEdFdGdHdIdJdKdLdMdNdOdPdQdRdSdTdUdVdWdXdYdZd0d1d2d3d4d5d6d7d8d9d.d+eaebecedeeefegeheiejekelemeneoepeqereseteuevewexeyezeAeBeCeDeEeFeGeHeIeJeKeLeMeNeOePeQeReSeTeUeVeWeXeYeZe0e1e2e3e4e5e6e7e8e9e.e+fafbfcfdfefffgfhfifjfkflfmfnfofpfqfrfsftfufvfwfxfyfzfAfBfCfDfEfFfGfHfIfJfKfLfMfNfOfPfQfRfSfTfUfVfWfXfYfZf0f1f2f3f4f5f6f7f8f9f.f+gagbgcgdgegfggghgigjgkglgmgngogpgqgrgsgtgugvgwgxgygzgAgBgCgDgEgFgGgHgIgJgKgLgMgNgOgPgQgRgSgTgUgVgWgXgYgZg0g1g2g3g4g5g6g7g8g9g.g+hahbhchdhehfhghhhihjhkhlhmhnhohphqhrhshthuhvhwhxhyhzhAhBhChDhEhFhGhHhIhJhKhLhMhNhOhPhQhRhShThUhVhWhXhYhZh0h1h2h3h4h5h6h7h8h9h.h+",
"aaabacadaeafagahaiajakalamanaoapaqarasatauavawaxayazaAaBaCaDaEaFaGaHaIaJaKaLaMaNaOaPaQaRaSaTaUaVaWaXaYaZa0a1a2a3a4a5a6a7a8a9a.a+babbbcbdbebfbgbhbibjbkblbmbnbobpbqbrbsbtbubvbwbxbybzbAbBbCbDbEbFbGbHbIbJbKbLbMbNbObPbQbRbSbTbUbVbWbXbYbZb0b1b2b3b4b5b6b7b8b9b.b+cacbcccdcecfcgchcicjckclcmcncocpcqcrcsctcucvcwcxcyczcAcBcCcDcEcFcGcHcIcJcKcLcMcNcOcPcQcRcScTcUcVcWcXcYcZc0c1c2c3c4c5c6c7c8c9c.c+dadbdcdddedfdgdhdidjdkdldmdndodpdqdrdsdtdudvdwdxdydzdAdBdCdDdEdFdGdHdIdJdKdLdMdNdOdPdQdRdSdTdUdVdWdXdYdZd0d1d2d3d4d5d6d7d8d9d.d+eaebecedeeefegeheiejekelemeneoepeqereseteuevewexeyezeAeBeCeDeEeFeGeHeIeJeKeLeMeNeOePeQeReSeTeUeVeWeXeYeZe0e1e2e3e4e5e6e7e8e9e.e+fafbfcfdfefffgfhfifjfkflfmfnfofpfqfrfsftfufvfwfxfyfzfAfBfCfDfEfFfGfHfIfJfKfLfMfNfOfPfQfRfSfTfUfVfWfXfYfZf0f1f2f3f4f5f6f7f8f9f.f+gagbgcgdgegfggghgigjgkglgmgngogpgqgrgsgtgugvgwgxgygzgAgBgCgDgEgFgGgHgIgJgKgLgMgNgOgPgQgRgSgTgUgVgWgXgYgZg0g1g2g3g4g5g6g7g8g9g.g+hahbhchdhehfhghhhihjhkhlhmhnhohphqhrhshthuhvhwhxhyhzhAhBhChDhEhFhGhHhIhJhKhLhMhNhOhPhQhRhShThUhVhWhXhYhZh0h1h2h3h4h5h6h7h8h9h.h+",
"aaabacadaeafagahaiajakalamanaoapaqarasatauavawaxayazaAaBaCaDaEaFaGaHaIaJaKaLaMaNaOaPaQaRaSaTaUaVaWaXaYaZa0a1a2a3a4a5a6a7a8a9a.a+babbbcbdbebfbgbhbibjbkblbmbnbobpbqbrbsbtbubvbwbxbybzbAbBbCbDbEbFbGbHbIbJbKbLbMbNbObPbQbRbSbTbUbVbWbXbYbZb0b1b2b3b4b5b6b7b8b9b.b+cacbcccdcecfcgchcicjckclcmcncocpcqcrcsctcucvcwcxcyczcAcBcCcDcEcFcGcHcIcJcKcLcMcNcOcPcQcRcScTcUcVcWcXcYcZc0c1c2c3c4c5c6c7c8c9c.c+dadbdcdddedfdgdhdidjdkdldmdndodpdqdrdsdtdudvdwdxdydzdAdBdCdDdEdFdGdHdIdJdKdLdMdNdOdPdQdRdSdTdUdVdWdXdYdZd0d1d2d3d4d5d6d7d8d9d.d+eaebecedeeefegeheiejekelemeneoepeqereseteuevewexeyezeAeBeCeDeEeFeGeHeIeJeKeLeMeNeOePeQeReSeTeUeVeWeXeYeZe0e1e2e3e4e5e6e7e8e9e.e+fafbfcfdfefffgfhfifjfkflfmfnfofpfqfrfsftfufvfwfxfyfzfAfBfCfDfEfFfGfHfIfJfKfLfMfNfOfPfQfRfSfTfUfVfWfXfYfZf0f1f2f3f4f5f6f7f8f9f.f+gagbgcgdgegfggghgigjgkglgmgngogpgqgrgsgtgugvgwgxgygzgAgBgCgDgEgFgGgHgIgJgKgLgMgNgOgPgQgRgSgTgUgVgWgXgYgZg0g1g2g3g4g5g6g7g8g9g.g+hahbhchdhehfhghhhihjhkhlhmhnhohphqhrhshthuhvhwhxhyhzhAhBhChDhEhFhGhHhIhJhKhLhMhNhOhPhQhRhShThUhVhWhXhYhZh0h1h2h3h4h5h6h7h8h9h.h+",
"aaabacadaeafagahaiajakalamanaoapaqarasatauavawaxayazaAaBaCaDaEaFaGaHaIaJaKaLaMaNaOaPaQaRaSaTaUaVaWaXaYaZa0a1a2a3a4a5a6a7a8a9a.a+babbbcbdbebfbgbhbibjbkblbmbnbobpbqbrbsbtbubvbwbxbybzbAbBbCbDbEbFbGbHbIbJbKbLbMbNbObPbQbRbSbTbUbVbWbXbYbZb0b1b2b3b4b5b6b7b8b9b.b+cacbcccdcecfcgchcicjckclcmcncocpcqcrcsctcucvcwcxcyczcAcBcCcDcEcFcGcHcIcJcKcLcMcNcOcPcQcRcScTcUcVcWcXcYcZc0c1c2c3c4c5c6c7c8c9c.c+dadbdcdddedfdgdhdidjdkdldmdndodpdqdrdsdtdudvdwdxdydzdAdBdCdDdEdFdGdHdIdJdKdLdMdNdOdPdQdRdSdTdUdVdWdXdYdZd0d1d2d3d4d5d6d7d8d9d.d+eaebecedeeefegeheiejekelemeneoepeqereseteuevewexeyezeAeBeCeDeEeFeGeHeIeJeKeLeMeNeOePeQeReSeTeUeVeWeXeYeZe0e1e2e3e4e5e6e7e8e9e.e+fafbfcfdfefffgfhfifjfkflfmfnfofpfqfrfsftfufvfwfxfyfzfAfBfCfDfEfFfGfHfIfJfKfLfMfNfOfPfQfRfSfTfUfVfWfXfYfZf0f1f2f3f4f5f6f7f8f9f.f+gagbgcgdgegfggghgigjgkglgmgngogpgqgrgsgtgugvgwgxgygzgAgBgCgDgEgFgGgHgIgJgKgLgMgNgOgPgQgRgSgTgUgVgWgXgYgZg0g1g2g3g4g5g6g7g8g9g.g+hahbhchdhehfhghhhihjhkhlhmhnhohphqhrhshthuhvhwhxhyhzhAhBhChDhEhFhGhHhIhJhKhLhMhNhOhPhQhRhShThUhVhWhXhYhZh0h1h2h3h4h5h6h7h8h9h.h+",
"aaabacadaeafagahaiajakalamanaoapaqarasatauavawaxayazaAaBaCaDaEaFaGaHaIaJaKaLaMaNaOaPaQaRaSaTaUaVaWaXaYaZa0a1a2a3a4a5a6a7a8a9a.a+babbbcbdbebfbgbhbibjbkblbmbnbobpbqbrbsbtbubvbwbxbybzbAbBbCbDbEbFbGbHbIbJbKbLbMbNbObPbQbRbSbTbUbVbWbXbYbZb0b1b2b3b4b5b6b7b8b9b.b+cacbcccdcecfcgchcicjckclcmcncocpcqcrcsctcucvcwcxcyczcAcBcCcDcEcFcGcHcIcJcKcLcMcNcOcPcQcRcScTcUcVcWcXcYcZc0c1c2c3c4c5c6c7c8c9c.c+dadbdcdddedfdgdhdidjdkdldmdndodpdqdrdsdtdudvdwdxdydzdAdBdCdDdEdFdGdHdIdJdKdLdMdNdOdPdQdRdSdTdUdVdWdXdYdZd0d1d2d3d4d5d6d7d8d9d.d+eaebecedeeefegeheiejekelemeneoepeqereseteuevewexeyezeAeBeCeDeEeFeGeHeIeJeKeLeMeNeOePeQeReSeTeUeVeWeXeYeZe0e1e2e3e4e5e6e7e8e9e.e+fafbfcfdfefffgfhfifjfkflfmfnfofpfqfrfsftfufvfwfxfyfzfAfBfCfDfEfFfGfHfIfJfKfLfMfNfOfPfQfRfSfTfUfVfWfXfYfZf0f1f2f3f4f5f6f7f8f9f.f+gagbgcgdgegfggghgigjgkglgmgngogpgqgrgsgtgugvgwgxgygzgAgBgCgDgEgFgGgHgIgJgKgLgMgNgOgPgQgRgSgTgUgVgWgXgYgZg0g1g2g3g4g5g6g7g8g9g.g+hahbhchdhehfhghhhihjhkhlhmhnhohphqhrhshthuhvhwhxhyhzhAhBhChDhEhFhGhHhIhJhKhLhMhNhOhPhQhRhShThUhVhWhXhYhZh0h1h2h3h4h5h6h7h8h9h.h+",
"aaabacadaeafagahaiajakalamanaoapaqarasatauavawaxayazaAaBaCaDaEaFaGaHaIaJaKaLaMaNaOaPaQaRaSaTaUaVaWaXaYaZa0a1a2a3a4a5a6a7a8a9a.a+babbbcbdbebfbgbhbibjbkblbmbnbobpbqbrbsbtbubvbwbxbybzbAbBbCbDbEbFbGbHbIbJbKbLbMbNbObPbQbRbSbTbUbVbWbXbYbZb0b1b2b3b4b5b6b7b8b9b.b+cacbcccdcecfcgchcicjckclcmcncocpcqcrcsctcucvcwcxcyczcAcBcCcDcEcFcGcHcIcJcKcLcMcNcOcPcQcRcScTcUcVcWcXcYcZc0c1c2c3c4c5c6c7c8c9c.c+dadbdcdddedfdgdhdidjdkdldmdndodpdqdrdsdtdudvdwdxdydzdAdBdCdDdEdFdGdHdIdJdKdLdMdNdOdPdQdRdSdTdUdVdWdXdYdZd0d1d2d3d4d5d6d7d8d9d.d+eaebecedeeefegeheiejekelemeneoepeqereseteuevewexeyezeAeBeCeDeEeFeGeHeIeJeKeLeMeNeOePeQeReSeTeUeVeWeXeYeZe0e1e2e3e4e5e6e7e8e9e.e+fafbfcfdfefffgfhfifjfkflfmfnfofpfqfrfsftfufvfwfxfyfzfAfBfCfDfEfFfGfHfIfJfKfLfMfNfOfPfQfRfSfTfUfVfWfXfYfZf0f1f2f3f4f5f6f7f8f9f.f+gagbgcgdgegfggghgigjgkglgmgngogpgqgrgsgtgugvgwgxgygzgAgBgCgDgEgFgGgHgIgJgKgLgMgNgOgPgQgRgSgTgUgVgWgXgYgZg0g1g2g3g4g5g6g7g8g9g.g+hahbhchdhehfhghhhihjhkhlhmhnhohphqhrhshthuhvhwhxhyhzhAhBhChDhEhFhGhHhIhJhKhLhMhNhOhPhQhRhShThUhVhWhXhYhZh0h1h2h3h4h5h6h7h8h9h.h+",
"aaabacadaeafagahaiajakalamanaoapaqarasatauavawaxayazaAaBaCaDaEaFaGaHaIaJaKaLaMaNaOaPaQaRaSaTaUaVaWaXaYaZa0a1a2a3a4a5a6a7a8a9a.a+babbbcbdbebfbgbhbibjbkblbmbnbobpbqbrbsbtbubvbwbxbybzbAbBbCbDbEbFbGbHbIbJbKbLbMbNbObPbQbRbSbTbUbVbWbXbYbZb0b1b2b3b4b5b6b7b8b9b.b+cacbcccdcecfcgchcicjckclcmcncocpcqcrcsctcucvcwcxcyczcAcBcCcDcEcFcGcHcIcJcKcLcMcNcOcPcQcRcScTcUcVcWcXcYcZc0c1c2c3c4c5c6c7c8c9c.c+dadbdcdddedfdgdhdidjdkdldmdndodpdqdrdsdtdudvdwdxdydzdAdBdCdDdEdFdGdHdIdJdKdLdMdNdOdPdQdRdSdTdUdVdWdXdYdZd0d1d2d3d4d5d6d7d8d9d.d+eaebecedeeefegeheiejekelemeneoepeqereseteuevewexeyezeAeBeCeDeEeFeGeHeIeJeKeLeMeNeOePeQeReSeTeUeVeWeXeYeZe0e1e2e3e4e5e6e7e8e9e.e+fafbfcfdfefffgfhfifjfkflfmfnfofpfqfrfsftfufvfwfxfyfzfAfBfCfDfEfFfGfHfIfJfKfLfMfNfOfPfQfRfSfTfUfVfWfXfYfZf0f1f2f3f4f5f6f7f8f9f.f+gagbgcgdgegfggghgigjgkglgmgngogpgqgrgsgtgugvgwgxgygzgAgBgCgDgEgFgGgHgIgJgKgLgMgNgOgPgQgRgSgTgUgVgWgXgYgZg0g1g2g3g4g5g6g7g8g9g.g+hahbhchdhehfhghhhihjhkhlhmhnhohphqhrhshthuhvhwhxhyhzhAhBhChDhEhFhGhHhIhJhKhLhMhNhOhPhQhRhShThUhVhWhXhYhZh0h1h2h3h4h5h6h7h8h9h.h+",
"aaabacadaeafagahaiajakalamanaoapaqarasatauavawaxayazaAaBaCaDaEaFaGaHaIaJaKaLaMaNaOaPaQaRaSaTaUaVaWaXaYaZa0a1a2a3a4a5a6a7a8a9a.a+babbbcbdbebfbgbhbibjbkblbmbnbobpbqbrbsbtbubvbwbxbybzbAbBbCbDbEbFbGbHbIbJbKbLbMbNbObPbQbRbSbTbUbVbWbXbYbZb0b1b2b3b4b5b6b7b8b9b.b+cacbcccdcecfcgchcicjckclcmcncocpcqcrcsctcucvcwcxcyczcAcBcCcDcEcFcGcHcIcJcKcLcMcNcOcPcQcRcScTcUcVcWcXcYcZc0c1c2c3c4c5c6c7c8c9c.c+dadbdcdddedfdgdhdidjdkdldmdndodpdqdrdsdtdudvdwdxdydzdAdBdCdDdEdFdGdHdIdJdKdLdMdNdOdPdQdRdSdTdUdVdWdXdYdZd0d1d2d3d4d5d6d7d8d9d.d+eaebecedeeefegeheiejekelemeneoepeqereseteuevewexeyezeAeBeCeDeEeFeGeHeIeJeKeLeMeNeOePeQeReSeTeUeVeWeXeYeZe0e1e2e3e4e5e6e7e8e9e.e+fafbfcfdfefffgfhfifjfkflfmfnfofpfqfrfsftfufvfwfxfyfzfAfBfCfDfEfFfGfHfIfJfKfLfMfNfOfPfQfRfSfTfUfVfWfXfYfZf0f1f2f3f4f5f6f7f8f9f.f+gagbgcgdgegfggghgigjgkglgmgngogpgqgrgsgtgugvgwgxgygzgAgBgCgDgEgFgGgHgIgJgKgLgMgNgOgPgQgRgSgTgUgVgWgXgYgZg0g1g2g3g4g5g6g7g8g9g.g+hahbhchdhehfhghhhihjhkhlhmhnhohphqhrhshthuhvhwhxhyhzhAhBhChDhEhFhGhHhIhJhKhLhMhNhOhPhQhRhShThUhVhWhXhYhZh0h1h2h3h4h5h6h7h8h9h.h+",
"aaabacadaeafagahaiajakalamanaoapaqarasatauavawaxayazaAaBaCaDaEaFaGaHaIaJaKaLaMaNaOaPaQaRaSaTaUaVaWaXaYaZa0a1a2a3a4a5a6a7a8a9a.a+babbbcbdbebfbgbhbibjbkblbmbnbobpbqbrbsbtbubvbwbxbybzbAbBbCbDbEbFbGbHbIbJbKbLbMbNbObPbQbRbSbTbUbVbWbXbYbZb0b1b2b3b4b5b6b7b8b9b.b+cacbcccdcecfcgchcicjckclcmcncocpcqcrcsctcucvcwcxcyczcAcBcCcDcEcFcGcHcIcJcKcLcMcNcOcPcQcRcScTcUcVcWcXcYcZc0c1c2c3c4c5c6c7c8c9c.c+dadbdcdddedfdgdhdidjdkdldmdndodpdqdrdsdtdudvdwdxdydzdAdBdCdDdEdFdGdHdIdJdKdLdMdNdOdPdQdRdSdTdUdVdWdXdYdZd0d1d2d3d4d5d6d7d8d9d.d+eaebecedeeefegeheiejekelemeneoepeqereseteuevewexeyezeAeBeCeDeEeFeGeHeIeJeKeLeMeNeOePeQeReSeTeUeVeWeXeYeZe0e1e2e3e4e5e6e7e8e9e.e+fafbfcfdfefffgfhfifjfkflfmfnfofpfqfrfsftfufvfwfxfyfzfAfBfCfDfEfFfGfHfIfJfKfLfMfNfOfPfQfRfSfTfUfVfWfXfYfZf0f1f2f3f4f5f6f7f8f9f.f+gagbgcgdgegfggghgigjgkglgmgngogpgqgrgsgtgugvgwgxgygzgAgBgCgDgEgFgGgHgIgJgKgLgMgNgOgPgQgRgSgTgUgVgWgXgYgZg0g1g2g3g4g5g6g7g8g9g.g+hahbhchdhehfhghhhihjhkhlhmhnhohphqhrhshthuhvhwhxhyhzhAhBhChDhEhFhGhHhIhJhKhLhMhNhOhPhQhRhShThUhVhWhXhYhZh0h1h2h3h4h5h6h7h8h9h.h+",
"aaabacadaeafagahaiajakalamanaoapaqarasatauavawaxayazaAaBaCaDaEaFaGaHaIaJaKaLaMaNaOaPaQaRaSaTaUaVaWaXaYaZa0a1a2a3a4a5a6a7a8a9a.a+babbbcbdbebfbgbhbibjbkblbmbnbobpbqbrbsbtbubvbwbxbybzbAbBbCbDbEbFbGbHbIbJbKbLbMbNbObPbQbRbSbTbUbVbWbXbYbZb0b1b2b3b4b5b6b7b8b9b.b+cacbcccdcecfcgchcicjckclcmcncocpcqcrcsctcucvcwcxcyczcAcBcCcDcEcFcGcHcIcJcKcLcMcNcOcPcQcRcScTcUcVcWcXcYcZc0c1c2c3c4c5c6c7c8c9c.c+dadbdcdddedfdgdhdidjdkdldmdndodpdqdrdsdtdudvdwdxdydzdAdBdCdDdEdFdGdHdIdJdKdLdMdNdOdPdQdRdSdTdUdVdWdXdYdZd0d1d2d3d4d5d6d7d8d9d.d+eaebecedeeefegeheiejekelemeneoepeqereseteuevewexeyezeAeBeCeDeEeFeGeHeIeJeKeLeMeNeOePeQeReSeTeUeVeWeXeYeZe0e1e2e3e4e5e6e7e8e9e.e+fafbfcfdfefffgfhfifjfkflfmfnfofpfqfrfsftfufvfwfxfyfzfAfBfCfDfEfFfGfHfIfJfKfLfMfNfOfPfQfRfSfTfUfVfWfXfYfZf0f1f2f3f4f5f6f7f8f9f.f+gagbgcgdgegfggghgigjgkglgmgngogpgqgrgsgtgugvgwgxgygzgAgBgCgDgEgFgGgHgIgJgKgLgMgNgOgPgQgRgSgTgUgVgWgXgYgZg0g1g2g3g4g5g6g7g8g9g.g+hahbhchdhehfhghhhihjhkhlhmhnhohphqhrhshthuhvhwhxhyhzhAhBhChDhEhFhGhHhIhJhKhLhMhNhOhPhQhRhShThUhVhWhXhYhZh0h1h2h3h4h5h6h7h8h9h.h+",
"aaabacadaeafagahaiajakalamanaoapaqarasatauavawaxayazaAaBaCaDaEaFaGaHaIaJaKaLaMaNaOaPaQaRaSaTaUaVaWaXaYaZa0a1a2a3a4a5a6a7a8a9a.a+babbbcbdbebfbgbhbibjbkblbmbnbobpbqbrbsbtbubvbwbxbybzbAbBbCbDbEbFbGbHbIbJbKbLbMbNbObPbQbRbSbTbUbVbWbXbYbZb0b1b2b3b4b5b6b7b8b9b.b+cacbcccdcecfcgchcicjckclcmcncocpcqcrcsctcucvcwcxcyczcAcBcCcDcEcFcGcHcIcJcKcLcMcNcOcPcQcRcScTcUcVcWcXcYcZc0c1c2c3c4c5c6c7c8c9c.c+dadbdcdddedfdgdhdidjdkdldmdndodpdqdrdsdtdudvdwdxdydzdAdBdCdDdEdFdGdHdIdJdKdLdMdNdOdPdQdRdSdTdUdVdWdXdYdZd0d1d2d3d4d5d6d7d8d9d.d+eaebecedeeefegeheiejekelemeneoepeqereseteuevewexeyezeAeBeCeDeEeFeGeHeIeJeKeLeMeNeOePeQeReSeTeUeVeWeXeYeZe0e1e2e3e4e5e6e7e8e9e.e+fafbfcfdfefffgfhfifjfkflfmfnfofpfqfrfsftfufvfwfxfyfzfAfBfCfDfEfFfGfHfIfJfKfLfMfNfOfPfQfRfSfTfUfVfWfXfYfZf0f1f2f3f4f5f6f7f8f9f.f+gagbgcgdgegfggghgigjgkglgmgngogpgqgrgsgtgugvgwgxgygzgAgBgCgDgEgFgGgHgIgJgKgLgMgNgOgPgQgRgSgTgUgVgWgXgYgZg0g1g2g3g4g5g6g7g8g9g.g+hahbhchdhehfhghhhihjhkhlhmhnhohphqhrhshthuhvhwhxhyhzhAhBhChDhEhFhGhHhIhJhKhLhMhNhOhPhQhRhShThUhVhWhXhYhZh0h1h2h3h4h5h6h7h8h9h.h+",
"aaabacadaeafagahaiajakalamanaoapaqarasatauavawaxayazaAaBaCaDaEaFaGaHaIaJaKaLaMaNaOaPaQaRaSaTaUaVaWaXaYaZa0a1a2a3a4a5a6a7a8a9a.a+babbbcbdbebfbgbhbibjbkblbmbnbobpbqbrbsbtbubvbwbxbybzbAbBbCbDbEbFbGbHbIbJbKbLbMbNbObPbQbRbSbTbUbVbWbXbYbZb0b1b2b3b4b5b6b7b8b9b.b+cacbcccdcecfcgchcicjckclcmcncocpcqcrcsctcucvcwcxcyczcAcBcCcDcEcFcGcHcIcJcKcLcMcNcOcPcQcRcScTcUcVcWcXcYcZc0c1c2c3c4c5c6c7c8c9c.c+dadbdcdddedfdgdhdidjdkdldmdndodpdqdrdsdtdudvdwdxdydzdAdBdCdDdEdFdGdHdIdJdKdLdMdNdOdPdQdRdSdTdUdVdWdXdYdZd0d1d2d3d4d5d6d7d8d9d.d+eaebecedeeefegeheiejekelemeneoepeqereseteuevewexeyezeAeBeCeDeEeFeGeHeIeJeKeLeMeNeOePeQeReSeTeUeVeWeXeYeZe0e1e2e3e4e5e6e7e8e9e.e+fafbfcfdfefffgfhfifjfkflfmfnfofpfqfrfsftfufvfwfxfyfzfAfBfCfDfEfFfGfHfIfJfKfLfMfNfOfPfQfRfSfTfUfVfWfXfYfZf0f1f2f3f4f5f6f7f8f9f.f+gagbgcgdgegfggghgigjgkglgmgngogpgqgrgsgtgugvgwgxgygzgAgBgCgDgEgFgGgHgIgJgKgLgMgNgOgPgQgRgSgTgUgVgWgXgYgZg0g1g2g3g4g5g6g7g8g9g.g+hahbhchdhehfhghhhihjhkhlhmhnhohphqhrhshthuhvhwhxhyhzhAhBhChDhEhFhGhHhIhJhKhLhMhNhOhPhQhRhShThUhVhWhXhYhZh0h1h2h3h4h5h6h7h8h9h.h+",
"aaabacadaeafagahaiajakalamanaoapaqarasatauavawaxayazaAaBaCaDaEaFaGaHaIaJaKaLaMaNaOaPaQaRaSaTaUaVaWaXaYaZa0a1a2a3a4a5a6a7a8a9a.a+babbbcbdbebfbgbhbibjbkblbmbnbobpbqbrbsbtbubvbwbxbybzbAbBbCbDbEbFbGbHbIbJbKbLbMbNbObPbQbRbSbTbUbVbWbXbYbZb0b1b2b3b4b5b6b7b8b9b.b+cacbcccdcecfcgchcicjckclcmcncocpcqcrcsctcucvcwcxcyczcAcBcCcDcEcFcGcHcIcJcKcLcMcNcOcPcQcRcScTcUcVcWcXcYcZc0c1c2c3c4c5c6c7c8c9c.c+dadbdcdddedfdgdhdidjdkdldmdndodpdqdrdsdtdudvdwdxdydzdAdBdCdDdEdFdGdHdIdJdKdLdMdNdOdPdQdRdSdTdUdVdWdXdYdZd0d1d2d3d4d5d6d7d8d9d.d+eaebecedeeefegeheiejekelemeneoepeqereseteuevewexeyezeAeBeCeDeEeFeGeHeIeJeKeLeMeNeOePeQeReSeTeUeVeWeXeYeZe0e1e2e3e4e5e6e7e8e9e.e+fafbfcfdfefffgfhfifjfkflfmfnfofpfqfrfsftfufvfwfxfyfzfAfBfCfDfEfFfGfHfIfJfKfLfMfNfOfPfQfRfSfTfUfVfWfXfYfZf0f1f2f3f4f5f6f7f8f9f.f+gagbgcgdgegfggghgigjgkglgmgngogpgqgrgsgtgugvgwgxgygzgAgBgCgDgEgFgGgHgIgJgKgLgMgNgOgPgQgRgSgTgUgVgWgXgYgZg0g1g2g3g4g5g6g7g8g9g.g+hahbhchdhehfhghhhihjhkhlhmhnhohphqhrhshthuhvhwhxhyhzhAhBhChDhEhFhGhHhIhJhKhLhMhNhOhPhQhRhShThUhVhWhXhYhZh0h1h2h3h4h5h6h7h8h9h.h+",
"aaabacadaeafagahaiajakalamanaoapaqarasatauavawaxayazaAaBaCaDaEaFaGaHaIaJaKaLaMaNaOaPaQaRaSaTaUaVaWaXaYaZa0a1a2a3a4a5a6a7a8a9a.a+babbbcbdbebfbgbhbibjbkblbmbnbobpbqbrbsbtbubvbwbxbybzbAbBbCbDbEbFbGbHbIbJbKbLbMbNbObPbQbRbSbTbUbVbWbXbYbZb0b1b2b3b4b5b6b7b8b9b.b+cacbcccdcecfcgchcicjckclcmcncocpcqcrcsctcucvcwcxcyczcAcBcCcDcEcFcGcHcIcJcKcLcMcNcOcPcQcRcScTcUcVcWcXcYcZc0c1c2c3c4c5c6c7c8c9c.c+dadbdcdddedfdgdhdidjdkdldmdndodpdqdrdsdtdudvdwdxdydzdAdBdCdDdEdFdGdHdIdJdKdLdMdNdOdPdQdRdSdTdUdVdWdXdYdZd0d1d2d3d4d5d6d7d8d9d.d+eaebecedeeefegeheiejekelemeneoepeqereseteuevewexeyezeAeBeCeDeEeFeGeHeIeJeKeLeMeNeOePeQeReSeTeUeVeWeXeYeZe0e1e2e3e4e5e6e7e8e9e.e+fafbfcfdfefffgfhfifjfkflfmfnfofpfqfrfsftfufvfwfxfyfzfAfBfCfDfEfFfGfHfIfJfKfLfMfNfOfPfQfRfSfTfUfVfWfXfYfZf0f1f2f3f4f5f6f7f8f9f.f+gagbgcgdgegfggghgigjgkglgmgngogpgqgrgsgtgugvgwgxgygzgAgBgCgDgEgFgGgHgIgJgKgLgMgNgOgPgQgRgSgTgUgVgWgXgYgZg0g1g2g3g4g5g6g7g8g9g.g+hahbhchdhehfhghhhihjhkhlhmhnhohphqhrhshthuhvhwhxhyhzhAhBhChDhEhFhGhHhIhJhKhLhMhNhOhPhQhRhShThUhVhWhXhYhZh0h1h2h3h4h5h6h7h8h9h.h+",
"aaabacadaeafagahaiajakalamanaoapaqarasatauavawaxayazaAaBaCaDaEaFaGaHaIaJaKaLaMaNaOaPaQaRaSaTaUaVaWaXaYaZa0a1a2a3a4a5a6a7a8a9a.a+babbbcbdbebfbgbhbibjbkblbmbnbobpbqbrbsbtbubvbwbxbybzbAbBbCbDbEbFbGbHbIbJbKbLbMbNbObPbQbRbSbTbUbVbWbXbYbZb0b1b2b3b4b5b6b7b8b9b.b+cacbcccdcecfcgchcicjckclcmcncocpcqcrcsctcucvcwcxcyczcAcBcCcDcEcFcGcHcIcJcKcLcMcNcOcPcQcRcScTcUcVcWcXcYcZc0c1c2c3c4c5c6c7c8c9c.c+dadbdcdddedfdgdhdidjdkdldmdndodpdqdrdsdtdudvdwdxdydzdAdBdCdDdEdFdGdHdIdJdKdLdMdNdOdPdQdRdSdTdUdVdWdXdYdZd0d1d2d3d4d5d6d7d8d9d.d+eaebecedeeefegeheiejekelemeneoepeqereseteuevewexeyezeAeBeCeDeEeFeGeHeIeJeKeLeMeNeOePeQeReSeTeUeVeWeXeYeZe0e1e2e3e4e5e6e7e8e9e.e+fafbfcfdfefffgfhfifjfkflfmfnfofpfqfrfsftfufvfwfxfyfzfAfBfCfDfEfFfGfHfIfJfKfLfMfNfOfPfQfRfSfTfUfVfWfXfYfZf0f1f2f3f4f5f6f7f8f9f.f+gagbgcgdgegfggghgigjgkglgmgngogpgqgrgsgtgugvgwgxgygzgAgBgCgDgEgFgGgHgIgJgKgLgMgNgOgPgQgRgSgTgUgVgWgXgYgZg0g1g2g3g4g5g6g7g8g9g.g+hahbhchdhehfhghhhihjhkhlhmhnhohphqhrhshthuhvhwhxhyhzhAhBhChDhEhFhGhHhIhJhKhLhMhNhOhPhQhRhShThUhVhWhXhYhZh0h1h2h3h4h5h6h7h8h9h.h+",
"aaabacadaeafagahaiajakalamanaoapaqarasatauavawaxayazaAaBaCaDaEaFaGaHaIaJaKaLaMaNaOaPaQaRaSaTaUaVaWaXaYaZa0a1a2a3a4a5a6a7a8a9a.a+babbbcbdbebfbgbhbibjbkblbmbnbobpbqbrbsbtbubvbwbxbybzbAbBbCbDbEbFbGbHbIbJbKbLbMbNbObPbQbRbSbTbUbVbWbXbYbZb0b1b2b3b4b5b6b7b8b9b.b+cacbcccdcecfcgchcicjckclcmcncocpcqcrcsctcucvcwcxcyczcAcBcCcDcEcFcGcHcIcJcKcLcMcNcOcPcQcRcScTcUcVcWcXcYcZc0c1c2c3c4c5c6c7c8c9c.c+dadbdcdddedfdgdhdidjdkdldmdndodpdqdrdsdtdudvdwdxdydzdAdBdCdDdEdFdGdHdIdJdKdLdMdNdOdPdQdRdSdTdUdVdWdXdYdZd0d1d2d3d4d5d6d7d8d9d.d+eaebecedeeefegeheiejekelemeneoepeqereseteuevewexeyezeAeBeCeDeEeFeGeHeIeJeKeLeMeNeOePeQeReSeTeUeVeWeXeYeZe0e1e2e3e4e5e6e7e8e9e.e+fafbfcfdfefffgfhfifjfkflfmfnfofpfqfrfsftfufvfwfxfyfzfAfBfCfDfEfFfGfHfIfJfKfLfMfNfOfPfQfRfSfTfUfVfWfXfYfZf0f1f2f3f4f5f6f7f8f9f.f+gagbgcgdgegfggghgigjgkglgmgngogpgqgrgsgtgugvgwgxgygzgAgBgCgDgEgFgGgHgIgJgKgLgMgNgOgPgQgRgSgTgUgVgWgXgYgZg0g1g2g3g4g5g6g7g8g9g.g+hahbhchdhehfhghhhihjhkhlhmhnhohphqhrhshthuhvhwhxhyhzhAhBhChDhEhFhGhHhIhJhKhLhMhNhOhPhQhRhShThUhVhWhXhYhZh0h1h2h3h4h5h6h7h8h9h.h+",
"aaabacadaeafagahaiajakalamanaoapaqarasatauavawaxayazaAaBaCaDaEaFaGaHaIaJaKaLaMaNaOaPaQaRaSaTaUaVaWaXaYaZa0a1a2a3a4a5a6a7a8a9a.a+babbbcbdbebfbgbhbibjbkblbmbnbobpbqbrbsbtbubvbwbxbybzbAbBbCbDbEbFbGbHbIbJbKbLbMbNbObPbQbRbSbTbUbVbWbXbYbZb0b1b2b3b4b5b6b7b8b9b.b+cacbcccdcecfcgchcicjckclcmcncocpcqcrcsctcucvcwcxcyczcAcBcCcDcEcFcGcHcIcJcKcLcMcNcOcPcQcRcScTcUcVcWcXcYcZc0c1c2c3c4c5c6c7c8c9c.c+dadbdcdddedfdgdhdidjdkdldmdndodpdqdrdsdtdudvdwdxdydzdAdBdCdDdEdFdGdHdIdJdKdLdMdNdOdPdQdRdSdTdUdVdWdXdYdZd0d1d2d3d4d5d6d7d8d9d.d+eaebecedeeefegeheiejekelemeneoepeqereseteuevewexeyezeAeBeCeDeEeFeGeHeIeJeKeLeMeNeOePeQeReSeTeUeVeWeXeYeZe0e1e2e3e4e5e6e7e8e9e.e+fafbfcfdfefffgfhfifjfkflfmfnfofpfqfrfsftfufvfwfxfyfzfAfBfCfDfEfFfGfHfIfJfKfLfMfNfOfPfQfRfSfTfUfVfWfXfYfZf0f1f2f3f4f5f6f7f8f9f.f+gagbgcgdgegfggghgigjgkglgmgngogpgqgrgsgtgugvgwgxgygzgAgBgCgDgEgFgGgHgIgJgKgLgMgNgOgPgQgRgSgTgUgVgWgXgYgZg0g1g2g3g4g5g6g7g8g9g.g+hahbhchdhehfhghhhihjhkhlhmhnhohphqhrhshthuhvhwhxhyhzhAhBhChDhEhFhGhHhIhJhKhLhMhNhOhPhQhRhShThUhVhWhXhYhZh0h1h2h3h4h5h6h7h8h9h.h+",
"aaabacadaeafagahaiajakalamanaoapaqarasatauavawaxayazaAaBaCaDaEaFaGaHaIaJaKaLaMaNaOaPaQaRaSaTaUaVaWaXaYaZa0a1a2a3a4a5a6a7a8a9a.a+babbbcbdbebfbgbhbibjbkblbmbnbobpbqbrbsbtbubvbwbxbybzbAbBbCbDbEbFbGbHbIbJbKbLbMbNbObPbQbRbSbTbUbVbWbXbYbZb0b1b2b3b4b5b6b7b8b9b.b+cacbcccdcecfcgchcicjckclcmcncocpcqcrcsctcucvcwcxcyczcAcBcCcDcEcFcGcHcIcJcKcLcMcNcOcPcQcRcScTcUcVcWcXcYcZc0c1c2c3c4c5c6c7c8c9c.c+dadbdcdddedfdgdhdidjdkdldmdndodpdqdrdsdtdudvdwdxdydzdAdBdCdDdEdFdGdHdIdJdKdLdMdNdOdPdQdRdSdTdUdVdWdXdYdZd0d1d2d3d4d5d6d7d8d9d.d+eaebecedeeefegeheiejekelemeneoepeqereseteuevewexeyezeAeBeCeDeEeFeGeHeIeJeKeLeMeNeOePeQeReSeTeUeVeWeXeYeZe0e1e2e3e4e5e6e7e8e9e.e+fafbfcfdfefffgfhfifjfkflfmfnfofpfqfrfsftfufvfwfxfyfzfAfBfCfDfEfFfGfHfIfJfKfLfMfNfOfPfQfRfSfTfUfVfWfXfYfZf0f1f2f3f4f5f6f7f8f9f.f+gagbgcgdgegfggghgigjgkglgmgngogpgqgrgsgtgugvgwgxgygzgAgBgCgDgEgFgGgHgIgJgKgLgMgNgOgPgQgRgSgTgUgVgWgXgYgZg0g1g2g3g4g5g6g7g8g9g.g+hahbhchdhehfhghhhihjhkhlhmhnhohphqhrhshthuhvhwhxhyhzhAhBhChDhEhFhGhHhIhJhKhLhMhNhOhPhQhRhShThUhVhWhXhYhZh0h1h2h3h4h5h6h7h8h9h.h+",
"aaabacadaeafagahaiajakalamanaoapaqarasatauavawaxayazaAaBaCaDaEaFaGaHaIaJaKaLaMaNaOaPaQaRaSaTaUaVaWaXaYaZa0a1a2a3a4a5a6a7a8a9a.a+babbbcbdbebfbgbhbibjbkblbmbnbobpbqbrbsbtbubvbwbxbybzbAbBbCbDbEbFbGbHbIbJbKbLbMbNbObPbQbRbSbTbUbVbWbXbYbZb0b1b2b3b4b5b6b7b8b9b.b+cacbcccdcecfcgchcicjckclcmcncocpcqcrcsctcucvcwcxcyczcAcBcCcDcEcFcGcHcIcJcKcLcMcNcOcPcQcRcScTcUcVcWcXcYcZc0c1c2c3c4c5c6c7c8c9c.c+dadbdcdddedfdgdhdidjdkdldmdndodpdqdrdsdtdudvdwdxdydzdAdBdCdDdEdFdGdHdIdJdKdLdMdNdOdPdQdRdSdTdUdVdWdXdYdZd0d1d2d3d4d5d6d7d8d9d.d+eaebecedeeefegeheiejekelemeneoepeqereseteuevewexeyezeAeBeCeDeEeFeGeHeIeJeKeLeMeNeOePeQeReSeTeUeVeWeXeYeZe0e1e2e3e4e5e6e7e8e9e.e+fafbfcfdfefffgfhfifjfkflfmfnfofpfqfrfsftfufvfwfxfyfzfAfBfCfDfEfFfGfHfIfJfKfLfMfNfOfPfQfRfSfTfUfVfWfXfYfZf0f1f2f3f4f5f6f7f8f9f.f+gagbgcgdgegfggghgigjgkglgmgngogpgqgrgsgtgugvgwgxgygzgAgBgCgDgEgFgGgHgIgJgKgLgMgNgOgPgQgRgSgTgUgVgWgXgYgZg0g1g2g3g4g5g6g7g8g9g.g+hahbhchdhehfhghhhihjhkhlhmhnhohphqhrhshthuhvhwhxhyhzhAhBhChDhEhFhGhHhIhJhKhLhMhNhOhPhQhRhShThUhVhWhXhYhZh0h1h2h3h4h5h6h7h8h9h.h+",
"aaabacadaeafagahaiajakalamanaoapaqarasatauavawaxayazaAaBaCaDaEaFaGaHaIaJaKaLaMaNaOaPaQaRaSaTaUaVaWaXaYaZa0a1a2a3a4a5a6a7a8a9a.a+babbbcbdbebfbgbhbibjbkblbmbnbobpbqbrbsbtbubvbwbxbybzbAbBbCbDbEbFbGbHbIbJbKbLbMbNbObPbQbRbSbTbUbVbWbXbYbZb0b1b2b3b4b5b6b7b8b9b.b+cacbcccdcecfcgchcicjckclcmcncocpcqcrcsctcucvcwcxcyczcAcBcCcDcEcFcGcHcIcJcKcLcMcNcOcPcQcRcScTcUcVcWcXcYcZc0c1c2c3c4c5c6c7c8c9c.c+dadbdcdddedfdgdhdidjdkdldmdndodpdqdrdsdtdudvdwdxdydzdAdBdCdDdEdFdGdHdIdJdKdLdMdNdOdPdQdRdSdTdUdVdWdXdYdZd0d1d2d3d4d5d6d7d8d9d.d+eaebecedeeefegeheiejekelemeneoepeqereseteuevewexeyezeAeBeCeDeEeFeGeHeIeJeKeLeMeNeOePeQeReSeTeUeVeWeXeYeZe0e1e2e3e4e5e6e7e8e9e.e+fafbfcfdfefffgfhfifjfkflfmfnfofpfqfrfsftfufvfwfxfyfzfAfBfCfDfEfFfGfHfIfJfKfLfMfNfOfPfQfRfSfTfUfVfWfXfYfZf0f1f2f3f4f5f6f7f8f9f.f+gagbgcgdgegfggghgigjgkglgmgngogpgqgrgsgtgugvgwgxgygzgAgBgCgDgEgFgGgHgIgJgKgLgMgNgOgPgQgRgSgTgUgVgWgXgYgZg0g1g2g3g4g5g6g7g8g9g.g+hahbhchdhehfhghhhihjhkhlhmhnhohphqhrhshthuhvhwhxhyhzhAhBhChDhEhFhGhHhIhJhKhLhMhNhOhPhQhRhShThUhVhWhXhYhZh0h1h2h3h4h5h6h7h8h9h.h+",
"aaabacadaeafagahaiajakalamanaoapaqarasatauavawaxayazaAaBaCaDaEaFaGaHaIaJaKaLaMaNaOaPaQaRaSaTaUaVaWaXaYaZa0a1a2a3a4a5a6a7a8a9a.a+babbbcbdbebfbgbhbibjbkblbmbnbobpbqbrbsbtbubvbwbxbybzbAbBbCbDbEbFbGbHbIbJbKbLbMbNbObPbQbRbSbTbUbVbWbXbYbZb0b1b2b3b4b5b6b7b8b9b.b+cacbcccdcecfcgchcicjckclcmcncocpcqcrcsctcucvcwcxcyczcAcBcCcDcEcFcGcHcIcJcKcLcMcNcOcPcQcRcScTcUcVcWcXcYcZc0c1c2c3c4c5c6c7c8c9c.c+dadbdcdddedfdgdhdidjdkdldmdndodpdqdrdsdtdudvdwdxdydzdAdBdCdDdEdFdGdHdIdJdKdLdMdNdOdPdQdRdSdTdUdVdWdXdYdZd0d1d2d3d4d5d6d7d8d9d.d+eaebecedeeefegeheiejekelemeneoepeqereseteuevewexeyezeAeBeCeDeEeFeGeHeIeJeKeLeMeNeOePeQeReSeTeUeVeWeXeYeZe0e1e2e3e4e5e6e7e8e9e.e+fafbfcfdfefffgfhfifjfkflfmfnfofpfqfrfsftfufvfwfxfyfzfAfBfCfDfEfFfGfHfIfJfKfLfMfNfOfPfQfRfSfTfUfVfWfXfYfZf0f1f2f3f4f5f6f7f8f9f.f+gagbgcgdgegfggghgigjgkglgmgngogpgqgrgsgtgugvgwgxgygzgAgBgCgDgEgFgGgHgIgJgKgLgMgNgOgPgQgRgSgTgUgVgWgXgYgZg0g1g2g3g4g5g6g7g8g9g.g+hahbhchdhehfhghhhihjhkhlhmhnhohphqhrhshthuhvhwhxhyhzhAhBhChDhEhFhGhHhIhJhKhLhMhNhOhPhQhRhShThUhVhWhXhYhZh0h1h2h3h4h5h6h7h8h9h.h+",
"aaabacadaeafagahaiajakalamanaoapaqarasatauavawaxayazaAaBaCaDaEaFaGaHaIaJaKaLaMaNaOaPaQaRaSaTaUaVaWaXaYaZa0a1a2a3a4a5a6a7a8a9a.a+babbbcbdbebfbgbhbibjbkblbmbnbobpbqbrbsbtbubvbwbxbybzbAbBbCbDbEbFbGbHbIbJbKbLbMbNbObPbQbRbSbTbUbVbWbXbYbZb0b1b2b3b4b5b6b7b8b9b.b+cacbcccdcecfcgchcicjckclcmcncocpcqcrcsctcucvcwcxcyczcAcBcCcDcEcFcGcHcIcJcKcLcMcNcOcPcQcRcScTcUcVcWcXcYcZc0c1c2c3c4c5c6c7c8c9c.c+dadbdcdddedfdgdhdidjdkdldmdndodpdqdrdsdtdudvdwdxdydzdAdBdCdDdEdFdGdHdIdJdKdLdMdNdOdPdQdRdSdTdUdVdWdXdYdZd0d1d2d3d4d5d6d7d8d9d.d+eaebecedeeefegeheiejekelemeneoepeqereseteuevewexeyezeAeBeCeDeEeFeGeHeIeJeKeLeMeNeOePeQeReSeTeUeVeWeXeYeZe0e1e2e3e4e5e6e7e8e9e.e+fafbfcfdfefffgfhfifjfkflfmfnfofpfqfrfsftfufvfwfxfyfzfAfBfCfDfEfFfGfHfIfJfKfLfMfNfOfPfQfRfSfTfUfVfWfXfYfZf0f1f2f3f4f5f6f7f8f9f.f+gagbgcgdgegfggghgigjgkglgmgngogpgqgrgsgtgugvgwgxgygzgAgBgCgDgEgFgGgHgIgJgKgLgMgNgOgPgQgRgSgTgUgVgWgXgYgZg0g1g2g3g4g5g6g7g8g9g.g+hahbhchdhehfhghhhihjhkhlhmhnhohphqhrhshthuhvhwhxhyhzhAhBhChDhEhFhGhHhIhJhKhLhMhNhOhPhQhRhShThUhVhWhXhYhZh0h1h2h3h4h5h6h7h8h9h.h+",
"aaabacadaeafagahaiajakalamanaoapaqarasatauavawaxayazaAaBaCaDaEaFaGaHaIaJaKaLaMaNaOaPaQaRaSaTaUaVaWaXaYaZa0a1a2a3a4a5a6a7a8a9a.a+babbbcbdbebfbgbhbibjbkblbmbnbobpbqbrbsbtbubvbwbxbybzbAbBbCbDbEbFbGbHbIbJbKbLbMbNbObPbQbRbSbTbUbVbWbXbYbZb0b1b2b3b4b5b6b7b8b9b.b+cacbcccdcecfcgchcicjckclcmcncocpcqcrcsctcucvcwcxcyczcAcBcCcDcEcFcGcHcIcJcKcLcMcNcOcPcQcRcScTcUcVcWcXcYcZc0c1c2c3c4c5c6c7c8c9c.c+dadbdcdddedfdgdhdidjdkdldmdndodpdqdrdsdtdudvdwdxdydzdAdBdCdDdEdFdGdHdIdJdKdLdMdNdOdPdQdRdSdTdUdVdWdXdYdZd0d1d2d3d4d5d6d7d8d9d.d+eaebecedeeefegeheiejekelemeneoepeqereseteuevewexeyezeAeBeCeDeEeFeGeHeIeJeKeLeMeNeOePeQeReSeTeUeVeWeXeYeZe0e1e2e3e4e5e6e7e8e9e.e+fafbfcfdfefffgfhfifjfkflfmfnfofpfqfrfsftfufvfwfxfyfzfAfBfCfDfEfFfGfHfIfJfKfLfMfNfOfPfQfRfSfTfUfVfWfXfYfZf0f1f2f3f4f5f6f7f8f9f.f+gagbgcgdgegfggghgigjgkglgmgngogpgqgrgsgtgugvgwgxgygzgAgBgCgDgEgFgGgHgIgJgKgLgMgNgOgPgQgRgSgTgUgVgWgXgYgZg0g1g2g3g4g5g6g7g8g9g.g+hahbhchdhehfhghhhihjhkhlhmhnhohphqhrhshthuhvhwhxhyhzhAhBhChDhEhFhGhHhIhJhKhLhMhNhOhPhQhRhShThUhVhWhXhYhZh0h1h2h3h4h5h6h7h8h9h.h+",
"aaabacadaeafagahaiajakalamanaoapaqarasatauavawaxayazaAaBaCaDaEaFaGaHaIaJaKaLaMaNaOaPaQaRaSaTaUaVaWaXaYaZa0a1a2a3a4a5a6a7a8a9a.a+babbbcbdbebfbgbhbibjbkblbmbnbobpbqbrbsbtbubvbwbxbybzbAbBbCbDbEbFbGbHbIbJbKbLbMbNbObPbQbRbSbTbUbVbWbXbYbZb0b1b2b3b4b5b6b7b8b9b.b+cacbcccdcecfcgchcicjckclcmcncocpcqcrcsctcucvcwcxcyczcAcBcCcDcEcFcGcHcIcJcKcLcMcNcOcPcQcRcScTcUcVcWcXcYcZc0c1c2c3c4c5c6c7c8c9c.c+dadbdcdddedfdgdhdidjdkdldmdndodpdqdrdsdtdudvdwdxdydzdAdBdCdDdEdFdGdHdIdJdKdLdMdNdOdPdQdRdSdTdUdVdWdXdYdZd0d1d2d3d4d5d6d7d8d9d.d+eaebecedeeefegeheiejekelemeneoepeqereseteuevewexeyezeAeBeCeDeEeFeGeHeIeJeKeLeMeNeOePeQeReSeTeUeVeWeXeYeZe0e1e2e3e4e5e6e7e8e9e.e+fafbfcfdfefffgfhfifjfkflfmfnfofpfqfrfsftfufvfwfxfyfzfAfBfCfDfEfFfGfHfIfJfKfLfMfNfOfPfQfRfSfTfUfVfWfXfYfZf0f1f2f3f4f5f6f7f8f9f.f+gagbgcgdgegfggghgigjgkglgmgngogpgqgrgsgtgugvgwgxgygzgAgBgCgDgEgFgGgHgIgJgKgLgMgNgOgPgQgRgSgTgUgVgWgXgYgZg0g1g2g3g4g5g6g7g8g9g.g+hahbhchdhehfhghhhihjhkhlhmhnhohphqhrhshthuhvhwhxhyhzhAhBhChDhEhFhGhHhIhJhKhLhMhNhOhPhQhRhShThUhVhWhXhYhZh0h1h2h3h4h5h6h7h8h9h.h+",
"aaabacadaeafagahaiajakalamanaoapaqarasatauavawaxayazaAaBaCaDaEaFaGaHaIaJaKaLaMaNaOaPaQaRaSaTaUaVaWaXaYaZa0a1a2a3a4a5a6a7a8a9a.a+babbbcbdbebfbgbhbibjbkblbmbnbobpbqbrbsbtbubvbwbxbybzbAbBbCbDbEbFbGbHbIbJbKbLbMbNbObPbQbRbSbTbUbVbWbXbYbZb0b1b2b3b4b5b6b7b8b9b.b+cacbcccdcecfcgchcicjckclcmcncocpcqcrcsctcucvcwcxcyczcAcBcCcDcEcFcGcHcIcJcKcLcMcNcOcPcQcRcScTcUcVcWcXcYcZc0c1c2c3c4c5c6c7c8c9c.c+dadbdcdddedfdgdhdidjdkdldmdndodpdqdrdsdtdudvdwdxdydzdAdBdCdDdEdFdGdHdIdJdKdLdMdNdOdPdQdRdSdTdUdVdWdXdYdZd0d1d2d3d4d5d6d7d8d9d.d+eaebecedeeefegeheiejekelemeneoepeqereseteuevewexeyezeAeBeCeDeEeFeGeHeIeJeKeLeMeNeOePeQeReSeTeUeVeWeXeYeZe0e1e2e3e4e5e6e7e8e9e.e+fafbfcfdfefffgfhfifjfkflfmfnfofpfqfrfsftfufvfwfxfyfzfAfBfCfDfEfFfGfHfIfJfKfLfMfNfOfPfQfRfSfTfUfVfWfXfYfZf0f1f2f3f4f5f6f7f8f9f.f+gagbgcgdgegfggghgigjgkglgmgngogpgqgrgsgtgugvgwgxgygzgAgBgCgDgEgFgGgHgIgJgKgLgMgNgOgPgQgRgSgTgUgVgWgXgYgZg0g1g2g3g4g5g6g7g8g9g.g+hahbhchdhehfhghhhihjhkhlhmhnhohphqhrhshthuhvhwhxhyhzhAhBhChDhEhFhGhHhIhJhKhLhMhNhOhPhQhRhShThUhVhWhXhYhZh0h1h2h3h4h5h6h7h8h9h.h+",
"aaabacadaeafagahaiajakalamanaoapaqarasatauavawaxayazaAaBaCaDaEaFaGaHaIaJaKaLaMaNaOaPaQaRaSaTaUaVaWaXaYaZa0a1a2a3a4a5a6a7a8a9a.a+babbbcbdbebfbgbhbibjbkblbmbnbobpbqbrbsbtbubvbwbxbybzbAbBbCbDbEbFbGbHbIbJbKbLbMbNbObPbQbRbSbTbUbVbWbXbYbZb0b1b2b3b4b5b6b7b8b9b.b+cacbcccdcecfcgchcicjckclcmcncocpcqcrcsctcucvcwcxcyczcAcBcCcDcEcFcGcHcIcJcKcLcMcNcOcPcQcRcScTcUcVcWcXcYcZc0c1c2c3c4c5c6c7c8c9c.c+dadbdcdddedfdgdhdidjdkdldmdndodpdqdrdsdtdudvdwdxdydzdAdBdCdDdEdFdGdHdIdJdKdLdMdNdOdPdQdRdSdTdUdVdWdXdYdZd0d1d2d3d4d5d6d7d8d9d.d+eaebecedeeefegeheiejekelemeneoepeqereseteuevewexeyezeAeBeCeDeEeFeGeHeIeJeKeLeMeNeOePeQeReSeTeUeVeWeXeYeZe0e1e2e3e4e5e6e7e8e9e.e+fafbfcfdfefffgfhfifjfkflfmfnfofpfqfrfsftfufvfwfxfyfzfAfBfCfDfEfFfGfHfIfJfKfLfMfNfOfPfQfRfSfTfUfVfWfXfYfZf0f1f2f3f4f5f6f7f8f9f.f+gagbgcgdgegfggghgigjgkglgmgngogpgqgrgsgtgugvgwgxgygzgAgBgCgDgEgFgGgHgIgJgKgLgMgNgOgPgQgRgSgTgUgVgWgXgYgZg0g1g2g3g4g5g6g7g8g9g.g+hahbhchdhehfhghhhihjhkhlhmhnhohphqhrhshthuhvhwhxhyhzhAhBhChDhEhFhGhHhIhJhKhLhMhNhOhPhQhRhShThUhVhWhXhYhZh0h1h2h3h4h5h6h7h8h9h.h+",
"aaabacadaeafagahaiajakalamanaoapaqarasatauavawaxayazaAaBaCaDaEaFaGaHaIaJaKaLaMaNaOaPaQaRaSaTaUaVaWaXaYaZa0a1a2a3a4a5a6a7a8a9a.a+babbbcbdbebfbgbhbibjbkblbmbnbobpbqbrbsbtbubvbwbxbybzbAbBbCbDbEbFbGbHbIbJbKbLbMbNbObPbQbRbSbTbUbVbWbXbYbZb0b1b2b3b4b5b6b7b8b9b.b+cacbcccdcecfcgchcicjckclcmcncocpcqcrcsctcucvcwcxcyczcAcBcCcDcEcFcGcHcIcJcKcLcMcNcOcPcQcRcScTcUcVcWcXcYcZc0c1c2c3c4c5c6c7c8c9c.c+dadbdcdddedfdgdhdidjdkdldmdndodpdqdrdsdtdudvdwdxdydzdAdBdCdDdEdFdGdHdIdJdKdLdMdNdOdPdQdRdSdTdUdVdWdXdYdZd0d1d2d3d4d5d6d7d8d9d.d+eaebecedeeefegeheiejekelemeneoepeqereseteuevewexeyezeAeBeCeDeEeFeGeHeIeJeKeLeMeNeOePeQeReSeTeUeVeWeXeYeZe0e1e2e3e4e5e6e7e8e9e.e+fafbfcfdfefffgfhfifjfkflfmfnfofpfqfrfsftfufvfwfxfyfzfAfBfCfDfEfFfGfHfIfJfKfLfMfNfOfPfQfRfSfTfUfVfWfXfYfZf0f1f2f3f4f5f6f7f8f9f.f+gagbgcgdgegfggghgigjgkglgmgngogpgqgrgsgtgugvgwgxgygzgAgBgCgDgEgFgGgHgIgJgKgLgMgNgOgPgQgRgSgTgUgVgWgXgYgZg0g1g2g3g4g5g6g7g8g9g.g+hahbhchdhehfhghhhihjhkhlhmhnhohphqhrhshthuhvhwhxhyhzhAhBhChDhEhFhGhHhIhJhKhLhMhNhOhPhQhRhShThUhVhWhXhYhZh0h1h2h3h4h5h6h7h8h9h.h+",
"aaabacadaeafagahaiajakalamanaoapaqarasatauavawaxayazaAaBaCaDaEaFaGaHaIaJaKaLaMaNaOaPaQaRaSaTaUaVaWaXaYaZa0a1a2a3a4a5a6a7a8a9a.a+babbbcbdbebfbgbhbibjbkblbmbnbobpbqbrbsbtbubvbwbxbybzbAbBbCbDbEbFbGbHbIbJbKbLbMbNbObPbQbRbSbTbUbVbWbXbYbZb0b1b2b3b4b5b6b7b8b9b.b+cacbcccdcecfcgchcicjckclcmcncocpcqcrcsctcucvcwcxcyczcAcBcCcDcEcFcGcHcIcJcKcLcMcNcOcPcQcRcScTcUcVcWcXcYcZc0c1c2c3c4c5c6c7c8c9c.c+dadbdcdddedfdgdhdidjdkdldmdndodpdqdrdsdtdudvdwdxdydzdAdBdCdDdEdFdGdHdIdJdKdLdMdNdOdPdQdRdSdTdUdVdWdXdYdZd0d1d2d3d4d5d6d7d8d9d.d+eaebecedeeefegeheiejekelemeneoepeqereseteuevewexeyezeAeBeCeDeEeFeGeHeIeJeKeLeMeNeOePeQeReSeTeUeVeWeXeYeZe0e1e2e3e4e5e6e7e8e9e.e+fafbfcfdfefffgfhfifjfkflfmfnfofpfqfrfsftfufvfwfxfyfzfAfBfCfDfEfFfGfHfIfJfKfLfMfNfOfPfQfRfSfTfUfVfWfXfYfZf0f1f2f3f4f5f6f7f8f9f.f+gagbgcgdgegfggghgigjgkglgmgngogpgqgrgsgtgugvgwgxgygzgAgBgCgDgEgFgGgHgIgJgKgLgMgNgOgPgQgRgSgTgUgVgWgXgYgZg0g1g2g3g4g5g6g7g8g9g.g+hahbhchdhehfhghhhihjhkhlhmhnhohphqhrhshthuhvhwhxhyhzhAhBhChDhEhFhGhHhIhJhKhLhMhNhOhPhQhRhShThUhVhWhXhYhZh0h1h2h3h4h5h6h7h8h9h.h+",
"aaabacadaeafagahaiajakalamanaoapaqarasatauavawaxayazaAaBaCaDaEaFaGaHaIaJaKaLaMaNaOaPaQaRaSaTaUaVaWaXaYaZa0a1a2a3a4a5a6a7a8a9a.a+babbbcbdbebfbgbhbibjbkblbmbnbobpbqbrbsbtbubvbwbxbybzbAbBbCbDbEbFbGbHbIbJbKbLbMbNbObPbQbRbSbTbUbVbWbXbYbZb0b1b2b3b4b5b6b7b8b9b.b+cacbcccdcecfcgchcicjckclcmcncocpcqcrcsctcucvcwcxcyczcAcBcCcDcEcFcGcHcIcJcKcLcMcNcOcPcQcRcScTcUcVcWcXcYcZc0c1c2c3c4c5c6c7c8c9c.c+dadbdcdddedfdgdhdidjdkdldmdndodpdqdrdsdtdudvdwdxdydzdAdBdCdDdEdFdGdHdIdJdKdLdMdNdOdPdQdRdSdTdUdVdWdXdYdZd0d1d2d3d4d5d6d7d8d9d.d+eaebecedeeefegeheiejekelemeneoepeqereseteuevewexeyezeAeBeCeDeEeFeGeHeIeJeKeLeMeNeOePeQeReSeTeUeVeWeXeYeZe0e1e2e3e4e5e6e7e8e9e.e+fafbfcfdfefffgfhfifjfkflfmfnfofpfqfrfsftfufvfwfxfyfzfAfBfCfDfEfFfGfHfIfJfKfLfMfNfOfPfQfRfSfTfUfVfWfXfYfZf0f1f2f3f4f5f6f7f8f9f.f+gagbgcgdgegfggghgigjgkglgmgngogpgqgrgsgtgugvgwgxgygzgAgBgCgDgEgFgGgHgIgJgKgLgMgNgOgPgQgRgSgTgUgVgWgXgYgZg0g1g2g3g4g5g6g7g8g9g.g+hahbhchdhehfhghhhihjhkhlhmhnhohphqhrhshthuhvhwhxhyhzhAhBhChDhEhFhGhHhIhJhKhLhMhNhOhPhQhRhShThUhVhWhXhYhZh0h1h2h3h4h5h6h7h8h9h.h+",
"aaabacadaeafagahaiajakalamanaoapaqarasatauavawaxayazaAaBaCaDaEaFaGaHaIaJaKaLaMaNaOaPaQaRaSaTaUaVaWaXaYaZa0a1a2a3a4a5a6a7a8a9a.a+babbbcbdbebfbgbhbibjbkblbmbnbobpbqbrbsbtbubvbwbxbybzbAbBbCbDbEbFbGbHbIbJbKbLbMbNbObPbQbRbSbTbUbVbWbXbYbZb0b1b2b3b4b5b6b7b8b9b.b+cacbcccdcecfcgchcicjckclcmcncocpcqcrcsctcucvcwcxcyczcAcBcCcDcEcFcGcHcIcJcKcLcMcNcOcPcQcRcScTcUcVcWcXcYcZc0c1c2c3c4c5c6c7c8c9c.c+dadbdcdddedfdgdhdidjdkdldmdndodpdqdrdsdtdudvdwdxdydzdAdBdCdDdEdFdGdHdIdJdKdLdMdNdOdPdQdRdSdTdUdVdWdXdYdZd0d1d2d3d4d5d6d7d8d9d.d+eaebecedeeefegeheiejekelemeneoepeqereseteuevewexeyezeAeBeCeDeEeFeGeHeIeJeKeLeMeNeOePeQeReSeTeUeVeWeXeYeZe0e1e2e3e4e5e6e7e8e9e.e+fafbfcfdfefffgfhfifjfkflfmfnfofpfqfrfsftfufvfwfxfyfzfAfBfCfDfEfFfGfHfIfJfKfLfMfNfOfPfQfRfSfTfUfVfWfXfYfZf0f1f2f3f4f5f6f7f8f9f.f+gagbgcgdgegfggghgigjgkglgmgngogpgqgrgsgtgugvgwgxgygzgAgBgCgDgEgFgGgHgIgJgKgLgMgNgOgPgQgRgSgTgUgVgWgXgYgZg0g1g2g3g4g5g6g7g8g9g.g+hahbhchdhehfhghhhihjhkhlhmhnhohphqhrhshthuhvhwhxhyhzhAhBhChDhEhFhGhHhIhJhKhLhMhNhOhPhQhRhShThUhVhWhXhYhZh0h1h2h3h4h5h6h7h8h9h.h+",
"aaabacadaeafagahaiajakalamanaoapaqarasatauavawaxayazaAaBaCaDaEaFaGaHaIaJaKaLaMaNaOaPaQaRaSaTaUaVaWaXaYaZa0a1a2a3a4a5a6a7a8a9a.a+babbbcbdbebfbgbhbibjbkblbmbnbobpbqbrbsbtbubvbwbxbybzbAbBbCbDbEbFbGbHbIbJbKbLbMbNbObPbQbRbSbTbUbVbWbXbYbZb0b1b2b3b4b5b6b7b8b9b.b+cacbcccdcecfcgchcicjckclcmcncocpcqcrcsctcucvcwcxcyczcAcBcCcDcEcFcGcHcIcJcKcLcMcNcOcPcQcRcScTcUcVcWcXcYcZc0c1c2c3c4c5c6c7c8c9c.c+dadbdcdddedfdgdhdidjdkdldmdndodpdqdrdsdtdudvdwdxdydzdAdBdCdDdEdFdGdHdIdJdKdLdMdNdOdPdQdRdSdTdUdVdWdXdYdZd0d1d2d3d4d5d6d7d8d9d.d+eaebecedeeefegeheiejekelemeneoepeqereseteuevewexeyezeAeBeCeDeEeFeGeHeIeJeKeLeMeNeOePeQeReSeTeUeVeWeXeYeZe0e1e2e3e4e5e6e7e8e9e.e+fafbfcfdfefffgfhfifjfkflfmfnfofpfqfrfsftfufvfwfxfyfzfAfBfCfDfEfFfGfHfIfJfKfLfMfNfOfPfQfRfSfTfUfVfWfXfYfZf0f1f2f3f4f5f6f7f8f9f.f+gagbgcgdgegfggghgigjgkglgmgngogpgqgrgsgtgugvgwgxgygzgAgBgCgDgEgFgGgHgIgJgKgLgMgNgOgPgQgRgSgTgUgVgWgXgYgZg0g1g2g3g4g5g6g7g8g9g.g+hahbhchdhehfhghhhihjhkhlhmhnhohphqhrhshthuhvhwhxhyhzhAhBhChDhEhFhGhHhIhJhKhLhMhNhOhPhQhRhShThUhVhWhXhYhZh0h1h2h3h4h5h6h7h8h9h.h+",
"aaabacadaeafagahaiajakalamanaoapaqarasatauavawaxayazaAaBaCaDaEaFaGaHaIaJaKaLaMaNaOaPaQaRaSaTaUaVaWaXaYaZa0a1a2a3a4a5a6a7a8a9a.a+babbbcbdbebfbgbhbibjbkblbmbnbobpbqbrbsbtbubvbwbxbybzbAbBbCbDbEbFbGbHbIbJbKbLbMbNbObPbQbRbSbTbUbVbWbXbYbZb0b1b2b3b4b5b6b7b8b9b.b+cacbcccdcecfcgchcicjckclcmcncocpcqcrcsctcucvcwcxcyczcAcBcCcDcEcFcGcHcIcJcKcLcMcNcOcPcQcRcScTcUcVcWcXcYcZc0c1c2c3c4c5c6c7c8c9c.c+dadbdcdddedfdgdhdidjdkdldmdndodpdqdrdsdtdudvdwdxdydzdAdBdCdDdEdFdGdHdIdJdKdLdMdNdOdPdQdRdSdTdUdVdWdXdYdZd0d1d2d3d4d5d6d7d8d9d.d+eaebecedeeefegeheiejekelemeneoepeqereseteuevewexeyezeAeBeCeDeEeFeGeHeIeJeKeLeMeNeOePeQeReSeTeUeVeWeXeYeZe0e1e2e3e4e5e6e7e8e9e.e+fafbfcfdfefffgfhfifjfkflfmfnfofpfqfrfsftfufvfwfxfyfzfAfBfCfDfEfFfGfHfIfJfKfLfMfNfOfPfQfRfSfTfUfVfWfXfYfZf0f1f2f3f4f5f6f7f8f9f.f+gagbgcgdgegfggghgigjgkglgmgngogpgqgrgsgtgugvgwgxgygzgAgBgCgDgEgFgGgHgIgJgKgLgMgNgOgPgQgRgSgTgUgVgWgXgYgZg0g1g2g3g4g5g6g7g8g9g.g+hahbhchdhehfhghhhihjhkhlhmhnhohphqhrhshthuhvhwhxhyhzhAhBhChDhEhFhGhHhIhJhKhLhMhNhOhPhQhRhShThUhVhWhXhYhZh0h1h2h3h4h5h6h7h8h9h.h+",
"aaabacadaeafagahaiajakalamanaoapaqarasatauavawaxayazaAaBaCaDaEaFaGaHaIaJaKaLaMaNaOaPaQaRaSaTaUaVaWaXaYaZa0a1a2a3a4a5a6a7a8a9a.a+babbbcbdbebfbgbhbibjbkblbmbnbobpbqbrbsbtbubvbwbxbybzbAbBbCbDbEbFbGbHbIbJbKbLbMbNbObPbQbRbSbTbUbVbWbXbYbZb0b1b2b3b4b5b6b7b8b9b.b+cacbcccdcecfcgchcicjckclcmcncocpcqcrcsctcucvcwcxcyczcAcBcCcDcEcFcGcHcIcJcKcLcMcNcOcPcQcRcScTcUcVcWcXcYcZc0c1c2c3c4c5c6c7c8c9c.c+dadbdcdddedfdgdhdidjdkdldmdndodpdqdrdsdtdudvdwdxdydzdAdBdCdDdEdFdGdHdIdJdKdLdMdNdOdPdQdRdSdTdUdVdWdXdYdZd0d1d2d3d4d5d6d7d8d9d.d+eaebecedeeefegeheiejekelemeneoepeqereseteuevewexeyezeAeBeCeDeEeFeGeHeIeJeKeLeMeNeOePeQeReSeTeUeVeWeXeYeZe0e1e2e3e4e5e6e7e8e9e.e+fafbfcfdfefffgfhfifjfkflfmfnfofpfqfrfsftfufvfwfxfyfzfAfBfCfDfEfFfGfHfIfJfKfLfMfNfOfPfQfRfSfTfUfVfWfXfYfZf0f1f2f3f4f5f6f7f8f9f.f+gagbgcgdgegfggghgigjgkglgmgngogpgqgrgsgtgugvgwgxgygzgAgBgCgDgEgFgGgHgIgJgKgLgMgNgOgPgQgRgSgTgUgVgWgXgYgZg0g1g2g3g4g5g6g7g8g9g.g+hahbhchdhehfhghhhihjhkhlhmhnhohphqhrhshthuhvhwhxhyhzhAhBhChDhEhFhGhHhIhJhKhLhMhNhOhPhQhRhShThUhVhWhXhYhZh0h1h2h3h4h5h6h7h8h9h.h+",
"aaabacadaeafagahaiajakalamanaoapaqarasatauavawaxayazaAaBaCaDaEaFaGaHaIaJaKaLaMaNaOaPaQaRaSaTaUaVaWaXaYaZa0a1a2a3a4a5a6a7a8a9a.a+babbbcbdbebfbgbhbibjbkblbmbnbobpbqbrbsbtbubvbwbxbybzbAbBbCbDbEbFbGbHbIbJbKbLbMbNbObPbQbRbSbTbUbVbWbXbYbZb0b1b2b3b4b5b6b7b8b9b.b+cacbcccdcecfcgchcicjckclcmcncocpcqcrcsctcucvcwcxcyczcAcBcCcDcEcFcGcHcIcJcKcLcMcNcOcPcQcRcScTcUcVcWcXcYcZc0c1c2c3c4c5c6c7c8c9c.c+dadbdcdddedfdgdhdidjdkdldmdndodpdqdrdsdtdudvdwdxdydzdAdBdCdDdEdFdGdHdIdJdKdLdMdNdOdPdQdRdSdTdUdVdWdXdYdZd0d1d2d3d4d5d6d7d8d9d.d+eaebecedeeefegeheiejekelemeneoepeqereseteuevewexeyezeAeBeCeDeEeFeGeHeIeJeKeLeMeNeOePeQeReSeTeUeVeWeXeYeZe0e1e2e3e4e5e6e7e8e9e.e+fafbfcfdfefffgfhfifjfkflfmfnfofpfqfrfsftfufvfwfxfyfzfAfBfCfDfEfFfGfHfIfJfKfLfMfNfOfPfQfRfSfTfUfVfWfXfYfZf0f1f2f3f4f5f6f7f8f9f.f+gagbgcgdgegfggghgigjgkglgmgngogpgqgrgsgtgugvgwgxgygzgAgBgCgDgEgFgGgHgIgJgKgLgMgNgOgPgQgRgSgTgUgVgWgXgYgZg0g1g2g3g4g5g6g7g8g9g.g+hahbhchdhehfhghhhihjhkhlhmhnhohphqhrhshthuhvhwhxhyhzhAhBhChDhEhFhGhHhIhJhKhLhMhNhOhPhQhRhShThUhVhWhXhYhZh0h1h2h3h4h5h6h7h8h9h.h+",
"aaabacadaeafagahaiajakalamanaoapaqarasatauavawaxayazaAaBaCaDaEaFaGaHaIaJaKaLaMaNaOaPaQaRaSaTaUaVaWaXaYaZa0a1a2a3a4a5a6a7a8a9a.a+babbbcbdbebfbgbhbibjbkblbmbnbobpbqbrbsbtbubvbwbxbybzbAbBbCbDbEbFbGbHbIbJbKbLbMbNbObPbQbRbSbTbUbVbWbXbYbZb0b1b2b3b4b5b6b7b8b9b.b+cacbcccdcecfcgchcicjckclcmcncocpcqcrcsctcucvcwcxcyczcAcBcCcDcEcFcGcHcIcJcKcLcMcNcOcPcQcRcScTcUcVcWcXcYcZc0c1c2c3c4c5c6c7c8c9c.c+dadbdcdddedfdgdhdidjdkdldmdndodpdqdrdsdtdudvdwdxdydzdAdBdCdDdEdFdGdHdIdJdKdLdMdNdOdPdQdRdSdTdUdVdWdXdYdZd0d1d2d3d4d5d6d7d8d9d.d+eaebecedeeefegeheiejekelemeneoepeqereseteuevewexeyezeAeBeCeDeEeFeGeHeIeJeKeLeMeNeOePeQeReSeTeUeVeWeXeYeZe0e1e2e3e4e5e6e7e8e9e.e+fafbfcfdfefffgfhfifjfkflfmfnfofpfqfrfsftfufvfwfxfyfzfAfBfCfDfEfFfGfHfIfJfKfLfMfNfOfPfQfRfSfTfUfVfWfXfYfZf0f1f2f3f4f5f6f7f8f9f.f+gagbgcgdgegfggghgigjgkglgmgngogpgqgrgsgtgugvgwgxgygzgAgBgCgDgEgFgGgHgIgJgKgLgMgNgOgPgQgRgSgTgUgVgWgXgYgZg0g1g2g3g4g5g6g7g8g9g.g+hahbhchdhehfhghhhihjhkhlhmhnhohphqhrhshthuhvhwhxhyhzhAhBhChDhEhFhGhHhIhJhKhLhMhNhOhPhQhRhShThUhVhWhXhYhZh0h1h2h3h4h5h6h7h8h9h.h+",
"aaabacadaeafagahaiajakalamanaoapaqarasatauavawaxayazaAaBaCaDaEaFaGaHaIaJaKaLaMaNaOaPaQaRaSaTaUaVaWaXaYaZa0a1a2a3a4a5a6a7a8a9a.a+babbbcbdbebfbgbhbibjbkblbmbnbobpbqbrbsbtbubvbwbxbybzbAbBbCbDbEbFbGbHbIbJbKbLbMbNbObPbQbRbSbTbUbVbWbXbYbZb0b1b2b3b4b5b6b7b8b9b.b+cacbcccdcecfcgchcicjckclcmcncocpcqcrcsctcucvcwcxcyczcAcBcCcDcEcFcGcHcIcJcKcLcMcNcOcPcQcRcScTcUcVcWcXcYcZc0c1c2c3c4c5c6c7c8c9c.c+dadbdcdddedfdgdhdidjdkdldmdndodpdqdrdsdtdudvdwdxdydzdAdBdCdDdEdFdGdHdIdJdKdLdMdNdOdPdQdRdSdTdUdVdWdXdYdZd0d1d2d3d4d5d6d7d8d9d.d+eaebecedeeefegeheiejekelemeneoepeqereseteuevewexeyezeAeBeCeDeEeFeGeHeIeJeKeLeMeNeOePeQeReSeTeUeVeWeXeYeZe0e1e2e3e4e5e6e7e8e9e.e+fafbfcfdfefffgfhfifjfkflfmfnfofpfqfrfsftfufvfwfxfyfzfAfBfCfDfEfFfGfHfIfJfKfLfMfNfOfPfQfRfSfTfUfVfWfXfYfZf0f1f2f3f4f5f6f7f8f9f.f+gagbgcgdgegfggghgigjgkglgmgngogpgqgrgsgtgugvgwgxgygzgAgBgCgDgEgFgGgHgIgJgKgLgMgNgOgPgQgRgSgTgUgVgWgXgYgZg0g1g2g3g4g5g6g7g8g9g.g+hahbhchdhehfhghhhihjhkhlhmhnhohphqhrhshthuhvhwhxhyhzhAhBhChDhEhFhGhHhIhJhKhLhMhNhOhPhQhRhShThUhVhWhXhYhZh0h1h2h3h4h5h6h7h8h9h.h+",
"aaabacadaeafagahaiajakalamanaoapaqarasatauavawaxayazaAaBaCaDaEaFaGaHaIaJaKaLaMaNaOaPaQaRaSaTaUaVaWaXaYaZa0a1a2a3a4a5a6a7a8a9a.a+babbbcbdbebfbgbhbibjbkblbmbnbobpbqbrbsbtbubvbwbxbybzbAbBbCbDbEbFbGbHbIbJbKbLbMbNbObPbQbRbSbTbUbVbWbXbYbZb0b1b2b3b4b5b6b7b8b9b.b+cacbcccdcecfcgchcicjckclcmcncocpcqcrcsctcucvcwcxcyczcAcBcCcDcEcFcGcHcIcJcKcLcMcNcOcPcQcRcScTcUcVcWcXcYcZc0c1c2c3c4c5c6c7c8c9c.c+dadbdcdddedfdgdhdidjdkdldmdndodpdqdrdsdtdudvdwdxdydzdAdBdCdDdEdFdGdHdIdJdKdLdMdNdOdPdQdRdSdTdUdVdWdXdYdZd0d1d2d3d4d5d6d7d8d9d.d+eaebecedeeefegeheiejekelemeneoepeqereseteuevewexeyezeAeBeCeDeEeFeGeHeIeJeKeLeMeNeOePeQeReSeTeUeVeWeXeYeZe0e1e2e3e4e5e6e7e8e9e.e+fafbfcfdfefffgfhfifjfkflfmfnfofpfqfrfsftfufvfwfxfyfzfAfBfCfDfEfFfGfHfIfJfKfLfMfNfOfPfQfRfSfTfUfVfWfXfYfZf0f1f2f3f4f5f6f7f8f9f.f+gagbgcgdgegfggghgigjgkglgmgngogpgqgrgsgtgugvgwgxgygzgAgBgCgDgEgFgGgHgIgJgKgLgMgNgOgPgQgRgSgTgUgVgWgXgYgZg0g1g2g3g4g5g6g7g8g9g.g+hahbhchdhehfhghhhihjhkhlhmhnhohphqhrhshthuhvhwhxhyhzhAhBhChDhEhFhGhHhIhJhKhLhMhNhOhPhQhRhShThUhVhWhXhYhZh0h1h2h3h4h5h6h7h8h9h.h+",
"aaabacadaeafagahaiajakalamanaoapaqarasatauavawaxayazaAaBaCaDaEaFaGaHaIaJaKaLaMaNaOaPaQaRaSaTaUaVaWaXaYaZa0a1a2a3a4a5a6a7a8a9a.a+babbbcbdbebfbgbhbibjbkblbmbnbobpbqbrbsbtbubvbwbxbybzbAbBbCbDbEbFbGbHbIbJbKbLbMbNbObPbQbRbSbTbUbVbWbXbYbZb0b1b2b3b4b5b6b7b8b9b.b+cacbcccdcecfcgchcicjckclcmcncocpcqcrcsctcucvcwcxcyczcAcBcCcDcEcFcGcHcIcJcKcLcMcNcOcPcQcRcScTcUcVcWcXcYcZc0c1c2c3c4c5c6c7c8c9c.c+dadbdcdddedfdgdhdidjdkdldmdndodpdqdrdsdtdudvdwdxdydzdAdBdCdDdEdFdGdHdIdJdKdLdMdNdOdPdQdRdSdTdUdVdWdXdYdZd0d1d2d3d4d5d6d7d8d9d.d+eaebecedeeefegeheiejekelemeneoepeqereseteuevewexeyezeAeBeCeDeEeFeGeHeIeJeKeLeMeNeOePeQeReSeTeUeVeWeXeYeZe0e1e2e3e4e5e6e7e8e9e.e+fafbfcfdfefffgfhfifjfkflfmfnfofpfqfrfsftfufvfwfxfyfzfAfBfCfDfEfFfGfHfIfJfKfLfMfNfOfPfQfRfSfTfUfVfWfXfYfZf0f1f2f3f4f5f6f7f8f9f.f+gagbgcgdgegfggghgigjgkglgmgngogpgqgrgsgtgugvgwgxgygzgAgBgCgDgEgFgGgHgIgJgKgLgMgNgOgPgQgRgSgTgUgVgWgXgYgZg0g1g2g3g4g5g6g7g8g9g.g+hahbhchdhehfhghhhihjhkhlhmhnhohphqhrhshthuhvhwhxhyhzhAhBhChDhEhFhGhHhIhJhKhLhMhNhOhPhQhRhShThUhVhWhXhYhZh0h1h2h3h4h5h6h7h8h9h.h+",
"aaabacadaeafagahaiajakalamanaoapaqarasatauavawaxayazaAaBaCaDaEaFaGaHaIaJaKaLaMaNaOaPaQaRaSaTaUaVaWaXaYaZa0a1a2a3a4a5a6a7a8a9a.a+babbbcbdbebfbgbhbibjbkblbmbnbobpbqbrbsbtbubvbwbxbybzbAbBbCbDbEbFbGbHbIbJbKbLbMbNbObPbQbRbSbTbUbVbWbXbYbZb0b1b2b3b4b5b6b7b8b9b.b+cacbcccdcecfcgchcicjckclcmcncocpcqcrcsctcucvcwcxcyczcAcBcCcDcEcFcGcHcIcJcKcLcMcNcOcPcQcRcScTcUcVcWcXcYcZc0c1c2c3c4c5c6c7c8c9c.c+dadbdcdddedfdgdhdidjdkdldmdndodpdqdrdsdtdudvdwdxdydzdAdBdCdDdEdFdGdHdIdJdKdLdMdNdOdPdQdRdSdTdUdVdWdXdYdZd0d1d2d3d4d5d6d7d8d9d.d+eaebecedeeefegeheiejekelemeneoepeqereseteuevewexeyezeAeBeCeDeEeFeGeHeIeJeKeLeMeNeOePeQeReSeTeUeVeWeXeYeZe0e1e2e3e4e5e6e7e8e9e.e+fafbfcfdfefffgfhfifjfkflfmfnfofpfqfrfsftfufvfwfxfyfzfAfBfCfDfEfFfGfHfIfJfKfLfMfNfOfPfQfRfSfTfUfVfWfXfYfZf0f1f2f3f4f5f6f7f8f9f.f+gagbgcgdgegfggghgigjgkglgmgngogpgqgrgsgtgugvgwgxgygzgAgBgCgDgEgFgGgHgIgJgKgLgMgNgOgPgQgRgSgTgUgVgWgXgYgZg0g1g2g3g4g5g6g7g8g9g.g+hahbhchdhehfhghhhihjhkhlhmhnhohphqhrhshthuhvhwhxhyhzhAhBhChDhEhFhGhHhIhJhKhLhMhNhOhPhQhRhShThUhVhWhXhYhZh0h1h2h3h4h5h6h7h8h9h.h+",
"aaabacadaeafagahaiajakalamanaoapaqarasatauavawaxayazaAaBaCaDaEaFaGaHaIaJaKaLaMaNaOaPaQaRaSaTaUaVaWaXaYaZa0a1a2a3a4a5a6a7a8a9a.a+babbbcbdbebfbgbhbibjbkblbmbnbobpbqbrbsbtbubvbwbxbybzbAbBbCbDbEbFbGbHbIbJbKbLbMbNbObPbQbRbSbTbUbVbWbXbYbZb0b1b2b3b4b5b6b7b8b9b.b+cacbcccdcecfcgchcicjckclcmcncocpcqcrcsctcucvcwcxcyczcAcBcCcDcEcFcGcHcIcJcKcLcMcNcOcPcQcRcScTcUcVcWcXcYcZc0c1c2c3c4c5c6c7c8c9c.c+dadbdcdddedfdgdhdidjdkdldmdndodpdqdrdsdtdudvdwdxdydzdAdBdCdDdEdFdGdHdIdJdKdLdMdNdOdPdQdRdSdTdUdVdWdXdYdZd0d1d2d3d4d5d6d7d8d9d.d+eaebecedeeefegeheiejekelemeneoepeqereseteuevewexeyezeAeBeCeDeEeFeGeHeIeJeKeLeMeNeOePeQeReSeTeUeVeWeXeYeZe0e1e2e3e4e5e6e7e8e9e.e+fafbfcfdfefffgfhfifjfkflfmfnfofpfqfrfsftfufvfwfxfyfzfAfBfCfDfEfFfGfHfIfJfKfLfMfNfOfPfQfRfSfTfUfVfWfXfYfZf0f1f2f3f4f5f6f7f8f9f.f+gagbgcgdgegfggghgigjgkglgmgngogpgqgrgsgtgugvgwgxgygzgAgBgCgDgEgFgGgHgIgJgKgLgMgNgOgPgQgRgSgTgUgVgWgXgYgZg0g1g2g3g4g5g6g7g8g9g.g+hahbhchdhehfhghhhihjhkhlhmhnhohphqhrhshthuhvhwhxhyhzhAhBhChDhEhFhGhHhIhJhKhLhMhNhOhPhQhRhShThUhVhWhXhYhZh0h1h2h3h4h5h6h7h8h9h.h+",
"aaabacadaeafagahaiajakalamanaoapaqarasatauavawaxayazaAaBaCaDaEaFaGaHaIaJaKaLaMaNaOaPaQaRaSaTaUaVaWaXaYaZa0a1a2a3a4a5a6a7a8a9a.a+babbbcbdbebfbgbhbibjbkblbmbnbobpbqbrbsbtbubvbwbxbybzbAbBbCbDbEbFbGbHbIbJbKbLbMbNbObPbQbRbSbTbUbVbWbXbYbZb0b1b2b3b4b5b6b7b8b9b.b+cacbcccdcecfcgchcicjckclcmcncocpcqcrcsctcucvcwcxcyczcAcBcCcDcEcFcGcHcIcJcKcLcMcNcOcPcQcRcScTcUcVcWcXcYcZc0c1c2c3c4c5c6c7c8c9c.c+dadbdcdddedfdgdhdidjdkdldmdndodpdqdrdsdtdudvdwdxdydzdAdBdCdDdEdFdGdHdIdJdKdLdMdNdOdPdQdRdSdTdUdVdWdXdYdZd0d1d2d3d4d5d6d7d8d9d.d+eaebecedeeefegeheiejekelemeneoepeqereseteuevewexeyezeAeBeCeDeEeFeGeHeIeJeKeLeMeNeOePeQeReSeTeUeVeWeXeYeZe0e1e2e3e4e5e6e7e8e9e.e+fafbfcfdfefffgfhfifjfkflfmfnfofpfqfrfsftfufvfwfxfyfzfAfBfCfDfEfFfGfHfIfJfKfLfMfNfOfPfQfRfSfTfUfVfWfXfYfZf0f1f2f3f4f5f6f7f8f9f.f+gagbgcgdgegfggghgigjgkglgmgngogpgqgrgsgtgugvgwgxgygzgAgBgCgDgEgFgGgHgIgJgKgLgMgNgOgPgQgRgSgTgUgVgWgXgYgZg0g1g2g3g4g5g6g7g8g9g.g+hahbhchdhehfhghhhihjhkhlhmhnhohphqhrhshthuhvhwhxhyhzhAhBhChDhEhFhGhHhIhJhKhLhMhNhOhPhQhRhShThUhVhWhXhYhZh0h1h2h3h4h5h6h7h8h9h.h+",
"aaabacadaeafagahaiajakalamanaoapaqarasatauavawaxayazaAaBaCaDaEaFaGaHaIaJaKaLaMaNaOaPaQaRaSaTaUaVaWaXaYaZa0a1a2a3a4a5a6a7a8a9a.a+babbbcbdbebfbgbhbibjbkblbmbnbobpbqbrbsbtbubvbwbxbybzbAbBbCbDbEbFbGbHbIbJbKbLbMbNbObPbQbRbSbTbUbVbWbXbYbZb0b1b2b3b4b5b6b7b8b9b.b+cacbcccdcecfcgchcicjckclcmcncocpcqcrcsctcucvcwcxcyczcAcBcCcDcEcFcGcHcIcJcKcLcMcNcOcPcQcRcScTcUcVcWcXcYcZc0c1c2c3c4c5c6c7c8c9c.c+dadbdcdddedfdgdhdidjdkdldmdndodpdqdrdsdtdudvdwdxdydzdAdBdCdDdEdFdGdHdIdJdKdLdMdNdOdPdQdRdSdTdUdVdWdXdYdZd0d1d2d3d4d5d6d7d8d9d.d+eaebecedeeefegeheiejekelemeneoepeqereseteuevewexeyezeAeBeCeDeEeFeGeHeIeJeKeLeMeNeOePeQeReSeTeUeVeWeXeYeZe0e1e2e3e4e5e6e7e8e9e.e+fafbfcfdfefffgfhfifjfkflfmfnfofpfqfrfsftfufvfwfxfyfzfAfBfCfDfEfFfGfHfIfJfKfLfMfNfOfPfQfRfSfTfUfVfWfXfYfZf0f1f2f3f4f5f6f7f8f9f.f+gagbgcgdgegfggghgigjgkglgmgngogpgqgrgsgtgugvgwgxgygzgAgBgCgDgEgFgGgHgIgJgKgLgMgNgOgPgQgRgSgTgUgVgWgXgYgZg0g1g2g3g4g5g6g7g8g9g.g+hahbhchdhehfhghhhihjhkhlhmhnhohphqhrhshthuhvhwhxhyhzhAhBhChDhEhFhGhHhIhJhKhLhMhNhOhPhQhRhShThUhVhWhXhYhZh0h1h2h3h4h5h6h7h8h9h.h+",
"aaabacadaeafagahaiajakalamanaoapaqarasatauavawaxayazaAaBaCaDaEaFaGaHaIaJaKaLaMaNaOaPaQaRaSaTaUaVaWaXaYaZa0a1a2a3a4a5a6a7a8a9a.a+babbbcbdbebfbgbhbibjbkblbmbnbobpbqbrbsbtbubvbwbxbybzbAbBbCbDbEbFbGbHbIbJbKbLbMbNbObPbQbRbSbTbUbVbWbXbYbZb0b1b2b3b4b5b6b7b8b9b.b+cacbcccdcecfcgchcicjckclcmcncocpcqcrcsctcucvcwcxcyczcAcBcCcDcEcFcGcHcIcJcKcLcMcNcOcPcQcRcScTcUcVcWcXcYcZc0c1c2c3c4c5c6c7c8c9c.c+dadbdcdddedfdgdhdidjdkdldmdndodpdqdrdsdtdudvdwdxdydzdAdBdCdDdEdFdGdHdIdJdKdLdMdNdOdPdQdRdSdTdUdVdWdXdYdZd0d1d2d3d4d5d6d7d8d9d.d+eaebecedeeefegeheiejekelemeneoepeqereseteuevewexeyezeAeBeCeDeEeFeGeHeIeJeKeLeMeNeOePeQeReSeTeUeVeWeXeYeZe0e1e2e3e4e5e6e7e8e9e.e+fafbfcfdfefffgfhfifjfkflfmfnfofpfqfrfsftfufvfwfxfyfzfAfBfCfDfEfFfGfHfIfJfKfLfMfNfOfPfQfRfSfTfUfVfWfXfYfZf0f1f2f3f4f5f6f7f8f9f.f+gagbgcgdgegfggghgigjgkglgmgngogpgqgrgsgtgugvgwgxgygzgAgBgCgDgEgFgGgHgIgJgKgLgMgNgOgPgQgRgSgTgUgVgWgXgYgZg0g1g2g3g4g5g6g7g8g9g.g+hahbhchdhehfhghhhihjhkhlhmhnhohphqhrhshthuhvhwhxhyhzhAhBhChDhEhFhGhHhIhJhKhLhMhNhOhPhQhRhShThUhVhWhXhYhZh0h1h2h3h4h5h6h7h8h9h.h+",
"aaabacadaeafagahaiajakalamanaoapaqarasatauavawaxayazaAaBaCaDaEaFaGaHaIaJaKaLaMaNaOaPaQaRaSaTaUaVaWaXaYaZa0a1a2a3a4a5a6a7a8a9a.a+babbbcbdbebfbgbhbibjbkblbmbnbobpbqbrbsbtbubvbwbxbybzbAbBbCbDbEbFbGbHbIbJbKbLbMbNbObPbQbRbSbTbUbVbWbXbYbZb0b1b2b3b4b5b6b7b8b9b.b+cacbcccdcecfcgchcicjckclcmcncocpcqcrcsctcucvcwcxcyczcAcBcCcDcEcFcGcHcIcJcKcLcMcNcOcPcQcRcScTcUcVcWcXcYcZc0c1c2c3c4c5c6c7c8c9c.c+dadbdcdddedfdgdhdidjdkdldmdndodpdqdrdsdtdudvdwdxdydzdAdBdCdDdEdFdGdHdIdJdKdLdMdNdOdPdQdRdSdTdUdVdWdXdYdZd0d1d2d3d4d5d6d7d8d9d.d+eaebecedeeefegeheiejekelemeneoepeqereseteuevewexeyezeAeBeCeDeEeFeGeHeIeJeKeLeMeNeOePeQeReSeTeUeVeWeXeYeZe0e1e2e3e4e5e6e7e8e9e.e+fafbfcfdfefffgfhfifjfkflfmfnfofpfqfrfsftfufvfwfxfyfzfAfBfCfDfEfFfGfHfIfJfKfLfMfNfOfPfQfRfSfTfUfVfWfXfYfZf0f1f2f3f4f5f6f7f8f9f.f+gagbgcgdgegfggghgigjgkglgmgngogpgqgrgsgtgugvgwgxgygzgAgBgCgDgEgFgGgHgIgJgKgLgMgNgOgPgQgRgSgTgUgVgWgXgYgZg0g1g2g3g4g5g6g7g8g9g.g+hahbhchdhehfhghhhihjhkhlhmhnhohphqhrhshthuhvhwhxhyhzhAhBhChDhEhFhGhHhIhJhKhLhMhNhOhPhQhRhShThUhVhWhXhYhZh0h1h2h3h4h5h6h7h8h9h.h+",
"aaabacadaeafagahaiajakalamanaoapaqarasatauavawaxayazaAaBaCaDaEaFaGaHaIaJaKaLaMaNaOaPaQaRaSaTaUaVaWaXaYaZa0a1a2a3a4a5a6a7a8a9a.a+babbbcbdbebfbgbhbibjbkblbmbnbobpbqbrbsbtbubvbwbxbybzbAbBbCbDbEbFbGbHbIbJbKbLbMbNbObPbQbRbSbTbUbVbWbXbYbZb0b1b2b3b4b5b6b7b8b9b.b+cacbcccdcecfcgchcicjckclcmcncocpcqcrcsctcucvcwcxcyczcAcBcCcDcEcFcGcHcIcJcKcLcMcNcOcPcQcRcScTcUcVcWcXcYcZc0c1c2c3c4c5c6c7c8c9c.c+dadbdcdddedfdgdhdidjdkdldmdndodpdqdrdsdtdudvdwdxdydzdAdBdCdDdEdFdGdHdIdJdKdLdMdNdOdPdQdRdSdTdUdVdWdXdYdZd0d1d2d3d4d5d6d7d8d9d.d+eaebecedeeefegeheiejekelemeneoepeqereseteuevewexeyezeAeBeCeDeEeFeGeHeIeJeKeLeMeNeOePeQeReSeTeUeVeWeXeYeZe0e1e2e3e4e5e6e7e8e9e.e+fafbfcfdfefffgfhfifjfkflfmfnfofpfqfrfsftfufvfwfxfyfzfAfBfCfDfEfFfGfHfIfJfKfLfMfNfOfPfQfRfSfTfUfVfWfXfYfZf0f1f2f3f4f5f6f7f8f9f.f+gagbgcgdgegfggghgigjgkglgmgngogpgqgrgsgtgugvgwgxgygzgAgBgCgDgEgFgGgHgIgJgKgLgMgNgOgPgQgRgSgTgUgVgWgXgYgZg0g1g2g3g4g5g6g7g8g9g.g+hahbhchdhehfhghhhihjhkhlhmhnhohphqhrhshthuhvhwhxhyhzhAhBhChDhEhFhGhHhIhJhKhLhMhNhOhPhQhRhShThUhVhWhXhYhZh0h1h2h3h4h5h6h7h8h9h.h+",
"aaabacadaeafagahaiajakalamanaoapaqarasatauavawaxayazaAaBaCaDaEaFaGaHaIaJaKaLaMaNaOaPaQaRaSaTaUaVaWaXaYaZa0a1a2a3a4a5a6a7a8a9a.a+babbbcbdbebfbgbhbibjbkblbmbnbobpbqbrbsbtbubvbwbxbybzbAbBbCbDbEbFbGbHbIbJbKbLbMbNbObPbQbRbSbTbUbVbWbXbYbZb0b1b2b3b4b5b6b7b8b9b.b+cacbcccdcecfcgchcicjckclcmcncocpcqcrcsctcucvcwcxcyczcAcBcCcDcEcFcGcHcIcJcKcLcMcNcOcPcQcRcScTcUcVcWcXcYcZc0c1c2c3c4c5c6c7c8c9c.c+dadbdcdddedfdgdhdidjdkdldmdndodpdqdrdsdtdudvdwdxdydzdAdBdCdDdEdFdGdHdIdJdKdLdMdNdOdPdQdRdSdTdUdVdWdXdYdZd0d1d2d3d4d5d6d7d8d9d.d+eaebecedeeefegeheiejekelemeneoepeqereseteuevewexeyezeAeBeCeDeEeFeGeHeIeJeKeLeMeNeOePeQeReSeTeUeVeWeXeYeZe0e1e2e3e4e5e6e7e8e9e.e+fafbfcfdfefffgfhfifjfkflfmfnfofpfqfrfsftfufvfwfxfyfzfAfBfCfDfEfFfGfHfIfJfKfLfMfNfOfPfQfRfSfTfUfVfWfXfYfZf0f1f2f3f4f5f6f7f8f9f.f+gagbgcgdgegfggghgigjgkglgmgngogpgqgrgsgtgugvgwgxgygzgAgBgCgDgEgFgGgHgIgJgKgLgMgNgOgPgQgRgSgTgUgVgWgXgYgZg0g1g2g3g4g5g6g7g8g9g.g+hahbhchdhehfhghhhihjhkhlhmhnhohphqhrhshthuhvhwhxhyhzhAhBhChDhEhFhGhHhIhJhKhLhMhNhOhPhQhRhShThUhVhWhXhYhZh0h1h2h3h4h5h6h7h8h9h.h+",
"aaabacadaeafagahaiajakalamanaoapaqarasatauavawaxayazaAaBaCaDaEaFaGaHaIaJaKaLaMaNaOaPaQaRaSaTaUaVaWaXaYaZa0a1a2a3a4a5a6a7a8a9a.a+babbbcbdbebfbgbhbibjbkblbmbnbobpbqbrbsbtbubvbwbxbybzbAbBbCbDbEbFbGbHbIbJbKbLbMbNbObPbQbRbSbTbUbVbWbXbYbZb0b1b2b3b4b5b6b7b8b9b.b+cacbcccdcecfcgchcicjckclcmcncocpcqcrcsctcucvcwcxcyczcAcBcCcDcEcFcGcHcIcJcKcLcMcNcOcPcQcRcScTcUcVcWcXcYcZc0c1c2c3c4c5c6c7c8c9c.c+dadbdcdddedfdgdhdidjdkdldmdndodpdqdrdsdtdudvdwdxdydzdAdBdCdDdEdFdGdHdIdJdKdLdMdNdOdPdQdRdSdTdUdVdWdXdYdZd0d1d2d3d4d5d6d7d8d9d.d+eaebecedeeefegeheiejekelemeneoepeqereseteuevewexeyezeAeBeCeDeEeFeGeHeIeJeKeLeMeNeOePeQeReSeTeUeVeWeXeYeZe0e1e2e3e4e5e6e7e8e9e.e+fafbfcfdfefffgfhfifjfkflfmfnfofpfqfrfsftfufvfwfxfyfzfAfBfCfDfEfFfGfHfIfJfKfLfMfNfOfPfQfRfSfTfUfVfWfXfYfZf0f1f2f3f4f5f6f7f8f9f.f+gagbgcgdgegfggghgigjgkglgmgngogpgqgrgsgtgugvgwgxgygzgAgBgCgDgEgFgGgHgIgJgKgLgMgNgOgPgQgRgSgTgUgVgWgXgYgZg0g1g2g3g4g5g6g7g8g9g.g+hahbhchdhehfhghhhihjhkhlhmhnhohphqhrhshthuhvhwhxhyhzhAhBhChDhEhFhGhHhIhJhKhLhMhNhOhPhQhRhShThUhVhWhXhYhZh0h1h2h3h4h5h6h7h8h9h.h+",
"aaabacadaeafagahaiajakalamanaoapaqarasatauavawaxayazaAaBaCaDaEaFaGaHaIaJaKaLaMaNaOaPaQaRaSaTaUaVaWaXaYaZa0a1a2a3a4a5a6a7a8a9a.a+babbbcbdbebfbgbhbibjbkblbmbnbobpbqbrbsbtbubvbwbxbybzbAbBbCbDbEbFbGbHbIbJbKbLbMbNbObPbQbRbSbTbUbVbWbXbYbZb0b1b2b3b4b5b6b7b8b9b.b+cacbcccdcecfcgchcicjckclcmcncocpcqcrcsctcucvcwcxcyczcAcBcCcDcEcFcGcHcIcJcKcLcMcNcOcPcQcRcScTcUcVcWcXcYcZc0c1c2c3c4c5c6c7c8c9c.c+dadbdcdddedfdgdhdidjdkdldmdndodpdqdrdsdtdudvdwdxdydzdAdBdCdDdEdFdGdHdIdJdKdLdMdNdOdPdQdRdSdTdUdVdWdXdYdZd0d1d2d3d4d5d6d7d8d9d.d+eaebecedeeefegeheiejekelemeneoepeqereseteuevewexeyezeAeBeCeDeEeFeGeHeIeJeKeLeMeNeOePeQeReSeTeUeVeWeXeYeZe0e1e2e3e4e5e6e7e8e9e.e+fafbfcfdfefffgfhfifjfkflfmfnfofpfqfrfsftfufvfwfxfyfzfAfBfCfDfEfFfGfHfIfJfKfLfMfNfOfPfQfRfSfTfUfVfWfXfYfZf0f1f2f3f4f5f6f7f8f9f.f+gagbgcgdgegfggghgigjgkglgmgngogpgqgrgsgtgugvgwgxgygzgAgBgCgDgEgFgGgHgIgJgKgLgMgNgOgPgQgRgSgTgUgVgWgXgYgZg0g1g2g3g4g5g6g7g8g9g.g+hahbhchdhehfhghhhihjhkhlhmhnhohphqhrhshthuhvhwhxhyhzhAhBhChDhEhFhGhHhIhJhKhLhMhNhOhPhQhRhShThUhVhWhXhYhZh0h1h2h3h4h5h6h7h8h9h.h+",
"aaabacadaeafagahaiajakalamanaoapaqarasatauavawaxayazaAaBaCaDaEaFaGaHaIaJaKaLaMaNaOaPaQaRaSaTaUaVaWaXaYaZa0a1a2a3a4a5a6a7a8a9a.a+babbbcbdbebfbgbhbibjbkblbmbnbobpbqbrbsbtbubvbwbxbybzbAbBbCbDbEbFbGbHbIbJbKbLbMbNbObPbQbRbSbTbUbVbWbXbYbZb0b1b2b3b4b5b6b7b8b9b.b+cacbcccdcecfcgchcicjckclcmcncocpcqcrcsctcucvcwcxcyczcAcBcCcDcEcFcGcHcIcJcKcLcMcNcOcPcQcRcScTcUcVcWcXcYcZc0c1c2c3c4c5c6c7c8c9c.c+dadbdcdddedfdgdhdidjdkdldmdndodpdqdrdsdtdudvdwdxdydzdAdBdCdDdEdFdGdHdIdJdKdLdMdNdOdPdQdRdSdTdUdVdWdXdYdZd0d1d2d3d4d5d6d7d8d9d.d+eaebecedeeefegeheiejekelemeneoepeqereseteuevewexeyezeAeBeCeDeEeFeGeHeIeJeKeLeMeNeOePeQeReSeTeUeVeWeXeYeZe0e1e2e3e4e5e6e7e8e9e.e+fafbfcfdfefffgfhfifjfkflfmfnfofpfqfrfsftfufvfwfxfyfzfAfBfCfDfEfFfGfHfIfJfKfLfMfNfOfPfQfRfSfTfUfVfWfXfYfZf0f1f2f3f4f5f6f7f8f9f.f+gagbgcgdgegfggghgigjgkglgmgngogpgqgrgsgtgugvgwgxgygzgAgBgCgDgEgFgGgHgIgJgKgLgMgNgOgPgQgRgSgTgUgVgWgXgYgZg0g1g2g3g4g5g6g7g8g9g.g+hahbhchdhehfhghhhihjhkhlhmhnhohphqhrhshthuhvhwhxhyhzhAhBhChDhEhFhGhHhIhJhKhLhMhNhOhPhQhRhShThUhVhWhXhYhZh0h1h2h3h4h5h6h7h8h9h.h+",
"aaabacadaeafagahaiajakalamanaoapaqarasatauavawaxayazaAaBaCaDaEaFaGaHaIaJaKaLaMaNaOaPaQaRaSaTaUaVaWaXaYaZa0a1a2a3a4a5a6a7a8a9a.a+babbbcbdbebfbgbhbibjbkblbmbnbobpbqbrbsbtbubvbwbxbybzbAbBbCbDbEbFbGbHbIbJbKbLbMbNbObPbQbRbSbTbUbVbWbXbYbZb0b1b2b3b4b5b6b7b8b9b.b+cacbcccdcecfcgchcicjckclcmcncocpcqcrcsctcucvcwcxcyczcAcBcCcDcEcFcGcHcIcJcKcLcMcNcOcPcQcRcScTcUcVcWcXcYcZc0c1c2c3c4c5c6c7c8c9c.c+dadbdcdddedfdgdhdidjdkdldmdndodpdqdrdsdtdudvdwdxdydzdAdBdCdDdEdFdGdHdIdJdKdLdMdNdOdPdQdRdSdTdUdVdWdXdYdZd0d1d2d3d4d5d6d7d8d9d.d+eaebecedeeefegeheiejekelemeneoepeqereseteuevewexeyezeAeBeCeDeEeFeGeHeIeJeKeLeMeNeOePeQeReSeTeUeVeWeXeYeZe0e1e2e3e4e5e6e7e8e9e.e+fafbfcfdfefffgfhfifjfkflfmfnfofpfqfrfsftfufvfwfxfyfzfAfBfCfDfEfFfGfHfIfJfKfLfMfNfOfPfQfRfSfTfUfVfWfXfYfZf0f1f2f3f4f5f6f7f8f9f.f+gagbgcgdgegfggghgigjgkglgmgngogpgqgrgsgtgugvgwgxgygzgAgBgCgDgEgFgGgHgIgJgKgLgMgNgOgPgQgRgSgTgUgVgWgXgYgZg0g1g2g3g4g5g6g7g8g9g.g+hahbhchdhehfhghhhihjhkhlhmhnhohphqhrhshthuhvhwhxhyhzhAhBhChDhEhFhGhHhIhJhKhLhMhNhOhPhQhRhShThUhVhWhXhYhZh0h1h2h3h4h5h6h7h8h9h.h+",
"aaabacadaeafagahaiajakalamanaoapaqarasatauavawaxayazaAaBaCaDaEaFaGaHaIaJaKaLaMaNaOaPaQaRaSaTaUaVaWaXaYaZa0a1a2a3a4a5a6a7a8a9a.a+babbbcbdbebfbgbhbibjbkblbmbnbobpbqbrbsbtbubvbwbxbybzbAbBbCbDbEbFbGbHbIbJbKbLbMbNbObPbQbRbSbTbUbVbWbXbYbZb0b1b2b3b4b5b6b7b8b9b.b+cacbcccdcecfcgchcicjckclcmcncocpcqcrcsctcucvcwcxcyczcAcBcCcDcEcFcGcHcIcJcKcLcMcNcOcPcQcRcScTcUcVcWcXcYcZc0c1c2c3c4c5c6c7c8c9c.c+dadbdcdddedfdgdhdidjdkdldmdndodpdqdrdsdtdudvdwdxdydzdAdBdCdDdEdFdGdHdIdJdKdLdMdNdOdPdQdRdSdTdUdVdWdXdYdZd0d1d2d3d4d5d6d7d8d9d.d+eaebecedeeefegeheiejekelemeneoepeqereseteuevewexeyezeAeBeCeDeEeFeGeHeIeJeKeLeMeNeOePeQeReSeTeUeVeWeXeYeZe0e1e2e3e4e5e6e7e8e9e.e+fafbfcfdfefffgfhfifjfkflfmfnfofpfqfrfsftfufvfwfxfyfzfAfBfCfDfEfFfGfHfIfJfKfLfMfNfOfPfQfRfSfTfUfVfWfXfYfZf0f1f2f3f4f5f6f7f8f9f.f+gagbgcgdgegfggghgigjgkglgmgngogpgqgrgsgtgugvgwgxgygzgAgBgCgDgEgFgGgHgIgJgKgLgMgNgOgPgQgRgSgTgUgVgWgXgYgZg0g1g2g3g4g5g6g7g8g9g.g+hahbhchdhehfhghhhihjhkhlhmhnhohphqhrhshthuhvhwhxhyhzhAhBhChDhEhFhGhHhIhJhKhLhMhNhOhPhQhRhShThUhVhWhXhYhZh0h1h2h3h4h5h6h7h8h9h.h+",
"aaabacadaeafagahaiajakalamanaoapaqarasatauavawaxayazaAaBaCaDaEaFaGaHaIaJaKaLaMaNaOaPaQaRaSaTaUaVaWaXaYaZa0a1a2a3a4a5a6a7a8a9a.a+babbbcbdbebfbgbhbibjbkblbmbnbobpbqbrbsbtbubvbwbxbybzbAbBbCbDbEbFbGbHbIbJbKbLbMbNbObPbQbRbSbTbUbVbWbXbYbZb0b1b2b3b4b5b6b7b8b9b.b+cacbcccdcecfcgchcicjckclcmcncocpcqcrcsctcucvcwcxcyczcAcBcCcDcEcFcGcHcIcJcKcLcMcNcOcPcQcRcScTcUcVcWcXcYcZc0c1c2c3c4c5c6c7c8c9c.c+dadbdcdddedfdgdhdidjdkdldmdndodpdqdrdsdtdudvdwdxdydzdAdBdCdDdEdFdGdHdIdJdKdLdMdNdOdPdQdRdSdTdUdVdWdXdYdZd0d1d2d3d4d5d6d7d8d9d.d+eaebecedeeefegeheiejekelemeneoepeqereseteuevewexeyezeAeBeCeDeEeFeGeHeIeJeKeLeMeNeOePeQeReSeTeUeVeWeXeYeZe0e1e2e3e4e5e6e7e8e9e.e+fafbfcfdfefffgfhfifjfkflfmfnfofpfqfrfsftfufvfwfxfyfzfAfBfCfDfEfFfGfHfIfJfKfLfMfNfOfPfQfRfSfTfUfVfWfXfYfZf0f1f2f3f4f5f6f7f8f9f.f+gagbgcgdgegfggghgigjgkglgmgngogpgqgrgsgtgugvgwgxgygzgAgBgCgDgEgFgGgHgIgJgKgLgMgNgOgPgQgRgSgTgUgVgWgXgYgZg0g1g2g3g4g5g6g7g8g9g.g+hahbhchdhehfhghhhihjhkhlhmhnhohphqhrhshthuhvhwhxhyhzhAhBhChDhEhFhGhHhIhJhKhLhMhNhOhPhQhRhShThUhVhWhXhYhZh0h1h2h3h4h5h6h7h8h9h.h+",
"aaabacadaeafagahaiajakalamanaoapaqarasatauavawaxayazaAaBaCaDaEaFaGaHaIaJaKaLaMaNaOaPaQaRaSaTaUaVaWaXaYaZa0a1a2a3a4a5a6a7a8a9a.a+babbbcbdbebfbgbhbibjbkblbmbnbobpbqbrbsbtbubvbwbxbybzbAbBbCbDbEbFbGbHbIbJbKbLbMbNbObPbQbRbSbTbUbVbWbXbYbZb0b1b2b3b4b5b6b7b8b9b.b+cacbcccdcecfcgchcicjckclcmcncocpcqcrcsctcucvcwcxcyczcAcBcCcDcEcFcGcHcIcJcKcLcMcNcOcPcQcRcScTcUcVcWcXcYcZc0c1c2c3c4c5c6c7c8c9c.c+dadbdcdddedfdgdhdidjdkdldmdndodpdqdrdsdtdudvdwdxdydzdAdBdCdDdEdFdGdHdIdJdKdLdMdNdOdPdQdRdSdTdUdVdWdXdYdZd0d1d2d3d4d5d6d7d8d9d.d+eaebecedeeefegeheiejekelemeneoepeqereseteuevewexeyezeAeBeCeDeEeFeGeHeIeJeKeLeMeNeOePeQeReSeTeUeVeWeXeYeZe0e1e2e3e4e5e6e7e8e9e.e+fafbfcfdfefffgfhfifjfkflfmfnfofpfqfrfsftfufvfwfxfyfzfAfBfCfDfEfFfGfHfIfJfKfLfMfNfOfPfQfRfSfTfUfVfWfXfYfZf0f1f2f3f4f5f6f7f8f9f.f+gagbgcgdgegfggghgigjgkglgmgngogpgqgrgsgtgugvgwgxgygzgAgBgCgDgEgFgGgHgIgJgKgLgMgNgOgPgQgRgSgTgUgVgWgXgYgZg0g1g2g3g4g5g6g7g8g9g.g+hahbhchdhehfhghhhihjhkhlhmhnhohphqhrhshthuhvhwhxhyhzhAhBhChDhEhFhGhHhIhJhKhLhMhNhOhPhQhRhShThUhVhWhXhYhZh0h1h2h3h4h5h6h7h8h9h.h+",
"aaabacadaeafagahaiajakalamanaoapaqarasatauavawaxayazaAaBaCaDaEaFaGaHaIaJaKaLaMaNaOaPaQaRaSaTaUaVaWaXaYaZa0a1a2a3a4a5a6a7a8a9a.a+babbbcbdbebfbgbhbibjbkblbmbnbobpbqbrbsbtbubvbwbxbybzbAbBbCbDbEbFbGbHbIbJbKbLbMbNbObPbQbRbSbTbUbVbWbXbYbZb0b1b2b3b4b5b6b7b8b9b.b+cacbcccdcecfcgchcicjckclcmcncocpcqcrcsctcucvcwcxcyczcAcBcCcDcEcFcGcHcIcJcKcLcMcNcOcPcQcRcScTcUcVcWcXcYcZc0c1c2c3c4c5c6c7c8c9c.c+dadbdcdddedfdgdhdidjdkdldmdndodpdqdrdsdtdudvdwdxdydzdAdBdCdDdEdFdGdHdIdJdKdLdMdNdOdPdQdRdSdTdUdVdWdXdYdZd0d1d2d3d4d5d6d7d8d9d.d+eaebecedeeefegeheiejekelemeneoepeqereseteuevewexeyezeAeBeCeDeEeFeGeHeIeJeKeLeMeNeOePeQeReSeTeUeVeWeXeYeZe0e1e2e3e4e5e6e7e8e9e.e+fafbfcfdfefffgfhfifjfkflfmfnfofpfqfrfsftfufvfwfxfyfzfAfBfCfDfEfFfGfHfIfJfKfLfMfNfOfPfQfRfSfTfUfVfWfXfYfZf0f1f2f3f4f5f6f7f8f9f.f+gagbgcgdgegfggghgigjgkglgmgngogpgqgrgsgtgugvgwgxgygzgAgBgCgDgEgFgGgHgIgJgKgLgMgNgOgPgQgRgSgTgUgVgWgXgYgZg0g1g2g3g4g5g6g7g8g9g.g+hahbhchdhehfhghhhihjhkhlhmhnhohphqhrhshthuhvhwhxhyhzhAhBhChDhEhFhGhHhIhJhKhLhMhNhOhPhQhRhShThUhVhWhXhYhZh0h1h2h3h4h5h6h7h8h9h.h+",
"aaabacadaeafagahaiajakalamanaoapaqarasatauavawaxayazaAaBaCaDaEaFaGaHaIaJaKaLaMaNaOaPaQaRaSaTaUaVaWaXaYaZa0a1a2a3a4a5a6a7a8a9a.a+babbbcbdbebfbgbhbibjbkblbmbnbobpbqbrbsbtbubvbwbxbybzbAbBbCbDbEbFbGbHbIbJbKbLbMbNbObPbQbRbSbTbUbVbWbXbYbZb0b1b2b3b4b5b6b7b8b9b.b+cacbcccdcecfcgchcicjckclcmcncocpcqcrcsctcucvcwcxcyczcAcBcCcDcEcFcGcHcIcJcKcLcMcNcOcPcQcRcScTcUcVcWcXcYcZc0c1c2c3c4c5c6c7c8c9c.c+dadbdcdddedfdgdhdidjdkdldmdndodpdqdrdsdtdudvdwdxdydzdAdBdCdDdEdFdGdHdIdJdKdLdMdNdOdPdQdRdSdTdUdVdWdXdYdZd0d1d2d3d4d5d6d7d8d9d.d+eaebecedeeefegeheiejekelemeneoepeqereseteuevewexeyezeAeBeCeDeEeFeGeHeIeJeKeLeMeNeOePeQeReSeTeUeVeWeXeYeZe0e1e2e3e4e5e6e7e8e9e.e+fafbfcfdfefffgfhfifjfkflfmfnfofpfqfrfsftfufvfwfxfyfzfAfBfCfDfEfFfGfHfIfJfKfLfMfNfOfPfQfRfSfTfUfVfWfXfYfZf0f1f2f3f4f5f6f7f8f9f.f+gagbgcgdgegfggghgigjgkglgmgngogpgqgrgsgtgugvgwgxgygzgAgBgCgDgEgFgGgHgIgJgKgLgMgNgOgPgQgRgSgTgUgVgWgXgYgZg0g1g2g3g4g5g6g7g8g9g.g+hahbhchdhehfhghhhihjhkhlhmhnhohphqhrhshthuhvhwhxhyhzhAhBhChDhEhFhGhHhIhJhKhLhMhNhOhPhQhRhShThUhVhWhXhYhZh0h1h2h3h4h5h6h7h8h9h.h+",
"aaabacadaeafagahaiajakalamanaoapaqarasatauavawaxayazaAaBaCaDaEaFaGaHaIaJaKaLaMaNaOaPaQaRaSaTaUaVaWaXaYaZa0a1a2a3a4a5a6a7a8a9a.a+babbbcbdbebfbgbhbibjbkblbmbnbobpbqbrbsbtbubvbwbxbybzbAbBbCbDbEbFbGbHbIbJbKbLbMbNbObPbQbRbSbTbUbVbWbXbYbZb0b1b2b3b4b5b6b7b8b9b.b+cacbcccdcecfcgchcicjckclcmcncocpcqcrcsctcucvcwcxcyczcAcBcCcDcEcFcGcHcIcJcKcLcMcNcOcPcQcRcScTcUcVcWcXcYcZc0c1c2c3c4c5c6c7c8c9c.c+dadbdcdddedfdgdhdidjdkdldmdndodpdqdrdsdtdudvdwdxdydzdAdBdCdDdEdFdGdHdIdJdKdLdMdNdOdPdQdRdSdTdUdVdWdXdYdZd0d1d2d3d4d5d6d7d8d9d.d+eaebecedeeefegeheiejekelemeneoepeqereseteuevewexeyezeAeBeCeDeEeFeGeHeIeJeKeLeMeNeOePeQeReSeTeUeVeWeXeYeZe0e1e2e3e4e5e6e7e8e9e.e+fafbfcfdfefffgfhfifjfkflfmfnfofpfqfrfsftfufvfwfxfyfzfAfBfCfDfEfFfGfHfIfJfKfLfMfNfOfPfQfRfSfTfUfVfWfXfYfZf0f1f2f3f4f5f6f7f8f9f.f+gagbgcgdgegfggghgigjgkglgmgngogpgqgrgsgtgugvgwgxgygzgAgBgCgDgEgFgGgHgIgJgKgLgMgNgOgPgQgRgSgTgUgVgWgXgYgZg0g1g2g3g4g5g6g7g8g9g.g+hahbhchdhehfhghhhihjhkhlhmhnhohphqhrhshthuhvhwhxhyhzhAhBhChDhEhFhGhHhIhJhKhLhMhNhOhPhQhRhShThUhVhWhXhYhZh0h1h2h3h4h5h6h7h8h9h.h+",
"aaabacadaeafagahaiajakalamanaoapaqarasatauavawaxayazaAaBaCaDaEaFaGaHaIaJaKaLaMaNaOaPaQaRaSaTaUaVaWaXaYaZa0a1a2a3a4a5a6a7a8a9a.a+babbbcbdbebfbgbhbibjbkblbmbnbobpbqbrbsbtbubvbwbxbybzbAbBbCbDbEbFbGbHbIbJbKbLbMbNbObPbQbRbSbTbUbVbWbXbYbZb0b1b2b3b4b5b6b7b8b9b.b+cacbcccdcecfcgchcicjckclcmcncocpcqcrcsctcucvcwcxcyczcAcBcCcDcEcFcGcHcIcJcKcLcMcNcOcPcQcRcScTcUcVcWcXcYcZc0c1c2c3c4c5c6c7c8c9c.c+dadbdcdddedfdgdhdidjdkdldmdndodpdqdrdsdtdudvdwdxdydzdAdBdCdDdEdFdGdHdIdJdKdLdMdNdOdPdQdRdSdTdUdVdWdXdYdZd0d1d2d3d4d5d6d7d8d9d.d+eaebecedeeefegeheiejekelemeneoepeqereseteuevewexeyezeAeBeCeDeEeFeGeHeIeJeKeLeMeNeOePeQeReSeTeUeVeWeXeYeZe0e1e2e3e4e5e6e7e8e9e.e+fafbfcfdfefffgfhfifjfkflfmfnfofpfqfrfsftfufvfwfxfyfzfAfBfCfDfEfFfGfHfIfJfKfLfMfNfOfPfQfRfSfTfUfVfWfXfYfZf0f1f2f3f4f5f6f7f8f9f.f+gagbgcgdgegfggghgigjgkglgmgngogpgqgrgsgtgugvgwgxgygzgAgBgCgDgEgFgGgHgIgJgKgLgMgNgOgPgQgRgSgTgUgVgWgXgYgZg0g1g2g3g4g5g6g7g8g9g.g+hahbhchdhehfhghhhihjhkhlhmhnhohphqhrhshthuhvhwhxhyhzhAhBhChDhEhFhGhHhIhJhKhLhMhNhOhPhQhRhShThUhVhWhXhYhZh0h1h2h3h4h5h6h7h8h9h.h+",
"aaabacadaeafagahaiajakalamanaoapaqarasatauavawaxayazaAaBaCaDaEaFaGaHaIaJaKaLaMaNaOaPaQaRaSaTaUaVaWaXaYaZa0a1a2a3a4a5a6a7a8a9a.a+babbbcbdbebfbgbhbibjbkblbmbnbobpbqbrbsbtbubvbwbxbybzbAbBbCbDbEbFbGbHbIbJbKbLbMbNbObPbQbRbSbTbUbVbWbXbYbZb0b1b2b3b4b5b6b7b8b9b.b+cacbcccdcecfcgchcicjckclcmcncocpcqcrcsctcucvcwcxcyczcAcBcCcDcEcFcGcHcIcJcKcLcMcNcOcPcQcRcScTcUcVcWcXcYcZc0c1c2c3c4c5c6c7c8c9c.c+dadbdcdddedfdgdhdidjdkdldmdndodpdqdrdsdtdudvdwdxdydzdAdBdCdDdEdFdGdHdIdJdKdLdMdNdOdPdQdRdSdTdUdVdWdXdYdZd0d1d2d3d4d5d6d7d8d9d.d+eaebecedeeefegeheiejekelemeneoepeqereseteuevewexeyezeAeBeCeDeEeFeGeHeIeJeKeLeMeNeOePeQeReSeTeUeVeWeXeYeZe0e1e2e3e4e5e6e7e8e9e.e+fafbfcfdfefffgfhfifjfkflfmfnfofpfqfrfsftfufvfwfxfyfzfAfBfCfDfEfFfGfHfIfJfKfLfMfNfOfPfQfRfSfTfUfVfWfXfYfZf0f1f2f3f4f5f6f7f8f9f.f+gagbgcgdgegfggghgigjgkglgmgngogpgqgrgsgtgugvgwgxgygzgAgBgCgDgEgFgGgHgIgJgKgLgMgNgOgPgQgRgSgTgUgVgWgXgYgZg0g1g2g3g4g5g6g7g8g9g.g+hahbhchdhehfhghhhihjhkhlhmhnhohphqhrhshthuhvhwhxhyhzhAhBhChDhEhFhGhHhIhJhKhLhMhNhOhPhQhRhShThUhVhWhXhYhZh0h1h2h3h4h5h6h7h8h9h.h+",
"aaabacadaeafagahaiajakalamanaoapaqarasatauavawaxayazaAaBaCaDaEaFaGaHaIaJaKaLaMaNaOaPaQaRaSaTaUaVaWaXaYaZa0a1a2a3a4a5a6a7a8a9a.a+babbbcbdbebfbgbhbibjbkblbmbnbobpbqbrbsbtbubvbwbxbybzbAbBbCbDbEbFbGbHbIbJbKbLbMbNbObPbQbRbSbTbUbVbWbXbYbZb0b1b2b3b4b5b6b7b8b9b.b+cacbcccdcecfcgchcicjckclcmcncocpcqcrcsctcucvcwcxcyczcAcBcCcDcEcFcGcHcIcJcKcLcMcNcOcPcQcRcScTcUcVcWcXcYcZc0c1c2c3c4c5c6c7c8c9c.c+dadbdcdddedfdgdhdidjdkdldmdndodpdqdrdsdtdudvdwdxdydzdAdBdCdDdEdFdGdHdIdJdKdLdMdNdOdPdQdRdSdTdUdVdWdXdYdZd0d1d2d3d4d5d6d7d8d9d.d+eaebecedeeefegeheiejekelemeneoepeqereseteuevewexeyezeAeBeCeDeEeFeGeHeIeJeKeLeMeNeOePeQeReSeTeUeVeWeXeYeZe0e1e2e3e4e5e6e7e8e9e.e+fafbfcfdfefffgfhfifjfkflfmfnfofpfqfrfsftfufvfwfxfyfzfAfBfCfDfEfFfGfHfIfJfKfLfMfNfOfPfQfRfSfTfUfVfWfXfYfZf0f1f2f3f4f5f6f7f8f9f.f+gagbgcgdgegfggghgigjgkglgmgngogpgqgrgsgtgugvgwgxgygzgAgBgCgDgEgFgGgHgIgJgKgLgMgNgOgPgQgRgSgTgUgVgWgXgYgZg0g1g2g3g4g5g6g7g8g9g.g+hahbhchdhehfhghhhihjhkhlhmhnhohphqhrhshthuhvhwhxhyhzhAhBhChDhEhFhGhHhIhJhKhLhMhNhOhPhQhRhShThUhVhWhXhYhZh0h1h2h3h4h5h6h7h8h9h.h+",
"aaabacadaeafagahaiajakalamanaoapaqarasatauavawaxayazaAaBaCaDaEaFaGaHaIaJaKaLaMaNaOaPaQaRaSaTaUaVaWaXaYaZa0a1a2a3a4a5a6a7a8a9a.a+babbbcbdbebfbgbhbibjbkblbmbnbobpbqbrbsbtbubvbwbxbybzbAbBbCbDbEbFbGbHbIbJbKbLbMbNbObPbQbRbSbTbUbVbWbXbYbZb0b1b2b3b4b5b6b7b8b9b.b+cacbcccdcecfcgchcicjckclcmcncocpcqcrcsctcucvcwcxcyczcAcBcCcDcEcFcGcHcIcJcKcLcMcNcOcPcQcRcScTcUcVcWcXcYcZc0c1c2c3c4c5c6c7c8c9c.c+dadbdcdddedfdgdhdidjdkdldmdndodpdqdrdsdtdudvdwdxdydzdAdBdCdDdEdFdGdHdIdJdKdLdMdNdOdPdQdRdSdTdUdVdWdXdYdZd0d1d2d3d4d5d6d7d8d9d.d+eaebecedeeefegeheiejekelemeneoepeqereseteuevewexeyezeAeBeCeDeEeFeGeHeIeJeKeLeMeNeOePeQeReSeTeUeVeWeXeYeZe0e1e2e3e4e5e6e7e8e9e.e+fafbfcfdfefffgfhfifjfkflfmfnfofpfqfrfsftfufvfwfxfyfzfAfBfCfDfEfFfGfHfIfJfKfLfMfNfOfPfQfRfSfTfUfVfWfXfYfZf0f1f2f3f4f5f6f7f8f9f.f+gagbgcgdgegfggghgigjgkglgmgngogpgqgrgsgtgugvgwgxgygzgAgBgCgDgEgFgGgHgIgJgKgLgMgNgOgPgQgRgSgTgUgVgWgXgYgZg0g1g2g3g4g5g6g7g8g9g.g+hahbhchdhehfhghhhihjhkhlhmhnhohphqhrhshthuhvhwhxhyhzhAhBhChDhEhFhGhHhIhJhKhLhMhNhOhPhQhRhShThUhVhWhXhYhZh0h1h2h3h4h5h6h7h8h9h.h+",
"aaabacadaeafagahaiajakalamanaoapaqarasatauavawaxayazaAaBaCaDaEaFaGaHaIaJaKaLaMaNaOaPaQaRaSaTaUaVaWaXaYaZa0a1a2a3a4a5a6a7a8a9a.a+babbbcbdbebfbgbhbibjbkblbmbnbobpbqbrbsbtbubvbwbxbybzbAbBbCbDbEbFbGbHbIbJbKbLbMbNbObPbQbRbSbTbUbVbWbXbYbZb0b1b2b3b4b5b6b7b8b9b.b+cacbcccdcecfcgchcicjckclcmcncocpcqcrcsctcucvcwcxcyczcAcBcCcDcEcFcGcHcIcJcKcLcMcNcOcPcQcRcScTcUcVcWcXcYcZc0c1c2c3c4c5c6c7c8c9c.c+dadbdcdddedfdgdhdidjdkdldmdndodpdqdrdsdtdudvdwdxdydzdAdBdCdDdEdFdGdHdIdJdKdLdMdNdOdPdQdRdSdTdUdVdWdXdYdZd0d1d2d3d4d5d6d7d8d9d.d+eaebecedeeefegeheiejekelemeneoepeqereseteuevewexeyezeAeBeCeDeEeFeGeHeIeJeKeLeMeNeOePeQeReSeTeUeVeWeXeYeZe0e1e2e3e4e5e6e7e8e9e.e+fafbfcfdfefffgfhfifjfkflfmfnfofpfqfrfsftfufvfwfxfyfzfAfBfCfDfEfFfGfHfIfJfKfLfMfNfOfPfQfRfSfTfUfVfWfXfYfZf0f1f2f3f4f5f6f7f8f9f.f+gagbgcgdgegfggghgigjgkglgmgngogpgqgrgsgtgugvgwgxgygzgAgBgCgDgEgFgGgHgIgJgKgLgMgNgOgPgQgRgSgTgUgVgWgXgYgZg0g1g2g3g4g5g6g7g8g9g.g+hahbhchdhehfhghhhihjhkhlhmhnhohphqhrhshthuhvhwhxhyhzhAhBhChDhEhFhGhHhIhJhKhLhMhNhOhPhQhRhShThUhVhWhXhYhZh0h1h2h3h4h5h6h7h8h9h.h+",
"aaabacadaeafagahaiajakalamanaoapaqarasatauavawaxayazaAaBaCaDaEaFaGaHaIaJaKaLaMaNaOaPaQaRaSaTaUaVaWaXaYaZa0a1a2a3a4a5a6a7a8a9a.a+babbbcbdbebfbgbhbibjbkblbmbnbobpbqbrbsbtbubvbwbxbybzbAbBbCbDbEbFbGbHbIbJbKbLbMbNbObPbQbRbSbTbUbVbWbXbYbZb0b1b2b3b4b5b6b7b8b9b.b+cacbcccdcecfcgchcicjckclcmcncocpcqcrcsctcucvcwcxcyczcAcBcCcDcEcFcGcHcIcJcKcLcMcNcOcPcQcRcScTcUcVcWcXcYcZc0c1c2c3c4c5c6c7c8c9c.c+dadbdcdddedfdgdhdidjdkdldmdndodpdqdrdsdtdudvdwdxdydzdAdBdCdDdEdFdGdHdIdJdKdLdMdNdOdPdQdRdSdTdUdVdWdXdYdZd0d1d2d3d4d5d6d7d8d9d.d+eaebecedeeefegeheiejekelemeneoepeqereseteuevewexeyezeAeBeCeDeEeFeGeHeIeJeKeLeMeNeOePeQeReSeTeUeVeWeXeYeZe0e1e2e3e4e5e6e7e8e9e.e+fafbfcfdfefffgfhfifjfkflfmfnfofpfqfrfsftfufvfwfxfyfzfAfBfCfDfEfFfGfHfIfJfKfLfMfNfOfPfQfRfSfTfUfVfWfXfYfZf0f1f2f3f4f5f6f7f8f9f.f+gagbgcgdgegfggghgigjgkglgmgngogpgqgrgsgtgugvgwgxgygzgAgBgCgDgEgFgGgHgIgJgKgLgMgNgOgPgQgRgSgTgUgVgWgXgYgZg0g1g2g3g4g5g6g7g8g9g.g+hahbhchdhehfhghhhihjhkhlhmhnhohphqhrhshthuhvhwhxhyhzhAhBhChDhEhFhGhHhIhJhKhLhMhNhOhPhQhRhShThUhVhWhXhYhZh0h1h2h3h4h5h6h7h8h9h.h+",
"aaabacadaeafagahaiajakalamanaoapaqarasatauavawaxayazaAaBaCaDaEaFaGaHaIaJaKaLaMaNaOaPaQaRaSaTaUaVaWaXaYaZa0a1a2a3a4a5a6a7a8a9a.a+babbbcbdbebfbgbhbibjbkblbmbnbobpbqbrbsbtbubvbwbxbybzbAbBbCbDbEbFbGbHbIbJbKbLbMbNbObPbQbRbSbTbUbVbWbXbYbZb0b1b2b3b4b5b6b7b8b9b.b+cacbcccdcecfcgchcicjckclcmcncocpcqcrcsctcucvcwcxcyczcAcBcCcDcEcFcGcHcIcJcKcLcMcNcOcPcQcRcScTcUcVcWcXcYcZc0c1c2c3c4c5c6c7c8c9c.c+dadbdcdddedfdgdhdidjdkdldmdndodpdqdrdsdtdudvdwdxdydzdAdBdCdDdEdFdGdHdIdJdKdLdMdNdOdPdQdRdSdTdUdVdWdXdYdZd0d1d2d3d4d5d6d7d8d9d.d+eaebecedeeefegeheiejekelemeneoepeqereseteuevewexeyezeAeBeCeDeEeFeGeHeIeJeKeLeMeNeOePeQeReSeTeUeVeWeXeYeZe0e1e2e3e4e5e6e7e8e9e.e+fafbfcfdfefffgfhfifjfkflfmfnfofpfqfrfsftfufvfwfxfyfzfAfBfCfDfEfFfGfHfIfJfKfLfMfNfOfPfQfRfSfTfUfVfWfXfYfZf0f1f2f3f4f5f6f7f8f9f.f+gagbgcgdgegfggghgigjgkglgmgngogpgqgrgsgtgugvgwgxgygzgAgBgCgDgEgFgGgHgIgJgKgLgMgNgOgPgQgRgSgTgUgVgWgXgYgZg0g1g2g3g4g5g6g7g8g9g.g+hahbhchdhehfhghhhihjhkhlhmhnhohphqhrhshthuhvhwhxhyhzhAhBhChDhEhFhGhHhIhJhKhLhMhNhOhPhQhRhShThUhVhWhXhYhZh0h1h2h3h4h5h6h7h8h9h.h+",
"aaabacadaeafagahaiajakalamanaoapaqarasatauavawaxayazaAaBaCaDaEaFaGaHaIaJaKaLaMaNaOaPaQaRaSaTaUaVaWaXaYaZa0a1a2a3a4a5a6a7a8a9a.a+babbbcbdbebfbgbhbibjbkblbmbnbobpbqbrbsbtbubvbwbxbybzbAbBbCbDbEbFbGbHbIbJbKbLbMbNbObPbQbRbSbTbUbVbWbXbYbZb0b1b2b3b4b5b6b7b8b9b.b+cacbcccdcecfcgchcicjckclcmcncocpcqcrcsctcucvcwcxcyczcAcBcCcDcEcFcGcHcIcJcKcLcMcNcOcPcQcRcScTcUcVcWcXcYcZc0c1c2c3c4c5c6c7c8c9c.c+dadbdcdddedfdgdhdidjdkdldmdndodpdqdrdsdtdudvdwdxdydzdAdBdCdDdEdFdGdHdIdJdKdLdMdNdOdPdQdRdSdTdUdVdWdXdYdZd0d1d2d3d4d5d6d7d8d9d.d+eaebecedeeefegeheiejekelemeneoepeqereseteuevewexeyezeAeBeCeDeEeFeGeHeIeJeKeLeMeNeOePeQeReSeTeUeVeWeXeYeZe0e1e2e3e4e5e6e7e8e9e.e+fafbfcfdfefffgfhfifjfkflfmfnfofpfqfrfsftfufvfwfxfyfzfAfBfCfDfEfFfGfHfIfJfKfLfMfNfOfPfQfRfSfTfUfVfWfXfYfZf0f1f2f3f4f5f6f7f8f9f.f+gagbgcgdgegfggghgigjgkglgmgngogpgqgrgsgtgugvgwgxgygzgAgBgCgDgEgFgGgHgIgJgKgLgMgNgOgPgQgRgSgTgUgVgWgXgYgZg0g1g2g3g4g5g6g7g8g9g.g+hahbhchdhehfhghhhihjhkhlhmhnhohphqhrhshthuhvhwhxhyhzhAhBhChDhEhFhGhHhIhJhKhLhMhNhOhPhQhRhShThUhVhWhXhYhZh0h1h2h3h4h5h6h7h8h9h.h+",
"aaabacadaeafagahaiajakalamanaoapaqarasatauavawaxayazaAaBaCaDaEaFaGaHaIaJaKaLaMaNaOaPaQaRaSaTaUaVaWaXaYaZa0a1a2a3a4a5a6a7a8a9a.a+babbbcbdbebfbgbhbibjbkblbmbnbobpbqbrbsbtbubvbwbxbybzbAbBbCbDbEbFbGbHbIbJbKbLbMbNbObPbQbRbSbTbUbVbWbXbYbZb0b1b2b3b4b5b6b7b8b9b.b+cacbcccdcecfcgchcicjckclcmcncocpcqcrcsctcucvcwcxcyczcAcBcCcDcEcFcGcHcIcJcKcLcMcNcOcPcQcRcScTcUcVcWcXcYcZc0c1c2c3c4c5c6c7c8c9c.c+dadbdcdddedfdgdhdidjdkdldmdndodpdqdrdsdtdudvdwdxdydzdAdBdCdDdEdFdGdHdIdJdKdLdMdNdOdPdQdRdSdTdUdVdWdXdYdZd0d1d2d3d4d5d6d7d8d9d.d+eaebecedeeefegeheiejekelemeneoepeqereseteuevewexeyezeAeBeCeDeEeFeGeHeIeJeKeLeMeNeOePeQeReSeTeUeVeWeXeYeZe0e1e2e3e4e5e6e7e8e9e.e+fafbfcfdfefffgfhfifjfkflfmfnfofpfqfrfsftfufvfwfxfyfzfAfBfCfDfEfFfGfHfIfJfKfLfMfNfOfPfQfRfSfTfUfVfWfXfYfZf0f1f2f3f4f5f6f7f8f9f.f+gagbgcgdgegfggghgigjgkglgmgngogpgqgrgsgtgugvgwgxgygzgAgBgCgDgEgFgGgHgIgJgKgLgMgNgOgPgQgRgSgTgUgVgWgXgYgZg0g1g2g3g4g5g6g7g8g9g.g+hahbhchdhehfhghhhihjhkhlhmhnhohphqhrhshthuhvhwhxhyhzhAhBhChDhEhFhGhHhIhJhKhLhMhNhOhPhQhRhShThUhVhWhXhYhZh0h1h2h3h4h5h6h7h8h9h.h+",
"aaabacadaeafagahaiajakalamanaoapaqarasatauavawaxayazaAaBaCaDaEaFaGaHaIaJaKaLaMaNaOaPaQaRaSaTaUaVaWaXaYaZa0a1a2a3a4a5a6a7a8a9a.a+babbbcbdbebfbgbhbibjbkblbmbnbobpbqbrbsbtbubvbwbxbybzbAbBbCbDbEbFbGbHbIbJbKbLbMbNbObPbQbRbSbTbUbVbWbXbYbZb0b1b2b3b4b5b6b7b8b9b.b+cacbcccdcecfcgchcicjckclcmcncocpcqcrcsctcucvcwcxcyczcAcBcCcDcEcFcGcHcIcJcKcLcMcNcOcPcQcRcScTcUcVcWcXcYcZc0c1c2c3c4c5c6c7c8c9c.c+dadbdcdddedfdgdhdidjdkdldmdndodpdqdrdsdtdudvdwdxdydzdAdBdCdDdEdFdGdHdIdJdKdLdMdNdOdPdQdRdSdTdUdVdWdXdYdZd0d1d2d3d4d5d6d7d8d9d.d+eaebecedeeefegeheiejekelemeneoepeqereseteuevewexeyezeAeBeCeDeEeFeGeHeIeJeKeLeMeNeOePeQeReSeTeUeVeWeXeYeZe0e1e2e3e4e5e6e7e8e9e.e+fafbfcfdfefffgfhfifjfkflfmfnfofpfqfrfsftfufvfwfxfyfzfAfBfCfDfEfFfGfHfIfJfKfLfMfNfOfPfQfRfSfTfUfVfWfXfYfZf0f1f2f3f4f5f6f7f8f9f.f+gagbgcgdgegfggghgigjgkglgmgngogpgqgrgsgtgugvgwgxgygzgAgBgCgDgEgFgGgHgIgJgKgLgMgNgOgPgQgRgSgTgUgVgWgXgYgZg0g1g2g3g4g5g6g7g8g9g.g+hahbhchdhehfhghhhihjhkhlhmhnhohphqhrhshthuhvhwhxhyhzhAhBhChDhEhFhGhHhIhJhKhLhMhNhOhPhQhRhShThUhVhWhXhYhZh0h1h2h3h4h5h6h7h8h9h.h+",
"aaabacadaeafagahaiajakalamanaoapaqarasatauavawaxayazaAaBaCaDaEaFaGaHaIaJaKaLaMaNaOaPaQaRaSaTaUaVaWaXaYaZa0a1a2a3a4a5a6a7a8a9a.a+babbbcbdbebfbgbhbibjbkblbmbnbobpbqbrbsbtbubvbwbxbybzbAbBbCbDbEbFbGbHbIbJbKbLbMbNbObPbQbRbSbTbUbVbWbXbYbZb0b1b2b3b4b5b6b7b8b9b.b+cacbcccdcecfcgchcicjckclcmcncocpcqcrcsctcucvcwcxcyczcAcBcCcDcEcFcGcHcIcJcKcLcMcNcOcPcQcRcScTcUcVcWcXcYcZc0c1c2c3c4c5c6c7c8c9c.c+dadbdcdddedfdgdhdidjdkdldmdndodpdqdrdsdtdudvdwdxdydzdAdBdCdDdEdFdGdHdIdJdKdLdMdNdOdPdQdRdSdTdUdVdWdXdYdZd0d1d2d3d4d5d6d7d8d9d.d+eaebecedeeefegeheiejekelemeneoepeqereseteuevewexeyezeAeBeCeDeEeFeGeHeIeJeKeLeMeNeOePeQeReSeTeUeVeWeXeYeZe0e1e2e3e4e5e6e7e8e9e.e+fafbfcfdfefffgfhfifjfkflfmfnfofpfqfrfsftfufvfwfxfyfzfAfBfCfDfEfFfGfHfIfJfKfLfMfNfOfPfQfRfSfTfUfVfWfXfYfZf0f1f2f3f4f5f6f7f8f9f.f+gagbgcgdgegfggghgigjgkglgmgngogpgqgrgsgtgugvgwgxgygzgAgBgCgDgEgFgGgHgIgJgKgLgMgNgOgPgQgRgSgTgUgVgWgXgYgZg0g1g2g3g4g5g6g7g8g9g.g+hahbhchdhehfhghhhihjhkhlhmhnhohphqhrhshthuhvhwhxhyhzhAhBhChDhEhFhGhHhIhJhKhLhMhNhOhPhQhRhShThUhVhWhXhYhZh0h1h2h3h4h5h6h7h8h9h.h+",
"aaabacadaeafagahaiajakalamanaoapaqarasatauavawaxayazaAaBaCaDaEaFaGaHaIaJaKaLaMaNaOaPaQaRaSaTaUaVaWaXaYaZa0a1a2a3a4a5a6a7a8a9a.a+babbbcbdbebfbgbhbibjbkblbmbnbobpbqbrbsbtbubvbwbxbybzbAbBbCbDbEbFbGbHbIbJbKbLbMbNbObPbQbRbSbTbUbVbWbXbYbZb0b1b2b3b4b5b6b7b8b9b.b+cacbcccdcecfcgchcicjckclcmcncocpcqcrcsctcucvcwcxcyczcAcBcCcDcEcFcGcHcIcJcKcLcMcNcOcPcQcRcScTcUcVcWcXcYcZc0c1c2c3c4c5c6c7c8c9c.c+dadbdcdddedfdgdhdidjdkdldmdndodpdqdrdsdtdudvdwdxdydzdAdBdCdDdEdFdGdHdIdJdKdLdMdNdOdPdQdRdSdTdUdVdWdXdYdZd0d1d2d3d4d5d6d7d8d9d.d+eaebecedeeefegeheiejekelemeneoepeqereseteuevewexeyezeAeBeCeDeEeFeGeHeIeJeKeLeMeNeOePeQeReSeTeUeVeWeXeYeZe0e1e2e3e4e5e6e7e8e9e.e+fafbfcfdfefffgfhfifjfkflfmfnfofpfqfrfsftfufvfwfxfyfzfAfBfCfDfEfFfGfHfIfJfKfLfMfNfOfPfQfRfSfTfUfVfWfXfYfZf0f1f2f3f4f5f6f7f8f9f.f+gagbgcgdgegfggghgigjgkglgmgngogpgqgrgsgtgugvgwgxgygzgAgBgCgDgEgFgGgHgIgJgKgLgMgNgOgPgQgRgSgTgUgVgWgXgYgZg0g1g2g3g4g5g6g7g8g9g.g+hahbhchdhehfhghhhihjhkhlhmhnhohphqhrhshthuhvhwhxhyhzhAhBhChDhEhFhGhHhIhJhKhLhMhNhOhPhQhRhShThUhVhWhXhYhZh0h1h2h3h4h5h6h7h8h9h.h+",
"aaabacadaeafagahaiajakalamanaoapaqarasatauavawaxayazaAaBaCaDaEaFaGaHaIaJaKaLaMaNaOaPaQaRaSaTaUaVaWaXaYaZa0a1a2a3a4a5a6a7a8a9a.a+babbbcbdbebfbgbhbibjbkblbmbnbobpbqbrbsbtbubvbwbxbybzbAbBbCbDbEbFbGbHbIbJbKbLbMbNbObPbQbRbSbTbUbVbWbXbYbZb0b1b2b3b4b5b6b7b8b9b.b+cacbcccdcecfcgchcicjckclcmcncocpcqcrcsctcucvcwcxcyczcAcBcCcDcEcFcGcHcIcJcKcLcMcNcOcPcQcRcScTcUcVcWcXcYcZc0c1c2c3c4c5c6c7c8c9c.c+dadbdcdddedfdgdhdidjdkdldmdndodpdqdrdsdtdudvdwdxdydzdAdBdCdDdEdFdGdHdIdJdKdLdMdNdOdPdQdRdSdTdUdVdWdXdYdZd0d1d2d3d4d5d6d7d8d9d.d+eaebecedeeefegeheiejekelemeneoepeqereseteuevewexeyezeAeBeCeDeEeFeGeHeIeJeKeLeMeNeOePeQeReSeTeUeVeWeXeYeZe0e1e2e3e4e5e6e7e8e9e.e+fafbfcfdfefffgfhfifjfkflfmfnfofpfqfrfsftfufvfwfxfyfzfAfBfCfDfEfFfGfHfIfJfKfLfMfNfOfPfQfRfSfTfUfVfWfXfYfZf0f1f2f3f4f5f6f7f8f9f.f+gagbgcgdgegfggghgigjgkglgmgngogpgqgrgsgtgugvgwgxgygzgAgBgCgDgEgFgGgHgIgJgKgLgMgNgOgPgQgRgSgTgUgVgWgXgYgZg0g1g2g3g4g5g6g7g8g9g.g+hahbhchdhehfhghhhihjhkhlhmhnhohphqhrhshthuhvhwhxhyhzhAhBhChDhEhFhGhHhIhJhKhLhMhNhOhPhQhRhShThUhVhWhXhYhZh0h1h2h3h4h5h6h7h8h9h.h+",
"aaabacadaeafagahaiajakalamanaoapaqarasatauavawaxayazaAaBaCaDaEaFaGaHaIaJaKaLaMaNaOaPaQaRaSaTaUaVaWaXaYaZa0a1a2a3a4a5a6a7a8a9a.a+babbbcbdbebfbgbhbibjbkblbmbnbobpbqbrbsbtbubvbwbxbybzbAbBbCbDbEbFbGbHbIbJbKbLbMbNbObPbQbRbSbTbUbVbWbXbYbZb0b1b2b3b4b5b6b7b8b9b.b+cacbcccdcecfcgchcicjckclcmcncocpcqcrcsctcucvcwcxcyczcAcBcCcDcEcFcGcHcIcJcKcLcMcNcOcPcQcRcScTcUcVcWcXcYcZc0c1c2c3c4c5c6c7c8c9c.c+dadbdcdddedfdgdhdidjdkdldmdndodpdqdrdsdtdudvdwdxdydzdAdBdCdDdEdFdGdHdIdJdKdLdMdNdOdPdQdRdSdTdUdVdWdXdYdZd0d1d2d3d4d5d6d7d8d9d.d+eaebecedeeefegeheiejekelemeneoepeqereseteuevewexeyezeAeBeCeDeEeFeGeHeIeJeKeLeMeNeOePeQeReSeTeUeVeWeXeYeZe0e1e2e3e4e5e6e7e8e9e.e+fafbfcfdfefffgfhfifjfkflfmfnfofpfqfrfsftfufvfwfxfyfzfAfBfCfDfEfFfGfHfIfJfKfLfMfNfOfPfQfRfSfTfUfVfWfXfYfZf0f1f2f3f4f5f6f7f8f9f.f+gagbgcgdgegfggghgigjgkglgmgngogpgqgrgsgtgugvgwgxgygzgAgBgCgDgEgFgGgHgIgJgKgLgMgNgOgPgQgRgSgTgUgVgWgXgYgZg0g1g2g3g4g5g6g7g8g9g.g+hahbhchdhehfhghhhihjhkhlhmhnhohphqhrhshthuhvhwhxhyhzhAhBhChDhEhFhGhHhIhJhKhLhMhNhOhPhQhRhShThUhVhWhXhYhZh0h1h2h3h4h5h6h7h8h9h.h+",
"aaabacadaeafagahaiajakalamanaoapaqarasatauavawaxayazaAaBaCaDaEaFaGaHaIaJaKaLaMaNaOaPaQaRaSaTaUaVaWaXaYaZa0a1a2a3a4a5a6a7a8a9a.a+babbbcbdbebfbgbhbibjbkblbmbnbobpbqbrbsbtbubvbwbxbybzbAbBbCbDbEbFbGbHbIbJbKbLbMbNbObPbQbRbSbTbUbVbWbXbYbZb0b1b2b3b4b5b6b7b8b9b.b+cacbcccdcecfcgchcicjckclcmcncocpcqcrcsctcucvcwcxcyczcAcBcCcDcEcFcGcHcIcJcKcLcMcNcOcPcQcRcScTcUcVcWcXcYcZc0c1c2c3c4c5c6c7c8c9c.c+dadbdcdddedfdgdhdidjdkdldmdndodpdqdrdsdtdudvdwdxdydzdAdBdCdDdEdFdGdHdIdJdKdLdMdNdOdPdQdRdSdTdUdVdWdXdYdZd0d1d2d3d4d5d6d7d8d9d.d+eaebecedeeefegeheiejekelemeneoepeqereseteuevewexeyezeAeBeCeDeEeFeGeHeIeJeKeLeMeNeOePeQeReSeTeUeVeWeXeYeZe0e1e2e3e4e5e6e7e8e9e.e+fafbfcfdfefffgfhfifjfkflfmfnfofpfqfrfsftfufvfwfxfyfzfAfBfCfDfEfFfGfHfIfJfKfLfMfNfOfPfQfRfSfTfUfVfWfXfYfZf0f1f2f3f4f5f6f7f8f9f.f+gagbgcgdgegfggghgigjgkglgmgngogpgqgrgsgtgugvgwgxgygzgAgBgCgDgEgFgGgHgIgJgKgLgMgNgOgPgQgRgSgTgUgVgWgXgYgZg0g1g2g3g4g5g6g7g8g9g.g+hahbhchdhehfhghhhihjhkhlhmhnhohphqhrhshthuhvhwhxhyhzhAhBhChDhEhFhGhHhIhJhKhLhMhNhOhPhQhRhShThUhVhWhXhYhZh0h1h2h3h4h5h6h7h8h9h.h+",
"aaabacadaeafagahaiajakalamanaoapaqarasatauavawaxayazaAaBaCaDaEaFaGaHaIaJaKaLaMaNaOaPaQaRaSaTaUaVaWaXaYaZa0a1a2a3a4a5a6a7a8a9a.a+babbbcbdbebfbgbhbibjbkblbmbnbobpbqbrbsbtbubvbwbxbybzbAbBbCbDbEbFbGbHbIbJbKbLbMbNbObPbQbRbSbTbUbVbWbXbYbZb0b1b2b3b4b5b6b7b8b9b.b+cacbcccdcecfcgchcicjckclcmcncocpcqcrcsctcucvcwcxcyczcAcBcCcDcEcFcGcHcIcJcKcLcMcNcOcPcQcRcScTcUcVcWcXcYcZc0c1c2c3c4c5c6c7c8c9c.c+dadbdcdddedfdgdhdidjdkdldmdndodpdqdrdsdtdudvdwdxdydzdAdBdCdDdEdFdGdHdIdJdKdLdMdNdOdPdQdRdSdTdUdVdWdXdYdZd0d1d2d3d4d5d6d7d8d9d.d+eaebecedeeefegeheiejekelemeneoepeqereseteuevewexeyezeAeBeCeDeEeFeGeHeIeJeKeLeMeNeOePeQeReSeTeUeVeWeXeYeZe0e1e2e3e4e5e6e7e8e9e.e+fafbfcfdfefffgfhfifjfkflfmfnfofpfqfrfsftfufvfwfxfyfzfAfBfCfDfEfFfGfHfIfJfKfLfMfNfOfPfQfRfSfTfUfVfWfXfYfZf0f1f2f3f4f5f6f7f8f9f.f+gagbgcgdgegfggghgigjgkglgmgngogpgqgrgsgtgugvgwgxgygzgAgBgCgDgEgFgGgHgIgJgKgLgMgNgOgPgQgRgSgTgUgVgWgXgYgZg0g1g2g3g4g5g6g7g8g9g.g+hahbhchdhehfhghhhihjhkhlhmhnhohphqhrhshthuhvhwhxhyhzhAhBhChDhEhFhGhHhIhJhKhLhMhNhOhPhQhRhShThUhVhWhXhYhZh0h1h2h3h4h5h6h7h8h9h.h+",
"aaabacadaeafagahaiajakalamanaoapaqarasatauavawaxayazaAaBaCaDaEaFaGaHaIaJaKaLaMaNaOaPaQaRaSaTaUaVaWaXaYaZa0a1a2a3a4a5a6a7a8a9a.a+babbbcbdbebfbgbhbibjbkblbmbnbobpbqbrbsbtbubvbwbxbybzbAbBbCbDbEbFbGbHbIbJbKbLbMbNbObPbQbRbSbTbUbVbWbXbYbZb0b1b2b3b4b5b6b7b8b9b.b+cacbcccdcecfcgchcicjckclcmcncocpcqcrcsctcucvcwcxcyczcAcBcCcDcEcFcGcHcIcJcKcLcMcNcOcPcQcRcScTcUcVcWcXcYcZc0c1c2c3c4c5c6c7c8c9c.c+dadbdcdddedfdgdhdidjdkdldmdndodpdqdrdsdtdudvdwdxdydzdAdBdCdDdEdFdGdHdIdJdKdLdMdNdOdPdQdRdSdTdUdVdWdXdYdZd0d1d2d3d4d5d6d7d8d9d.d+eaebecedeeefegeheiejekelemeneoepeqereseteuevewexeyezeAeBeCeDeEeFeGeHeIeJeKeLeMeNeOePeQeReSeTeUeVeWeXeYeZe0e1e2e3e4e5e6e7e8e9e.e+fafbfcfdfefffgfhfifjfkflfmfnfofpfqfrfsftfufvfwfxfyfzfAfBfCfDfEfFfGfHfIfJfKfLfMfNfOfPfQfRfSfTfUfVfWfXfYfZf0f1f2f3f4f5f6f7f8f9f.f+gagbgcgdgegfggghgigjgkglgmgngogpgqgrgsgtgugvgwgxgygzgAgBgCgDgEgFgGgHgIgJgKgLgMgNgOgPgQgRgSgTgUgVgWgXgYgZg0g1g2g3g4g5g6g7g8g9g.g+hahbhchdhehfhghhhihjhkhlhmhnhohphqhrhshthuhvhwhxhyhzhAhBhChDhEhFhGhHhIhJhKhLhMhNhOhPhQhRhShThUhVhWhXhYhZh0h1h2h3h4h5h6h7h8h9h.h+",
"aaabacadaeafagahaiajakalamanaoapaqarasatauavawaxayazaAaBaCaDaEaFaGaHaIaJaKaLaMaNaOaPaQaRaSaTaUaVaWaXaYaZa0a1a2a3a4a5a6a7a8a9a.a+babbbcbdbebfbgbhbibjbkblbmbnbobpbqbrbsbtbubvbwbxbybzbAbBbCbDbEbFbGbHbIbJbKbLbMbNbObPbQbRbSbTbUbVbWbXbYbZb0b1b2b3b4b5b6b7b8b9b.b+cacbcccdcecfcgchcicjckclcmcncocpcqcrcsctcucvcwcxcyczcAcBcCcDcEcFcGcHcIcJcKcLcMcNcOcPcQcRcScTcUcVcWcXcYcZc0c1c2c3c4c5c6c7c8c9c.c+dadbdcdddedfdgdhdidjdkdldmdndodpdqdrdsdtdudvdwdxdydzdAdBdCdDdEdFdGdHdIdJdKdLdMdNdOdPdQdRdSdTdUdVdWdXdYdZd0d1d2d3d4d5d6d7d8d9d.d+eaebecedeeefegeheiejekelemeneoepeqereseteuevewexeyezeAeBeCeDeEeFeGeHeIeJeKeLeMeNeOePeQeReSeTeUeVeWeXeYeZe0e1e2e3e4e5e6e7e8e9e.e+fafbfcfdfefffgfhfifjfkflfmfnfofpfqfrfsftfufvfwfxfyfzfAfBfCfDfEfFfGfHfIfJfKfLfMfNfOfPfQfRfSfTfUfVfWfXfYfZf0f1f2f3f4f5f6f7f8f9f.f+gagbgcgdgegfggghgigjgkglgmgngogpgqgrgsgtgugvgwgxgygzgAgBgCgDgEgFgGgHgIgJgKgLgMgNgOgPgQgRgSgTgUgVgWgXgYgZg0g1g2g3g4g5g6g7g8g9g.g+hahbhchdhehfhghhhihjhkhlhmhnhohphqhrhshthuhvhwhxhyhzhAhBhChDhEhFhGhHhIhJhKhLhMhNhOhPhQhRhShThUhVhWhXhYhZh0h1h2h3h4h5h6h7h8h9h.h+",
"aaabacadaeafagahaiajakalamanaoapaqarasatauavawaxayazaAaBaCaDaEaFaGaHaIaJaKaLaMaNaOaPaQaRaSaTaUaVaWaXaYaZa0a1a2a3a4a5a6a7a8a9a.a+babbbcbdbebfbgbhbibjbkblbmbnbobpbqbrbsbtbubvbwbxbybzbAbBbCbDbEbFbGbHbIbJbKbLbMbNbObPbQbRbSbTbUbVbWbXbYbZb0b1b2b3b4b5b6b7b8b9b.b+cacbcccdcecfcgchcicjckclcmcncocpcqcrcsctcucvcwcxcyczcAcBcCcDcEcFcGcHcIcJcKcLcMcNcOcPcQcRcScTcUcVcWcXcYcZc0c1c2c3c4c5c6c7c8c9c.c+dadbdcdddedfdgdhdidjdkdldmdndodpdqdrdsdtdudvdwdxdydzdAdBdCdDdEdFdGdHdIdJdKdLdMdNdOdPdQdRdSdTdUdVdWdXdYdZd0d1d2d3d4d5d6d7d8d9d.d+eaebecedeeefegeheiejekelemeneoepeqereseteuevewexeyezeAeBeCeDeEeFeGeHeIeJeKeLeMeNeOePeQeReSeTeUeVeWeXeYeZe0e1e2e3e4e5e6e7e8e9e.e+fafbfcfdfefffgfhfifjfkflfmfnfofpfqfrfsftfufvfwfxfyfzfAfBfCfDfEfFfGfHfIfJfKfLfMfNfOfPfQfRfSfTfUfVfWfXfYfZf0f1f2f3f4f5f6f7f8f9f.f+gagbgcgdgegfggghgigjgkglgmgngogpgqgrgsgtgugvgwgxgygzgAgBgCgDgEgFgGgHgIgJgKgLgMgNgOgPgQgRgSgTgUgVgWgXgYgZg0g1g2g3g4g5g6g7g8g9g.g+hahbhchdhehfhghhhihjhkhlhmhnhohphqhrhshthuhvhwhxhyhzhAhBhChDhEhFhGhHhIhJhKhLhMhNhOhPhQhRhShThUhVhWhXhYhZh0h1h2h3h4h5h6h7h8h9h.h+",
"aaabacadaeafagahaiajakalamanaoapaqarasatauavawaxayazaAaBaCaDaEaFaGaHaIaJaKaLaMaNaOaPaQaRaSaTaUaVaWaXaYaZa0a1a2a3a4a5a6a7a8a9a.a+babbbcbdbebfbgbhbibjbkblbmbnbobpbqbrbsbtbubvbwbxbybzbAbBbCbDbEbFbGbHbIbJbKbLbMbNbObPbQbRbSbTbUbVbWbXbYbZb0b1b2b3b4b5b6b7b8b9b.b+cacbcccdcecfcgchcicjckclcmcncocpcqcrcsctcucvcwcxcyczcAcBcCcDcEcFcGcHcIcJcKcLcMcNcOcPcQcRcScTcUcVcWcXcYcZc0c1c2c3c4c5c6c7c8c9c.c+dadbdcdddedfdgdhdidjdkdldmdndodpdqdrdsdtdudvdwdxdydzdAdBdCdDdEdFdGdHdIdJdKdLdMdNdOdPdQdRdSdTdUdVdWdXdYdZd0d1d2d3d4d5d6d7d8d9d.d+eaebecedeeefegeheiejekelemeneoepeqereseteuevewexeyezeAeBeCeDeEeFeGeHeIeJeKeLeMeNeOePeQeReSeTeUeVeWeXeYeZe0e1e2e3e4e5e6e7e8e9e.e+fafbfcfdfefffgfhfifjfkflfmfnfofpfqfrfsftfufvfwfxfyfzfAfBfCfDfEfFfGfHfIfJfKfLfMfNfOfPfQfRfSfTfUfVfWfXfYfZf0f1f2f3f4f5f6f7f8f9f.f+gagbgcgdgegfggghgigjgkglgmgngogpgqgrgsgtgugvgwgxgygzgAgBgCgDgEgFgGgHgIgJgKgLgMgNgOgPgQgRgSgTgUgVgWgXgYgZg0g1g2g3g4g5g6g7g8g9g.g+hahbhchdhehfhghhhihjhkhlhmhnhohphqhrhshthuhvhwhxhyhzhAhBhChDhEhFhGhHhIhJhKhLhMhNhOhPhQhRhShThUhVhWhXhYhZh0h1h2h3h4h5h6h7h8h9h.h+",
"aaabacadaeafagahaiajakalamanaoapaqarasatauavawaxayazaAaBaCaDaEaFaGaHaIaJaKaLaMaNaOaPaQaRaSaTaUaVaWaXaYaZa0a1a2a3a4a5a6a7a8a9a.a+babbbcbdbebfbgbhbibjbkblbmbnbobpbqbrbsbtbubvbwbxbybzbAbBbCbDbEbFbGbHbIbJbKbLbMbNbObPbQbRbSbTbUbVbWbXbYbZb0b1b2b3b4b5b6b7b8b9b.b+cacbcccdcecfcgchcicjckclcmcncocpcqcrcsctcucvcwcxcyczcAcBcCcDcEcFcGcHcIcJcKcLcMcNcOcPcQcRcScTcUcVcWcXcYcZc0c1c2c3c4c5c6c7c8c9c.c+dadbdcdddedfdgdhdidjdkdldmdndodpdqdrdsdtdudvdwdxdydzdAdBdCdDdEdFdGdHdIdJdKdLdMdNdOdPdQdRdSdTdUdVdWdXdYdZd0d1d2d3d4d5d6d7d8d9d.d+eaebecedeeefegeheiejekelemeneoepeqereseteuevewexeyezeAeBeCeDeEeFeGeHeIeJeKeLeMeNeOePeQeReSeTeUeVeWeXeYeZe0e1e2e3e4e5e6e7e8e9e.e+fafbfcfdfefffgfhfifjfkflfmfnfofpfqfrfsftfufvfwfxfyfzfAfBfCfDfEfFfGfHfIfJfKfLfMfNfOfPfQfRfSfTfUfVfWfXfYfZf0f1f2f3f4f5f6f7f8f9f.f+gagbgcgdgegfggghgigjgkglgmgngogpgqgrgsgtgugvgwgxgygzgAgBgCgDgEgFgGgHgIgJgKgLgMgNgOgPgQgRgSgTgUgVgWgXgYgZg0g1g2g3g4g5g6g7g8g9g.g+hahbhchdhehfhghhhihjhkhlhmhnhohphqhrhshthuhvhwhxhyhzhAhBhChDhEhFhGhHhIhJhKhLhMhNhOhPhQhRhShThUhVhWhXhYhZh0h1h2h3h4h5h6h7h8h9h.h+",
"aaabacadaeafagahaiajakalamanaoapaqarasatauavawaxayazaAaBaCaDaEaFaGaHaIaJaKaLaMaNaOaPaQaRaSaTaUaVaWaXaYaZa0a1a2a3a4a5a6a7a8a9a.a+babbbcbdbebfbgbhbibjbkblbmbnbobpbqbrbsbtbubvbwbxbybzbAbBbCbDbEbFbGbHbIbJbKbLbMbNbObPbQbRbSbTbUbVbWbXbYbZb0b1b2b3b4b5b6b7b8b9b.b+cacbcccdcecfcgchcicjckclcmcncocpcqcrcsctcucvcwcxcyczcAcBcCcDcEcFcGcHcIcJcKcLcMcNcOcPcQcRcScTcUcVcWcXcYcZc0c1c2c3c4c5c6c7c8c9c.c+dadbdcdddedfdgdhdidjdkdldmdndodpdqdrdsdtdudvdwdxdydzdAdBdCdDdEdFdGdHdIdJdKdLdMdNdOdPdQdRdSdTdUdVdWdXdYdZd0d1d2d3d4d5d6d7d8d9d.d+eaebecedeeefegeheiejekelemeneoepeqereseteuevewexeyezeAeBeCeDeEeFeGeHeIeJeKeLeMeNeOePeQeReSeTeUeVeWeXeYeZe0e1e2e3e4e5e6e7e8e9e.e+fafbfcfdfefffgfhfifjfkflfmfnfofpfqfrfsftfufvfwfxfyfzfAfBfCfDfEfFfGfHfIfJfKfLfMfNfOfPfQfRfSfTfUfVfWfXfYfZf0f1f2f3f4f5f6f7f8f9f.f+gagbgcgdgegfggghgigjgkglgmgngogpgqgrgsgtgugvgwgxgygzgAgBgCgDgEgFgGgHgIgJgKgLgMgNgOgPgQgRgSgTgUgVgWgXgYgZg0g1g2g3g4g5g6g7g8g9g.g+hahbhchdhehfhghhhihjhkhlhmhnhohphqhrhshthuhvhwhxhyhzhAhBhChDhEhFhGhHhIhJhKhLhMhNhOhPhQhRhShThUhVhWhXhYhZh0h1h2h3h4h5h6h7h8h9h.h+",
"aaabacadaeafagahaiajakalamanaoapaqarasatauavawaxayazaAaBaCaDaEaFaGaHaIaJaKaLaMaNaOaPaQaRaSaTaUaVaWaXaYaZa0a1a2a3a4a5a6a7a8a9a.a+babbbcbdbebfbgbhbibjbkblbmbnbobpbqbrbsbtbubvbwbxbybzbAbBbCbDbEbFbGbHbIbJbKbLbMbNbObPbQbRbSbTbUbVbWbXbYbZb0b1b2b3b4b5b6b7b8b9b.b+cacbcccdcecfcgchcicjckclcmcncocpcqcrcsctcucvcwcxcyczcAcBcCcDcEcFcGcHcIcJcKcLcMcNcOcPcQcRcScTcUcVcWcXcYcZc0c1c2c3c4c5c6c7c8c9c.c+dadbdcdddedfdgdhdidjdkdldmdndodpdqdrdsdtdudvdwdxdydzdAdBdCdDdEdFdGdHdIdJdKdLdMdNdOdPdQdRdSdTdUdVdWdXdYdZd0d1d2d3d4d5d6d7d8d9d.d+eaebecedeeefegeheiejekelemeneoepeqereseteuevewexeyezeAeBeCeDeEeFeGeHeIeJeKeLeMeNeOePeQeReSeTeUeVeWeXeYeZe0e1e2e3e4e5e6e7e8e9e.e+fafbfcfdfefffgfhfifjfkflfmfnfofpfqfrfsftfufvfwfxfyfzfAfBfCfDfEfFfGfHfIfJfKfLfMfNfOfPfQfRfSfTfUfVfWfXfYfZf0f1f2f3f4f5f6f7f8f9f.f+gagbgcgdgegfggghgigjgkglgmgngogpgqgrgsgtgugvgwgxgygzgAgBgCgDgEgFgGgHgIgJgKgLgMgNgOgPgQgRgSgTgUgVgWgXgYgZg0g1g2g3g4g5g6g7g8g9g.g+hahbhchdhehfhghhhihjhkhlhmhnhohphqhrhshthuhvhwhxhyhzhAhBhChDhEhFhGhHhIhJhKhLhMhNhOhPhQhRhShThUhVhWhXhYhZh0h1h2h3h4h5h6h7h8h9h.h+",
"aaabacadaeafagahaiajakalamanaoapaqarasatauavawaxayazaAaBaCaDaEaFaGaHaIaJaKaLaMaNaOaPaQaRaSaTaUaVaWaXaYaZa0a1a2a3a4a5a6a7a8a9a.a+babbbcbdbebfbgbhbibjbkblbmbnbobpbqbrbsbtbubvbwbxbybzbAbBbCbDbEbFbGbHbIbJbKbLbMbNbObPbQbRbSbTbUbVbWbXbYbZb0b1b2b3b4b5b6b7b8b9b.b+cacbcccdcecfcgchcicjckclcmcncocpcqcrcsctcucvcwcxcyczcAcBcCcDcEcFcGcHcIcJcKcLcMcNcOcPcQcRcScTcUcVcWcXcYcZc0c1c2c3c4c5c6c7c8c9c.c+dadbdcdddedfdgdhdidjdkdldmdndodpdqdrdsdtdudvdwdxdydzdAdBdCdDdEdFdGdHdIdJdKdLdMdNdOdPdQdRdSdTdUdVdWdXdYdZd0d1d2d3d4d5d6d7d8d9d.d+eaebecedeeefegeheiejekelemeneoepeqereseteuevewexeyezeAeBeCeDeEeFeGeHeIeJeKeLeMeNeOePeQeReSeTeUeVeWeXeYeZe0e1e2e3e4e5e6e7e8e9e.e+fafbfcfdfefffgfhfifjfkflfmfnfofpfqfrfsftfufvfwfxfyfzfAfBfCfDfEfFfGfHfIfJfKfLfMfNfOfPfQfRfSfTfUfVfWfXfYfZf0f1f2f3f4f5f6f7f8f9f.f+gagbgcgdgegfggghgigjgkglgmgngogpgqgrgsgtgugvgwgxgygzgAgBgCgDgEgFgGgHgIgJgKgLgMgNgOgPgQgRgSgTgUgVgWgXgYgZg0g1g2g3g4g5g6g7g8g9g.g+hahbhchdhehfhghhhihjhkhlhmhnhohphqhrhshthuhvhwhxhyhzhAhBhChDhEhFhGhHhIhJhKhLhMhNhOhPhQhRhShThUhVhWhXhYhZh0h1h2h3h4h5h6h7h8h9h.h+",
"aaabacadaeafagahaiajakalamanaoapaqarasatauavawaxayazaAaBaCaDaEaFaGaHaIaJaKaLaMaNaOaPaQaRaSaTaUaVaWaXaYaZa0a1a2a3a4a5a6a7a8a9a.a+babbbcbdbebfbgbhbibjbkblbmbnbobpbqbrbsbtbubvbwbxbybzbAbBbCbDbEbFbGbHbIbJbKbLbMbNbObPbQbRbSbTbUbVbWbXbYbZb0b1b2b3b4b5b6b7b8b9b.b+cacbcccdcecfcgchcicjckclcmcncocpcqcrcsctcucvcwcxcyczcAcBcCcDcEcFcGcHcIcJcKcLcMcNcOcPcQcRcScTcUcVcWcXcYcZc0c1c2c3c4c5c6c7c8c9c.c+dadbdcdddedfdgdhdidjdkdldmdndodpdqdrdsdtdudvdwdxdydzdAdBdCdDdEdFdGdHdIdJdKdLdMdNdOdPdQdRdSdTdUdVdWdXdYdZd0d1d2d3d4d5d6d7d8d9d.d+eaebecedeeefegeheiejekelemeneoepeqereseteuevewexeyezeAeBeCeDeEeFeGeHeIeJeKeLeMeNeOePeQeReSeTeUeVeWeXeYeZe0e1e2e3e4e5e6e7e8e9e.e+fafbfcfdfefffgfhfifjfkflfmfnfofpfqfrfsftfufvfwfxfyfzfAfBfCfDfEfFfGfHfIfJfKfLfMfNfOfPfQfRfSfTfUfVfWfXfYfZf0f1f2f3f4f5f6f7f8f9f.f+gagbgcgdgegfggghgigjgkglgmgngogpgqgrgsgtgugvgwgxgygzgAgBgCgDgEgFgGgHgIgJgKgLgMgNgOgPgQgRgSgTgUgVgWgXgYgZg0g1g2g3g4g5g6g7g8g9g.g+hahbhchdhehfhghhhihjhkhlhmhnhohphqhrhshthuhvhwhxhyhzhAhBhChDhEhFhGhHhIhJhKhLhMhNhOhPhQhRhShThUhVhWhXhYhZh0h1h2h3h4h5h6h7h8h9h.h+",
"aaabacadaeafagahaiajakalamanaoapaqarasatauavawaxayazaAaBaCaDaEaFaGaHaIaJaKaLaMaNaOaPaQaRaSaTaUaVaWaXaYaZa0a1a2a3a4a5a6a7a8a9a.a+babbbcbdbebfbgbhbibjbkblbmbnbobpbqbrbsbtbubvbwbxbybzbAbBbCbDbEbFbGbHbIbJbKbLbMbNbObPbQbRbSbTbUbVbWbXbYbZb0b1b2b3b4b5b6b7b8b9b.b+cacbcccdcecfcgchcicjckclcmcncocpcqcrcsctcucvcwcxcyczcAcBcCcDcEcFcGcHcIcJcKcLcMcNcOcPcQcRcScTcUcVcWcXcYcZc0c1c2c3c4c5c6c7c8c9c.c+dadbdcdddedfdgdhdidjdkdldmdndodpdqdrdsdtdudvdwdxdydzdAdBdCdDdEdFdGdHdIdJdKdLdMdNdOdPdQdRdSdTdUdVdWdXdYdZd0d1d2d3d4d5d6d7d8d9d.d+eaebecedeeefegeheiejekelemeneoepeqereseteuevewexeyezeAeBeCeDeEeFeGeHeIeJeKeLeMeNeOePeQeReSeTeUeVeWeXeYeZe0e1e2e3e4e5e6e7e8e9e.e+fafbfcfdfefffgfhfifjfkflfmfnfofpfqfrfsftfufvfwfxfyfzfAfBfCfDfEfFfGfHfIfJfKfLfMfNfOfPfQfRfSfTfUfVfWfXfYfZf0f1f2f3f4f5f6f7f8f9f.f+gagbgcgdgegfggghgigjgkglgmgngogpgqgrgsgtgugvgwgxgygzgAgBgCgDgEgFgGgHgIgJgKgLgMgNgOgPgQgRgSgTgUgVgWgXgYgZg0g1g2g3g4g5g6g7g8g9g.g+hahbhchdhehfhghhhihjhkhlhmhnhohphqhrhshthuhvhwhxhyhzhAhBhChDhEhFhGhHhIhJhKhLhMhNhOhPhQhRhShThUhVhWhXhYhZh0h1h2h3h4h5h6h7h8h9h.h+",
"aaabacadaeafagahaiajakalamanaoapaqarasatauavawaxayazaAaBaCaDaEaFaGaHaIaJaKaLaMaNaOaPaQaRaSaTaUaVaWaXaYaZa0a1a2a3a4a5a6a7a8a9a.a+babbbcbdbebfbgbhbibjbkblbmbnbobpbqbrbsbtbubvbwbxbybzbAbBbCbDbEbFbGbHbIbJbKbLbMbNbObPbQbRbSbTbUbVbWbXbYbZb0b1b2b3b4b5b6b7b8b9b.b+cacbcccdcecfcgchcicjckclcmcncocpcqcrcsctcucvcwcxcyczcAcBcCcDcEcFcGcHcIcJcKcLcMcNcOcPcQcRcScTcUcVcWcXcYcZc0c1c2c3c4c5c6c7c8c9c.c+dadbdcdddedfdgdhdidjdkdldmdndodpdqdrdsdtdudvdwdxdydzdAdBdCdDdEdFdGdHdIdJdKdLdMdNdOdPdQdRdSdTdUdVdWdXdYdZd0d1d2d3d4d5d6d7d8d9d.d+eaebecedeeefegeheiejekelemeneoepeqereseteuevewexeyezeAeBeCeDeEeFeGeHeIeJeKeLeMeNeOePeQeReSeTeUeVeWeXeYeZe0e1e2e3e4e5e6e7e8e9e.e+fafbfcfdfefffgfhfifjfkflfmfnfofpfqfrfsftfufvfwfxfyfzfAfBfCfDfEfFfGfHfIfJfKfLfMfNfOfPfQfRfSfTfUfVfWfXfYfZf0f1f2f3f4f5f6f7f8f9f.f+gagbgcgdgegfggghgigjgkglgmgngogpgqgrgsgtgugvgwgxgygzgAgBgCgDgEgFgGgHgIgJgKgLgMgNgOgPgQgRgSgTgUgVgWgXgYgZg0g1g2g3g4g5g6g7g8g9g.g+hahbhchdhehfhghhhihjhkhlhmhnhohphqhrhshthuhvhwhxhyhzhAhBhChDhEhFhGhHhIhJhKhLhMhNhOhPhQhRhShThUhVhWhXhYhZh0h1h2h3h4h5h6h7h8h9h.h+",
"aaabacadaeafagahaiajakalamanaoapaqarasatauavawaxayazaAaBaCaDaEaFaGaHaIaJaKaLaMaNaOaPaQaRaSaTaUaVaWaXaYaZa0a1a2a3a4a5a6a7a8a9a.a+babbbcbdbebfbgbhbibjbkblbmbnbobpbqbrbsbtbubvbwbxbybzbAbBbCbDbEbFbGbHbIbJbKbLbMbNbObPbQbRbSbTbUbVbWbXbYbZb0b1b2b3b4b5b6b7b8b9b.b+cacbcccdcecfcgchcicjckclcmcncocpcqcrcsctcucvcwcxcyczcAcBcCcDcEcFcGcHcIcJcKcLcMcNcOcPcQcRcScTcUcVcWcXcYcZc0c1c2c3c4c5c6c7c8c9c.c+dadbdcdddedfdgdhdidjdkdldmdndodpdqdrdsdtdudvdwdxdydzdAdBdCdDdEdFdGdHdIdJdKdLdMdNdOdPdQdRdSdTdUdVdWdXdYdZd0d1d2d3d4d5d6d7d8d9d.d+eaebecedeeefegeheiejekelemeneoepeqereseteuevewexeyezeAeBeCeDeEeFeGeHeIeJeKeLeMeNeOePeQeReSeTeUeVeWeXeYeZe0e1e2e3e4e5e6e7e8e9e.e+fafbfcfdfefffgfhfifjfkflfmfnfofpfqfrfsftfufvfwfxfyfzfAfBfCfDfEfFfGfHfIfJfKfLfMfNfOfPfQfRfSfTfUfVfWfXfYfZf0f1f2f3f4f5f6f7f8f9f.f+gagbgcgdgegfggghgigjgkglgmgngogpgqgrgsgtgugvgwgxgygzgAgBgCgDgEgFgGgHgIgJgKgLgMgNgOgPgQgRgSgTgUgVgWgXgYgZg0g1g2g3g4g5g6g7g8g9g.g+hahbhchdhehfhghhhihjhkhlhmhnhohphqhrhshthuhvhwhxhyhzhAhBhChDhEhFhGhHhIhJhKhLhMhNhOhPhQhRhShThUhVhWhXhYhZh0h1h2h3h4h5h6h7h8h9h.h+",
"aaabacadaeafagahaiajakalamanaoapaqarasatauavawaxayazaAaBaCaDaEaFaGaHaIaJaKaLaMaNaOaPaQaRaSaTaUaVaWaXaYaZa0a1a2a3a4a5a6a7a8a9a.a+babbbcbdbebfbgbhbibjbkblbmbnbobpbqbrbsbtbubvbwbxbybzbAbBbCbDbEbFbGbHbIbJbKbLbMbNbObPbQbRbSbTbUbVbWbXbYbZb0b1b2b3b4b5b6b7b8b9b.b+cacbcccdcecfcgchcicjckclcmcncocpcqcrcsctcucvcwcxcyczcAcBcCcDcEcFcGcHcIcJcKcLcMcNcOcPcQcRcScTcUcVcWcXcYcZc0c1c2c3c4c5c6c7c8c9c.c+dadbdcdddedfdgdhdidjdkdldmdndodpdqdrdsdtdudvdwdxdydzdAdBdCdDdEdFdGdHdIdJdKdLdMdNdOdPdQdRdSdTdUdVdWdXdYdZd0d1d2d3d4d5d6d7d8d9d.d+eaebecedeeefegeheiejekelemeneoepeqereseteuevewexeyezeAeBeCeDeEeFeGeHeIeJeKeLeMeNeOePeQeReSeTeUeVeWeXeYeZe0e1e2e3e4e5e6e7e8e9e.e+fafbfcfdfefffgfhfifjfkflfmfnfofpfqfrfsftfufvfwfxfyfzfAfBfCfDfEfFfGfHfIfJfKfLfMfNfOfPfQfRfSfTfUfVfWfXfYfZf0f1f2f3f4f5f6f7f8f9f.f+gagbgcgdgegfggghgigjgkglgmgngogpgqgrgsgtgugvgwgxgygzgAgBgCgDgEgFgGgHgIgJgKgLgMgNgOgPgQgRgSgTgUgVgWgXgYgZg0g1g2g3g4g5g6g7g8g9g.g+hahbhchdhehfhghhhihjhkhlhmhnhohphqhrhshthuhvhwhxhyhzhAhBhChDhEhFhGhHhIhJhKhLhMhNhOhPhQhRhShThUhVhWhXhYhZh0h1h2h3h4h5h6h7h8h9h.h+",
"aaabacadaeafagahaiajakalamanaoapaqarasatauavawaxayazaAaBaCaDaEaFaGaHaIaJaKaLaMaNaOaPaQaRaSaTaUaVaWaXaYaZa0a1a2a3a4a5a6a7a8a9a.a+babbbcbdbebfbgbhbibjbkblbmbnbobpbqbrbsbtbubvbwbxbybzbAbBbCbDbEbFbGbHbIbJbKbLbMbNbObPbQbRbSbTbUbVbWbXbYbZb0b1b2b3b4b5b6b7b8b9b.b+cacbcccdcecfcgchcicjckclcmcncocpcqcrcsctcucvcwcxcyczcAcBcCcDcEcFcGcHcIcJcKcLcMcNcOcPcQcRcScTcUcVcWcXcYcZc0c1c2c3c4c5c6c7c8c9c.c+dadbdcdddedfdgdhdidjdkdldmdndodpdqdrdsdtdudvdwdxdydzdAdBdCdDdEdFdGdHdIdJdKdLdMdNdOdPdQdRdSdTdUdVdWdXdYdZd0d1d2d3d4d5d6d7d8d9d.d+eaebecedeeefegeheiejekelemeneoepeqereseteuevewexeyezeAeBeCeDeEeFeGeHeIeJeKeLeMeNeOePeQeReSeTeUeVeWeXeYeZe0e1e2e3e4e5e6e7e8e9e.e+fafbfcfdfefffgfhfifjfkflfmfnfofpfqfrfsftfufvfwfxfyfzfAfBfCfDfEfFfGfHfIfJfKfLfMfNfOfPfQfRfSfTfUfVfWfXfYfZf0f1f2f3f4f5f6f7f8f9f.f+gagbgcgdgegfggghgigjgkglgmgngogpgqgrgsgtgugvgwgxgygzgAgBgCgDgEgFgGgHgIgJgKgLgMgNgOgPgQgRgSgTgUgVgWgXgYgZg0g1g2g3g4g5g6g7g8g9g.g+hahbhchdhehfhghhhihjhkhlhmhnhohphqhrhshthuhvhwhxhyhzhAhBhChDhEhFhGhHhIhJhKhLhMhNhOhPhQhRhShThUhVhWhXhYhZh0h1h2h3h4h5h6h7h8h9h.h+",
"aaabacadaeafagahaiajakalamanaoapaqarasatauavawaxayazaAaBaCaDaEaFaGaHaIaJaKaLaMaNaOaPaQaRaSaTaUaVaWaXaYaZa0a1a2a3a4a5a6a7a8a9a.a+babbbcbdbebfbgbhbibjbkblbmbnbobpbqbrbsbtbubvbwbxbybzbAbBbCbDbEbFbGbHbIbJbKbLbMbNbObPbQbRbSbTbUbVbWbXbYbZb0b1b2b3b4b5b6b7b8b9b.b+cacbcccdcecfcgchcicjckclcmcncocpcqcrcsctcucvcwcxcyczcAcBcCcDcEcFcGcHcIcJcKcLcMcNcOcPcQcRcScTcUcVcWcXcYcZc0c1c2c3c4c5c6c7c8c9c.c+dadbdcdddedfdgdhdidjdkdldmdndodpdqdrdsdtdudvdwdxdydzdAdBdCdDdEdFdGdHdIdJdKdLdMdNdOdPdQdRdSdTdUdVdWdXdYdZd0d1d2d3d4d5d6d7d8d9d.d+eaebecedeeefegeheiejekelemeneoepeqereseteuevewexeyezeAeBeCeDeEeFeGeHeIeJeKeLeMeNeOePeQeReSeTeUeVeWeXeYeZe0e1e2e3e4e5e6e7e8e9e.e+fafbfcfdfefffgfhfifjfkflfmfnfofpfqfrfsftfufvfwfxfyfzfAfBfCfDfEfFfGfHfIfJfKfLfMfNfOfPfQfRfSfTfUfVfWfXfYfZf0f1f2f3f4f5f6f7f8f9f.f+gagbgcgdgegfggghgigjgkglgmgngogpgqgrgsgtgugvgwgxgygzgAgBgCgDgEgFgGgHgIgJgKgLgMgNgOgPgQgRgSgTgUgVgWgXgYgZg0g1g2g3g4g5g6g7g8g9g.g+hahbhchdhehfhghhhihjhkhlhmhnhohphqhrhshthuhvhwhxhyhzhAhBhChDhEhFhGhHhIhJhKhLhMhNhOhPhQhRhShThUhVhWhXhYhZh0h1h2h3h4h5h6h7h8h9h.h+",
"aaabacadaeafagahaiajakalamanaoapaqarasatauavawaxayazaAaBaCaDaEaFaGaHaIaJaKaLaMaNaOaPaQaRaSaTaUaVaWaXaYaZa0a1a2a3a4a5a6a7a8a9a.a+babbbcbdbebfbgbhbibjbkblbmbnbobpbqbrbsbtbubvbwbxbybzbAbBbCbDbEbFbGbHbIbJbKbLbMbNbObPbQbRbSbTbUbVbWbXbYbZb0b1b2b3b4b5b6b7b8b9b.b+cacbcccdcecfcgchcicjckclcmcncocpcqcrcsctcucvcwcxcyczcAcBcCcDcEcFcGcHcIcJcKcLcMcNcOcPcQcRcScTcUcVcWcXcYcZc0c1c2c3c4c5c6c7c8c9c.c+dadbdcdddedfdgdhdidjdkdldmdndodpdqdrdsdtdudvdwdxdydzdAdBdCdDdEdFdGdHdIdJdKdLdMdNdOdPdQdRdSdTdUdVdWdXdYdZd0d1d2d3d4d5d6d7d8d9d.d+eaebecedeeefegeheiejekelemeneoepeqereseteuevewexeyezeAeBeCeDeEeFeGeHeIeJeKeLeMeNeOePeQeReSeTeUeVeWeXeYeZe0e1e2e3e4e5e6e7e8e9e.e+fafbfcfdfefffgfhfifjfkflfmfnfofpfqfrfsftfufvfwfxfyfzfAfBfCfDfEfFfGfHfIfJfKfLfMfNfOfPfQfRfSfTfUfVfWfXfYfZf0f1f2f3f4f5f6f7f8f9f.f+gagbgcgdgegfggghgigjgkglgmgngogpgqgrgsgtgugvgwgxgygzgAgBgCgDgEgFgGgHgIgJgKgLgMgNgOgPgQgRgSgTgUgVgWgXgYgZg0g1g2g3g4g5g6g7g8g9g.g+hahbhchdhehfhghhhihjhkhlhmhnhohphqhrhshthuhvhwhxhyhzhAhBhChDhEhFhGhHhIhJhKhLhMhNhOhPhQhRhShThUhVhWhXhYhZh0h1h2h3h4h5h6h7h8h9h.h+",
"aaabacadaeafagahaiajakalamanaoapaqarasatauavawaxayazaAaBaCaDaEaFaGaHaIaJaKaLaMaNaOaPaQaRaSaTaUaVaWaXaYaZa0a1a2a3a4a5a6a7a8a9a.a+babbbcbdbebfbgbhbibjbkblbmbnbobpbqbrbsbtbubvbwbxbybzbAbBbCbDbEbFbGbHbIbJbKbLbMbNbObPbQbRbSbTbUbVbWbXbYbZb0b1b2b3b4b5b6b7b8b9b.b+cacbcccdcecfcgchcicjckclcmcncocpcqcrcsctcucvcwcxcyczcAcBcCcDcEcFcGcHcIcJcKcLcMcNcOcPcQcRcScTcUcVcWcXcYcZc0c1c2c3c4c5c6c7c8c9c.c+dadbdcdddedfdgdhdidjdkdldmdndodpdqdrdsdtdudvdwdxdydzdAdBdCdDdEdFdGdHdIdJdKdLdMdNdOdPdQdRdSdTdUdVdWdXdYdZd0d1d2d3d4d5d6d7d8d9d.d+eaebecedeeefegeheiejekelemeneoepeqereseteuevewexeyezeAeBeCeDeEeFeGeHeIeJeKeLeMeNeOePeQeReSeTeUeVeWeXeYeZe0e1e2e3e4e5e6e7e8e9e.e+fafbfcfdfefffgfhfifjfkflfmfnfofpfqfrfsftfufvfwfxfyfzfAfBfCfDfEfFfGfHfIfJfKfLfMfNfOfPfQfRfSfTfUfVfWfXfYfZf0f1f2f3f4f5f6f7f8f9f.f+gagbgcgdgegfggghgigjgkglgmgngogpgqgrgsgtgugvgwgxgygzgAgBgCgDgEgFgGgHgIgJgKgLgMgNgOgPgQgRgSgTgUgVgWgXgYgZg0g1g2g3g4g5g6g7g8g9g.g+hahbhchdhehfhghhhihjhkhlhmhnhohphqhrhshthuhvhwhxhyhzhAhBhChDhEhFhGhHhIhJhKhLhMhNhOhPhQhRhShThUhVhWhXhYhZh0h1h2h3h4h5h6h7h8h9h.h+",
"aaabacadaeafagahaiajakalamanaoapaqarasatauavawaxayazaAaBaCaDaEaFaGaHaIaJaKaLaMaNaOaPaQaRaSaTaUaVaWaXaYaZa0a1a2a3a4a5a6a7a8a9a.a+babbbcbdbebfbgbhbibjbkblbmbnbobpbqbrbsbtbubvbwbxbybzbAbBbCbDbEbFbGbHbIbJbKbLbMbNbObPbQbRbSbTbUbVbWbXbYbZb0b1b2b3b4b5b6b7b8b9b.b+cacbcccdcecfcgchcicjckclcmcncocpcqcrcsctcucvcwcxcyczcAcBcCcDcEcFcGcHcIcJcKcLcMcNcOcPcQcRcScTcUcVcWcXcYcZc0c1c2c3c4c5c6c7c8c9c.c+dadbdcdddedfdgdhdidjdkdldmdndodpdqdrdsdtdudvdwdxdydzdAdBdCdDdEdFdGdHdIdJdKdLdMdNdOdPdQdRdSdTdUdVdWdXdYdZd0d1d2d3d4d5d6d7d8d9d.d+eaebecedeeefegeheiejekelemeneoepeqereseteuevewexeyezeAeBeCeDeEeFeGeHeIeJeKeLeMeNeOePeQeReSeTeUeVeWeXeYeZe0e1e2e3e4e5e6e7e8e9e.e+fafbfcfdfefffgfhfifjfkflfmfnfofpfqfrfsftfufvfwfxfyfzfAfBfCfDfEfFfGfHfIfJfKfLfMfNfOfPfQfRfSfTfUfVfWfXfYfZf0f1f2f3f4f5f6f7f8f9f.f+gagbgcgdgegfggghgigjgkglgmgngogpgqgrgsgtgugvgwgxgygzgAgBgCgDgEgFgGgHgIgJgKgLgMgNgOgPgQgRgSgTgUgVgWgXgYgZg0g1g2g3g4g5g6g7g8g9g.g+hahbhchdhehfhghhhihjhkhlhmhnhohphqhrhshthuhvhwhxhyhzhAhBhChDhEhFhGhHhIhJhKhLhMhNhOhPhQhRhShThUhVhWhXhYhZh0h1h2h3h4h5h6h7h8h9h.h+",
"aaabacadaeafagahaiajakalamanaoapaqarasatauavawaxayazaAaBaCaDaEaFaGaHaIaJaKaLaMaNaOaPaQaRaSaTaUaVaWaXaYaZa0a1a2a3a4a5a6a7a8a9a.a+babbbcbdbebfbgbhbibjbkblbmbnbobpbqbrbsbtbubvbwbxbybzbAbBbCbDbEbFbGbHbIbJbKbLbMbNbObPbQbRbSbTbUbVbWbXbYbZb0b1b2b3b4b5b6b7b8b9b.b+cacbcccdcecfcgchcicjckclcmcncocpcqcrcsctcucvcwcxcyczcAcBcCcDcEcFcGcHcIcJcKcLcMcNcOcPcQcRcScTcUcVcWcXcYcZc0c1c2c3c4c5c6c7c8c9c.c+dadbdcdddedfdgdhdidjdkdldmdndodpdqdrdsdtdudvdwdxdydzdAdBdCdDdEdFdGdHdIdJdKdLdMdNdOdPdQdRdSdTdUdVdWdXdYdZd0d1d2d3d4d5d6d7d8d9d.d+eaebecedeeefegeheiejekelemeneoepeqereseteuevewexeyezeAeBeCeDeEeFeGeHeIeJeKeLeMeNeOePeQeReSeTeUeVeWeXeYeZe0e1e2e3e4e5e6e7e8e9e.e+fafbfcfdfefffgfhfifjfkflfmfnfofpfqfrfsftfufvfwfxfyfzfAfBfCfDfEfFfGfHfIfJfKfLfMfNfOfPfQfRfSfTfUfVfWfXfYfZf0f1f2f3f4f5f6f7f8f9f.f+gagbgcgdgegfggghgigjgkglgmgngogpgqgrgsgtgugvgwgxgygzgAgBgCgDgEgFgGgHgIgJgKgLgMgNgOgPgQgRgSgTgUgVgWgXgYgZg0g1g2g3g4g5g6g7g8g9g.g+hahbhchdhehfhghhhihjhkhlhmhnhohphqhrhshthuhvhwhxhyhzhAhBhChDhEhFhGhHhIhJhKhLhMhNhOhPhQhRhShThUhVhWhXhYhZh0h1h2h3h4h5h6h7h8h9h.h+",
"aaabacadaeafagahaiajakalamanaoapaqarasatauavawaxayazaAaBaCaDaEaFaGaHaIaJaKaLaMaNaOaPaQaRaSaTaUaVaWaXaYaZa0a1a2a3a4a5a6a7a8a9a.a+babbbcbdbebfbgbhbibjbkblbmbnbobpbqbrbsbtbubvbwbxbybzbAbBbCbDbEbFbGbHbIbJbKbLbMbNbObPbQbRbSbTbUbVbWbXbYbZb0b1b2b3b4b5b6b7b8b9b.b+cacbcccdcecfcgchcicjckclcmcncocpcqcrcsctcucvcwcxcyczcAcBcCcDcEcFcGcHcIcJcKcLcMcNcOcPcQcRcScTcUcVcWcXcYcZc0c1c2c3c4c5c6c7c8c9c.c+dadbdcdddedfdgdhdidjdkdldmdndodpdqdrdsdtdudvdwdxdydzdAdBdCdDdEdFdGdHdIdJdKdLdMdNdOdPdQdRdSdTdUdVdWdXdYdZd0d1d2d3d4d5d6d7d8d9d.d+eaebecedeeefegeheiejekelemeneoepeqereseteuevewexeyezeAeBeCeDeEeFeGeHeIeJeKeLeMeNeOePeQeReSeTeUeVeWeXeYeZe0e1e2e3e4e5e6e7e8e9e.e+fafbfcfdfefffgfhfifjfkflfmfnfofpfqfrfsftfufvfwfxfyfzfAfBfCfDfEfFfGfHfIfJfKfLfMfNfOfPfQfRfSfTfUfVfWfXfYfZf0f1f2f3f4f5f6f7f8f9f.f+gagbgcgdgegfggghgigjgkglgmgngogpgqgrgsgtgugvgwgxgygzgAgBgCgDgEgFgGgHgIgJgKgLgMgNgOgPgQgRgSgTgUgVgWgXgYgZg0g1g2g3g4g5g6g7g8g9g.g+hahbhchdhehfhghhhihjhkhlhmhnhohphqhrhshthuhvhwhxhyhzhAhBhChDhEhFhGhHhIhJhKhLhMhNhOhPhQhRhShThUhVhWhXhYhZh0h1h2h3h4h5h6h7h8h9h.h+",
"aaabacadaeafagahaiajakalamanaoapaqarasatauavawaxayazaAaBaCaDaEaFaGaHaIaJaKaLaMaNaOaPaQaRaSaTaUaVaWaXaYaZa0a1a2a3a4a5a6a7a8a9a.a+babbbcbdbebfbgbhbibjbkblbmbnbobpbqbrbsbtbubvbwbxbybzbAbBbCbDbEbFbGbHbIbJbKbLbMbNbObPbQbRbSbTbUbVbWbXbYbZb0b1b2b3b4b5b6b7b8b9b.b+cacbcccdcecfcgchcicjckclcmcncocpcqcrcsctcucvcwcxcyczcAcBcCcDcEcFcGcHcIcJcKcLcMcNcOcPcQcRcScTcUcVcWcXcYcZc0c1c2c3c4c5c6c7c8c9c.c+dadbdcdddedfdgdhdidjdkdldmdndodpdqdrdsdtdudvdwdxdydzdAdBdCdDdEdFdGdHdIdJdKdLdMdNdOdPdQdRdSdTdUdVdWdXdYdZd0d1d2d3d4d5d6d7d8d9d.d+eaebecedeeefegeheiejekelemeneoepeqereseteuevewexeyezeAeBeCeDeEeFeGeHeIeJeKeLeMeNeOePeQeReSeTeUeVeWeXeYeZe0e1e2e3e4e5e6e7e8e9e.e+fafbfcfdfefffgfhfifjfkflfmfnfofpfqfrfsftfufvfwfxfyfzfAfBfCfDfEfFfGfHfIfJfKfLfMfNfOfPfQfRfSfTfUfVfWfXfYfZf0f1f2f3f4f5f6f7f8f9f.f+gagbgcgdgegfggghgigjgkglgmgngogpgqgrgsgtgugvgwgxgygzgAgBgCgDgEgFgGgHgIgJgKgLgMgNgOgPgQgRgSgTgUgVgWgXgYgZg0g1g2g3g4g5g6g7g8g9g.g+hahbhchdhehfhghhhihjhkhlhmhnhohphqhrhshthuhvhwhxhyhzhAhBhChDhEhFhGhHhIhJhKhLhMhNhOhPhQhRhShThUhVhWhXhYhZh0h1h2h3h4h5h6h7h8h9h.h+",
"aaabacadaeafagahaiajakalamanaoapaqarasatauavawaxayazaAaBaCaDaEaFaGaHaIaJaKaLaMaNaOaPaQaRaSaTaUaVaWaXaYaZa0a1a2a3a4a5a6a7a8a9a.a+babbbcbdbebfbgbhbibjbkblbmbnbobpbqbrbsbtbubvbwbxbybzbAbBbCbDbEbFbGbHbIbJbKbLbMbNbObPbQbRbSbTbUbVbWbXbYbZb0b1b2b3b4b5b6b7b8b9b.b+cacbcccdcecfcgchcicjckclcmcncocpcqcrcsctcucvcwcxcyczcAcBcCcDcEcFcGcHcIcJcKcLcMcNcOcPcQcRcScTcUcVcWcXcYcZc0c1c2c3c4c5c6c7c8c9c.c+dadbdcdddedfdgdhdidjdkdldmdndodpdqdrdsdtdudvdwdxdydzdAdBdCdDdEdFdGdHdIdJdKdLdMdNdOdPdQdRdSdTdUdVdWdXdYdZd0d1d2d3d4d5d6d7d8d9d.d+eaebecedeeefegeheiejekelemeneoepeqereseteuevewexeyezeAeBeCeDeEeFeGeHeIeJeKeLeMeNeOePeQeReSeTeUeVeWeXeYeZe0e1e2e3e4e5e6e7e8e9e.e+fafbfcfdfefffgfhfifjfkflfmfnfofpfqfrfsftfufvfwfxfyfzfAfBfCfDfEfFfGfHfIfJfKfLfMfNfOfPfQfRfSfTfUfVfWfXfYfZf0f1f2f3f4f5f6f7f8f9f.f+gagbgcgdgegfggghgigjgkglgmgngogpgqgrgsgtgugvgwgxgygzgAgBgCgDgEgFgGgHgIgJgKgLgMgNgOgPgQgRgSgTgUgVgWgXgYgZg0g1g2g3g4g5g6g7g8g9g.g+hahbhchdhehfhghhhihjhkhlhmhnhohphqhrhshthuhvhwhxhyhzhAhBhChDhEhFhGhHhIhJhKhLhMhNhOhPhQhRhShThUhVhWhXhYhZh0h1h2h3h4h5h6h7h8h9h.h+",
"aaabacadaeafagahaiajakalamanaoapaqarasatauavawaxayazaAaBaCaDaEaFaGaHaIaJaKaLaMaNaOaPaQaRaSaTaUaVaWaXaYaZa0a1a2a3a4a5a6a7a8a9a.a+babbbcbdbebfbgbhbibjbkblbmbnbobpbqbrbsbtbubvbwbxbybzbAbBbCbDbEbFbGbHbIbJbKbLbMbNbObPbQbRbSbTbUbVbWbXbYbZb0b1b2b3b4b5b6b7b8b9b.b+cacbcccdcecfcgchcicjckclcmcncocpcqcrcsctcucvcwcxcyczcAcBcCcDcEcFcGcHcIcJcKcLcMcNcOcPcQcRcScTcUcVcWcXcYcZc0c1c2c3c4c5c6c7c8c9c.c+dadbdcdddedfdgdhdidjdkdldmdndodpdqdrdsdtdudvdwdxdydzdAdBdCdDdEdFdGdHdIdJdKdLdMdNdOdPdQdRdSdTdUdVdWdXdYdZd0d1d2d3d4d5d6d7d8d9d.d+eaebecedeeefegeheiejekelemeneoepeqereseteuevewexeyezeAeBeCeDeEeFeGeHeIeJeKeLeMeNeOePeQeReSeTeUeVeWeXeYeZe0e1e2e3e4e5e6e7e8e9e.e+fafbfcfdfefffgfhfifjfkflfmfnfofpfqfrfsftfufvfwfxfyfzfAfBfCfDfEfFfGfHfIfJfKfLfMfNfOfPfQfRfSfTfUfVfWfXfYfZf0f1f2f3f4f5f6f7f8f9f.f+gagbgcgdgegfggghgigjgkglgmgngogpgqgrgsgtgugvgwgxgygzgAgBgCgDgEgFgGgHgIgJgKgLgMgNgOgPgQgRgSgTgUgVgWgXgYgZg0g1g2g3g4g5g6g7g8g9g.g+hahbhchdhehfhghhhihjhkhlhmhnhohphqhrhshthuhvhwhxhyhzhAhBhChDhEhFhGhHhIhJhKhLhMhNhOhPhQhRhShThUhVhWhXhYhZh0h1h2h3h4h5h6h7h8h9h.h+",
"aaabacadaeafagahaiajakalamanaoapaqarasatauavawaxayazaAaBaCaDaEaFaGaHaIaJaKaLaMaNaOaPaQaRaSaTaUaVaWaXaYaZa0a1a2a3a4a5a6a7a8a9a.a+babbbcbdbebfbgbhbibjbkblbmbnbobpbqbrbsbtbubvbwbxbybzbAbBbCbDbEbFbGbHbIbJbKbLbMbNbObPbQbRbSbTbUbVbWbXbYbZb0b1b2b3b4b5b6b7b8b9b.b+cacbcccdcecfcgchcicjckclcmcncocpcqcrcsctcucvcwcxcyczcAcBcCcDcEcFcGcHcIcJcKcLcMcNcOcPcQcRcScTcUcVcWcXcYcZc0c1c2c3c4c5c6c7c8c9c.c+dadbdcdddedfdgdhdidjdkdldmdndodpdqdrdsdtdudvdwdxdydzdAdBdCdDdEdFdGdHdIdJdKdLdMdNdOdPdQdRdSdTdUdVdWdXdYdZd0d1d2d3d4d5d6d7d8d9d.d+eaebecedeeefegeheiejekelemeneoepeqereseteuevewexeyezeAeBeCeDeEeFeGeHeIeJeKeLeMeNeOePeQeReSeTeUeVeWeXeYeZe0e1e2e3e4e5e6e7e8e9e.e+fafbfcfdfefffgfhfifjfkflfmfnfofpfqfrfsftfufvfwfxfyfzfAfBfCfDfEfFfGfHfIfJfKfLfMfNfOfPfQfRfSfTfUfVfWfXfYfZf0f1f2f3f4f5f6f7f8f9f.f+gagbgcgdgegfggghgigjgkglgmgngogpgqgrgsgtgugvgwgxgygzgAgBgCgDgEgFgGgHgIgJgKgLgMgNgOgPgQgRgSgTgUgVgWgXgYgZg0g1g2g3g4g5g6g7g8g9g.g+hahbhchdhehfhghhhihjhkhlhmhnhohphqhrhshthuhvhwhxhyhzhAhBhChDhEhFhGhHhIhJhKhLhMhNhOhPhQhRhShThUhVhWhXhYhZh0h1h2h3h4h5h6h7h8h9h.h+",
"aaabacadaeafagahaiajakalamanaoapaqarasatauavawaxayazaAaBaCaDaEaFaGaHaIaJaKaLaMaNaOaPaQaRaSaTaUaVaWaXaYaZa0a1a2a3a4a5a6a7a8a9a.a+babbbcbdbebfbgbhbibjbkblbmbnbobpbqbrbsbtbubvbwbxbybzbAbBbCbDbEbFbGbHbIbJbKbLbMbNbObPbQbRbSbTbUbVbWbXbYbZb0b1b2b3b4b5b6b7b8b9b.b+cacbcccdcecfcgchcicjckclcmcncocpcqcrcsctcucvcwcxcyczcAcBcCcDcEcFcGcHcIcJcKcLcMcNcOcPcQcRcScTcUcVcWcXcYcZc0c1c2c3c4c5c6c7c8c9c.c+dadbdcdddedfdgdhdidjdkdldmdndodpdqdrdsdtdudvdwdxdydzdAdBdCdDdEdFdGdHdIdJdKdLdMdNdOdPdQdRdSdTdUdVdWdXdYdZd0d1d2d3d4d5d6d7d8d9d.d+eaebecedeeefegeheiejekelemeneoepeqereseteuevewexeyezeAeBeCeDeEeFeGeHeIeJeKeLeMeNeOePeQeReSeTeUeVeWeXeYeZe0e1e2e3e4e5e6e7e8e9e.e+fafbfcfdfefffgfhfifjfkflfmfnfofpfqfrfsftfufvfwfxfyfzfAfBfCfDfEfFfGfHfIfJfKfLfMfNfOfPfQfRfSfTfUfVfWfXfYfZf0f1f2f3f4f5f6f7f8f9f.f+gagbgcgdgegfggghgigjgkglgmgngogpgqgrgsgtgugvgwgxgygzgAgBgCgDgEgFgGgHgIgJgKgLgMgNgOgPgQgRgSgTgUgVgWgXgYgZg0g1g2g3g4g5g6g7g8g9g.g+hahbhchdhehfhghhhihjhkhlhmhnhohphqhrhshthuhvhwhxhyhzhAhBhChDhEhFhGhHhIhJhKhLhMhNhOhPhQhRhShThUhVhWhXhYhZh0h1h2h3h4h5h6h7h8h9h.h+",
"aaabacadaeafagahaiajakalamanaoapaqarasatauavawaxayazaAaBaCaDaEaFaGaHaIaJaKaLaMaNaOaPaQaRaSaTaUaVaWaXaYaZa0a1a2a3a4a5a6a7a8a9a.a+babbbcbdbebfbgbhbibjbkblbmbnbobpbqbrbsbtbubvbwbxbybzbAbBbCbDbEbFbGbHbIbJbKbLbMbNbObPbQbRbSbTbUbVbWbXbYbZb0b1b2b3b4b5b6b7b8b9b.b+cacbcccdcecfcgchcicjckclcmcncocpcqcrcsctcucvcwcxcyczcAcBcCcDcEcFcGcHcIcJcKcLcMcNcOcPcQcRcScTcUcVcWcXcYcZc0c1c2c3c4c5c6c7c8c9c.c+dadbdcdddedfdgdhdidjdkdldmdndodpdqdrdsdtdudvdwdxdydzdAdBdCdDdEdFdGdHdIdJdKdLdMdNdOdPdQdRdSdTdUdVdWdXdYdZd0d1d2d3d4d5d6d7d8d9d.d+eaebecedeeefegeheiejekelemeneoepeqereseteuevewexeyezeAeBeCeDeEeFeGeHeIeJeKeLeMeNeOePeQeReSeTeUeVeWeXeYeZe0e1e2e3e4e5e6e7e8e9e.e+fafbfcfdfefffgfhfifjfkflfmfnfofpfqfrfsftfufvfwfxfyfzfAfBfCfDfEfFfGfHfIfJfKfLfMfNfOfPfQfRfSfTfUfVfWfXfYfZf0f1f2f3f4f5f6f7f8f9f.f+gagbgcgdgegfggghgigjgkglgmgngogpgqgrgsgtgugvgwgxgygzgAgBgCgDgEgFgGgHgIgJgKgLgMgNgOgPgQgRgSgTgUgVgWgXgYgZg0g1g2g3g4g5g6g7g8g9g.g+hahbhchdhehfhghhhihjhkhlhmhnhohphqhrhshthuhvhwhxhyhzhAhBhChDhEhFhGhHhIhJhKhLhMhNhOhPhQhRhShThUhVhWhXhYhZh0h1h2h3h4h5h6h7h8h9h.h+",
"aaabacadaeafagahaiajakalamanaoapaqarasatauavawaxayazaAaBaCaDaEaFaGaHaIaJaKaLaMaNaOaPaQaRaSaTaUaVaWaXaYaZa0a1a2a3a4a5a6a7a8a9a.a+babbbcbdbebfbgbhbibjbkblbmbnbobpbqbrbsbtbubvbwbxbybzbAbBbCbDbEbFbGbHbIbJbKbLbMbNbObPbQbRbSbTbUbVbWbXbYbZb0b1b2b3b4b5b6b7b8b9b.b+cacbcccdcecfcgchcicjckclcmcncocpcqcrcsctcucvcwcxcyczcAcBcCcDcEcFcGcHcIcJcKcLcMcNcOcPcQcRcScTcUcVcWcXcYcZc0c1c2c3c4c5c6c7c8c9c.c+dadbdcdddedfdgdhdidjdkdldmdndodpdqdrdsdtdudvdwdxdydzdAdBdCdDdEdFdGdHdIdJdKdLdMdNdOdPdQdRdSdTdUdVdWdXdYdZd0d1d2d3d4d5d6d7d8d9d.d+eaebecedeeefegeheiejekelemeneoepeqereseteuevewexeyezeAeBeCeDeEeFeGeHeIeJeKeLeMeNeOePeQeReSeTeUeVeWeXeYeZe0e1e2e3e4e5e6e7e8e9e.e+fafbfcfdfefffgfhfifjfkflfmfnfofpfqfrfsftfufvfwfxfyfzfAfBfCfDfEfFfGfHfIfJfKfLfMfNfOfPfQfRfSfTfUfVfWfXfYfZf0f1f2f3f4f5f6f7f8f9f.f+gagbgcgdgegfggghgigjgkglgmgngogpgqgrgsgtgugvgwgxgygzgAgBgCgDgEgFgGgHgIgJgKgLgMgNgOgPgQgRgSgTgUgVgWgXgYgZg0g1g2g3g4g5g6g7g8g9g.g+hahbhchdhehfhghhhihjhkhlhmhnhohphqhrhshthuhvhwhxhyhzhAhBhChDhEhFhGhHhIhJhKhLhMhNhOhPhQhRhShThUhVhWhXhYhZh0h1h2h3h4h5h6h7h8h9h.h+",
"aaabacadaeafagahaiajakalamanaoapaqarasatauavawaxayazaAaBaCaDaEaFaGaHaIaJaKaLaMaNaOaPaQaRaSaTaUaVaWaXaYaZa0a1a2a3a4a5a6a7a8a9a.a+babbbcbdbebfbgbhbibjbkblbmbnbobpbqbrbsbtbubvbwbxbybzbAbBbCbDbEbFbGbHbIbJbKbLbMbNbObPbQbRbSbTbUbVbWbXbYbZb0b1b2b3b4b5b6b7b8b9b.b+cacbcccdcecfcgchcicjckclcmcncocpcqcrcsctcucvcwcxcyczcAcBcCcDcEcFcGcHcIcJcKcLcMcNcOcPcQcRcScTcUcVcWcXcYcZc0c1c2c3c4c5c6c7c8c9c.c+dadbdcdddedfdgdhdidjdkdldmdndodpdqdrdsdtdudvdwdxdydzdAdBdCdDdEdFdGdHdIdJdKdLdMdNdOdPdQdRdSdTdUdVdWdXdYdZd0d1d2d3d4d5d6d7d8d9d.d+eaebecedeeefegeheiejekelemeneoepeqereseteuevewexeyezeAeBeCeDeEeFeGeHeIeJeKeLeMeNeOePeQeReSeTeUeVeWeXeYeZe0e1e2e3e4e5e6e7e8e9e.e+fafbfcfdfefffgfhfifjfkflfmfnfofpfqfrfsftfufvfwfxfyfzfAfBfCfDfEfFfGfHfIfJfKfLfMfNfOfPfQfRfSfTfUfVfWfXfYfZf0f1f2f3f4f5f6f7f8f9f.f+gagbgcgdgegfggghgigjgkglgmgngogpgqgrgsgtgugvgwgxgygzgAgBgCgDgEgFgGgHgIgJgKgLgMgNgOgPgQgRgSgTgUgVgWgXgYgZg0g1g2g3g4g5g6g7g8g9g.g+hahbhchdhehfhghhhihjhkhlhmhnhohphqhrhshthuhvhwhxhyhzhAhBhChDhEhFhGhHhIhJhKhLhMhNhOhPhQhRhShThUhVhWhXhYhZh0h1h2h3h4h5h6h7h8h9h.h+",
"aaabacadaeafagahaiajakalamanaoapaqarasatauavawaxayazaAaBaCaDaEaFaGaHaIaJaKaLaMaNaOaPaQaRaSaTaUaVaWaXaYaZa0a1a2a3a4a5a6a7a8a9a.a+babbbcbdbebfbgbhbibjbkblbmbnbobpbqbrbsbtbubvbwbxbybzbAbBbCbDbEbFbGbHbIbJbKbLbMbNbObPbQbRbSbTbUbVbWbXbYbZb0b1b2b3b4b5b6b7b8b9b.b+cacbcccdcecfcgchcicjckclcmcncocpcqcrcsctcucvcwcxcyczcAcBcCcDcEcFcGcHcIcJcKcLcMcNcOcPcQcRcScTcUcVcWcXcYcZc0c1c2c3c4c5c6c7c8c9c.c+dadbdcdddedfdgdhdidjdkdldmdndodpdqdrdsdtdudvdwdxdydzdAdBdCdDdEdFdGdHdIdJdKdLdMdNdOdPdQdRdSdTdUdVdWdXdYdZd0d1d2d3d4d5d6d7d8d9d.d+eaebecedeeefegeheiejekelemeneoepeqereseteuevewexeyezeAeBeCeDeEeFeGeHeIeJeKeLeMeNeOePeQeReSeTeUeVeWeXeYeZe0e1e2e3e4e5e6e7e8e9e.e+fafbfcfdfefffgfhfifjfkflfmfnfofpfqfrfsftfufvfwfxfyfzfAfBfCfDfEfFfGfHfIfJfKfLfMfNfOfPfQfRfSfTfUfVfWfXfYfZf0f1f2f3f4f5f6f7f8f9f.f+gagbgcgdgegfggghgigjgkglgmgngogpgqgrgsgtgugvgwgxgygzgAgBgCgDgEgFgGgHgIgJgKgLgMgNgOgPgQgRgSgTgUgVgWgXgYgZg0g1g2g3g4g5g6g7g8g9g.g+hahbhchdhehfhghhhihjhkhlhmhnhohphqhrhshthuhvhwhxhyhzhAhBhChDhEhFhGhHhIhJhKhLhMhNhOhPhQhRhShThUhVhWhXhYhZh0h1h2h3h4h5h6h7h8h9h.h+",
"aaabacadaeafagahaiajakalamanaoapaqarasatauavawaxayazaAaBaCaDaEaFaGaHaIaJaKaLaMaNaOaPaQaRaSaTaUaVaWaXaYaZa0a1a2a3a4a5a6a7a8a9a.a+babbbcbdbebfbgbhbibjbkblbmbnbobpbqbrbsbtbubvbwbxbybzbAbBbCbDbEbFbGbHbIbJbKbLbMbNbObPbQbRbSbTbUbVbWbXbYbZb0b1b2b3b4b5b6b7b8b9b.b+cacbcccdcecfcgchcicjckclcmcncocpcqcrcsctcucvcwcxcyczcAcBcCcDcEcFcGcHcIcJcKcLcMcNcOcPcQcRcScTcUcVcWcXcYcZc0c1c2c3c4c5c6c7c8c9c.c+dadbdcdddedfdgdhdidjdkdldmdndodpdqdrdsdtdudvdwdxdydzdAdBdCdDdEdFdGdHdIdJdKdLdMdNdOdPdQdRdSdTdUdVdWdXdYdZd0d1d2d3d4d5d6d7d8d9d.d+eaebecedeeefegeheiejekelemeneoepeqereseteuevewexeyezeAeBeCeDeEeFeGeHeIeJeKeLeMeNeOePeQeReSeTeUeVeWeXeYeZe0e1e2e3e4e5e6e7e8e9e.e+fafbfcfdfefffgfhfifjfkflfmfnfofpfqfrfsftfufvfwfxfyfzfAfBfCfDfEfFfGfHfIfJfKfLfMfNfOfPfQfRfSfTfUfVfWfXfYfZf0f1f2f3f4f5f6f7f8f9f.f+gagbgcgdgegfggghgigjgkglgmgngogpgqgrgsgtgugvgwgxgygzgAgBgCgDgEgFgGgHgIgJgKgLgMgNgOgPgQgRgSgTgUgVgWgXgYgZg0g1g2g3g4g5g6g7g8g9g.g+hahbhchdhehfhghhhihjhkhlhmhnhohphqhrhshthuhvhwhxhyhzhAhBhChDhEhFhGhHhIhJhKhLhMhNhOhPhQhRhShThUhVhWhXhYhZh0h1h2h3h4h5h6h7h8h9h.h+",
"aaabacadaeafagahaiajakalamanaoapaqarasatauavawaxayazaAaBaCaDaEaFaGaHaIaJaKaLaMaNaOaPaQaRaSaTaUaVaWaXaYaZa0a1a2a3a4a5a6a7a8a9a.a+babbbcbdbebfbgbhbibjbkblbmbnbobpbqbrbsbtbubvbwbxbybzbAbBbCbDbEbFbGbHbIbJbKbLbMbNbObPbQbRbSbTbUbVbWbXbYbZb0b1b2b3b4b5b6b7b8b9b.b+cacbcccdcecfcgchcicjckclcmcncocpcqcrcsctcucvcwcxcyczcAcBcCcDcEcFcGcHcIcJcKcLcMcNcOcPcQcRcScTcUcVcWcXcYcZc0c1c2c3c4c5c6c7c8c9c.c+dadbdcdddedfdgdhdidjdkdldmdndodpdqdrdsdtdudvdwdxdydzdAdBdCdDdEdFdGdHdIdJdKdLdMdNdOdPdQdRdSdTdUdVdWdXdYdZd0d1d2d3d4d5d6d7d8d9d.d+eaebecedeeefegeheiejekelemeneoepeqereseteuevewexeyezeAeBeCeDeEeFeGeHeIeJeKeLeMeNeOePeQeReSeTeUeVeWeXeYeZe0e1e2e3e4e5e6e7e8e9e.e+fafbfcfdfefffgfhfifjfkflfmfnfofpfqfrfsftfufvfwfxfyfzfAfBfCfDfEfFfGfHfIfJfKfLfMfNfOfPfQfRfSfTfUfVfWfXfYfZf0f1f2f3f4f5f6f7f8f9f.f+gagbgcgdgegfggghgigjgkglgmgngogpgqgrgsgtgugvgwgxgygzgAgBgCgDgEgFgGgHgIgJgKgLgMgNgOgPgQgRgSgTgUgVgWgXgYgZg0g1g2g3g4g5g6g7g8g9g.g+hahbhchdhehfhghhhihjhkhlhmhnhohphqhrhshthuhvhwhxhyhzhAhBhChDhEhFhGhHhIhJhKhLhMhNhOhPhQhRhShThUhVhWhXhYhZh0h1h2h3h4h5h6h7h8h9h.h+",
"aaabacadaeafagahaiajakalamanaoapaqarasatauavawaxayazaAaBaCaDaEaFaGaHaIaJaKaLaMaNaOaPaQaRaSaTaUaVaWaXaYaZa0a1a2a3a4a5a6a7a8a9a.a+babbbcbdbebfbgbhbibjbkblbmbnbobpbqbrbsbtbubvbwbxbybzbAbBbCbDbEbFbGbHbIbJbKbLbMbNbObPbQbRbSbTbUbVbWbXbYbZb0b1b2b3b4b5b6b7b8b9b.b+cacbcccdcecfcgchcicjckclcmcncocpcqcrcsctcucvcwcxcyczcAcBcCcDcEcFcGcHcIcJcKcLcMcNcOcPcQcRcScTcUcVcWcXcYcZc0c1c2c3c4c5c6c7c8c9c.c+dadbdcdddedfdgdhdidjdkdldmdndodpdqdrdsdtdudvdwdxdydzdAdBdCdDdEdFdGdHdIdJdKdLdMdNdOdPdQdRdSdTdUdVdWdXdYdZd0d1d2d3d4d5d6d7d8d9d.d+eaebecedeeefegeheiejekelemeneoepeqereseteuevewexeyezeAeBeCeDeEeFeGeHeIeJeKeLeMeNeOePeQeReSeTeUeVeWeXeYeZe0e1e2e3e4e5e6e7e8e9e.e+fafbfcfdfefffgfhfifjfkflfmfnfofpfqfrfsftfufvfwfxfyfzfAfBfCfDfEfFfGfHfIfJfKfLfMfNfOfPfQfRfSfTfUfVfWfXfYfZf0f1f2f3f4f5f6f7f8f9f.f+gagbgcgdgegfggghgigjgkglgmgngogpgqgrgsgtgugvgwgxgygzgAgBgCgDgEgFgGgHgIgJgKgLgMgNgOgPgQgRgSgTgUgVgWgXgYgZg0g1g2g3g4g5g6g7g8g9g.g+hahbhchdhehfhghhhihjhkhlhmhnhohphqhrhshthuhvhwhxhyhzhAhBhChDhEhFhGhHhIhJhKhLhMhNhOhPhQhRhShThUhVhWhXhYhZh0h1h2h3h4h5h6h7h8h9h.h+",
"aaabacadaeafagahaiajakalamanaoapaqarasatauavawaxayazaAaBaCaDaEaFaGaHaIaJaKaLaMaNaOaPaQaRaSaTaUaVaWaXaYaZa0a1a2a3a4a5a6a7a8a9a.a+babbbcbdbebfbgbhbibjbkblbmbnbobpbqbrbsbtbubvbwbxbybzbAbBbCbDbEbFbGbHbIbJbKbLbMbNbObPbQbRbSbTbUbVbWbXbYbZb0b1b2b3b4b5b6b7b8b9b.b+cacbcccdcecfcgchcicjckclcmcncocpcqcrcsctcucvcwcxcyczcAcBcCcDcEcFcGcHcIcJcKcLcMcNcOcPcQcRcScTcUcVcWcXcYcZc0c1c2c3c4c5c6c7c8c9c.c+dadbdcdddedfdgdhdidjdkdldmdndodpdqdrdsdtdudvdwdxdydzdAdBdCdDdEdFdGdHdIdJdKdLdMdNdOdPdQdRdSdTdUdVdWdXdYdZd0d1d2d3d4d5d6d7d8d9d.d+eaebecedeeefegeheiejekelemeneoepeqereseteuevewexeyezeAeBeCeDeEeFeGeHeIeJeKeLeMeNeOePeQeReSeTeUeVeWeXeYeZe0e1e2e3e4e5e6e7e8e9e.e+fafbfcfdfefffgfhfifjfkflfmfnfofpfqfrfsftfufvfwfxfyfzfAfBfCfDfEfFfGfHfIfJfKfLfMfNfOfPfQfRfSfTfUfVfWfXfYfZf0f1f2f3f4f5f6f7f8f9f.f+gagbgcgdgegfggghgigjgkglgmgngogpgqgrgsgtgugvgwgxgygzgAgBgCgDgEgFgGgHgIgJgKgLgMgNgOgPgQgRgSgTgUgVgWgXgYgZg0g1g2g3g4g5g6g7g8g9g.g+hahbhchdhehfhghhhihjhkhlhmhnhohphqhrhshthuhvhwhxhyhzhAhBhChDhEhFhGhHhIhJhKhLhMhNhOhPhQhRhShThUhVhWhXhYhZh0h1h2h3h4h5h6h7h8h9h.h+",
"aaabacadaeafagahaiajakalamanaoapaqarasatauavawaxayazaAaBaCaDaEaFaGaHaIaJaKaLaMaNaOaPaQaRaSaTaUaVaWaXaYaZa0a1a2a3a4a5a6a7a8a9a.a+babbbcbdbebfbgbhbibjbkblbmbnbobpbqbrbsbtbubvbwbxbybzbAbBbCbDbEbFbGbHbIbJbKbLbMbNbObPbQbRbSbTbUbVbWbXbYbZb0b1b2b3b4b5b6b7b8b9b.b+cacbcccdcecfcgchcicjckclcmcncocpcqcrcsctcucvcwcxcyczcAcBcCcDcEcFcGcHcIcJcKcLcMcNcOcPcQcRcScTcUcVcWcXcYcZc0c1c2c3c4c5c6c7c8c9c.c+dadbdcdddedfdgdhdidjdkdldmdndodpdqdrdsdtdudvdwdxdydzdAdBdCdDdEdFdGdHdIdJdKdLdMdNdOdPdQdRdSdTdUdVdWdXdYdZd0d1d2d3d4d5d6d7d8d9d.d+eaebecedeeefegeheiejekelemeneoepeqereseteuevewexeyezeAeBeCeDeEeFeGeHeIeJeKeLeMeNeOePeQeReSeTeUeVeWeXeYeZe0e1e2e3e4e5e6e7e8e9e.e+fafbfcfdfefffgfhfifjfkflfmfnfofpfqfrfsftfufvfwfxfyfzfAfBfCfDfEfFfGfHfIfJfKfLfMfNfOfPfQfRfSfTfUfVfWfXfYfZf0f1f2f3f4f5f6f7f8f9f.f+gagbgcgdgegfggghgigjgkglgmgngogpgqgrgsgtgugvgwgxgygzgAgBgCgDgEgFgGgHgIgJgKgLgMgNgOgPgQgRgSgTgUgVgWgXgYgZg0g1g2g3g4g5g6g7g8g9g.g+hahbhchdhehfhghhhihjhkhlhmhnhohphqhrhshthuhvhwhxhyhzhAhBhChDhEhFhGhHhIhJhKhLhMhNhOhPhQhRhShThUhVhWhXhYhZh0h1h2h3h4h5h6h7h8h9h.h+",
"aaabacadaeafagahaiajakalamanaoapaqarasatauavawaxayazaAaBaCaDaEaFaGaHaIaJaKaLaMaNaOaPaQaRaSaTaUaVaWaXaYaZa0a1a2a3a4a5a6a7a8a9a.a+babbbcbdbebfbgbhbibjbkblbmbnbobpbqbrbsbtbubvbwbxbybzbAbBbCbDbEbFbGbHbIbJbKbLbMbNbObPbQbRbSbTbUbVbWbXbYbZb0b1b2b3b4b5b6b7b8b9b.b+cacbcccdcecfcgchcicjckclcmcncocpcqcrcsctcucvcwcxcyczcAcBcCcDcEcFcGcHcIcJcKcLcMcNcOcPcQcRcScTcUcVcWcXcYcZc0c1c2c3c4c5c6c7c8c9c.c+dadbdcdddedfdgdhdidjdkdldmdndodpdqdrdsdtdudvdwdxdydzdAdBdCdDdEdFdGdHdIdJdKdLdMdNdOdPdQdRdSdTdUdVdWdXdYdZd0d1d2d3d4d5d6d7d8d9d.d+eaebecedeeefegeheiejekelemeneoepeqereseteuevewexeyezeAeBeCeDeEeFeGeHeIeJeKeLeMeNeOePeQeReSeTeUeVeWeXeYeZe0e1e2e3e4e5e6e7e8e9e.e+fafbfcfdfefffgfhfifjfkflfmfnfofpfqfrfsftfufvfwfxfyfzfAfBfCfDfEfFfGfHfIfJfKfLfMfNfOfPfQfRfSfTfUfVfWfXfYfZf0f1f2f3f4f5f6f7f8f9f.f+gagbgcgdgegfggghgigjgkglgmgngogpgqgrgsgtgugvgwgxgygzgAgBgCgDgEgFgGgHgIgJgKgLgMgNgOgPgQgRgSgTgUgVgWgXgYgZg0g1g2g3g4g5g6g7g8g9g.g+hahbhchdhehfhghhhihjhkhlhmhnhohphqhrhshthuhvhwhxhyhzhAhBhChDhEhFhGhHhIhJhKhLhMhNhOhPhQhRhShThUhVhWhXhYhZh0h1h2h3h4h5h6h7h8h9h.h+",
"aaabacadaeafagahaiajakalamanaoapaqarasatauavawaxayazaAaBaCaDaEaFaGaHaIaJaKaLaMaNaOaPaQaRaSaTaUaVaWaXaYaZa0a1a2a3a4a5a6a7a8a9a.a+babbbcbdbebfbgbhbibjbkblbmbnbobpbqbrbsbtbubvbwbxbybzbAbBbCbDbEbFbGbHbIbJbKbLbMbNbObPbQbRbSbTbUbVbWbXbYbZb0b1b2b3b4b5b6b7b8b9b.b+cacbcccdcecfcgchcicjckclcmcncocpcqcrcsctcucvcwcxcyczcAcBcCcDcEcFcGcHcIcJcKcLcMcNcOcPcQcRcScTcUcVcWcXcYcZc0c1c2c3c4c5c6c7c8c9c.c+dadbdcdddedfdgdhdidjdkdldmdndodpdqdrdsdtdudvdwdxdydzdAdBdCdDdEdFdGdHdIdJdKdLdMdNdOdPdQdRdSdTdUdVdWdXdYdZd0d1d2d3d4d5d6d7d8d9d.d+eaebecedeeefegeheiejekelemeneoepeqereseteuevewexeyezeAeBeCeDeEeFeGeHeIeJeKeLeMeNeOePeQeReSeTeUeVeWeXeYeZe0e1e2e3e4e5e6e7e8e9e.e+fafbfcfdfefffgfhfifjfkflfmfnfofpfqfrfsftfufvfwfxfyfzfAfBfCfDfEfFfGfHfIfJfKfLfMfNfOfPfQfRfSfTfUfVfWfXfYfZf0f1f2f3f4f5f6f7f8f9f.f+gagbgcgdgegfggghgigjgkglgmgngogpgqgrgsgtgugvgwgxgygzgAgBgCgDgEgFgGgHgIgJgKgLgMgNgOgPgQgRgSgTgUgVgWgXgYgZg0g1g2g3g4g5g6g7g8g9g.g+hahbhchdhehfhghhhihjhkhlhmhnhohphqhrhshthuhvhwhxhyhzhAhBhChDhEhFhGhHhIhJhKhLhMhNhOhPhQhRhShThUhVhWhXhYhZh0h1h2h3h4h5h6h7h8h9h.h+",
"aaabacadaeafagahaiajakalamanaoapaqarasatauavawaxayazaAaBaCaDaEaFaGaHaIaJaKaLaMaNaOaPaQaRaSaTaUaVaWaXaYaZa0a1a2a3a4a5a6a7a8a9a.a+babbbcbdbebfbgbhbibjbkblbmbnbobpbqbrbsbtbubvbwbxbybzbAbBbCbDbEbFbGbHbIbJbKbLbMbNbObPbQbRbSbTbUbVbWbXbYbZb0b1b2b3b4b5b6b7b8b9b.b+cacbcccdcecfcgchcicjckclcmcncocpcqcrcsctcucvcwcxcyczcAcBcCcDcEcFcGcHcIcJcKcLcMcNcOcPcQcRcScTcUcVcWcXcYcZc0c1c2c3c4c5c6c7c8c9c.c+dadbdcdddedfdgdhdidjdkdldmdndodpdqdrdsdtdudvdwdxdydzdAdBdCdDdEdFdGdHdIdJdKdLdMdNdOdPdQdRdSdTdUdVdWdXdYdZd0d1d2d3d4d5d6d7d8d9d.d+eaebecedeeefegeheiejekelemeneoepeqereseteuevewexeyezeAeBeCeDeEeFeGeHeIeJeKeLeMeNeOePeQeReSeTeUeVeWeXeYeZe0e1e2e3e4e5e6e7e8e9e.e+fafbfcfdfefffgfhfifjfkflfmfnfofpfqfrfsftfufvfwfxfyfzfAfBfCfDfEfFfGfHfIfJfKfLfMfNfOfPfQfRfSfTfUfVfWfXfYfZf0f1f2f3f4f5f6f7f8f9f.f+gagbgcgdgegfggghgigjgkglgmgngogpgqgrgsgtgugvgwgxgygzgAgBgCgDgEgFgGgHgIgJgKgLgMgNgOgPgQgRgSgTgUgVgWgXgYgZg0g1g2g3g4g5g6g7g8g9g.g+hahbhchdhehfhghhhihjhkhlhmhnhohphqhrhshthuhvhwhxhyhzhAhBhChDhEhFhGhHhIhJhKhLhMhNhOhPhQhRhShThUhVhWhXhYhZh0h1h2h3h4h5h6h7h8h9h.h+",
"aaabacadaeafagahaiajakalamanaoapaqarasatauavawaxayazaAaBaCaDaEaFaGaHaIaJaKaLaMaNaOaPaQaRaSaTaUaVaWaXaYaZa0a1a2a3a4a5a6a7a8a9a.a+babbbcbdbebfbgbhbibjbkblbmbnbobpbqbrbsbtbubvbwbxbybzbAbBbCbDbEbFbGbHbIbJbKbLbMbNbObPbQbRbSbTbUbVbWbXbYbZb0b1b2b3b4b5b6b7b8b9b.b+cacbcccdcecfcgchcicjckclcmcncocpcqcrcsctcucvcwcxcyczcAcBcCcDcEcFcGcHcIcJcKcLcMcNcOcPcQcRcScTcUcVcWcXcYcZc0c1c2c3c4c5c6c7c8c9c.c+dadbdcdddedfdgdhdidjdkdldmdndodpdqdrdsdtdudvdwdxdydzdAdBdCdDdEdFdGdHdIdJdKdLdMdNdOdPdQdRdSdTdUdVdWdXdYdZd0d1d2d3d4d5d6d7d8d9d.d+eaebecedeeefegeheiejekelemeneoepeqereseteuevewexeyezeAeBeCeDeEeFeGeHeIeJeKeLeMeNeOePeQeReSeTeUeVeWeXeYeZe0e1e2e3e4e5e6e7e8e9e.e+fafbfcfdfefffgfhfifjfkflfmfnfofpfqfrfsftfufvfwfxfyfzfAfBfCfDfEfFfGfHfIfJfKfLfMfNfOfPfQfRfSfTfUfVfWfXfYfZf0f1f2f3f4f5f6f7f8f9f.f+gagbgcgdgegfggghgigjgkglgmgngogpgqgrgsgtgugvgwgxgygzgAgBgCgDgEgFgGgHgIgJgKgLgMgNgOgPgQgRgSgTgUgVgWgXgYgZg0g1g2g3g4g5g6g7g8g9g.g+hahbhchdhehfhghhhihjhkhlhmhnhohphqhrhshthuhvhwhxhyhzhAhBhChDhEhFhGhHhIhJhKhLhMhNhOhPhQhRhShThUhVhWhXhYhZh0h1h2h3h4h5h6h7h8h9h.h+",
"aaabacadaeafagahaiajakalamanaoapaqarasatauavawaxayazaAaBaCaDaEaFaGaHaIaJaKaLaMaNaOaPaQaRaSaTaUaVaWaXaYaZa0a1a2a3a4a5a6a7a8a9a.a+babbbcbdbebfbgbhbibjbkblbmbnbobpbqbrbsbtbubvbwbxbybzbAbBbCbDbEbFbGbHbIbJbKbLbMbNbObPbQbRbSbTbUbVbWbXbYbZb0b1b2b3b4b5b6b7b8b9b.b+cacbcccdcecfcgchcicjckclcmcncocpcqcrcsctcucvcwcxcyczcAcBcCcDcEcFcGcHcIcJcKcLcMcNcOcPcQcRcScTcUcVcWcXcYcZc0c1c2c3c4c5c6c7c8c9c.c+dadbdcdddedfdgdhdidjdkdldmdndodpdqdrdsdtdudvdwdxdydzdAdBdCdDdEdFdGdHdIdJdKdLdMdNdOdPdQdRdSdTdUdVdWdXdYdZd0d1d2d3d4d5d6d7d8d9d.d+eaebecedeeefegeheiejekelemeneoepeqereseteuevewexeyezeAeBeCeDeEeFeGeHeIeJeKeLeMeNeOePeQeReSeTeUeVeWeXeYeZe0e1e2e3e4e5e6e7e8e9e.e+fafbfcfdfefffgfhfifjfkflfmfnfofpfqfrfsftfufvfwfxfyfzfAfBfCfDfEfFfGfHfIfJfKfLfMfNfOfPfQfRfSfTfUfVfWfXfYfZf0f1f2f3f4f5f6f7f8f9f.f+gagbgcgdgegfggghgigjgkglgmgngogpgqgrgsgtgugvgwgxgygzgAgBgCgDgEgFgGgHgIgJgKgLgMgNgOgPgQgRgSgTgUgVgWgXgYgZg0g1g2g3g4g5g6g7g8g9g.g+hahbhchdhehfhghhhihjhkhlhmhnhohphqhrhshthuhvhwhxhyhzhAhBhChDhEhFhGhHhIhJhKhLhMhNhOhPhQhRhShThUhVhWhXhYhZh0h1h2h3h4h5h6h7h8h9h.h+",
"aaabacadaeafagahaiajakalamanaoapaqarasatauavawaxayazaAaBaCaDaEaFaGaHaIaJaKaLaMaNaOaPaQaRaSaTaUaVaWaXaYaZa0a1a2a3a4a5a6a7a8a9a.a+babbbcbdbebfbgbhbibjbkblbmbnbobpbqbrbsbtbubvbwbxbybzbAbBbCbDbEbFbGbHbIbJbKbLbMbNbObPbQbRbSbTbUbVbWbXbYbZb0b1b2b3b4b5b6b7b8b9b.b+cacbcccdcecfcgchcicjckclcmcncocpcqcrcsctcucvcwcxcyczcAcBcCcDcEcFcGcHcIcJcKcLcMcNcOcPcQcRcScTcUcVcWcXcYcZc0c1c2c3c4c5c6c7c8c9c.c+dadbdcdddedfdgdhdidjdkdldmdndodpdqdrdsdtdudvdwdxdydzdAdBdCdDdEdFdGdHdIdJdKdLdMdNdOdPdQdRdSdTdUdVdWdXdYdZd0d1d2d3d4d5d6d7d8d9d.d+eaebecedeeefegeheiejekelemeneoepeqereseteuevewexeyezeAeBeCeDeEeFeGeHeIeJeKeLeMeNeOePeQeReSeTeUeVeWeXeYeZe0e1e2e3e4e5e6e7e8e9e.e+fafbfcfdfefffgfhfifjfkflfmfnfofpfqfrfsftfufvfwfxfyfzfAfBfCfDfEfFfGfHfIfJfKfLfMfNfOfPfQfRfSfTfUfVfWfXfYfZf0f1f2f3f4f5f6f7f8f9f.f+gagbgcgdgegfggghgigjgkglgmgngogpgqgrgsgtgugvgwgxgygzgAgBgCgDgEgFgGgHgIgJgKgLgMgNgOgPgQgRgSgTgUgVgWgXgYgZg0g1g2g3g4g5g6g7g8g9g.g+hahbhchdhehfhghhhihjhkhlhmhnhohphqhrhshthuhvhwhxhyhzhAhBhChDhEhFhGhHhIhJhKhLhMhNhOhPhQhRhShThUhVhWhXhYhZh0h1h2h3h4h5h6h7h8h9h.h+",
"aaabacadaeafagahaiajakalamanaoapaqarasatauavawaxayazaAaBaCaDaEaFaGaHaIaJaKaLaMaNaOaPaQaRaSaTaUaVaWaXaYaZa0a1a2a3a4a5a6a7a8a9a.a+babbbcbdbebfbgbhbibjbkblbmbnbobpbqbrbsbtbubvbwbxbybzbAbBbCbDbEbFbGbHbIbJbKbLbMbNbObPbQbRbSbTbUbVbWbXbYbZb0b1b2b3b4b5b6b7b8b9b.b+cacbcccdcecfcgchcicjckclcmcncocpcqcrcsctcucvcwcxcyczcAcBcCcDcEcFcGcHcIcJcKcLcMcNcOcPcQcRcScTcUcVcWcXcYcZc0c1c2c3c4c5c6c7c8c9c.c+dadbdcdddedfdgdhdidjdkdldmdndodpdqdrdsdtdudvdwdxdydzdAdBdCdDdEdFdGdHdIdJdKdLdMdNdOdPdQdRdSdTdUdVdWdXdYdZd0d1d2d3d4d5d6d7d8d9d.d+eaebecedeeefegeheiejekelemeneoepeqereseteuevewexeyezeAeBeCeDeEeFeGeHeIeJeKeLeMeNeOePeQeReSeTeUeVeWeXeYeZe0e1e2e3e4e5e6e7e8e9e.e+fafbfcfdfefffgfhfifjfkflfmfnfofpfqfrfsftfufvfwfxfyfzfAfBfCfDfEfFfGfHfIfJfKfLfMfNfOfPfQfRfSfTfUfVfWfXfYfZf0f1f2f3f4f5f6f7f8f9f.f+gagbgcgdgegfggghgigjgkglgmgngogpgqgrgsgtgugvgwgxgygzgAgBgCgDgEgFgGgHgIgJgKgLgMgNgOgPgQgRgSgTgUgVgWgXgYgZg0g1g2g3g4g5g6g7g8g9g.g+hahbhchdhehfhghhhihjhkhlhmhnhohphqhrhshthuhvhwhxhyhzhAhBhChDhEhFhGhHhIhJhKhLhMhNhOhPhQhRhShThUhVhWhXhYhZh0h1h2h3h4h5h6h7h8h9h.h+",
"aaabacadaeafagahaiajakalamanaoapaqarasatauavawaxayazaAaBaCaDaEaFaGaHaIaJaKaLaMaNaOaPaQaRaSaTaUaVaWaXaYaZa0a1a2a3a4a5a6a7a8a9a.a+babbbcbdbebfbgbhbibjbkblbmbnbobpbqbrbsbtbubvbwbxbybzbAbBbCbDbEbFbGbHbIbJbKbLbMbNbObPbQbRbSbTbUbVbWbXbYbZb0b1b2b3b4b5b6b7b8b9b.b+cacbcccdcecfcgchcicjckclcmcncocpcqcrcsctcucvcwcxcyczcAcBcCcDcEcFcGcHcIcJcKcLcMcNcOcPcQcRcScTcUcVcWcXcYcZc0c1c2c3c4c5c6c7c8c9c.c+dadbdcdddedfdgdhdidjdkdldmdndodpdqdrdsdtdudvdwdxdydzdAdBdCdDdEdFdGdHdIdJdKdLdMdNdOdPdQdRdSdTdUdVdWdXdYdZd0d1d2d3d4d5d6d7d8d9d.d+eaebecedeeefegeheiejekelemeneoepeqereseteuevewexeyezeAeBeCeDeEeFeGeHeIeJeKeLeMeNeOePeQeReSeTeUeVeWeXeYeZe0e1e2e3e4e5e6e7e8e9e.e+fafbfcfdfefffgfhfifjfkflfmfnfofpfqfrfsftfufvfwfxfyfzfAfBfCfDfEfFfGfHfIfJfKfLfMfNfOfPfQfRfSfTfUfVfWfXfYfZf0f1f2f3f4f5f6f7f8f9f.f+gagbgcgdgegfggghgigjgkglgmgngogpgqgrgsgtgugvgwgxgygzgAgBgCgDgEgFgGgHgIgJgKgLgMgNgOgPgQgRgSgTgUgVgWgXgYgZg0g1g2g3g4g5g6g7g8g9g.g+hahbhchdhehfhghhhihjhkhlhmhnhohphqhrhshthuhvhwhxhyhzhAhBhChDhEhFhGhHhIhJhKhLhMhNhOhPhQhRhShThUhVhWhXhYhZh0h1h2h3h4h5h6h7h8h9h.h+",
"aaabacadaeafagahaiajakalamanaoapaqarasatauavawaxayazaAaBaCaDaEaFaGaHaIaJaKaLaMaNaOaPaQaRaSaTaUaVaWaXaYaZa0a1a2a3a4a5a6a7a8a9a.a+babbbcbdbebfbgbhbibjbkblbmbnbobpbqbrbsbtbubvbwbxbybzbAbBbCbDbEbFbGbHbIbJbKbLbMbNbObPbQbRbSbTbUbVbWbXbYbZb0b1b2b3b4b5b6b7b8b9b.b+cacbcccdcecfcgchcicjckclcmcncocpcqcrcsctcucvcwcxcyczcAcBcCcDcEcFcGcHcIcJcKcLcMcNcOcPcQcRcScTcUcVcWcXcYcZc0c1c2c3c4c5c6c7c8c9c.c+dadbdcdddedfdgdhdidjdkdldmdndodpdqdrdsdtdudvdwdxdydzdAdBdCdDdEdFdGdHdIdJdKdLdMdNdOdPdQdRdSdTdUdVdWdXdYdZd0d1d2d3d4d5d6d7d8d9d.d+eaebecedeeefegeheiejekelemeneoepeqereseteuevewexeyezeAeBeCeDeEeFeGeHeIeJeKeLeMeNeOePeQeReSeTeUeVeWeXeYeZe0e1e2e3e4e5e6e7e8e9e.e+fafbfcfdfefffgfhfifjfkflfmfnfofpfqfrfsftfufvfwfxfyfzfAfBfCfDfEfFfGfHfIfJfKfLfMfNfOfPfQfRfSfTfUfVfWfXfYfZf0f1f2f3f4f5f6f7f8f9f.f+gagbgcgdgegfggghgigjgkglgmgngogpgqgrgsgtgugvgwgxgygzgAgBgCgDgEgFgGgHgIgJgKgLgMgNgOgPgQgRgSgTgUgVgWgXgYgZg0g1g2g3g4g5g6g7g8g9g.g+hahbhchdhehfhghhhihjhkhlhmhnhohphqhrhshthuhvhwhxhyhzhAhBhChDhEhFhGhHhIhJhKhLhMhNhOhPhQhRhShThUhVhWhXhYhZh0h1h2h3h4h5h6h7h8h9h.h+",
"aaabacadaeafagahaiajakalamanaoapaqarasatauavawaxayazaAaBaCaDaEaFaGaHaIaJaKaLaMaNaOaPaQaRaSaTaUaVaWaXaYaZa0a1a2a3a4a5a6a7a8a9a.a+babbbcbdbebfbgbhbibjbkblbmbnbobpbqbrbsbtbubvbwbxbybzbAbBbCbDbEbFbGbHbIbJbKbLbMbNbObPbQbRbSbTbUbVbWbXbYbZb0b1b2b3b4b5b6b7b8b9b.b+cacbcccdcecfcgchcicjckclcmcncocpcqcrcsctcucvcwcxcyczcAcBcCcDcEcFcGcHcIcJcKcLcMcNcOcPcQcRcScTcUcVcWcXcYcZc0c1c2c3c4c5c6c7c8c9c.c+dadbdcdddedfdgdhdidjdkdldmdndodpdqdrdsdtdudvdwdxdydzdAdBdCdDdEdFdGdHdIdJdKdLdMdNdOdPdQdRdSdTdUdVdWdXdYdZd0d1d2d3d4d5d6d7d8d9d.d+eaebecedeeefegeheiejekelemeneoepeqereseteuevewexeyezeAeBeCeDeEeFeGeHeIeJeKeLeMeNeOePeQeReSeTeUeVeWeXeYeZe0e1e2e3e4e5e6e7e8e9e.e+fafbfcfdfefffgfhfifjfkflfmfnfofpfqfrfsftfufvfwfxfyfzfAfBfCfDfEfFfGfHfIfJfKfLfMfNfOfPfQfRfSfTfUfVfWfXfYfZf0f1f2f3f4f5f6f7f8f9f.f+gagbgcgdgegfggghgigjgkglgmgngogpgqgrgsgtgugvgwgxgygzgAgBgCgDgEgFgGgHgIgJgKgLgMgNgOgPgQgRgSgTgUgVgWgXgYgZg0g1g2g3g4g5g6g7g8g9g.g+hahbhchdhehfhghhhihjhkhlhmhnhohphqhrhshthuhvhwhxhyhzhAhBhChDhEhFhGhHhIhJhKhLhMhNhOhPhQhRhShThUhVhWhXhYhZh0h1h2h3h4h5h6h7h8h9h.h+",
"aaabacadaeafagahaiajakalamanaoapaqarasatauavawaxayazaAaBaCaDaEaFaGaHaIaJaKaLaMaNaOaPaQaRaSaTaUaVaWaXaYaZa0a1a2a3a4a5a6a7a8a9a.a+babbbcbdbebfbgbhbibjbkblbmbnbobpbqbrbsbtbubvbwbxbybzbAbBbCbDbEbFbGbHbIbJbKbLbMbNbObPbQbRbSbTbUbVbWbXbYbZb0b1b2b3b4b5b6b7b8b9b.b+cacbcccdcecfcgchcicjckclcmcncocpcqcrcsctcucvcwcxcyczcAcBcCcDcEcFcGcHcIcJcKcLcMcNcOcPcQcRcScTcUcVcWcXcYcZc0c1c2c3c4c5c6c7c8c9c.c+dadbdcdddedfdgdhdidjdkdldmdndodpdqdrdsdtdudvdwdxdydzdAdBdCdDdEdFdGdHdIdJdKdLdMdNdOdPdQdRdSdTdUdVdWdXdYdZd0d1d2d3d4d5d6d7d8d9d.d+eaebecedeeefegeheiejekelemeneoepeqereseteuevewexeyezeAeBeCeDeEeFeGeHeIeJeKeLeMeNeOePeQeReSeTeUeVeWeXeYeZe0e1e2e3e4e5e6e7e8e9e.e+fafbfcfdfefffgfhfifjfkflfmfnfofpfqfrfsftfufvfwfxfyfzfAfBfCfDfEfFfGfHfIfJfKfLfMfNfOfPfQfRfSfTfUfVfWfXfYfZf0f1f2f3f4f5f6f7f8f9f.f+gagbgcgdgegfggghgigjgkglgmgngogpgqgrgsgtgugvgwgxgygzgAgBgCgDgEgFgGgHgIgJgKgLgMgNgOgPgQgRgSgTgUgVgWgXgYgZg0g1g2g3g4g5g6g7g8g9g.g+hahbhchdhehfhghhhihjhkhlhmhnhohphqhrhshthuhvhwhxhyhzhAhBhChDhEhFhGhHhIhJhKhLhMhNhOhPhQhRhShThUhVhWhXhYhZh0h1h2h3h4h5h6h7h8h9h.h+",
"aaabacadaeafagahaiajakalamanaoapaqarasatauavawaxayazaAaBaCaDaEaFaGaHaIaJaKaLaMaNaOaPaQaRaSaTaUaVaWaXaYaZa0a1a2a3a4a5a6a7a8a9a.a+babbbcbdbebfbgbhbibjbkblbmbnbobpbqbrbsbtbubvbwbxbybzbAbBbCbDbEbFbGbHbIbJbKbLbMbNbObPbQbRbSbTbUbVbWbXbYbZb0b1b2b3b4b5b6b7b8b9b.b+cacbcccdcecfcgchcicjckclcmcncocpcqcrcsctcucvcwcxcyczcAcBcCcDcEcFcGcHcIcJcKcLcMcNcOcPcQcRcScTcUcVcWcXcYcZc0c1c2c3c4c5c6c7c8c9c.c+dadbdcdddedfdgdhdidjdkdldmdndodpdqdrdsdtdudvdwdxdydzdAdBdCdDdEdFdGdHdIdJdKdLdMdNdOdPdQdRdSdTdUdVdWdXdYdZd0d1d2d3d4d5d6d7d8d9d.d+eaebecedeeefegeheiejekelemeneoepeqereseteuevewexeyezeAeBeCeDeEeFeGeHeIeJeKeLeMeNeOePeQeReSeTeUeVeWeXeYeZe0e1e2e3e4e5e6e7e8e9e.e+fafbfcfdfefffgfhfifjfkflfmfnfofpfqfrfsftfufvfwfxfyfzfAfBfCfDfEfFfGfHfIfJfKfLfMfNfOfPfQfRfSfTfUfVfWfXfYfZf0f1f2f3f4f5f6f7f8f9f.f+gagbgcgdgegfggghgigjgkglgmgngogpgqgrgsgtgugvgwgxgygzgAgBgCgDgEgFgGgHgIgJgKgLgMgNgOgPgQgRgSgTgUgVgWgXgYgZg0g1g2g3g4g5g6g7g8g9g.g+hahbhchdhehfhghhhihjhkhlhmhnhohphqhrhshthuhvhwhxhyhzhAhBhChDhEhFhGhHhIhJhKhLhMhNhOhPhQhRhShThUhVhWhXhYhZh0h1h2h3h4h5h6h7h8h9h.h+",
"aaabacadaeafagahaiajakalamanaoapaqarasatauavawaxayazaAaBaCaDaEaFaGaHaIaJaKaLaMaNaOaPaQaRaSaTaUaVaWaXaYaZa0a1a2a3a4a5a6a7a8a9a.a+babbbcbdbebfbgbhbibjbkblbmbnbobpbqbrbsbtbubvbwbxbybzbAbBbCbDbEbFbGbHbIbJbKbLbMbNbObPbQbRbSbTbUbVbWbXbYbZb0b1b2b3b4b5b6b7b8b9b.b+cacbcccdcecfcgchcicjckclcmcncocpcqcrcsctcucvcwcxcyczcAcBcCcDcEcFcGcHcIcJcKcLcMcNcOcPcQcRcScTcUcVcWcXcYcZc0c1c2c3c4c5c6c7c8c9c.c+dadbdcdddedfdgdhdidjdkdldmdndodpdqdrdsdtdudvdwdxdydzdAdBdCdDdEdFdGdHdIdJdKdLdMdNdOdPdQdRdSdTdUdVdWdXdYdZd0d1d2d3d4d5d6d7d8d9d.d+eaebecedeeefegeheiejekelemeneoepeqereseteuevewexeyezeAeBeCeDeEeFeGeHeIeJeKeLeMeNeOePeQeReSeTeUeVeWeXeYeZe0e1e2e3e4e5e6e7e8e9e.e+fafbfcfdfefffgfhfifjfkflfmfnfofpfqfrfsftfufvfwfxfyfzfAfBfCfDfEfFfGfHfIfJfKfLfMfNfOfPfQfRfSfTfUfVfWfXfYfZf0f1f2f3f4f5f6f7f8f9f.f+gagbgcgdgegfggghgigjgkglgmgngogpgqgrgsgtgugvgwgxgygzgAgBgCgDgEgFgGgHgIgJgKgLgMgNgOgPgQgRgSgTgUgVgWgXgYgZg0g1g2g3g4g5g6g7g8g9g.g+hahbhchdhehfhghhhihjhkhlhmhnhohphqhrhshthuhvhwhxhyhzhAhBhChDhEhFhGhHhIhJhKhLhMhNhOhPhQhRhShThUhVhWhXhYhZh0h1h2h3h4h5h6h7h8h9h.h+",
"aaabacadaeafagahaiajakalamanaoapaqarasatauavawaxayazaAaBaCaDaEaFaGaHaIaJaKaLaMaNaOaPaQaRaSaTaUaVaWaXaYaZa0a1a2a3a4a5a6a7a8a9a.a+babbbcbdbebfbgbhbibjbkblbmbnbobpbqbrbsbtbubvbwbxbybzbAbBbCbDbEbFbGbHbIbJbKbLbMbNbObPbQbRbSbTbUbVbWbXbYbZb0b1b2b3b4b5b6b7b8b9b.b+cacbcccdcecfcgchcicjckclcmcncocpcqcrcsctcucvcwcxcyczcAcBcCcDcEcFcGcHcIcJcKcLcMcNcOcPcQcRcScTcUcVcWcXcYcZc0c1c2c3c4c5c6c7c8c9c.c+dadbdcdddedfdgdhdidjdkdldmdndodpdqdrdsdtdudvdwdxdydzdAdBdCdDdEdFdGdHdIdJdKdLdMdNdOdPdQdRdSdTdUdVdWdXdYdZd0d1d2d3d4d5d6d7d8d9d.d+eaebecedeeefegeheiejekelemeneoepeqereseteuevewexeyezeAeBeCeDeEeFeGeHeIeJeKeLeMeNeOePeQeReSeTeUeVeWeXeYeZe0e1e2e3e4e5e6e7e8e9e.e+fafbfcfdfefffgfhfifjfkflfmfnfofpfqfrfsftfufvfwfxfyfzfAfBfCfDfEfFfGfHfIfJfKfLfMfNfOfPfQfRfSfTfUfVfWfXfYfZf0f1f2f3f4f5f6f7f8f9f.f+gagbgcgdgegfggghgigjgkglgmgngogpgqgrgsgtgugvgwgxgygzgAgBgCgDgEgFgGgHgIgJgKgLgMgNgOgPgQgRgSgTgUgVgWgXgYgZg0g1g2g3g4g5g6g7g8g9g.g+hahbhchdhehfhghhhihjhkhlhmhnhohphqhrhshthuhvhwhxhyhzhAhBhChDhEhFhGhHhIhJhKhLhMhNhOhPhQhRhShThUhVhWhXhYhZh0h1h2h3h4h5h6h7h8h9h.h+",
"aaabacadaeafagahaiajakalamanaoapaqarasatauavawaxayazaAaBaCaDaEaFaGaHaIaJaKaLaMaNaOaPaQaRaSaTaUaVaWaXaYaZa0a1a2a3a4a5a6a7a8a9a.a+babbbcbdbebfbgbhbibjbkblbmbnbobpbqbrbsbtbubvbwbxbybzbAbBbCbDbEbFbGbHbIbJbKbLbMbNbObPbQbRbSbTbUbVbWbXbYbZb0b1b2b3b4b5b6b7b8b9b.b+cacbcccdcecfcgchcicjckclcmcncocpcqcrcsctcucvcwcxcyczcAcBcCcDcEcFcGcHcIcJcKcLcMcNcOcPcQcRcScTcUcVcWcXcYcZc0c1c2c3c4c5c6c7c8c9c.c+dadbdcdddedfdgdhdidjdkdldmdndodpdqdrdsdtdudvdwdxdydzdAdBdCdDdEdFdGdHdIdJdKdLdMdNdOdPdQdRdSdTdUdVdWdXdYdZd0d1d2d3d4d5d6d7d8d9d.d+eaebecedeeefegeheiejekelemeneoepeqereseteuevewexeyezeAeBeCeDeEeFeGeHeIeJeKeLeMeNeOePeQeReSeTeUeVeWeXeYeZe0e1e2e3e4e5e6e7e8e9e.e+fafbfcfdfefffgfhfifjfkflfmfnfofpfqfrfsftfufvfwfxfyfzfAfBfCfDfEfFfGfHfIfJfKfLfMfNfOfPfQfRfSfTfUfVfWfXfYfZf0f1f2f3f4f5f6f7f8f9f.f+gagbgcgdgegfggghgigjgkglgmgngogpgqgrgsgtgugvgwgxgygzgAgBgCgDgEgFgGgHgIgJgKgLgMgNgOgPgQgRgSgTgUgVgWgXgYgZg0g1g2g3g4g5g6g7g8g9g.g+hahbhchdhehfhghhhihjhkhlhmhnhohphqhrhshthuhvhwhxhyhzhAhBhChDhEhFhGhHhIhJhKhLhMhNhOhPhQhRhShThUhVhWhXhYhZh0h1h2h3h4h5h6h7h8h9h.h+",
"aaabacadaeafagahaiajakalamanaoapaqarasatauavawaxayazaAaBaCaDaEaFaGaHaIaJaKaLaMaNaOaPaQaRaSaTaUaVaWaXaYaZa0a1a2a3a4a5a6a7a8a9a.a+babbbcbdbebfbgbhbibjbkblbmbnbobpbqbrbsbtbubvbwbxbybzbAbBbCbDbEbFbGbHbIbJbKbLbMbNbObPbQbRbSbTbUbVbWbXbYbZb0b1b2b3b4b5b6b7b8b9b.b+cacbcccdcecfcgchcicjckclcmcncocpcqcrcsctcucvcwcxcyczcAcBcCcDcEcFcGcHcIcJcKcLcMcNcOcPcQcRcScTcUcVcWcXcYcZc0c1c2c3c4c5c6c7c8c9c.c+dadbdcdddedfdgdhdidjdkdldmdndodpdqdrdsdtdudvdwdxdydzdAdBdCdDdEdFdGdHdIdJdKdLdMdNdOdPdQdRdSdTdUdVdWdXdYdZd0d1d2d3d4d5d6d7d8d9d.d+eaebecedeeefegeheiejekelemeneoepeqereseteuevewexeyezeAeBeCeDeEeFeGeHeIeJeKeLeMeNeOePeQeReSeTeUeVeWeXeYeZe0e1e2e3e4e5e6e7e8e9e.e+fafbfcfdfefffgfhfifjfkflfmfnfofpfqfrfsftfufvfwfxfyfzfAfBfCfDfEfFfGfHfIfJfKfLfMfNfOfPfQfRfSfTfUfVfWfXfYfZf0f1f2f3f4f5f6f7f8f9f.f+gagbgcgdgegfggghgigjgkglgmgngogpgqgrgsgtgugvgwgxgygzgAgBgCgDgEgFgGgHgIgJgKgLgMgNgOgPgQgRgSgTgUgVgWgXgYgZg0g1g2g3g4g5g6g7g8g9g.g+hahbhchdhehfhghhhihjhkhlhmhnhohphqhrhshthuhvhwhxhyhzhAhBhChDhEhFhGhHhIhJhKhLhMhNhOhPhQhRhShThUhVhWhXhYhZh0h1h2h3h4h5h6h7h8h9h.h+",
"aaabacadaeafagahaiajakalamanaoapaqarasatauavawaxayazaAaBaCaDaEaFaGaHaIaJaKaLaMaNaOaPaQaRaSaTaUaVaWaXaYaZa0a1a2a3a4a5a6a7a8a9a.a+babbbcbdbebfbgbhbibjbkblbmbnbobpbqbrbsbtbubvbwbxbybzbAbBbCbDbEbFbGbHbIbJbKbLbMbNbObPbQbRbSbTbUbVbWbXbYbZb0b1b2b3b4b5b6b7b8b9b.b+cacbcccdcecfcgchcicjckclcmcncocpcqcrcsctcucvcwcxcyczcAcBcCcDcEcFcGcHcIcJcKcLcMcNcOcPcQcRcScTcUcVcWcXcYcZc0c1c2c3c4c5c6c7c8c9c.c+dadbdcdddedfdgdhdidjdkdldmdndodpdqdrdsdtdudvdwdxdydzdAdBdCdDdEdFdGdHdIdJdKdLdMdNdOdPdQdRdSdTdUdVdWdXdYdZd0d1d2d3d4d5d6d7d8d9d.d+eaebecedeeefegeheiejekelemeneoepeqereseteuevewexeyezeAeBeCeDeEeFeGeHeIeJeKeLeMeNeOePeQeReSeTeUeVeWeXeYeZe0e1e2e3e4e5e6e7e8e9e.e+fafbfcfdfefffgfhfifjfkflfmfnfofpfqfrfsftfufvfwfxfyfzfAfBfCfDfEfFfGfHfIfJfKfLfMfNfOfPfQfRfSfTfUfVfWfXfYfZf0f1f2f3f4f5f6f7f8f9f.f+gagbgcgdgegfggghgigjgkglgmgngogpgqgrgsgtgugvgwgxgygzgAgBgCgDgEgFgGgHgIgJgKgLgMgNgOgPgQgRgSgTgUgVgWgXgYgZg0g1g2g3g4g5g6g7g8g9g.g+hahbhchdhehfhghhhihjhkhlhmhnhohphqhrhshthuhvhwhxhyhzhAhBhChDhEhFhGhHhIhJhKhLhMhNhOhPhQhRhShThUhVhWhXhYhZh0h1h2h3h4h5h6h7h8h9h.h+",
"aaabacadaeafagahaiajakalamanaoapaqarasatauavawaxayazaAaBaCaDaEaFaGaHaIaJaKaLaMaNaOaPaQaRaSaTaUaVaWaXaYaZa0a1a2a3a4a5a6a7a8a9a.a+babbbcbdbebfbgbhbibjbkblbmbnbobpbqbrbsbtbubvbwbxbybzbAbBbCbDbEbFbGbHbIbJbKbLbMbNbObPbQbRbSbTbUbVbWbXbYbZb0b1b2b3b4b5b6b7b8b9b.b+cacbcccdcecfcgchcicjckclcmcncocpcqcrcsctcucvcwcxcyczcAcBcCcDcEcFcGcHcIcJcKcLcMcNcOcPcQcRcScTcUcVcWcXcYcZc0c1c2c3c4c5c6c7c8c9c.c+dadbdcdddedfdgdhdidjdkdldmdndodpdqdrdsdtdudvdwdxdydzdAdBdCdDdEdFdGdHdIdJdKdLdMdNdOdPdQdRdSdTdUdVdWdXdYdZd0d1d2d3d4d5d6d7d8d9d.d+eaebecedeeefegeheiejekelemeneoepeqereseteuevewexeyezeAeBeCeDeEeFeGeHeIeJeKeLeMeNeOePeQeReSeTeUeVeWeXeYeZe0e1e2e3e4e5e6e7e8e9e.e+fafbfcfdfefffgfhfifjfkflfmfnfofpfqfrfsftfufvfwfxfyfzfAfBfCfDfEfFfGfHfIfJfKfLfMfNfOfPfQfRfSfTfUfVfWfXfYfZf0f1f2f3f4f5f6f7f8f9f.f+gagbgcgdgegfggghgigjgkglgmgngogpgqgrgsgtgugvgwgxgygzgAgBgCgDgEgFgGgHgIgJgKgLgMgNgOgPgQgRgSgTgUgVgWgXgYgZg0g1g2g3g4g5g6g7g8g9g.g+hahbhchdhehfhghhhihjhkhlhmhnhohphqhrhshthuhvhwhxhyhzhAhBhChDhEhFhGhHhIhJhKhLhMhNhOhPhQhRhShThUhVhWhXhYhZh0h1h2h3h4h5h6h7h8h9h.h+",
"aaabacadaeafagahaiajakalamanaoapaqarasatauavawaxayazaAaBaCaDaEaFaGaHaIaJaKaLaMaNaOaPaQaRaSaTaUaVaWaXaYaZa0a1a2a3a4a5a6a7a8a9a.a+babbbcbdbebfbgbhbibjbkblbmbnbobpbqbrbsbtbubvbwbxbybzbAbBbCbDbEbFbGbHbIbJbKbLbMbNbObPbQbRbSbTbUbVbWbXbYbZb0b1b2b3b4b5b6b7b8b9b.b+cacbcccdcecfcgchcicjckclcmcncocpcqcrcsctcucvcwcxcyczcAcBcCcDcEcFcGcHcIcJcKcLcMcNcOcPcQcRcScTcUcVcWcXcYcZc0c1c2c3c4c5c6c7c8c9c.c+dadbdcdddedfdgdhdidjdkdldmdndodpdqdrdsdtdudvdwdxdydzdAdBdCdDdEdFdGdHdIdJdKdLdMdNdOdPdQdRdSdTdUdVdWdXdYdZd0d1d2d3d4d5d6d7d8d9d.d+eaebecedeeefegeheiejekelemeneoepeqereseteuevewexeyezeAeBeCeDeEeFeGeHeIeJeKeLeMeNeOePeQeReSeTeUeVeWeXeYeZe0e1e2e3e4e5e6e7e8e9e.e+fafbfcfdfefffgfhfifjfkflfmfnfofpfqfrfsftfufvfwfxfyfzfAfBfCfDfEfFfGfHfIfJfKfLfMfNfOfPfQfRfSfTfUfVfWfXfYfZf0f1f2f3f4f5f6f7f8f9f.f+gagbgcgdgegfggghgigjgkglgmgngogpgqgrgsgtgugvgwgxgygzgAgBgCgDgEgFgGgHgIgJgKgLgMgNgOgPgQgRgSgTgUgVgWgXgYgZg0g1g2g3g4g5g6g7g8g9g.g+hahbhchdhehfhghhhihjhkhlhmhnhohphqhrhshthuhvhwhxhyhzhAhBhChDhEhFhGhHhIhJhKhLhMhNhOhPhQhRhShThUhVhWhXhYhZh0h1h2h3h4h5h6h7h8h9h.h+",
"aaabacadaeafagahaiajakalamanaoapaqarasatauavawaxayazaAaBaCaDaEaFaGaHaIaJaKaLaMaNaOaPaQaRaSaTaUaVaWaXaYaZa0a1a2a3a4a5a6a7a8a9a.a+babbbcbdbebfbgbhbibjbkblbmbnbobpbqbrbsbtbubvbwbxbybzbAbBbCbDbEbFbGbHbIbJbKbLbMbNbObPbQbRbSbTbUbVbWbXbYbZb0b1b2b3b4b5b6b7b8b9b.b+cacbcccdcecfcgchcicjckclcmcncocpcqcrcsctcucvcwcxcyczcAcBcCcDcEcFcGcHcIcJcKcLcMcNcOcPcQcRcScTcUcVcWcXcYcZc0c1c2c3c4c5c6c7c8c9c.c+dadbdcdddedfdgdhdidjdkdldmdndodpdqdrdsdtdudvdwdxdydzdAdBdCdDdEdFdGdHdIdJdKdLdMdNdOdPdQdRdSdTdUdVdWdXdYdZd0d1d2d3d4d5d6d7d8d9d.d+eaebecedeeefegeheiejekelemeneoepeqereseteuevewexeyezeAeBeCeDeEeFeGeHeIeJeKeLeMeNeOePeQeReSeTeUeVeWeXeYeZe0e1e2e3e4e5e6e7e8e9e.e+fafbfcfdfefffgfhfifjfkflfmfnfofpfqfrfsftfufvfwfxfyfzfAfBfCfDfEfFfGfHfIfJfKfLfMfNfOfPfQfRfSfTfUfVfWfXfYfZf0f1f2f3f4f5f6f7f8f9f.f+gagbgcgdgegfggghgigjgkglgmgngogpgqgrgsgtgugvgwgxgygzgAgBgCgDgEgFgGgHgIgJgKgLgMgNgOgPgQgRgSgTgUgVgWgXgYgZg0g1g2g3g4g5g6g7g8g9g.g+hahbhchdhehfhghhhihjhkhlhmhnhohphqhrhshthuhvhwhxhyhzhAhBhChDhEhFhGhHhIhJhKhLhMhNhOhPhQhRhShThUhVhWhXhYhZh0h1h2h3h4h5h6h7h8h9h.h+",
"aaabacadaeafagahaiajakalamanaoapaqarasatauavawaxayazaAaBaCaDaEaFaGaHaIaJaKaLaMaNaOaPaQaRaSaTaUaVaWaXaYaZa0a1a2a3a4a5a6a7a8a9a.a+babbbcbdbebfbgbhbibjbkblbmbnbobpbqbrbsbtbubvbwbxbybzbAbBbCbDbEbFbGbHbIbJbKbLbMbNbObPbQbRbSbTbUbVbWbXbYbZb0b1b2b3b4b5b6b7b8b9b.b+cacbcccdcecfcgchcicjckclcmcncocpcqcrcsctcucvcwcxcyczcAcBcCcDcEcFcGcHcIcJcKcLcMcNcOcPcQcRcScTcUcVcWcXcYcZc0c1c2c3c4c5c6c7c8c9c.c+dadbdcdddedfdgdhdidjdkdldmdndodpdqdrdsdtdudvdwdxdydzdAdBdCdDdEdFdGdHdIdJdKdLdMdNdOdPdQdRdSdTdUdVdWdXdYdZd0d1d2d3d4d5d6d7d8d9d.d+eaebecedeeefegeheiejekelemeneoepeqereseteuevewexeyezeAeBeCeDeEeFeGeHeIeJeKeLeMeNeOePeQeReSeTeUeVeWeXeYeZe0e1e2e3e4e5e6e7e8e9e.e+fafbfcfdfefffgfhfifjfkflfmfnfofpfqfrfsftfufvfwfxfyfzfAfBfCfDfEfFfGfHfIfJfKfLfMfNfOfPfQfRfSfTfUfVfWfXfYfZf0f1f2f3f4f5f6f7f8f9f.f+gagbgcgdgegfggghgigjgkglgmgngogpgqgrgsgtgugvgwgxgygzgAgBgCgDgEgFgGgHgIgJgKgLgMgNgOgPgQgRgSgTgUgVgWgXgYgZg0g1g2g3g4g5g6g7g8g9g.g+hahbhchdhehfhghhhihjhkhlhmhnhohphqhrhshthuhvhwhxhyhzhAhBhChDhEhFhGhHhIhJhKhLhMhNhOhPhQhRhShThUhVhWhXhYhZh0h1h2h3h4h5h6h7h8h9h.h+",
"aaabacadaeafagahaiajakalamanaoapaqarasatauavawaxayazaAaBaCaDaEaFaGaHaIaJaKaLaMaNaOaPaQaRaSaTaUaVaWaXaYaZa0a1a2a3a4a5a6a7a8a9a.a+babbbcbdbebfbgbhbibjbkblbmbnbobpbqbrbsbtbubvbwbxbybzbAbBbCbDbEbFbGbHbIbJbKbLbMbNbObPbQbRbSbTbUbVbWbXbYbZb0b1b2b3b4b5b6b7b8b9b.b+cacbcccdcecfcgchcicjckclcmcncocpcqcrcsctcucvcwcxcyczcAcBcCcDcEcFcGcHcIcJcKcLcMcNcOcPcQcRcScTcUcVcWcXcYcZc0c1c2c3c4c5c6c7c8c9c.c+dadbdcdddedfdgdhdidjdkdldmdndodpdqdrdsdtdudvdwdxdydzdAdBdCdDdEdFdGdHdIdJdKdLdMdNdOdPdQdRdSdTdUdVdWdXdYdZd0d1d2d3d4d5d6d7d8d9d.d+eaebecedeeefegeheiejekelemeneoepeqereseteuevewexeyezeAeBeCeDeEeFeGeHeIeJeKeLeMeNeOePeQeReSeTeUeVeWeXeYeZe0e1e2e3e4e5e6e7e8e9e.e+fafbfcfdfefffgfhfifjfkflfmfnfofpfqfrfsftfufvfwfxfyfzfAfBfCfDfEfFfGfHfIfJfKfLfMfNfOfPfQfRfSfTfUfVfWfXfYfZf0f1f2f3f4f5f6f7f8f9f.f+gagbgcgdgegfggghgigjgkglgmgngogpgqgrgsgtgugvgwgxgygzgAgBgCgDgEgFgGgHgIgJgKgLgMgNgOgPgQgRgSgTgUgVgWgXgYgZg0g1g2g3g4g5g6g7g8g9g.g+hahbhchdhehfhghhhihjhkhlhmhnhohphqhrhshthuhvhwhxhyhzhAhBhChDhEhFhGhHhIhJhKhLhMhNhOhPhQhRhShThUhVhWhXhYhZh0h1h2h3h4h5h6h7h8h9h.h+",
"aaabacadaeafagahaiajakalamanaoapaqarasatauavawaxayazaAaBaCaDaEaFaGaHaIaJaKaLaMaNaOaPaQaRaSaTaUaVaWaXaYaZa0a1a2a3a4a5a6a7a8a9a.a+babbbcbdbebfbgbhbibjbkblbmbnbobpbqbrbsbtbubvbwbxbybzbAbBbCbDbEbFbGbHbIbJbKbLbMbNbObPbQbRbSbTbUbVbWbXbYbZb0b1b2b3b4b5b6b7b8b9b.b+cacbcccdcecfcgchcicjckclcmcncocpcqcrcsctcucvcwcxcyczcAcBcCcDcEcFcGcHcIcJcKcLcMcNcOcPcQcRcScTcUcVcWcXcYcZc0c1c2c3c4c5c6c7c8c9c.c+dadbdcdddedfdgdhdidjdkdldmdndodpdqdrdsdtdudvdwdxdydzdAdBdCdDdEdFdGdHdIdJdKdLdMdNdOdPdQdRdSdTdUdVdWdXdYdZd0d1d2d3d4d5d6d7d8d9d.d+eaebecedeeefegeheiejekelemeneoepeqereseteuevewexeyezeAeBeCeDeEeFeGeHeIeJeKeLeMeNeOePeQeReSeTeUeVeWeXeYeZe0e1e2e3e4e5e6e7e8e9e.e+fafbfcfdfefffgfhfifjfkflfmfnfofpfqfrfsftfufvfwfxfyfzfAfBfCfDfEfFfGfHfIfJfKfLfMfNfOfPfQfRfSfTfUfVfWfXfYfZf0f1f2f3f4f5f6f7f8f9f.f+gagbgcgdgegfggghgigjgkglgmgngogpgqgrgsgtgugvgwgxgygzgAgBgCgDgEgFgGgHgIgJgKgLgMgNgOgPgQgRgSgTgUgVgWgXgYgZg0g1g2g3g4g5g6g7g8g9g.g+hahbhchdhehfhghhhihjhkhlhmhnhohphqhrhshthuhvhwhxhyhzhAhBhChDhEhFhGhHhIhJhKhLhMhNhOhPhQhRhShThUhVhWhXhYhZh0h1h2h3h4h5h6h7h8h9h.h+",
"aaabacadaeafagahaiajakalamanaoapaqarasatauavawaxayazaAaBaCaDaEaFaGaHaIaJaKaLaMaNaOaPaQaRaSaTaUaVaWaXaYaZa0a1a2a3a4a5a6a7a8a9a.a+babbbcbdbebfbgbhbibjbkblbmbnbobpbqbrbsbtbubvbwbxbybzbAbBbCbDbEbFbGbHbIbJbKbLbMbNbObPbQbRbSbTbUbVbWbXbYbZb0b1b2b3b4b5b6b7b8b9b.b+cacbcccdcecfcgchcicjckclcmcncocpcqcrcsctcucvcwcxcyczcAcBcCcDcEcFcGcHcIcJcKcLcMcNcOcPcQcRcScTcUcVcWcXcYcZc0c1c2c3c4c5c6c7c8c9c.c+dadbdcdddedfdgdhdidjdkdldmdndodpdqdrdsdtdudvdwdxdydzdAdBdCdDdEdFdGdHdIdJdKdLdMdNdOdPdQdRdSdTdUdVdWdXdYdZd0d1d2d3d4d5d6d7d8d9d.d+eaebecedeeefegeheiejekelemeneoepeqereseteuevewexeyezeAeBeCeDeEeFeGeHeIeJeKeLeMeNeOePeQeReSeTeUeVeWeXeYeZe0e1e2e3e4e5e6e7e8e9e.e+fafbfcfdfefffgfhfifjfkflfmfnfofpfqfrfsftfufvfwfxfyfzfAfBfCfDfEfFfGfHfIfJfKfLfMfNfOfPfQfRfSfTfUfVfWfXfYfZf0f1f2f3f4f5f6f7f8f9f.f+gagbgcgdgegfggghgigjgkglgmgngogpgqgrgsgtgugvgwgxgygzgAgBgCgDgEgFgGgHgIgJgKgLgMgNgOgPgQgRgSgTgUgVgWgXgYgZg0g1g2g3g4g5g6g7g8g9g.g+hahbhchdhehfhghhhihjhkhlhmhnhohphqhrhshthuhvhwhxhyhzhAhBhChDhEhFhGhHhIhJhKhLhMhNhOhPhQhRhShThUhVhWhXhYhZh0h1h2h3h4h5h6h7h8h9h.h+",
"aaabacadaeafagahaiajakalamanaoapaqarasatauavawaxayazaAaBaCaDaEaFaGaHaIaJaKaLaMaNaOaPaQaRaSaTaUaVaWaXaYaZa0a1a2a3a4a5a6a7a8a9a.a+babbbcbdbebfbgbhbibjbkblbmbnbobpbqbrbsbtbubvbwbxbybzbAbBbCbDbEbFbGbHbIbJbKbLbMbNbObPbQbRbSbTbUbVbWbXbYbZb0b1b2b3b4b5b6b7b8b9b.b+cacbcccdcecfcgchcicjckclcmcncocpcqcrcsctcucvcwcxcyczcAcBcCcDcEcFcGcHcIcJcKcLcMcNcOcPcQcRcScTcUcVcWcXcYcZc0c1c2c3c4c5c6c7c8c9c.c+dadbdcdddedfdgdhdidjdkdldmdndodpdqdrdsdtdudvdwdxdydzdAdBdCdDdEdFdGdHdIdJdKdLdMdNdOdPdQdRdSdTdUdVdWdXdYdZd0d1d2d3d4d5d6d7d8d9d.d+eaebecedeeefegeheiejekelemeneoepeqereseteuevewexeyezeAeBeCeDeEeFeGeHeIeJeKeLeMeNeOePeQeReSeTeUeVeWeXeYeZe0e1e2e3e4e5e6e7e8e9e.e+fafbfcfdfefffgfhfifjfkflfmfnfofpfqfrfsftfufvfwfxfyfzfAfBfCfDfEfFfGfHfIfJfKfLfMfNfOfPfQfRfSfTfUfVfWfXfYfZf0f1f2f3f4f5f6f7f8f9f.f+gagbgcgdgegfggghgigjgkglgmgngogpgqgrgsgtgugvgwgxgygzgAgBgCgDgEgFgGgHgIgJgKgLgMgNgOgPgQgRgSgTgUgVgWgXgYgZg0g1g2g3g4g5g6g7g8g9g.g+hahbhchdhehfhghhhihjhkhlhmhnhohphqhrhshthuhvhwhxhyhzhAhBhChDhEhFhGhHhIhJhKhLhMhNhOhPhQhRhShThUhVhWhXhYhZh0h1h2h3h4h5h6h7h8h9h.h+",
"aaabacadaeafagahaiajakalamanaoapaqarasatauavawaxayazaAaBaCaDaEaFaGaHaIaJaKaLaMaNaOaPaQaRaSaTaUaVaWaXaYaZa0a1a2a3a4a5a6a7a8a9a.a+babbbcbdbebfbgbhbibjbkblbmbnbobpbqbrbsbtbubvbwbxbybzbAbBbCbDbEbFbGbHbIbJbKbLbMbNbObPbQbRbSbTbUbVbWbXbYbZb0b1b2b3b4b5b6b7b8b9b.b+cacbcccdcecfcgchcicjckclcmcncocpcqcrcsctcucvcwcxcyczcAcBcCcDcEcFcGcHcIcJcKcLcMcNcOcPcQcRcScTcUcVcWcXcYcZc0c1c2c3c4c5c6c7c8c9c.c+dadbdcdddedfdgdhdidjdkdldmdndodpdqdrdsdtdudvdwdxdydzdAdBdCdDdEdFdGdHdIdJdKdLdMdNdOdPdQdRdSdTdUdVdWdXdYdZd0d1d2d3d4d5d6d7d8d9d.d+eaebecedeeefegeheiejekelemeneoepeqereseteuevewexeyezeAeBeCeDeEeFeGeHeIeJeKeLeMeNeOePeQeReSeTeUeVeWeXeYeZe0e1e2e3e4e5e6e7e8e9e.e+fafbfcfdfefffgfhfifjfkflfmfnfofpfqfrfsftfufvfwfxfyfzfAfBfCfDfEfFfGfHfIfJfKfLfMfNfOfPfQfRfSfTfUfVfWfXfYfZf0f1f2f3f4f5f6f7f8f9f.f+gagbgcgdgegfggghgigjgkglgmgngogpgqgrgsgtgugvgwgxgygzgAgBgCgDgEgFgGgHgIgJgKgLgMgNgOgPgQgRgSgTgUgVgWgXgYgZg0g1g2g3g4g5g6g7g8g9g.g+hahbhchdhehfhghhhihjhkhlhmhnhohphqhrhshthuhvhwhxhyhzhAhBhChDhEhFhGhHhIhJhKhLhMhNhOhPhQhRhShThUhVhWhXhYhZh0h1h2h3h4h5h6h7h8h9h.h+",
"aaabacadaeafagahaiajakalamanaoapaqarasatauavawaxayazaAaBaCaDaEaFaGaHaIaJaKaLaMaNaOaPaQaRaSaTaUaVaWaXaYaZa0a1a2a3a4a5a6a7a8a9a.a+babbbcbdbebfbgbhbibjbkblbmbnbobpbqbrbsbtbubvbwbxbybzbAbBbCbDbEbFbGbHbIbJbKbLbMbNbObPbQbRbSbTbUbVbWbXbYbZb0b1b2b3b4b5b6b7b8b9b.b+cacbcccdcecfcgchcicjckclcmcncocpcqcrcsctcucvcwcxcyczcAcBcCcDcEcFcGcHcIcJcKcLcMcNcOcPcQcRcScTcUcVcWcXcYcZc0c1c2c3c4c5c6c7c8c9c.c+dadbdcdddedfdgdhdidjdkdldmdndodpdqdrdsdtdudvdwdxdydzdAdBdCdDdEdFdGdHdIdJdKdLdMdNdOdPdQdRdSdTdUdVdWdXdYdZd0d1d2d3d4d5d6d7d8d9d.d+eaebecedeeefegeheiejekelemeneoepeqereseteuevewexeyezeAeBeCeDeEeFeGeHeIeJeKeLeMeNeOePeQeReSeTeUeVeWeXeYeZe0e1e2e3e4e5e6e7e8e9e.e+fafbfcfdfefffgfhfifjfkflfmfnfofpfqfrfsftfufvfwfxfyfzfAfBfCfDfEfFfGfHfIfJfKfLfMfNfOfPfQfRfSfTfUfVfWfXfYfZf0f1f2f3f4f5f6f7f8f9f.f+gagbgcgdgegfggghgigjgkglgmgngogpgqgrgsgtgugvgwgxgygzgAgBgCgDgEgFgGgHgIgJgKgLgMgNgOgPgQgRgSgTgUgVgWgXgYgZg0g1g2g3g4g5g6g7g8g9g.g+hahbhchdhehfhghhhihjhkhlhmhnhohphqhrhshthuhvhwhxhyhzhAhBhChDhEhFhGhHhIhJhKhLhMhNhOhPhQhRhShThUhVhWhXhYhZh0h1h2h3h4h5h6h7h8h9h.h+",
"aaabacadaeafagahaiajakalamanaoapaqarasatauavawaxayazaAaBaCaDaEaFaGaHaIaJaKaLaMaNaOaPaQaRaSaTaUaVaWaXaYaZa0a1a2a3a4a5a6a7a8a9a.a+babbbcbdbebfbgbhbibjbkblbmbnbobpbqbrbsbtbubvbwbxbybzbAbBbCbDbEbFbGbHbIbJbKbLbMbNbObPbQbRbSbTbUbVbWbXbYbZb0b1b2b3b4b5b6b7b8b9b.b+cacbcccdcecfcgchcicjckclcmcncocpcqcrcsctcucvcwcxcyczcAcBcCcDcEcFcGcHcIcJcKcLcMcNcOcPcQcRcScTcUcVcWcXcYcZc0c1c2c3c4c5c6c7c8c9c.c+dadbdcdddedfdgdhdidjdkdldmdndodpdqdrdsdtdudvdwdxdydzdAdBdCdDdEdFdGdHdIdJdKdLdMdNdOdPdQdRdSdTdUdVdWdXdYdZd0d1d2d3d4d5d6d7d8d9d.d+eaebecedeeefegeheiejekelemeneoepeqereseteuevewexeyezeAeBeCeDeEeFeGeHeIeJeKeLeMeNeOePeQeReSeTeUeVeWeXeYeZe0e1e2e3e4e5e6e7e8e9e.e+fafbfcfdfefffgfhfifjfkflfmfnfofpfqfrfsftfufvfwfxfyfzfAfBfCfDfEfFfGfHfIfJfKfLfMfNfOfPfQfRfSfTfUfVfWfXfYfZf0f1f2f3f4f5f6f7f8f9f.f+gagbgcgdgegfggghgigjgkglgmgngogpgqgrgsgtgugvgwgxgygzgAgBgCgDgEgFgGgHgIgJgKgLgMgNgOgPgQgRgSgTgUgVgWgXgYgZg0g1g2g3g4g5g6g7g8g9g.g+hahbhchdhehfhghhhihjhkhlhmhnhohphqhrhshthuhvhwhxhyhzhAhBhChDhEhFhGhHhIhJhKhLhMhNhOhPhQhRhShThUhVhWhXhYhZh0h1h2h3h4h5h6h7h8h9h.h+",
"aaabacadaeafagahaiajakalamanaoapaqarasatauavawaxayazaAaBaCaDaEaFaGaHaIaJaKaLaMaNaOaPaQaRaSaTaUaVaWaXaYaZa0a1a2a3a4a5a6a7a8a9a.a+babbbcbdbebfbgbhbibjbkblbmbnbobpbqbrbsbtbubvbwbxbybzbAbBbCbDbEbFbGbHbIbJbKbLbMbNbObPbQbRbSbTbUbVbWbXbYbZb0b1b2b3b4b5b6b7b8b9b.b+cacbcccdcecfcgchcicjckclcmcncocpcqcrcsctcucvcwcxcyczcAcBcCcDcEcFcGcHcIcJcKcLcMcNcOcPcQcRcScTcUcVcWcXcYcZc0c1c2c3c4c5c6c7c8c9c.c+dadbdcdddedfdgdhdidjdkdldmdndodpdqdrdsdtdudvdwdxdydzdAdBdCdDdEdFdGdHdIdJdKdLdMdNdOdPdQdRdSdTdUdVdWdXdYdZd0d1d2d3d4d5d6d7d8d9d.d+eaebecedeeefegeheiejekelemeneoepeqereseteuevewexeyezeAeBeCeDeEeFeGeHeIeJeKeLeMeNeOePeQeReSeTeUeVeWeXeYeZe0e1e2e3e4e5e6e7e8e9e.e+fafbfcfdfefffgfhfifjfkflfmfnfofpfqfrfsftfufvfwfxfyfzfAfBfCfDfEfFfGfHfIfJfKfLfMfNfOfPfQfRfSfTfUfVfWfXfYfZf0f1f2f3f4f5f6f7f8f9f.f+gagbgcgdgegfggghgigjgkglgmgngogpgqgrgsgtgugvgwgxgygzgAgBgCgDgEgFgGgHgIgJgKgLgMgNgOgPgQgRgSgTgUgVgWgXgYgZg0g1g2g3g4g5g6g7g8g9g.g+hahbhchdhehfhghhhihjhkhlhmhnhohphqhrhshthuhvhwhxhyhzhAhBhChDhEhFhGhHhIhJhKhLhMhNhOhPhQhRhShThUhVhWhXhYhZh0h1h2h3h4h5h6h7h8h9h.h+",
"aaabacadaeafagahaiajakalamanaoapaqarasatauavawaxayazaAaBaCaDaEaFaGaHaIaJaKaLaMaNaOaPaQaRaSaTaUaVaWaXaYaZa0a1a2a3a4a5a6a7a8a9a.a+babbbcbdbebfbgbhbibjbkblbmbnbobpbqbrbsbtbubvbwbxbybzbAbBbCbDbEbFbGbHbIbJbKbLbMbNbObPbQbRbSbTbUbVbWbXbYbZb0b1b2b3b4b5b6b7b8b9b.b+cacbcccdcecfcgchcicjckclcmcncocpcqcrcsctcucvcwcxcyczcAcBcCcDcEcFcGcHcIcJcKcLcMcNcOcPcQcRcScTcUcVcWcXcYcZc0c1c2c3c4c5c6c7c8c9c.c+dadbdcdddedfdgdhdidjdkdldmdndodpdqdrdsdtdudvdwdxdydzdAdBdCdDdEdFdGdHdIdJdKdLdMdNdOdPdQdRdSdTdUdVdWdXdYdZd0d1d2d3d4d5d6d7d8d9d.d+eaebecedeeefegeheiejekelemeneoepeqereseteuevewexeyezeAeBeCeDeEeFeGeHeIeJeKeLeMeNeOePeQeReSeTeUeVeWeXeYeZe0e1e2e3e4e5e6e7e8e9e.e+fafbfcfdfefffgfhfifjfkflfmfnfofpfqfrfsftfufvfwfxfyfzfAfBfCfDfEfFfGfHfIfJfKfLfMfNfOfPfQfRfSfTfUfVfWfXfYfZf0f1f2f3f4f5f6f7f8f9f.f+gagbgcgdgegfggghgigjgkglgmgngogpgqgrgsgtgugvgwgxgygzgAgBgCgDgEgFgGgHgIgJgKgLgMgNgOgPgQgRgSgTgUgVgWgXgYgZg0g1g2g3g4g5g6g7g8g9g.g+hahbhchdhehfhghhhihjhkhlhmhnhohphqhrhshthuhvhwhxhyhzhAhBhChDhEhFhGhHhIhJhKhLhMhNhOhPhQhRhShThUhVhWhXhYhZh0h1h2h3h4h5h6h7h8h9h.h+",
"aaabacadaeafagahaiajakalamanaoapaqarasatauavawaxayazaAaBaCaDaEaFaGaHaIaJaKaLaMaNaOaPaQaRaSaTaUaVaWaXaYaZa0a1a2a3a4a5a6a7a8a9a.a+babbbcbdbebfbgbhbibjbkblbmbnbobpbqbrbsbtbubvbwbxbybzbAbBbCbDbEbFbGbHbIbJbKbLbMbNbObPbQbRbSbTbUbVbWbXbYbZb0b1b2b3b4b5b6b7b8b9b.b+cacbcccdcecfcgchcicjckclcmcncocpcqcrcsctcucvcwcxcyczcAcBcCcDcEcFcGcHcIcJcKcLcMcNcOcPcQcRcScTcUcVcWcXcYcZc0c1c2c3c4c5c6c7c8c9c.c+dadbdcdddedfdgdhdidjdkdldmdndodpdqdrdsdtdudvdwdxdydzdAdBdCdDdEdFdGdHdIdJdKdLdMdNdOdPdQdRdSdTdUdVdWdXdYdZd0d1d2d3d4d5d6d7d8d9d.d+eaebecedeeefegeheiejekelemeneoepeqereseteuevewexeyezeAeBeCeDeEeFeGeHeIeJeKeLeMeNeOePeQeReSeTeUeVeWeXeYeZe0e1e2e3e4e5e6e7e8e9e.e+fafbfcfdfefffgfhfifjfkflfmfnfofpfqfrfsftfufvfwfxfyfzfAfBfCfDfEfFfGfHfIfJfKfLfMfNfOfPfQfRfSfTfUfVfWfXfYfZf0f1f2f3f4f5f6f7f8f9f.f+gagbgcgdgegfggghgigjgkglgmgngogpgqgrgsgtgugvgwgxgygzgAgBgCgDgEgFgGgHgIgJgKgLgMgNgOgPgQgRgSgTgUgVgWgXgYgZg0g1g2g3g4g5g6g7g8g9g.g+hahbhchdhehfhghhhihjhkhlhmhnhohphqhrhshthuhvhwhxhyhzhAhBhChDhEhFhGhHhIhJhKhLhMhNhOhPhQhRhShThUhVhWhXhYhZh0h1h2h3h4h5h6h7h8h9h.h+",
"aaabacadaeafagahaiajakalamanaoapaqarasatauavawaxayazaAaBaCaDaEaFaGaHaIaJaKaLaMaNaOaPaQaRaSaTaUaVaWaXaYaZa0a1a2a3a4a5a6a7a8a9a.a+babbbcbdbebfbgbhbibjbkblbmbnbobpbqbrbsbtbubvbwbxbybzbAbBbCbDbEbFbGbHbIbJbKbLbMbNbObPbQbRbSbTbUbVbWbXbYbZb0b1b2b3b4b5b6b7b8b9b.b+cacbcccdcecfcgchcicjckclcmcncocpcqcrcsctcucvcwcxcyczcAcBcCcDcEcFcGcHcIcJcKcLcMcNcOcPcQcRcScTcUcVcWcXcYcZc0c1c2c3c4c5c6c7c8c9c.c+dadbdcdddedfdgdhdidjdkdldmdndodpdqdrdsdtdudvdwdxdydzdAdBdCdDdEdFdGdHdIdJdKdLdMdNdOdPdQdRdSdTdUdVdWdXdYdZd0d1d2d3d4d5d6d7d8d9d.d+eaebecedeeefegeheiejekelemeneoepeqereseteuevewexeyezeAeBeCeDeEeFeGeHeIeJeKeLeMeNeOePeQeReSeTeUeVeWeXeYeZe0e1e2e3e4e5e6e7e8e9e.e+fafbfcfdfefffgfhfifjfkflfmfnfofpfqfrfsftfufvfwfxfyfzfAfBfCfDfEfFfGfHfIfJfKfLfMfNfOfPfQfRfSfTfUfVfWfXfYfZf0f1f2f3f4f5f6f7f8f9f.f+gagbgcgdgegfggghgigjgkglgmgngogpgqgrgsgtgugvgwgxgygzgAgBgCgDgEgFgGgHgIgJgKgLgMgNgOgPgQgRgSgTgUgVgWgXgYgZg0g1g2g3g4g5g6g7g8g9g.g+hahbhchdhehfhghhhihjhkhlhmhnhohphqhrhshthuhvhwhxhyhzhAhBhChDhEhFhGhHhIhJhKhLhMhNhOhPhQhRhShThUhVhWhXhYhZh0h1h2h3h4h5h6h7h8h9h.h+",
"aaabacadaeafagahaiajakalamanaoapaqarasatauavawaxayazaAaBaCaDaEaFaGaHaIaJaKaLaMaNaOaPaQaRaSaTaUaVaWaXaYaZa0a1a2a3a4a5a6a7a8a9a.a+babbbcbdbebfbgbhbibjbkblbmbnbobpbqbrbsbtbubvbwbxbybzbAbBbCbDbEbFbGbHbIbJbKbLbMbNbObPbQbRbSbTbUbVbWbXbYbZb0b1b2b3b4b5b6b7b8b9b.b+cacbcccdcecfcgchcicjckclcmcncocpcqcrcsctcucvcwcxcyczcAcBcCcDcEcFcGcHcIcJcKcLcMcNcOcPcQcRcScTcUcVcWcXcYcZc0c1c2c3c4c5c6c7c8c9c.c+dadbdcdddedfdgdhdidjdkdldmdndodpdqdrdsdtdudvdwdxdydzdAdBdCdDdEdFdGdHdIdJdKdLdMdNdOdPdQdRdSdTdUdVdWdXdYdZd0d1d2d3d4d5d6d7d8d9d.d+eaebecedeeefegeheiejekelemeneoepeqereseteuevewexeyezeAeBeCeDeEeFeGeHeIeJeKeLeMeNeOePeQeReSeTeUeVeWeXeYeZe0e1e2e3e4e5e6e7e8e9e.e+fafbfcfdfefffgfhfifjfkflfmfnfofpfqfrfsftfufvfwfxfyfzfAfBfCfDfEfFfGfHfIfJfKfLfMfNfOfPfQfRfSfTfUfVfWfXfYfZf0f1f2f3f4f5f6f7f8f9f.f+gagbgcgdgegfggghgigjgkglgmgngogpgqgrgsgtgugvgwgxgygzgAgBgCgDgEgFgGgHgIgJgKgLgMgNgOgPgQgRgSgTgUgVgWgXgYgZg0g1g2g3g4g5g6g7g8g9g.g+hahbhchdhehfhghhhihjhkhlhmhnhohphqhrhshthuhvhwhxhyhzhAhBhChDhEhFhGhHhIhJhKhLhMhNhOhPhQhRhShThUhVhWhXhYhZh0h1h2h3h4h5h6h7h8h9h.h+",
"aaabacadaeafagahaiajakalamanaoapaqarasatauavawaxayazaAaBaCaDaEaFaGaHaIaJaKaLaMaNaOaPaQaRaSaTaUaVaWaXaYaZa0a1a2a3a4a5a6a7a8a9a.a+babbbcbdbebfbgbhbibjbkblbmbnbobpbqbrbsbtbubvbwbxbybzbAbBbCbDbEbFbGbHbIbJbKbLbMbNbObPbQbRbSbTbUbVbWbXbYbZb0b1b2b3b4b5b6b7b8b9b.b+cacbcccdcecfcgchcicjckclcmcncocpcqcrcsctcucvcwcxcyczcAcBcCcDcEcFcGcHcIcJcKcLcMcNcOcPcQcRcScTcUcVcWcXcYcZc0c1c2c3c4c5c6c7c8c9c.c+dadbdcdddedfdgdhdidjdkdldmdndodpdqdrdsdtdudvdwdxdydzdAdBdCdDdEdFdGdHdIdJdKdLdMdNdOdPdQdRdSdTdUdVdWdXdYdZd0d1d2d3d4d5d6d7d8d9d.d+eaebecedeeefegeheiejekelemeneoepeqereseteuevewexeyezeAeBeCeDeEeFeGeHeIeJeKeLeMeNeOePeQeReSeTeUeVeWeXeYeZe0e1e2e3e4e5e6e7e8e9e.e+fafbfcfdfefffgfhfifjfkflfmfnfofpfqfrfsftfufvfwfxfyfzfAfBfCfDfEfFfGfHfIfJfKfLfMfNfOfPfQfRfSfTfUfVfWfXfYfZf0f1f2f3f4f5f6f7f8f9f.f+gagbgcgdgegfggghgigjgkglgmgngogpgqgrgsgtgugvgwgxgygzgAgBgCgDgEgFgGgHgIgJgKgLgMgNgOgPgQgRgSgTgUgVgWgXgYgZg0g1g2g3g4g5g6g7g8g9g.g+hahbhchdhehfhghhhihjhkhlhmhnhohphqhrhshthuhvhwhxhyhzhAhBhChDhEhFhGhHhIhJhKhLhMhNhOhPhQhRhShThUhVhWhXhYhZh0h1h2h3h4h5h6h7h8h9h.h+",
"aaabacadaeafagahaiajakalamanaoapaqarasatauavawaxayazaAaBaCaDaEaFaGaHaIaJaKaLaMaNaOaPaQaRaSaTaUaVaWaXaYaZa0a1a2a3a4a5a6a7a8a9a.a+babbbcbdbebfbgbhbibjbkblbmbnbobpbqbrbsbtbubvbwbxbybzbAbBbCbDbEbFbGbHbIbJbKbLbMbNbObPbQbRbSbTbUbVbWbXbYbZb0b1b2b3b4b5b6b7b8b9b.b+cacbcccdcecfcgchcicjckclcmcncocpcqcrcsctcucvcwcxcyczcAcBcCcDcEcFcGcHcIcJcKcLcMcNcOcPcQcRcScTcUcVcWcXcYcZc0c1c2c3c4c5c6c7c8c9c.c+dadbdcdddedfdgdhdidjdkdldmdndodpdqdrdsdtdudvdwdxdydzdAdBdCdDdEdFdGdHdIdJdKdLdMdNdOdPdQdRdSdTdUdVdWdXdYdZd0d1d2d3d4d5d6d7d8d9d.d+eaebecedeeefegeheiejekelemeneoepeqereseteuevewexeyezeAeBeCeDeEeFeGeHeIeJeKeLeMeNeOePeQeReSeTeUeVeWeXeYeZe0e1e2e3e4e5e6e7e8e9e.e+fafbfcfdfefffgfhfifjfkflfmfnfofpfqfrfsftfufvfwfxfyfzfAfBfCfDfEfFfGfHfIfJfKfLfMfNfOfPfQfRfSfTfUfVfWfXfYfZf0f1f2f3f4f5f6f7f8f9f.f+gagbgcgdgegfggghgigjgkglgmgngogpgqgrgsgtgugvgwgxgygzgAgBgCgDgEgFgGgHgIgJgKgLgMgNgOgPgQgRgSgTgUgVgWgXgYgZg0g1g2g3g4g5g6g7g8g9g.g+hahbhchdhehfhghhhihjhkhlhmhnhohphqhrhshthuhvhwhxhyhzhAhBhChDhEhFhGhHhIhJhKhLhMhNhOhPhQhRhShThUhVhWhXhYhZh0h1h2h3h4h5h6h7h8h9h.h+",
"aaabacadaeafagahaiajakalamanaoapaqarasatauavawaxayazaAaBaCaDaEaFaGaHaIaJaKaLaMaNaOaPaQaRaSaTaUaVaWaXaYaZa0a1a2a3a4a5a6a7a8a9a.a+babbbcbdbebfbgbhbibjbkblbmbnbobpbqbrbsbtbubvbwbxbybzbAbBbCbDbEbFbGbHbIbJbKbLbMbNbObPbQbRbSbTbUbVbWbXbYbZb0b1b2b3b4b5b6b7b8b9b.b+cacbcccdcecfcgchcicjckclcmcncocpcqcrcsctcucvcwcxcyczcAcBcCcDcEcFcGcHcIcJcKcLcMcNcOcPcQcRcScTcUcVcWcXcYcZc0c1c2c3c4c5c6c7c8c9c.c+dadbdcdddedfdgdhdidjdkdldmdndodpdqdrdsdtdudvdwdxdydzdAdBdCdDdEdFdGdHdIdJdKdLdMdNdOdPdQdRdSdTdUdVdWdXdYdZd0d1d2d3d4d5d6d7d8d9d.d+eaebecedeeefegeheiejekelemeneoepeqereseteuevewexeyezeAeBeCeDeEeFeGeHeIeJeKeLeMeNeOePeQeReSeTeUeVeWeXeYeZe0e1e2e3e4e5e6e7e8e9e.e+fafbfcfdfefffgfhfifjfkflfmfnfofpfqfrfsftfufvfwfxfyfzfAfBfCfDfEfFfGfHfIfJfKfLfMfNfOfPfQfRfSfTfUfVfWfXfYfZf0f1f2f3f4f5f6f7f8f9f.f+gagbgcgdgegfggghgigjgkglgmgngogpgqgrgsgtgugvgwgxgygzgAgBgCgDgEgFgGgHgIgJgKgLgMgNgOgPgQgRgSgTgUgVgWgXgYgZg0g1g2g3g4g5g6g7g8g9g.g+hahbhchdhehfhghhhihjhkhlhmhnhohphqhrhshthuhvhwhxhyhzhAhBhChDhEhFhGhHhIhJhKhLhMhNhOhPhQhRhShThUhVhWhXhYhZh0h1h2h3h4h5h6h7h8h9h.h+",
"aaabacadaeafagahaiajakalamanaoapaqarasatauavawaxayazaAaBaCaDaEaFaGaHaIaJaKaLaMaNaOaPaQaRaSaTaUaVaWaXaYaZa0a1a2a3a4a5a6a7a8a9a.a+babbbcbdbebfbgbhbibjbkblbmbnbobpbqbrbsbtbubvbwbxbybzbAbBbCbDbEbFbGbHbIbJbKbLbMbNbObPbQbRbSbTbUbVbWbXbYbZb0b1b2b3b4b5b6b7b8b9b.b+cacbcccdcecfcgchcicjckclcmcncocpcqcrcsctcucvcwcxcyczcAcBcCcDcEcFcGcHcIcJcKcLcMcNcOcPcQcRcScTcUcVcWcXcYcZc0c1c2c3c4c5c6c7c8c9c.c+dadbdcdddedfdgdhdidjdkdldmdndodpdqdrdsdtdudvdwdxdydzdAdBdCdDdEdFdGdHdIdJdKdLdMdNdOdPdQdRdSdTdUdVdWdXdYdZd0d1d2d3d4d5d6d7d8d9d.d+eaebecedeeefegeheiejekelemeneoepeqereseteuevewexeyezeAeBeCeDeEeFeGeHeIeJeKeLeMeNeOePeQeReSeTeUeVeWeXeYeZe0e1e2e3e4e5e6e7e8e9e.e+fafbfcfdfefffgfhfifjfkflfmfnfofpfqfrfsftfufvfwfxfyfzfAfBfCfDfEfFfGfHfIfJfKfLfMfNfOfPfQfRfSfTfUfVfWfXfYfZf0f1f2f3f4f5f6f7f8f9f.f+gagbgcgdgegfggghgigjgkglgmgngogpgqgrgsgtgugvgwgxgygzgAgBgCgDgEgFgGgHgIgJgKgLgMgNgOgPgQgRgSgTgUgVgWgXgYgZg0g1g2g3g4g5g6g7g8g9g.g+hahbhchdhehfhghhhihjhkhlhmhnhohphqhrhshthuhvhwhxhyhzhAhBhChDhEhFhGhHhIhJhKhLhMhNhOhPhQhRhShThUhVhWhXhYhZh0h1h2h3h4h5h6h7h8h9h.h+",
"aaabacadaeafagahaiajakalamanaoapaqarasatauavawaxayazaAaBaCaDaEaFaGaHaIaJaKaLaMaNaOaPaQaRaSaTaUaVaWaXaYaZa0a1a2a3a4a5a6a7a8a9a.a+babbbcbdbebfbgbhbibjbkblbmbnbobpbqbrbsbtbubvbwbxbybzbAbBbCbDbEbFbGbHbIbJbKbLbMbNbObPbQbRbSbTbUbVbWbXbYbZb0b1b2b3b4b5b6b7b8b9b.b+cacbcccdcecfcgchcicjckclcmcncocpcqcrcsctcucvcwcxcyczcAcBcCcDcEcFcGcHcIcJcKcLcMcNcOcPcQcRcScTcUcVcWcXcYcZc0c1c2c3c4c5c6c7c8c9c.c+dadbdcdddedfdgdhdidjdkdldmdndodpdqdrdsdtdudvdwdxdydzdAdBdCdDdEdFdGdHdIdJdKdLdMdNdOdPdQdRdSdTdUdVdWdXdYdZd0d1d2d3d4d5d6d7d8d9d.d+eaebecedeeefegeheiejekelemeneoepeqereseteuevewexeyezeAeBeCeDeEeFeGeHeIeJeKeLeMeNeOePeQeReSeTeUeVeWeXeYeZe0e1e2e3e4e5e6e7e8e9e.e+fafbfcfdfefffgfhfifjfkflfmfnfofpfqfrfsftfufvfwfxfyfzfAfBfCfDfEfFfGfHfIfJfKfLfMfNfOfPfQfRfSfTfUfVfWfXfYfZf0f1f2f3f4f5f6f7f8f9f.f+gagbgcgdgegfggghgigjgkglgmgngogpgqgrgsgtgugvgwgxgygzgAgBgCgDgEgFgGgHgIgJgKgLgMgNgOgPgQgRgSgTgUgVgWgXgYgZg0g1g2g3g4g5g6g7g8g9g.g+hahbhchdhehfhghhhihjhkhlhmhnhohphqhrhshthuhvhwhxhyhzhAhBhChDhEhFhGhHhIhJhKhLhMhNhOhPhQhRhShThUhVhWhXhYhZh0h1h2h3h4h5h6h7h8h9h.h+",
"aaabacadaeafagahaiajakalamanaoapaqarasatauavawaxayazaAaBaCaDaEaFaGaHaIaJaKaLaMaNaOaPaQaRaSaTaUaVaWaXaYaZa0a1a2a3a4a5a6a7a8a9a.a+babbbcbdbebfbgbhbibjbkblbmbnbobpbqbrbsbtbubvbwbxbybzbAbBbCbDbEbFbGbHbIbJbKbLbMbNbObPbQbRbSbTbUbVbWbXbYbZb0b1b2b3b4b5b6b7b8b9b.b+cacbcccdcecfcgchcicjckclcmcncocpcqcrcsctcucvcwcxcyczcAcBcCcDcEcFcGcHcIcJcKcLcMcNcOcPcQcRcScTcUcVcWcXcYcZc0c1c2c3c4c5c6c7c8c9c.c+dadbdcdddedfdgdhdidjdkdldmdndodpdqdrdsdtdudvdwdxdydzdAdBdCdDdEdFdGdHdIdJdKdLdMdNdOdPdQdRdSdTdUdVdWdXdYdZd0d1d2d3d4d5d6d7d8d9d.d+eaebecedeeefegeheiejekelemeneoepeqereseteuevewexeyezeAeBeCeDeEeFeGeHeIeJeKeLeMeNeOePeQeReSeTeUeVeWeXeYeZe0e1e2e3e4e5e6e7e8e9e.e+fafbfcfdfefffgfhfifjfkflfmfnfofpfqfrfsftfufvfwfxfyfzfAfBfCfDfEfFfGfHfIfJfKfLfMfNfOfPfQfRfSfTfUfVfWfXfYfZf0f1f2f3f4f5f6f7f8f9f.f+gagbgcgdgegfggghgigjgkglgmgngogpgqgrgsgtgugvgwgxgygzgAgBgCgDgEgFgGgHgIgJgKgLgMgNgOgPgQgRgSgTgUgVgWgXgYgZg0g1g2g3g4g5g6g7g8g9g.g+hahbhchdhehfhghhhihjhkhlhmhnhohphqhrhshthuhvhwhxhyhzhAhBhChDhEhFhGhHhIhJhKhLhMhNhOhPhQhRhShThUhVhWhXhYhZh0h1h2h3h4h5h6h7h8h9h.h+",
"aaabacadaeafagahaiajakalamanaoapaqarasatauavawaxayazaAaBaCaDaEaFaGaHaIaJaKaLaMaNaOaPaQaRaSaTaUaVaWaXaYaZa0a1a2a3a4a5a6a7a8a9a.a+babbbcbdbebfbgbhbibjbkblbmbnbobpbqbrbsbtbubvbwbxbybzbAbBbCbDbEbFbGbHbIbJbKbLbMbNbObPbQbRbSbTbUbVbWbXbYbZb0b1b2b3b4b5b6b7b8b9b.b+cacbcccdcecfcgchcicjckclcmcncocpcqcrcsctcucvcwcxcyczcAcBcCcDcEcFcGcHcIcJcKcLcMcNcOcPcQcRcScTcUcVcWcXcYcZc0c1c2c3c4c5c6c7c8c9c.c+dadbdcdddedfdgdhdidjdkdldmdndodpdqdrdsdtdudvdwdxdydzdAdBdCdDdEdFdGdHdIdJdKdLdMdNdOdPdQdRdSdTdUdVdWdXdYdZd0d1d2d3d4d5d6d7d8d9d.d+eaebecedeeefegeheiejekelemeneoepeqereseteuevewexeyezeAeBeCeDeEeFeGeHeIeJeKeLeMeNeOePeQeReSeTeUeVeWeXeYeZe0e1e2e3e4e5e6e7e8e9e.e+fafbfcfdfefffgfhfifjfkflfmfnfofpfqfrfsftfufvfwfxfyfzfAfBfCfDfEfFfGfHfIfJfKfLfMfNfOfPfQfRfSfTfUfVfWfXfYfZf0f1f2f3f4f5f6f7f8f9f.f+gagbgcgdgegfggghgigjgkglgmgngogpgqgrgsgtgugvgwgxgygzgAgBgCgDgEgFgGgHgIgJgKgLgMgNgOgPgQgRgSgTgUgVgWgXgYgZg0g1g2g3g4g5g6g7g8g9g.g+hahbhchdhehfhghhhihjhkhlhmhnhohphqhrhshthuhvhwhxhyhzhAhBhChDhEhFhGhHhIhJhKhLhMhNhOhPhQhRhShThUhVhWhXhYhZh0h1h2h3h4h5h6h7h8h9h.h+",
"aaabacadaeafagahaiajakalamanaoapaqarasatauavawaxayazaAaBaCaDaEaFaGaHaIaJaKaLaMaNaOaPaQaRaSaTaUaVaWaXaYaZa0a1a2a3a4a5a6a7a8a9a.a+babbbcbdbebfbgbhbibjbkblbmbnbobpbqbrbsbtbubvbwbxbybzbAbBbCbDbEbFbGbHbIbJbKbLbMbNbObPbQbRbSbTbUbVbWbXbYbZb0b1b2b3b4b5b6b7b8b9b.b+cacbcccdcecfcgchcicjckclcmcncocpcqcrcsctcucvcwcxcyczcAcBcCcDcEcFcGcHcIcJcKcLcMcNcOcPcQcRcScTcUcVcWcXcYcZc0c1c2c3c4c5c6c7c8c9c.c+dadbdcdddedfdgdhdidjdkdldmdndodpdqdrdsdtdudvdwdxdydzdAdBdCdDdEdFdGdHdIdJdKdLdMdNdOdPdQdRdSdTdUdVdWdXdYdZd0d1d2d3d4d5d6d7d8d9d.d+eaebecedeeefegeheiejekelemeneoepeqereseteuevewexeyezeAeBeCeDeEeFeGeHeIeJeKeLeMeNeOePeQeReSeTeUeVeWeXeYeZe0e1e2e3e4e5e6e7e8e9e.e+fafbfcfdfefffgfhfifjfkflfmfnfofpfqfrfsftfufvfwfxfyfzfAfBfCfDfEfFfGfHfIfJfKfLfMfNfOfPfQfRfSfTfUfVfWfXfYfZf0f1f2f3f4f5f6f7f8f9f.f+gagbgcgdgegfggghgigjgkglgmgngogpgqgrgsgtgugvgwgxgygzgAgBgCgDgEgFgGgHgIgJgKgLgMgNgOgPgQgRgSgTgUgVgWgXgYgZg0g1g2g3g4g5g6g7g8g9g.g+hahbhchdhehfhghhhihjhkhlhmhnhohphqhrhshthuhvhwhxhyhzhAhBhChDhEhFhGhHhIhJhKhLhMhNhOhPhQhRhShThUhVhWhXhYhZh0h1h2h3h4h5h6h7h8h9h.h+",
"aaabacadaeafagahaiajakalamanaoapaqarasatauavawaxayazaAaBaCaDaEaFaGaHaIaJaKaLaMaNaOaPaQaRaSaTaUaVaWaXaYaZa0a1a2a3a4a5a6a7a8a9a.a+babbbcbdbebfbgbhbibjbkblbmbnbobpbqbrbsbtbubvbwbxbybzbAbBbCbDbEbFbGbHbIbJbKbLbMbNbObPbQbRbSbTbUbVbWbXbYbZb0b1b2b3b4b5b6b7b8b9b.b+cacbcccdcecfcgchcicjckclcmcncocpcqcrcsctcucvcwcxcyczcAcBcCcDcEcFcGcHcIcJcKcLcMcNcOcPcQcRcScTcUcVcWcXcYcZc0c1c2c3c4c5c6c7c8c9c.c+dadbdcdddedfdgdhdidjdkdldmdndodpdqdrdsdtdudvdwdxdydzdAdBdCdDdEdFdGdHdIdJdKdLdMdNdOdPdQdRdSdTdUdVdWdXdYdZd0d1d2d3d4d5d6d7d8d9d.d+eaebecedeeefegeheiejekelemeneoepeqereseteuevewexeyezeAeBeCeDeEeFeGeHeIeJeKeLeMeNeOePeQeReSeTeUeVeWeXeYeZe0e1e2e3e4e5e6e7e8e9e.e+fafbfcfdfefffgfhfifjfkflfmfnfofpfqfrfsftfufvfwfxfyfzfAfBfCfDfEfFfGfHfIfJfKfLfMfNfOfPfQfRfSfTfUfVfWfXfYfZf0f1f2f3f4f5f6f7f8f9f.f+gagbgcgdgegfggghgigjgkglgmgngogpgqgrgsgtgugvgwgxgygzgAgBgCgDgEgFgGgHgIgJgKgLgMgNgOgPgQgRgSgTgUgVgWgXgYgZg0g1g2g3g4g5g6g7g8g9g.g+hahbhchdhehfhghhhihjhkhlhmhnhohphqhrhshthuhvhwhxhyhzhAhBhChDhEhFhGhHhIhJhKhLhMhNhOhPhQhRhShThUhVhWhXhYhZh0h1h2h3h4h5h6h7h8h9h.h+",
"aaabacadaeafagahaiajakalamanaoapaqarasatauavawaxayazaAaBaCaDaEaFaGaHaIaJaKaLaMaNaOaPaQaRaSaTaUaVaWaXaYaZa0a1a2a3a4a5a6a7a8a9a.a+babbbcbdbebfbgbhbibjbkblbmbnbobpbqbrbsbtbubvbwbxbybzbAbBbCbDbEbFbGbHbIbJbKbLbMbNbObPbQbRbSbTbUbVbWbXbYbZb0b1b2b3b4b5b6b7b8b9b.b+cacbcccdcecfcgchcicjckclcmcncocpcqcrcsctcucvcwcxcyczcAcBcCcDcEcFcGcHcIcJcKcLcMcNcOcPcQcRcScTcUcVcWcXcYcZc0c1c2c3c4c5c6c7c8c9c.c+dadbdcdddedfdgdhdidjdkdldmdndodpdqdrdsdtdudvdwdxdydzdAdBdCdDdEdFdGdHdIdJdKdLdMdNdOdPdQdRdSdTdUdVdWdXdYdZd0d1d2d3d4d5d6d7d8d9d.d+eaebecedeeefegeheiejekelemeneoepeqereseteuevewexeyezeAeBeCeDeEeFeGeHeIeJeKeLeMeNeOePeQeReSeTeUeVeWeXeYeZe0e1e2e3e4e5e6e7e8e9e.e+fafbfcfdfefffgfhfifjfkflfmfnfofpfqfrfsftfufvfwfxfyfzfAfBfCfDfEfFfGfHfIfJfKfLfMfNfOfPfQfRfSfTfUfVfWfXfYfZf0f1f2f3f4f5f6f7f8f9f.f+gagbgcgdgegfggghgigjgkglgmgngogpgqgrgsgtgugvgwgxgygzgAgBgCgDgEgFgGgHgIgJgKgLgMgNgOgPgQgRgSgTgUgVgWgXgYgZg0g1g2g3g4g5g6g7g8g9g.g+hahbhchdhehfhghhhihjhkhlhmhnhohphqhrhshthuhvhwhxhyhzhAhBhChDhEhFhGhHhIhJhKhLhMhNhOhPhQhRhShThUhVhWhXhYhZh0h1h2h3h4h5h6h7h8h9h.h+",
"aaabacadaeafagahaiajakalamanaoapaqarasatauavawaxayazaAaBaCaDaEaFaGaHaIaJaKaLaMaNaOaPaQaRaSaTaUaVaWaXaYaZa0a1a2a3a4a5a6a7a8a9a.a+babbbcbdbebfbgbhbibjbkblbmbnbobpbqbrbsbtbubvbwbxbybzbAbBbCbDbEbFbGbHbIbJbKbLbMbNbObPbQbRbSbTbUbVbWbXbYbZb0b1b2b3b4b5b6b7b8b9b.b+cacbcccdcecfcgchcicjckclcmcncocpcqcrcsctcucvcwcxcyczcAcBcCcDcEcFcGcHcIcJcKcLcMcNcOcPcQcRcScTcUcVcWcXcYcZc0c1c2c3c4c5c6c7c8c9c.c+dadbdcdddedfdgdhdidjdkdldmdndodpdqdrdsdtdudvdwdxdydzdAdBdCdDdEdFdGdHdIdJdKdLdMdNdOdPdQdRdSdTdUdVdWdXdYdZd0d1d2d3d4d5d6d7d8d9d.d+eaebecedeeefegeheiejekelemeneoepeqereseteuevewexeyezeAeBeCeDeEeFeGeHeIeJeKeLeMeNeOePeQeReSeTeUeVeWeXeYeZe0e1e2e3e4e5e6e7e8e9e.e+fafbfcfdfefffgfhfifjfkflfmfnfofpfqfrfsftfufvfwfxfyfzfAfBfCfDfEfFfGfHfIfJfKfLfMfNfOfPfQfRfSfTfUfVfWfXfYfZf0f1f2f3f4f5f6f7f8f9f.f+gagbgcgdgegfggghgigjgkglgmgngogpgqgrgsgtgugvgwgxgygzgAgBgCgDgEgFgGgHgIgJgKgLgMgNgOgPgQgRgSgTgUgVgWgXgYgZg0g1g2g3g4g5g6g7g8g9g.g+hahbhchdhehfhghhhihjhkhlhmhnhohphqhrhshthuhvhwhxhyhzhAhBhChDhEhFhGhHhIhJhKhLhMhNhOhPhQhRhShThUhVhWhXhYhZh0h1h2h3h4h5h6h7h8h9h.h+",
"aaabacadaeafagahaiajakalamanaoapaqarasatauavawaxayazaAaBaCaDaEaFaGaHaIaJaKaLaMaNaOaPaQaRaSaTaUaVaWaXaYaZa0a1a2a3a4a5a6a7a8a9a.a+babbbcbdbebfbgbhbibjbkblbmbnbobpbqbrbsbtbubvbwbxbybzbAbBbCbDbEbFbGbHbIbJbKbLbMbNbObPbQbRbSbTbUbVbWbXbYbZb0b1b2b3b4b5b6b7b8b9b.b+cacbcccdcecfcgchcicjckclcmcncocpcqcrcsctcucvcwcxcyczcAcBcCcDcEcFcGcHcIcJcKcLcMcNcOcPcQcRcScTcUcVcWcXcYcZc0c1c2c3c4c5c6c7c8c9c.c+dadbdcdddedfdgdhdidjdkdldmdndodpdqdrdsdtdudvdwdxdydzdAdBdCdDdEdFdGdHdIdJdKdLdMdNdOdPdQdRdSdTdUdVdWdXdYdZd0d1d2d3d4d5d6d7d8d9d.d+eaebecedeeefegeheiejekelemeneoepeqereseteuevewexeyezeAeBeCeDeEeFeGeHeIeJeKeLeMeNeOePeQeReSeTeUeVeWeXeYeZe0e1e2e3e4e5e6e7e8e9e.e+fafbfcfdfefffgfhfifjfkflfmfnfofpfqfrfsftfufvfwfxfyfzfAfBfCfDfEfFfGfHfIfJfKfLfMfNfOfPfQfRfSfTfUfVfWfXfYfZf0f1f2f3f4f5f6f7f8f9f.f+gagbgcgdgegfggghgigjgkglgmgngogpgqgrgsgtgugvgwgxgygzgAgBgCgDgEgFgGgHgIgJgKgLgMgNgOgPgQgRgSgTgUgVgWgXgYgZg0g1g2g3g4g5g6g7g8g9g.g+hahbhchdhehfhghhhihjhkhlhmhnhohphqhrhshthuhvhwhxhyhzhAhBhChDhEhFhGhHhIhJhKhLhMhNhOhPhQhRhShThUhVhWhXhYhZh0h1h2h3h4h5h6h7h8h9h.h+",
"aaabacadaeafagahaiajakalamanaoapaqarasatauavawaxayazaAaBaCaDaEaFaGaHaIaJaKaLaMaNaOaPaQaRaSaTaUaVaWaXaYaZa0a1a2a3a4a5a6a7a8a9a.a+babbbcbdbebfbgbhbibjbkblbmbnbobpbqbrbsbtbubvbwbxbybzbAbBbCbDbEbFbGbHbIbJbKbLbMbNbObPbQbRbSbTbUbVbWbXbYbZb0b1b2b3b4b5b6b7b8b9b.b+cacbcccdcecfcgchcicjckclcmcncocpcqcrcsctcucvcwcxcyczcAcBcCcDcEcFcGcHcIcJcKcLcMcNcOcPcQcRcScTcUcVcWcXcYcZc0c1c2c3c4c5c6c7c8c9c.c+dadbdcdddedfdgdhdidjdkdldmdndodpdqdrdsdtdudvdwdxdydzdAdBdCdDdEdFdGdHdIdJdKdLdMdNdOdPdQdRdSdTdUdVdWdXdYdZd0d1d2d3d4d5d6d7d8d9d.d+eaebecedeeefegeheiejekelemeneoepeqereseteuevewexeyezeAeBeCeDeEeFeGeHeIeJeKeLeMeNeOePeQeReSeTeUeVeWeXeYeZe0e1e2e3e4e5e6e7e8e9e.e+fafbfcfdfefffgfhfifjfkflfmfnfofpfqfrfsftfufvfwfxfyfzfAfBfCfDfEfFfGfHfIfJfKfLfMfNfOfPfQfRfSfTfUfVfWfXfYfZf0f1f2f3f4f5f6f7f8f9f.f+gagbgcgdgegfggghgigjgkglgmgngogpgqgrgsgtgugvgwgxgygzgAgBgCgDgEgFgGgHgIgJgKgLgMgNgOgPgQgRgSgTgUgVgWgXgYgZg0g1g2g3g4g5g6g7g8g9g.g+hahbhchdhehfhghhhihjhkhlhmhnhohphqhrhshthuhvhwhxhyhzhAhBhChDhEhFhGhHhIhJhKhLhMhNhOhPhQhRhShThUhVhWhXhYhZh0h1h2h3h4h5h6h7h8h9h.h+",
"aaabacadaeafagahaiajakalamanaoapaqarasatauavawaxayazaAaBaCaDaEaFaGaHaIaJaKaLaMaNaOaPaQaRaSaTaUaVaWaXaYaZa0a1a2a3a4a5a6a7a8a9a.a+babbbcbdbebfbgbhbibjbkblbmbnbobpbqbrbsbtbubvbwbxbybzbAbBbCbDbEbFbGbHbIbJbKbLbMbNbObPbQbRbSbTbUbVbWbXbYbZb0b1b2b3b4b5b6b7b8b9b.b+cacbcccdcecfcgchcicjckclcmcncocpcqcrcsctcucvcwcxcyczcAcBcCcDcEcFcGcHcIcJcKcLcMcNcOcPcQcRcScTcUcVcWcXcYcZc0c1c2c3c4c5c6c7c8c9c.c+dadbdcdddedfdgdhdidjdkdldmdndodpdqdrdsdtdudvdwdxdydzdAdBdCdDdEdFdGdHdIdJdKdLdMdNdOdPdQdRdSdTdUdVdWdXdYdZd0d1d2d3d4d5d6d7d8d9d.d+eaebecedeeefegeheiejekelemeneoepeqereseteuevewexeyezeAeBeCeDeEeFeGeHeIeJeKeLeMeNeOePeQeReSeTeUeVeWeXeYeZe0e1e2e3e4e5e6e7e8e9e.e+fafbfcfdfefffgfhfifjfkflfmfnfofpfqfrfsftfufvfwfxfyfzfAfBfCfDfEfFfGfHfIfJfKfLfMfNfOfPfQfRfSfTfUfVfWfXfYfZf0f1f2f3f4f5f6f7f8f9f.f+gagbgcgdgegfggghgigjgkglgmgngogpgqgrgsgtgugvgwgxgygzgAgBgCgDgEgFgGgHgIgJgKgLgMgNgOgPgQgRgSgTgUgVgWgXgYgZg0g1g2g3g4g5g6g7g8g9g.g+hahbhchdhehfhghhhihjhkhlhmhnhohphqhrhshthuhvhwhxhyhzhAhBhChDhEhFhGhHhIhJhKhLhMhNhOhPhQhRhShThUhVhWhXhYhZh0h1h2h3h4h5h6h7h8h9h.h+",
"aaabacadaeafagahaiajakalamanaoapaqarasatauavawaxayazaAaBaCaDaEaFaGaHaIaJaKaLaMaNaOaPaQaRaSaTaUaVaWaXaYaZa0a1a2a3a4a5a6a7a8a9a.a+babbbcbdbebfbgbhbibjbkblbmbnbobpbqbrbsbtbubvbwbxbybzbAbBbCbDbEbFbGbHbIbJbKbLbMbNbObPbQbRbSbTbUbVbWbXbYbZb0b1b2b3b4b5b6b7b8b9b.b+cacbcccdcecfcgchcicjckclcmcncocpcqcrcsctcucvcwcxcyczcAcBcCcDcEcFcGcHcIcJcKcLcMcNcOcPcQcRcScTcUcVcWcXcYcZc0c1c2c3c4c5c6c7c8c9c.c+dadbdcdddedfdgdhdidjdkdldmdndodpdqdrdsdtdudvdwdxdydzdAdBdCdDdEdFdGdHdIdJdKdLdMdNdOdPdQdRdSdTdUdVdWdXdYdZd0d1d2d3d4d5d6d7d8d9d.d+eaebecedeeefegeheiejekelemeneoepeqereseteuevewexeyezeAeBeCeDeEeFeGeHeIeJeKeLeMeNeOePeQeReSeTeUeVeWeXeYeZe0e1e2e3e4e5e6e7e8e9e.e+fafbfcfdfefffgfhfifjfkflfmfnfofpfqfrfsftfufvfwfxfyfzfAfBfCfDfEfFfGfHfIfJfKfLfMfNfOfPfQfRfSfTfUfVfWfXfYfZf0f1f2f3f4f5f6f7f8f9f.f+gagbgcgdgegfggghgigjgkglgmgngogpgqgrgsgtgugvgwgxgygzgAgBgCgDgEgFgGgHgIgJgKgLgMgNgOgPgQgRgSgTgUgVgWgXgYgZg0g1g2g3g4g5g6g7g8g9g.g+hahbhchdhehfhghhhihjhkhlhmhnhohphqhrhshthuhvhwhxhyhzhAhBhChDhEhFhGhHhIhJhKhLhMhNhOhPhQhRhShThUhVhWhXhYhZh0h1h2h3h4h5h6h7h8h9h.h+",
"aaabacadaeafagahaiajakalamanaoapaqarasatauavawaxayazaAaBaCaDaEaFaGaHaIaJaKaLaMaNaOaPaQaRaSaTaUaVaWaXaYaZa0a1a2a3a4a5a6a7a8a9a.a+babbbcbdbebfbgbhbibjbkblbmbnbobpbqbrbsbtbubvbwbxbybzbAbBbCbDbEbFbGbHbIbJbKbLbMbNbObPbQbRbSbTbUbVbWbXbYbZb0b1b2b3b4b5b6b7b8b9b.b+cacbcccdcecfcgchcicjckclcmcncocpcqcrcsctcucvcwcxcyczcAcBcCcDcEcFcGcHcIcJcKcLcMcNcOcPcQcRcScTcUcVcWcXcYcZc0c1c2c3c4c5c6c7c8c9c.c+dadbdcdddedfdgdhdidjdkdldmdndodpdqdrdsdtdudvdwdxdydzdAdBdCdDdEdFdGdHdIdJdKdLdMdNdOdPdQdRdSdTdUdVdWdXdYdZd0d1d2d3d4d5d6d7d8d9d.d+eaebecedeeefegeheiejekelemeneoepeqereseteuevewexeyezeAeBeCeDeEeFeGeHeIeJeKeLeMeNeOePeQeReSeTeUeVeWeXeYeZe0e1e2e3e4e5e6e7e8e9e.e+fafbfcfdfefffgfhfifjfkflfmfnfofpfqfrfsftfufvfwfxfyfzfAfBfCfDfEfFfGfHfIfJfKfLfMfNfOfPfQfRfSfTfUfVfWfXfYfZf0f1f2f3f4f5f6f7f8f9f.f+gagbgcgdgegfggghgigjgkglgmgngogpgqgrgsgtgugvgwgxgygzgAgBgCgDgEgFgGgHgIgJgKgLgMgNgOgPgQgRgSgTgUgVgWgXgYgZg0g1g2g3g4g5g6g7g8g9g.g+hahbhchdhehfhghhhihjhkhlhmhnhohphqhrhshthuhvhwhxhyhzhAhBhChDhEhFhGhHhIhJhKhLhMhNhOhPhQhRhShThUhVhWhXhYhZh0h1h2h3h4h5h6h7h8h9h.h+",
"aaabacadaeafagahaiajakalamanaoapaqarasatauavawaxayazaAaBaCaDaEaFaGaHaIaJaKaLaMaNaOaPaQaRaSaTaUaVaWaXaYaZa0a1a2a3a4a5a6a7a8a9a.a+babbbcbdbebfbgbhbibjbkblbmbnbobpbqbrbsbtbubvbwbxbybzbAbBbCbDbEbFbGbHbIbJbKbLbMbNbObPbQbRbSbTbUbVbWbXbYbZb0b1b2b3b4b5b6b7b8b9b.b+cacbcccdcecfcgchcicjckclcmcncocpcqcrcsctcucvcwcxcyczcAcBcCcDcEcFcGcHcIcJcKcLcMcNcOcPcQcRcScTcUcVcWcXcYcZc0c1c2c3c4c5c6c7c8c9c.c+dadbdcdddedfdgdhdidjdkdldmdndodpdqdrdsdtdudvdwdxdydzdAdBdCdDdEdFdGdHdIdJdKdLdMdNdOdPdQdRdSdTdUdVdWdXdYdZd0d1d2d3d4d5d6d7d8d9d.d+eaebecedeeefegeheiejekelemeneoepeqereseteuevewexeyezeAeBeCeDeEeFeGeHeIeJeKeLeMeNeOePeQeReSeTeUeVeWeXeYeZe0e1e2e3e4e5e6e7e8e9e.e+fafbfcfdfefffgfhfifjfkflfmfnfofpfqfrfsftfufvfwfxfyfzfAfBfCfDfEfFfGfHfIfJfKfLfMfNfOfPfQfRfSfTfUfVfWfXfYfZf0f1f2f3f4f5f6f7f8f9f.f+gagbgcgdgegfggghgigjgkglgmgngogpgqgrgsgtgugvgwgxgygzgAgBgCgDgEgFgGgHgIgJgKgLgMgNgOgPgQgRgSgTgUgVgWgXgYgZg0g1g2g3g4g5g6g7g8g9g.g+hahbhchdhehfhghhhihjhkhlhmhnhohphqhrhshthuhvhwhxhyhzhAhBhChDhEhFhGhHhIhJhKhLhMhNhOhPhQhRhShThUhVhWhXhYhZh0h1h2h3h4h5h6h7h8h9h.h+",
"aaabacadaeafagahaiajakalamanaoapaqarasatauavawaxayazaAaBaCaDaEaFaGaHaIaJaKaLaMaNaOaPaQaRaSaTaUaVaWaXaYaZa0a1a2a3a4a5a6a7a8a9a.a+babbbcbdbebfbgbhbibjbkblbmbnbobpbqbrbsbtbubvbwbxbybzbAbBbCbDbEbFbGbHbIbJbKbLbMbNbObPbQbRbSbTbUbVbWbXbYbZb0b1b2b3b4b5b6b7b8b9b.b+cacbcccdcecfcgchcicjckclcmcncocpcqcrcsctcucvcwcxcyczcAcBcCcDcEcFcGcHcIcJcKcLcMcNcOcPcQcRcScTcUcVcWcXcYcZc0c1c2c3c4c5c6c7c8c9c.c+dadbdcdddedfdgdhdidjdkdldmdndodpdqdrdsdtdudvdwdxdydzdAdBdCdDdEdFdGdHdIdJdKdLdMdNdOdPdQdRdSdTdUdVdWdXdYdZd0d1d2d3d4d5d6d7d8d9d.d+eaebecedeeefegeheiejekelemeneoepeqereseteuevewexeyezeAeBeCeDeEeFeGeHeIeJeKeLeMeNeOePeQeReSeTeUeVeWeXeYeZe0e1e2e3e4e5e6e7e8e9e.e+fafbfcfdfefffgfhfifjfkflfmfnfofpfqfrfsftfufvfwfxfyfzfAfBfCfDfEfFfGfHfIfJfKfLfMfNfOfPfQfRfSfTfUfVfWfXfYfZf0f1f2f3f4f5f6f7f8f9f.f+gagbgcgdgegfggghgigjgkglgmgngogpgqgrgsgtgugvgwgxgygzgAgBgCgDgEgFgGgHgIgJgKgLgMgNgOgPgQgRgSgTgUgVgWgXgYgZg0g1g2g3g4g5g6g7g8g9g.g+hahbhchdhehfhghhhihjhkhlhmhnhohphqhrhshthuhvhwhxhyhzhAhBhChDhEhFhGhHhIhJhKhLhMhNhOhPhQhRhShThUhVhWhXhYhZh0h1h2h3h4h5h6h7h8h9h.h+",
"aaabacadaeafagahaiajakalamanaoapaqarasatauavawaxayazaAaBaCaDaEaFaGaHaIaJaKaLaMaNaOaPaQaRaSaTaUaVaWaXaYaZa0a1a2a3a4a5a6a7a8a9a.a+babbbcbdbebfbgbhbibjbkblbmbnbobpbqbrbsbtbubvbwbxbybzbAbBbCbDbEbFbGbHbIbJbKbLbMbNbObPbQbRbSbTbUbVbWbXbYbZb0b1b2b3b4b5b6b7b8b9b.b+cacbcccdcecfcgchcicjckclcmcncocpcqcrcsctcucvcwcxcyczcAcBcCcDcEcFcGcHcIcJcKcLcMcNcOcPcQcRcScTcUcVcWcXcYcZc0c1c2c3c4c5c6c7c8c9c.c+dadbdcdddedfdgdhdidjdkdldmdndodpdqdrdsdtdudvdwdxdydzdAdBdCdDdEdFdGdHdIdJdKdLdMdNdOdPdQdRdSdTdUdVdWdXdYdZd0d1d2d3d4d5d6d7d8d9d.d+eaebecedeeefegeheiejekelemeneoepeqereseteuevewexeyezeAeBeCeDeEeFeGeHeIeJeKeLeMeNeOePeQeReSeTeUeVeWeXeYeZe0e1e2e3e4e5e6e7e8e9e.e+fafbfcfdfefffgfhfifjfkflfmfnfofpfqfrfsftfufvfwfxfyfzfAfBfCfDfEfFfGfHfIfJfKfLfMfNfOfPfQfRfSfTfUfVfWfXfYfZf0f1f2f3f4f5f6f7f8f9f.f+gagbgcgdgegfggghgigjgkglgmgngogpgqgrgsgtgugvgwgxgygzgAgBgCgDgEgFgGgHgIgJgKgLgMgNgOgPgQgRgSgTgUgVgWgXgYgZg0g1g2g3g4g5g6g7g8g9g.g+hahbhchdhehfhghhhihjhkhlhmhnhohphqhrhshthuhvhwhxhyhzhAhBhChDhEhFhGhHhIhJhKhLhMhNhOhPhQhRhShThUhVhWhXhYhZh0h1h2h3h4h5h6h7h8h9h.h+",
"aaabacadaeafagahaiajakalamanaoapaqarasatauavawaxayazaAaBaCaDaEaFaGaHaIaJaKaLaMaNaOaPaQaRaSaTaUaVaWaXaYaZa0a1a2a3a4a5a6a7a8a9a.a+babbbcbdbebfbgbhbibjbkblbmbnbobpbqbrbsbtbubvbwbxbybzbAbBbCbDbEbFbGbHbIbJbKbLbMbNbObPbQbRbSbTbUbVbWbXbYbZb0b1b2b3b4b5b6b7b8b9b.b+cacbcccdcecfcgchcicjckclcmcncocpcqcrcsctcucvcwcxcyczcAcBcCcDcEcFcGcHcIcJcKcLcMcNcOcPcQcRcScTcUcVcWcXcYcZc0c1c2c3c4c5c6c7c8c9c.c+dadbdcdddedfdgdhdidjdkdldmdndodpdqdrdsdtdudvdwdxdydzdAdBdCdDdEdFdGdHdIdJdKdLdMdNdOdPdQdRdSdTdUdVdWdXdYdZd0d1d2d3d4d5d6d7d8d9d.d+eaebecedeeefegeheiejekelemeneoepeqereseteuevewexeyezeAeBeCeDeEeFeGeHeIeJeKeLeMeNeOePeQeReSeTeUeVeWeXeYeZe0e1e2e3e4e5e6e7e8e9e.e+fafbfcfdfefffgfhfifjfkflfmfnfofpfqfrfsftfufvfwfxfyfzfAfBfCfDfEfFfGfHfIfJfKfLfMfNfOfPfQfRfSfTfUfVfWfXfYfZf0f1f2f3f4f5f6f7f8f9f.f+gagbgcgdgegfggghgigjgkglgmgngogpgqgrgsgtgugvgwgxgygzgAgBgCgDgEgFgGgHgIgJgKgLgMgNgOgPgQgRgSgTgUgVgWgXgYgZg0g1g2g3g4g5g6g7g8g9g.g+hahbhchdhehfhghhhihjhkhlhmhnhohphqhrhshthuhvhwhxhyhzhAhBhChDhEhFhGhHhIhJhKhLhMhNhOhPhQhRhShThUhVhWhXhYhZh0h1h2h3h4h5h6h7h8h9h.h+",
"aaabacadaeafagahaiajakalamanaoapaqarasatauavawaxayazaAaBaCaDaEaFaGaHaIaJaKaLaMaNaOaPaQaRaSaTaUaVaWaXaYaZa0a1a2a3a4a5a6a7a8a9a.a+babbbcbdbebfbgbhbibjbkblbmbnbobpbqbrbsbtbubvbwbxbybzbAbBbCbDbEbFbGbHbIbJbKbLbMbNbObPbQbRbSbTbUbVbWbXbYbZb0b1b2b3b4b5b6b7b8b9b.b+cacbcccdcecfcgchcicjckclcmcncocpcqcrcsctcucvcwcxcyczcAcBcCcDcEcFcGcHcIcJcKcLcMcNcOcPcQcRcScTcUcVcWcXcYcZc0c1c2c3c4c5c6c7c8c9c.c+dadbdcdddedfdgdhdidjdkdldmdndodpdqdrdsdtdudvdwdxdydzdAdBdCdDdEdFdGdHdIdJdKdLdMdNdOdPdQdRdSdTdUdVdWdXdYdZd0d1d2d3d4d5d6d7d8d9d.d+eaebecedeeefegeheiejekelemeneoepeqereseteuevewexeyezeAeBeCeDeEeFeGeHeIeJeKeLeMeNeOePeQeReSeTeUeVeWeXeYeZe0e1e2e3e4e5e6e7e8e9e.e+fafbfcfdfefffgfhfifjfkflfmfnfofpfqfrfsftfufvfwfxfyfzfAfBfCfDfEfFfGfHfIfJfKfLfMfNfOfPfQfRfSfTfUfVfWfXfYfZf0f1f2f3f4f5f6f7f8f9f.f+gagbgcgdgegfggghgigjgkglgmgngogpgqgrgsgtgugvgwgxgygzgAgBgCgDgEgFgGgHgIgJgKgLgMgNgOgPgQgRgSgTgUgVgWgXgYgZg0g1g2g3g4g5g6g7g8g9g.g+hahbhchdhehfhghhhihjhkhlhmhnhohphqhrhshthuhvhwhxhyhzhAhBhChDhEhFhGhHhIhJhKhLhMhNhOhPhQhRhShThUhVhWhXhYhZh0h1h2h3h4h5h6h7h8h9h.h+",
"aaabacadaeafagahaiajakalamanaoapaqarasatauavawaxayazaAaBaCaDaEaFaGaHaIaJaKaLaMaNaOaPaQaRaSaTaUaVaWaXaYaZa0a1a2a3a4a5a6a7a8a9a.a+babbbcbdbebfbgbhbibjbkblbmbnbobpbqbrbsbtbubvbwbxbybzbAbBbCbDbEbFbGbHbIbJbKbLbMbNbObPbQbRbSbTbUbVbWbXbYbZb0b1b2b3b4b5b6b7b8b9b.b+cacbcccdcecfcgchcicjckclcmcncocpcqcrcsctcucvcwcxcyczcAcBcCcDcEcFcGcHcIcJcKcLcMcNcOcPcQcRcScTcUcVcWcXcYcZc0c1c2c3c4c5c6c7c8c9c.c+dadbdcdddedfdgdhdidjdkdldmdndodpdqdrdsdtdudvdwdxdydzdAdBdCdDdEdFdGdHdIdJdKdLdMdNdOdPdQdRdSdTdUdVdWdXdYdZd0d1d2d3d4d5d6d7d8d9d.d+eaebecedeeefegeheiejekelemeneoepeqereseteuevewexeyezeAeBeCeDeEeFeGeHeIeJeKeLeMeNeOePeQeReSeTeUeVeWeXeYeZe0e1e2e3e4e5e6e7e8e9e.e+fafbfcfdfefffgfhfifjfkflfmfnfofpfqfrfsftfufvfwfxfyfzfAfBfCfDfEfFfGfHfIfJfKfLfMfNfOfPfQfRfSfTfUfVfWfXfYfZf0f1f2f3f4f5f6f7f8f9f.f+gagbgcgdgegfggghgigjgkglgmgngogpgqgrgsgtgugvgwgxgygzgAgBgCgDgEgFgGgHgIgJgKgLgMgNgOgPgQgRgSgTgUgVgWgXgYgZg0g1g2g3g4g5g6g7g8g9g.g+hahbhchdhehfhghhhihjhkhlhmhnhohphqhrhshthuhvhwhxhyhzhAhBhChDhEhFhGhHhIhJhKhLhMhNhOhPhQhRhShThUhVhWhXhYhZh0h1h2h3h4h5h6h7h8h9h.h+",
"aaabacadaeafagahaiajakalamanaoapaqarasatauavawaxayazaAaBaCaDaEaFaGaHaIaJaKaLaMaNaOaPaQaRaSaTaUaVaWaXaYaZa0a1a2a3a4a5a6a7a8a9a.a+babbbcbdbebfbgbhbibjbkblbmbnbobpbqbrbsbtbubvbwbxbybzbAbBbCbDbEbFbGbHbIbJbKbLbMbNbObPbQbRbSbTbUbVbWbXbYbZb0b1b2b3b4b5b6b7b8b9b.b+cacbcccdcecfcgchcicjckclcmcncocpcqcrcsctcucvcwcxcyczcAcBcCcDcEcFcGcHcIcJcKcLcMcNcOcPcQcRcScTcUcVcWcXcYcZc0c1c2c3c4c5c6c7c8c9c.c+dadbdcdddedfdgdhdidjdkdldmdndodpdqdrdsdtdudvdwdxdydzdAdBdCdDdEdFdGdHdIdJdKdLdMdNdOdPdQdRdSdTdUdVdWdXdYdZd0d1d2d3d4d5d6d7d8d9d.d+eaebecedeeefegeheiejekelemeneoepeqereseteuevewexeyezeAeBeCeDeEeFeGeHeIeJeKeLeMeNeOePeQeReSeTeUeVeWeXeYeZe0e1e2e3e4e5e6e7e8e9e.e+fafbfcfdfefffgfhfifjfkflfmfnfofpfqfrfsftfufvfwfxfyfzfAfBfCfDfEfFfGfHfIfJfKfLfMfNfOfPfQfRfSfTfUfVfWfXfYfZf0f1f2f3f4f5f6f7f8f9f.f+gagbgcgdgegfggghgigjgkglgmgngogpgqgrgsgtgugvgwgxgygzgAgBgCgDgEgFgGgHgIgJgKgLgMgNgOgPgQgRgSgTgUgVgWgXgYgZg0g1g2g3g4g5g6g7g8g9g.g+hahbhchdhehfhghhhihjhkhlhmhnhohphqhrhshthuhvhwhxhyhzhAhBhChDhEhFhGhHhIhJhKhLhMhNhOhPhQhRhShThUhVhWhXhYhZh0h1h2h3h4h5h6h7h8h9h.h+",
"aaabacadaeafagahaiajakalamanaoapaqarasatauavawaxayazaAaBaCaDaEaFaGaHaIaJaKaLaMaNaOaPaQaRaSaTaUaVaWaXaYaZa0a1a2a3a4a5a6a7a8a9a.a+babbbcbdbebfbgbhbibjbkblbmbnbobpbqbrbsbtbubvbwbxbybzbAbBbCbDbEbFbGbHbIbJbKbLbMbNbObPbQbRbSbTbUbVbWbXbYbZb0b1b2b3b4b5b6b7b8b9b.b+cacbcccdcecfcgchcicjckclcmcncocpcqcrcsctcucvcwcxcyczcAcBcCcDcEcFcGcHcIcJcKcLcMcNcOcPcQcRcScTcUcVcWcXcYcZc0c1c2c3c4c5c6c7c8c9c.c+dadbdcdddedfdgdhdidjdkdldmdndodpdqdrdsdtdudvdwdxdydzdAdBdCdDdEdFdGdHdIdJdKdLdMdNdOdPdQdRdSdTdUdVdWdXdYdZd0d1d2d3d4d5d6d7d8d9d.d+eaebecedeeefegeheiejekelemeneoepeqereseteuevewexeyezeAeBeCeDeEeFeGeHeIeJeKeLeMeNeOePeQeReSeTeUeVeWeXeYeZe0e1e2e3e4e5e6e7e8e9e.e+fafbfcfdfefffgfhfifjfkflfmfnfofpfqfrfsftfufvfwfxfyfzfAfBfCfDfEfFfGfHfIfJfKfLfMfNfOfPfQfRfSfTfUfVfWfXfYfZf0f1f2f3f4f5f6f7f8f9f.f+gagbgcgdgegfggghgigjgkglgmgngogpgqgrgsgtgugvgwgxgygzgAgBgCgDgEgFgGgHgIgJgKgLgMgNgOgPgQgRgSgTgUgVgWgXgYgZg0g1g2g3g4g5g6g7g8g9g.g+hahbhchdhehfhghhhihjhkhlhmhnhohphqhrhshthuhvhwhxhyhzhAhBhChDhEhFhGhHhIhJhKhLhMhNhOhPhQhRhShThUhVhWhXhYhZh0h1h2h3h4h5h6h7h8h9h.h+",
"aaabacadaeafagahaiajakalamanaoapaqarasatauavawaxayazaAaBaCaDaEaFaGaHaIaJaKaLaMaNaOaPaQaRaSaTaUaVaWaXaYaZa0a1a2a3a4a5a6a7a8a9a.a+babbbcbdbebfbgbhbibjbkblbmbnbobpbqbrbsbtbubvbwbxbybzbAbBbCbDbEbFbGbHbIbJbKbLbMbNbObPbQbRbSbTbUbVbWbXbYbZb0b1b2b3b4b5b6b7b8b9b.b+cacbcccdcecfcgchcicjckclcmcncocpcqcrcsctcucvcwcxcyczcAcBcCcDcEcFcGcHcIcJcKcLcMcNcOcPcQcRcScTcUcVcWcXcYcZc0c1c2c3c4c5c6c7c8c9c.c+dadbdcdddedfdgdhdidjdkdldmdndodpdqdrdsdtdudvdwdxdydzdAdBdCdDdEdFdGdHdIdJdKdLdMdNdOdPdQdRdSdTdUdVdWdXdYdZd0d1d2d3d4d5d6d7d8d9d.d+eaebecedeeefegeheiejekelemeneoepeqereseteuevewexeyezeAeBeCeDeEeFeGeHeIeJeKeLeMeNeOePeQeReSeTeUeVeWeXeYeZe0e1e2e3e4e5e6e7e8e9e.e+fafbfcfdfefffgfhfifjfkflfmfnfofpfqfrfsftfufvfwfxfyfzfAfBfCfDfEfFfGfHfIfJfKfLfMfNfOfPfQfRfSfTfUfVfWfXfYfZf0f1f2f3f4f5f6f7f8f9f.f+gagbgcgdgegfggghgigjgkglgmgngogpgqgrgsgtgugvgwgxgygzgAgBgCgDgEgFgGgHgIgJgKgLgMgNgOgPgQgRgSgTgUgVgWgXgYgZg0g1g2g3g4g5g6g7g8g9g.g+hahbhchdhehfhghhhihjhkhlhmhnhohphqhrhshthuhvhwhxhyhzhAhBhChDhEhFhGhHhIhJhKhLhMhNhOhPhQhRhShThUhVhWhXhYhZh0h1h2h3h4h5h6h7h8h9h.h+",
"aaabacadaeafagahaiajakalamanaoapaqarasatauavawaxayazaAaBaCaDaEaFaGaHaIaJaKaLaMaNaOaPaQaRaSaTaUaVaWaXaYaZa0a1a2a3a4a5a6a7a8a9a.a+babbbcbdbebfbgbhbibjbkblbmbnbobpbqbrbsbtbubvbwbxbybzbAbBbCbDbEbFbGbHbIbJbKbLbMbNbObPbQbRbSbTbUbVbWbXbYbZb0b1b2b3b4b5b6b7b8b9b.b+cacbcccdcecfcgchcicjckclcmcncocpcqcrcsctcucvcwcxcyczcAcBcCcDcEcFcGcHcIcJcKcLcMcNcOcPcQcRcScTcUcVcWcXcYcZc0c1c2c3c4c5c6c7c8c9c.c+dadbdcdddedfdgdhdidjdkdldmdndodpdqdrdsdtdudvdwdxdydzdAdBdCdDdEdFdGdHdIdJdKdLdMdNdOdPdQdRdSdTdUdVdWdXdYdZd0d1d2d3d4d5d6d7d8d9d.d+eaebecedeeefegeheiejekelemeneoepeqereseteuevewexeyezeAeBeCeDeEeFeGeHeIeJeKeLeMeNeOePeQeReSeTeUeVeWeXeYeZe0e1e2e3e4e5e6e7e8e9e.e+fafbfcfdfefffgfhfifjfkflfmfnfofpfqfrfsftfufvfwfxfyfzfAfBfCfDfEfFfGfHfIfJfKfLfMfNfOfPfQfRfSfTfUfVfWfXfYfZf0f1f2f3f4f5f6f7f8f9f.f+gagbgcgdgegfggghgigjgkglgmgngogpgqgrgsgtgugvgwgxgygzgAgBgCgDgEgFgGgHgIgJgKgLgMgNgOgPgQgRgSgTgUgVgWgXgYgZg0g1g2g3g4g5g6g7g8g9g.g+hahbhchdhehfhghhhihjhkhlhmhnhohphqhrhshthuhvhwhxhyhzhAhBhChDhEhFhGhHhIhJhKhLhMhNhOhPhQhRhShThUhVhWhXhYhZh0h1h2h3h4h5h6h7h8h9h.h+",
"aaabacadaeafagahaiajakalamanaoapaqarasatauavawaxayazaAaBaCaDaEaFaGaHaIaJaKaLaMaNaOaPaQaRaSaTaUaVaWaXaYaZa0a1a2a3a4a5a6a7a8a9a.a+babbbcbdbebfbgbhbibjbkblbmbnbobpbqbrbsbtbubvbwbxbybzbAbBbCbDbEbFbGbHbIbJbKbLbMbNbObPbQbRbSbTbUbVbWbXbYbZb0b1b2b3b4b5b6b7b8b9b.b+cacbcccdcecfcgchcicjckclcmcncocpcqcrcsctcucvcwcxcyczcAcBcCcDcEcFcGcHcIcJcKcLcMcNcOcPcQcRcScTcUcVcWcXcYcZc0c1c2c3c4c5c6c7c8c9c.c+dadbdcdddedfdgdhdidjdkdldmdndodpdqdrdsdtdudvdwdxdydzdAdBdCdDdEdFdGdHdIdJdKdLdMdNdOdPdQdRdSdTdUdVdWdXdYdZd0d1d2d3d4d5d6d7d8d9d.d+eaebecedeeefegeheiejekelemeneoepeqereseteuevewexeyezeAeBeCeDeEeFeGeHeIeJeKeLeMeNeOePeQeReSeTeUeVeWeXeYeZe0e1e2e3e4e5e6e7e8e9e.e+fafbfcfdfefffgfhfifjfkflfmfnfofpfqfrfsftfufvfwfxfyfzfAfBfCfDfEfFfGfHfIfJfKfLfMfNfOfPfQfRfSfTfUfVfWfXfYfZf0f1f2f3f4f5f6f7f8f9f.f+gagbgcgdgegfggghgigjgkglgmgngogpgqgrgsgtgugvgwgxgygzgAgBgCgDgEgFgGgHgIgJgKgLgMgNgOgPgQgRgSgTgUgVgWgXgYgZg0g1g2g3g4g5g6g7g8g9g.g+hahbhchdhehfhghhhihjhkhlhmhnhohphqhrhshthuhvhwhxhyhzhAhBhChDhEhFhGhHhIhJhKhLhMhNhOhPhQhRhShThUhVhWhXhYhZh0h1h2h3h4h5h6h7h8h9h.h+",
"aaabacadaeafagahaiajakalamanaoapaqarasatauavawaxayazaAaBaCaDaEaFaGaHaIaJaKaLaMaNaOaPaQaRaSaTaUaVaWaXaYaZa0a1a2a3a4a5a6a7a8a9a.a+babbbcbdbebfbgbhbibjbkblbmbnbobpbqbrbsbtbubvbwbxbybzbAbBbCbDbEbFbGbHbIbJbKbLbMbNbObPbQbRbSbTbUbVbWbXbYbZb0b1b2b3b4b5b6b7b8b9b.b+cacbcccdcecfcgchcicjckclcmcncocpcqcrcsctcucvcwcxcyczcAcBcCcDcEcFcGcHcIcJcKcLcMcNcOcPcQcRcScTcUcVcWcXcYcZc0c1c2c3c4c5c6c7c8c9c.c+dadbdcdddedfdgdhdidjdkdldmdndodpdqdrdsdtdudvdwdxdydzdAdBdCdDdEdFdGdHdIdJdKdLdMdNdOdPdQdRdSdTdUdVdWdXdYdZd0d1d2d3d4d5d6d7d8d9d.d+eaebecedeeefegeheiejekelemeneoepeqereseteuevewexeyezeAeBeCeDeEeFeGeHeIeJeKeLeMeNeOePeQeReSeTeUeVeWeXeYeZe0e1e2e3e4e5e6e7e8e9e.e+fafbfcfdfefffgfhfifjfkflfmfnfofpfqfrfsftfufvfwfxfyfzfAfBfCfDfEfFfGfHfIfJfKfLfMfNfOfPfQfRfSfTfUfVfWfXfYfZf0f1f2f3f4f5f6f7f8f9f.f+gagbgcgdgegfggghgigjgkglgmgngogpgqgrgsgtgugvgwgxgygzgAgBgCgDgEgFgGgHgIgJgKgLgMgNgOgPgQgRgSgTgUgVgWgXgYgZg0g1g2g3g4g5g6g7g8g9g.g+hahbhchdhehfhghhhihjhkhlhmhnhohphqhrhshthuhvhwhxhyhzhAhBhChDhEhFhGhHhIhJhKhLhMhNhOhPhQhRhShThUhVhWhXhYhZh0h1h2h3h4h5h6h7h8h9h.h+",
"aaabacadaeafagahaiajakalamanaoapaqarasatauavawaxayazaAaBaCaDaEaFaGaHaIaJaKaLaMaNaOaPaQaRaSaTaUaVaWaXaYaZa0a1a2a3a4a5a6a7a8a9a.a+babbbcbdbebfbgbhbibjbkblbmbnbobpbqbrbsbtbubvbwbxbybzbAbBbCbDbEbFbGbHbIbJbKbLbMbNbObPbQbRbSbTbUbVbWbXbYbZb0b1b2b3b4b5b6b7b8b9b.b+cacbcccdcecfcgchcicjckclcmcncocpcqcrcsctcucvcwcxcyczcAcBcCcDcEcFcGcHcIcJcKcLcMcNcOcPcQcRcScTcUcVcWcXcYcZc0c1c2c3c4c5c6c7c8c9c.c+dadbdcdddedfdgdhdidjdkdldmdndodpdqdrdsdtdudvdwdxdydzdAdBdCdDdEdFdGdHdIdJdKdLdMdNdOdPdQdRdSdTdUdVdWdXdYdZd0d1d2d3d4d5d6d7d8d9d.d+eaebecedeeefegeheiejekelemeneoepeqereseteuevewexeyezeAeBeCeDeEeFeGeHeIeJeKeLeMeNeOePeQeReSeTeUeVeWeXeYeZe0e1e2e3e4e5e6e7e8e9e.e+fafbfcfdfefffgfhfifjfkflfmfnfofpfqfrfsftfufvfwfxfyfzfAfBfCfDfEfFfGfHfIfJfKfLfMfNfOfPfQfRfSfTfUfVfWfXfYfZf0f1f2f3f4f5f6f7f8f9f.f+gagbgcgdgegfggghgigjgkglgmgngogpgqgrgsgtgugvgwgxgygzgAgBgCgDgEgFgGgHgIgJgKgLgMgNgOgPgQgRgSgTgUgVgWgXgYgZg0g1g2g3g4g5g6g7g8g9g.g+hahbhchdhehfhghhhihjhkhlhmhnhohphqhrhshthuhvhwhxhyhzhAhBhChDhEhFhGhHhIhJhKhLhMhNhOhPhQhRhShThUhVhWhXhYhZh0h1h2h3h4h5h6h7h8h9h.h+",
"aaabacadaeafagahaiajakalamanaoapaqarasatauavawaxayazaAaBaCaDaEaFaGaHaIaJaKaLaMaNaOaPaQaRaSaTaUaVaWaXaYaZa0a1a2a3a4a5a6a7a8a9a.a+babbbcbdbebfbgbhbibjbkblbmbnbobpbqbrbsbtbubvbwbxbybzbAbBbCbDbEbFbGbHbIbJbKbLbMbNbObPbQbRbSbTbUbVbWbXbYbZb0b1b2b3b4b5b6b7b8b9b.b+cacbcccdcecfcgchcicjckclcmcncocpcqcrcsctcucvcwcxcyczcAcBcCcDcEcFcGcHcIcJcKcLcMcNcOcPcQcRcScTcUcVcWcXcYcZc0c1c2c3c4c5c6c7c8c9c.c+dadbdcdddedfdgdhdidjdkdldmdndodpdqdrdsdtdudvdwdxdydzdAdBdCdDdEdFdGdHdIdJdKdLdMdNdOdPdQdRdSdTdUdVdWdXdYdZd0d1d2d3d4d5d6d7d8d9d.d+eaebecedeeefegeheiejekelemeneoepeqereseteuevewexeyezeAeBeCeDeEeFeGeHeIeJeKeLeMeNeOePeQeReSeTeUeVeWeXeYeZe0e1e2e3e4e5e6e7e8e9e.e+fafbfcfdfefffgfhfifjfkflfmfnfofpfqfrfsftfufvfwfxfyfzfAfBfCfDfEfFfGfHfIfJfKfLfMfNfOfPfQfRfSfTfUfVfWfXfYfZf0f1f2f3f4f5f6f7f8f9f.f+gagbgcgdgegfggghgigjgkglgmgngogpgqgrgsgtgugvgwgxgygzgAgBgCgDgEgFgGgHgIgJgKgLgMgNgOgPgQgRgSgTgUgVgWgXgYgZg0g1g2g3g4g5g6g7g8g9g.g+hahbhchdhehfhghhhihjhkhlhmhnhohphqhrhshthuhvhwhxhyhzhAhBhChDhEhFhGhHhIhJhKhLhMhNhOhPhQhRhShThUhVhWhXhYhZh0h1h2h3h4h5h6h7h8h9h.h+",
"aaabacadaeafagahaiajakalamanaoapaqarasatauavawaxayazaAaBaCaDaEaFaGaHaIaJaKaLaMaNaOaPaQaRaSaTaUaVaWaXaYaZa0a1a2a3a4a5a6a7a8a9a.a+babbbcbdbebfbgbhbibjbkblbmbnbobpbqbrbsbtbubvbwbxbybzbAbBbCbDbEbFbGbHbIbJbKbLbMbNbObPbQbRbSbTbUbVbWbXbYbZb0b1b2b3b4b5b6b7b8b9b.b+cacbcccdcecfcgchcicjckclcmcncocpcqcrcsctcucvcwcxcyczcAcBcCcDcEcFcGcHcIcJcKcLcMcNcOcPcQcRcScTcUcVcWcXcYcZc0c1c2c3c4c5c6c7c8c9c.c+dadbdcdddedfdgdhdidjdkdldmdndodpdqdrdsdtdudvdwdxdydzdAdBdCdDdEdFdGdHdIdJdKdLdMdNdOdPdQdRdSdTdUdVdWdXdYdZd0d1d2d3d4d5d6d7d8d9d.d+eaebecedeeefegeheiejekelemeneoepeqereseteuevewexeyezeAeBeCeDeEeFeGeHeIeJeKeLeMeNeOePeQeReSeTeUeVeWeXeYeZe0e1e2e3e4e5e6e7e8e9e.e+fafbfcfdfefffgfhfifjfkflfmfnfofpfqfrfsftfufvfwfxfyfzfAfBfCfDfEfFfGfHfIfJfKfLfMfNfOfPfQfRfSfTfUfVfWfXfYfZf0f1f2f3f4f5f6f7f8f9f.f+gagbgcgdgegfggghgigjgkglgmgngogpgqgrgsgtgugvgwgxgygzgAgBgCgDgEgFgGgHgIgJgKgLgMgNgOgPgQgRgSgTgUgVgWgXgYgZg0g1g2g3g4g5g6g7g8g9g.g+hahbhchdhehfhghhhihjhkhlhmhnhohphqhrhshthuhvhwhxhyhzhAhBhChDhEhFhGhHhIhJhKhLhMhNhOhPhQhRhShThUhVhWhXhYhZh0h1h2h3h4h5h6h7h8h9h.h+",
"aaabacadaeafagahaiajakalamanaoapaqarasatauavawaxayazaAaBaCaDaEaFaGaHaIaJaKaLaMaNaOaPaQaRaSaTaUaVaWaXaYaZa0a1a2a3a4a5a6a7a8a9a.a+babbbcbdbebfbgbhbibjbkblbmbnbobpbqbrbsbtbubvbwbxbybzbAbBbCbDbEbFbGbHbIbJbKbLbMbNbObPbQbRbSbTbUbVbWbXbYbZb0b1b2b3b4b5b6b7b8b9b.b+cacbcccdcecfcgchcicjckclcmcncocpcqcrcsctcucvcwcxcyczcAcBcCcDcEcFcGcHcIcJcKcLcMcNcOcPcQcRcScTcUcVcWcXcYcZc0c1c2c3c4c5c6c7c8c9c.c+dadbdcdddedfdgdhdidjdkdldmdndodpdqdrdsdtdudvdwdxdydzdAdBdCdDdEdFdGdHdIdJdKdLdMdNdOdPdQdRdSdTdUdVdWdXdYdZd0d1d2d3d4d5d6d7d8d9d.d+eaebecedeeefegeheiejekelemeneoepeqereseteuevewexeyezeAeBeCeDeEeFeGeHeIeJeKeLeMeNeOePeQeReSeTeUeVeWeXeYeZe0e1e2e3e4e5e6e7e8e9e.e+fafbfcfdfefffgfhfifjfkflfmfnfofpfqfrfsftfufvfwfxfyfzfAfBfCfDfEfFfGfHfIfJfKfLfMfNfOfPfQfRfSfTfUfVfWfXfYfZf0f1f2f3f4f5f6f7f8f9f.f+gagbgcgdgegfggghgigjgkglgmgngogpgqgrgsgtgugvgwgxgygzgAgBgCgDgEgFgGgHgIgJgKgLgMgNgOgPgQgRgSgTgUgVgWgXgYgZg0g1g2g3g4g5g6g7g8g9g.g+hahbhchdhehfhghhhihjhkhlhmhnhohphqhrhshthuhvhwhxhyhzhAhBhChDhEhFhGhHhIhJhKhLhMhNhOhPhQhRhShThUhVhWhXhYhZh0h1h2h3h4h5h6h7h8h9h.h+",
"aaabacadaeafagahaiajakalamanaoapaqarasatauavawaxayazaAaBaCaDaEaFaGaHaIaJaKaLaMaNaOaPaQaRaSaTaUaVaWaXaYaZa0a1a2a3a4a5a6a7a8a9a.a+babbbcbdbebfbgbhbibjbkblbmbnbobpbqbrbsbtbubvbwbxbybzbAbBbCbDbEbFbGbHbIbJbKbLbMbNbObPbQbRbSbTbUbVbWbXbYbZb0b1b2b3b4b5b6b7b8b9b.b+cacbcccdcecfcgchcicjckclcmcncocpcqcrcsctcucvcwcxcyczcAcBcCcDcEcFcGcHcIcJcKcLcMcNcOcPcQcRcScTcUcVcWcXcYcZc0c1c2c3c4c5c6c7c8c9c.c+dadbdcdddedfdgdhdidjdkdldmdndodpdqdrdsdtdudvdwdxdydzdAdBdCdDdEdFdGdHdIdJdKdLdMdNdOdPdQdRdSdTdUdVdWdXdYdZd0d1d2d3d4d5d6d7d8d9d.d+eaebecedeeefegeheiejekelemeneoepeqereseteuevewexeyezeAeBeCeDeEeFeGeHeIeJeKeLeMeNeOePeQeReSeTeUeVeWeXeYeZe0e1e2e3e4e5e6e7e8e9e.e+fafbfcfdfefffgfhfifjfkflfmfnfofpfqfrfsftfufvfwfxfyfzfAfBfCfDfEfFfGfHfIfJfKfLfMfNfOfPfQfRfSfTfUfVfWfXfYfZf0f1f2f3f4f5f6f7f8f9f.f+gagbgcgdgegfggghgigjgkglgmgngogpgqgrgsgtgugvgwgxgygzgAgBgCgDgEgFgGgHgIgJgKgLgMgNgOgPgQgRgSgTgUgVgWgXgYgZg0g1g2g3g4g5g6g7g8g9g.g+hahbhchdhehfhghhhihjhkhlhmhnhohphqhrhshthuhvhwhxhyhzhAhBhChDhEhFhGhHhIhJhKhLhMhNhOhPhQhRhShThUhVhWhXhYhZh0h1h2h3h4h5h6h7h8h9h.h+",
"aaabacadaeafagahaiajakalamanaoapaqarasatauavawaxayazaAaBaCaDaEaFaGaHaIaJaKaLaMaNaOaPaQaRaSaTaUaVaWaXaYaZa0a1a2a3a4a5a6a7a8a9a.a+babbbcbdbebfbgbhbibjbkblbmbnbobpbqbrbsbtbubvbwbxbybzbAbBbCbDbEbFbGbHbIbJbKbLbMbNbObPbQbRbSbTbUbVbWbXbYbZb0b1b2b3b4b5b6b7b8b9b.b+cacbcccdcecfcgchcicjckclcmcncocpcqcrcsctcucvcwcxcyczcAcBcCcDcEcFcGcHcIcJcKcLcMcNcOcPcQcRcScTcUcVcWcXcYcZc0c1c2c3c4c5c6c7c8c9c.c+dadbdcdddedfdgdhdidjdkdldmdndodpdqdrdsdtdudvdwdxdydzdAdBdCdDdEdFdGdHdIdJdKdLdMdNdOdPdQdRdSdTdUdVdWdXdYdZd0d1d2d3d4d5d6d7d8d9d.d+eaebecedeeefegeheiejekelemeneoepeqereseteuevewexeyezeAeBeCeDeEeFeGeHeIeJeKeLeMeNeOePeQeReSeTeUeVeWeXeYeZe0e1e2e3e4e5e6e7e8e9e.e+fafbfcfdfefffgfhfifjfkflfmfnfofpfqfrfsftfufvfwfxfyfzfAfBfCfDfEfFfGfHfIfJfKfLfMfNfOfPfQfRfSfTfUfVfWfXfYfZf0f1f2f3f4f5f6f7f8f9f.f+gagbgcgdgegfggghgigjgkglgmgngogpgqgrgsgtgugvgwgxgygzgAgBgCgDgEgFgGgHgIgJgKgLgMgNgOgPgQgRgSgTgUgVgWgXgYgZg0g1g2g3g4g5g6g7g8g9g.g+hahbhchdhehfhghhhihjhkhlhmhnhohphqhrhshthuhvhwhxhyhzhAhBhChDhEhFhGhHhIhJhKhLhMhNhOhPhQhRhShThUhVhWhXhYhZh0h1h2h3h4h5h6h7h8h9h.h+",
"aaabacadaeafagahaiajakalamanaoapaqarasatauavawaxayazaAaBaCaDaEaFaGaHaIaJaKaLaMaNaOaPaQaRaSaTaUaVaWaXaYaZa0a1a2a3a4a5a6a7a8a9a.a+babbbcbdbebfbgbhbibjbkblbmbnbobpbqbrbsbtbubvbwbxbybzbAbBbCbDbEbFbGbHbIbJbKbLbMbNbObPbQbRbSbTbUbVbWbXbYbZb0b1b2b3b4b5b6b7b8b9b.b+cacbcccdcecfcgchcicjckclcmcncocpcqcrcsctcucvcwcxcyczcAcBcCcDcEcFcGcHcIcJcKcLcMcNcOcPcQcRcScTcUcVcWcXcYcZc0c1c2c3c4c5c6c7c8c9c.c+dadbdcdddedfdgdhdidjdkdldmdndodpdqdrdsdtdudvdwdxdydzdAdBdCdDdEdFdGdHdIdJdKdLdMdNdOdPdQdRdSdTdUdVdWdXdYdZd0d1d2d3d4d5d6d7d8d9d.d+eaebecedeeefegeheiejekelemeneoepeqereseteuevewexeyezeAeBeCeDeEeFeGeHeIeJeKeLeMeNeOePeQeReSeTeUeVeWeXeYeZe0e1e2e3e4e5e6e7e8e9e.e+fafbfcfdfefffgfhfifjfkflfmfnfofpfqfrfsftfufvfwfxfyfzfAfBfCfDfEfFfGfHfIfJfKfLfMfNfOfPfQfRfSfTfUfVfWfXfYfZf0f1f2f3f4f5f6f7f8f9f.f+gagbgcgdgegfggghgigjgkglgmgngogpgqgrgsgtgugvgwgxgygzgAgBgCgDgEgFgGgHgIgJgKgLgMgNgOgPgQgRgSgTgUgVgWgXgYgZg0g1g2g3g4g5g6g7g8g9g.g+hahbhchdhehfhghhhihjhkhlhmhnhohphqhrhshthuhvhwhxhyhzhAhBhChDhEhFhGhHhIhJhKhLhMhNhOhPhQhRhShThUhVhWhXhYhZh0h1h2h3h4h5h6h7h8h9h.h+",
"aaabacadaeafagahaiajakalamanaoapaqarasatauavawaxayazaAaBaCaDaEaFaGaHaIaJaKaLaMaNaOaPaQaRaSaTaUaVaWaXaYaZa0a1a2a3a4a5a6a7a8a9a.a+babbbcbdbebfbgbhbibjbkblbmbnbobpbqbrbsbtbubvbwbxbybzbAbBbCbDbEbFbGbHbIbJbKbLbMbNbObPbQbRbSbTbUbVbWbXbYbZb0b1b2b3b4b5b6b7b8b9b.b+cacbcccdcecfcgchcicjckclcmcncocpcqcrcsctcucvcwcxcyczcAcBcCcDcEcFcGcHcIcJcKcLcMcNcOcPcQcRcScTcUcVcWcXcYcZc0c1c2c3c4c5c6c7c8c9c.c+dadbdcdddedfdgdhdidjdkdldmdndodpdqdrdsdtdudvdwdxdydzdAdBdCdDdEdFdGdHdIdJdKdLdMdNdOdPdQdRdSdTdUdVdWdXdYdZd0d1d2d3d4d5d6d7d8d9d.d+eaebecedeeefegeheiejekelemeneoepeqereseteuevewexeyezeAeBeCeDeEeFeGeHeIeJeKeLeMeNeOePeQeReSeTeUeVeWeXeYeZe0e1e2e3e4e5e6e7e8e9e.e+fafbfcfdfefffgfhfifjfkflfmfnfofpfqfrfsftfufvfwfxfyfzfAfBfCfDfEfFfGfHfIfJfKfLfMfNfOfPfQfRfSfTfUfVfWfXfYfZf0f1f2f3f4f5f6f7f8f9f.f+gagbgcgdgegfggghgigjgkglgmgngogpgqgrgsgtgugvgwgxgygzgAgBgCgDgEgFgGgHgIgJgKgLgMgNgOgPgQgRgSgTgUgVgWgXgYgZg0g1g2g3g4g5g6g7g8g9g.g+hahbhchdhehfhghhhihjhkhlhmhnhohphqhrhshthuhvhwhxhyhzhAhBhChDhEhFhGhHhIhJhKhLhMhNhOhPhQhRhShThUhVhWhXhYhZh0h1h2h3h4h5h6h7h8h9h.h+",
"aaabacadaeafagahaiajakalamanaoapaqarasatauavawaxayazaAaBaCaDaEaFaGaHaIaJaKaLaMaNaOaPaQaRaSaTaUaVaWaXaYaZa0a1a2a3a4a5a6a7a8a9a.a+babbbcbdbebfbgbhbibjbkblbmbnbobpbqbrbsbtbubvbwbxbybzbAbBbCbDbEbFbGbHbIbJbKbLbMbNbObPbQbRbSbTbUbVbWbXbYbZb0b1b2b3b4b5b6b7b8b9b.b+cacbcccdcecfcgchcicjckclcmcncocpcqcrcsctcucvcwcxcyczcAcBcCcDcEcFcGcHcIcJcKcLcMcNcOcPcQcRcScTcUcVcWcXcYcZc0c1c2c3c4c5c6c7c8c9c.c+dadbdcdddedfdgdhdidjdkdldmdndodpdqdrdsdtdudvdwdxdydzdAdBdCdDdEdFdGdHdIdJdKdLdMdNdOdPdQdRdSdTdUdVdWdXdYdZd0d1d2d3d4d5d6d7d8d9d.d+eaebecedeeefegeheiejekelemeneoepeqereseteuevewexeyezeAeBeCeDeEeFeGeHeIeJeKeLeMeNeOePeQeReSeTeUeVeWeXeYeZe0e1e2e3e4e5e6e7e8e9e.e+fafbfcfdfefffgfhfifjfkflfmfnfofpfqfrfsftfufvfwfxfyfzfAfBfCfDfEfFfGfHfIfJfKfLfMfNfOfPfQfRfSfTfUfVfWfXfYfZf0f1f2f3f4f5f6f7f8f9f.f+gagbgcgdgegfggghgigjgkglgmgngogpgqgrgsgtgugvgwgxgygzgAgBgCgDgEgFgGgHgIgJgKgLgMgNgOgPgQgRgSgTgUgVgWgXgYgZg0g1g2g3g4g5g6g7g8g9g.g+hahbhchdhehfhghhhihjhkhlhmhnhohphqhrhshthuhvhwhxhyhzhAhBhChDhEhFhGhHhIhJhKhLhMhNhOhPhQhRhShThUhVhWhXhYhZh0h1h2h3h4h5h6h7h8h9h.h+",
"aaabacadaeafagahaiajakalamanaoapaqarasatauavawaxayazaAaBaCaDaEaFaGaHaIaJaKaLaMaNaOaPaQaRaSaTaUaVaWaXaYaZa0a1a2a3a4a5a6a7a8a9a.a+babbbcbdbebfbgbhbibjbkblbmbnbobpbqbrbsbtbubvbwbxbybzbAbBbCbDbEbFbGbHbIbJbKbLbMbNbObPbQbRbSbTbUbVbWbXbYbZb0b1b2b3b4b5b6b7b8b9b.b+cacbcccdcecfcgchcicjckclcmcncocpcqcrcsctcucvcwcxcyczcAcBcCcDcEcFcGcHcIcJcKcLcMcNcOcPcQcRcScTcUcVcWcXcYcZc0c1c2c3c4c5c6c7c8c9c.c+dadbdcdddedfdgdhdidjdkdldmdndodpdqdrdsdtdudvdwdxdydzdAdBdCdDdEdFdGdHdIdJdKdLdMdNdOdPdQdRdSdTdUdVdWdXdYdZd0d1d2d3d4d5d6d7d8d9d.d+eaebecedeeefegeheiejekelemeneoepeqereseteuevewexeyezeAeBeCeDeEeFeGeHeIeJeKeLeMeNeOePeQeReSeTeUeVeWeXeYeZe0e1e2e3e4e5e6e7e8e9e.e+fafbfcfdfefffgfhfifjfkflfmfnfofpfqfrfsftfufvfwfxfyfzfAfBfCfDfEfFfGfHfIfJfKfLfMfNfOfPfQfRfSfTfUfVfWfXfYfZf0f1f2f3f4f5f6f7f8f9f.f+gagbgcgdgegfggghgigjgkglgmgngogpgqgrgsgtgugvgwgxgygzgAgBgCgDgEgFgGgHgIgJgKgLgMgNgOgPgQgRgSgTgUgVgWgXgYgZg0g1g2g3g4g5g6g7g8g9g.g+hahbhchdhehfhghhhihjhkhlhmhnhohphqhrhshthuhvhwhxhyhzhAhBhChDhEhFhGhHhIhJhKhLhMhNhOhPhQhRhShThUhVhWhXhYhZh0h1h2h3h4h5h6h7h8h9h.h+",
"aaabacadaeafagahaiajakalamanaoapaqarasatauavawaxayazaAaBaCaDaEaFaGaHaIaJaKaLaMaNaOaPaQaRaSaTaUaVaWaXaYaZa0a1a2a3a4a5a6a7a8a9a.a+babbbcbdbebfbgbhbibjbkblbmbnbobpbqbrbsbtbubvbwbxbybzbAbBbCbDbEbFbGbHbIbJbKbLbMbNbObPbQbRbSbTbUbVbWbXbYbZb0b1b2b3b4b5b6b7b8b9b.b+cacbcccdcecfcgchcicjckclcmcncocpcqcrcsctcucvcwcxcyczcAcBcCcDcEcFcGcHcIcJcKcLcMcNcOcPcQcRcScTcUcVcWcXcYcZc0c1c2c3c4c5c6c7c8c9c.c+dadbdcdddedfdgdhdidjdkdldmdndodpdqdrdsdtdudvdwdxdydzdAdBdCdDdEdFdGdHdIdJdKdLdMdNdOdPdQdRdSdTdUdVdWdXdYdZd0d1d2d3d4d5d6d7d8d9d.d+eaebecedeeefegeheiejekelemeneoepeqereseteuevewexeyezeAeBeCeDeEeFeGeHeIeJeKeLeMeNeOePeQeReSeTeUeVeWeXeYeZe0e1e2e3e4e5e6e7e8e9e.e+fafbfcfdfefffgfhfifjfkflfmfnfofpfqfrfsftfufvfwfxfyfzfAfBfCfDfEfFfGfHfIfJfKfLfMfNfOfPfQfRfSfTfUfVfWfXfYfZf0f1f2f3f4f5f6f7f8f9f.f+gagbgcgdgegfggghgigjgkglgmgngogpgqgrgsgtgugvgwgxgygzgAgBgCgDgEgFgGgHgIgJgKgLgMgNgOgPgQgRgSgTgUgVgWgXgYgZg0g1g2g3g4g5g6g7g8g9g.g+hahbhchdhehfhghhhihjhkhlhmhnhohphqhrhshthuhvhwhxhyhzhAhBhChDhEhFhGhHhIhJhKhLhMhNhOhPhQhRhShThUhVhWhXhYhZh0h1h2h3h4h5h6h7h8h9h.h+",
"aaabacadaeafagahaiajakalamanaoapaqarasatauavawaxayazaAaBaCaDaEaFaGaHaIaJaKaLaMaNaOaPaQaRaSaTaUaVaWaXaYaZa0a1a2a3a4a5a6a7a8a9a.a+babbbcbdbebfbgbhbibjbkblbmbnbobpbqbrbsbtbubvbwbxbybzbAbBbCbDbEbFbGbHbIbJbKbLbMbNbObPbQbRbSbTbUbVbWbXbYbZb0b1b2b3b4b5b6b7b8b9b.b+cacbcccdcecfcgchcicjckclcmcncocpcqcrcsctcucvcwcxcyczcAcBcCcDcEcFcGcHcIcJcKcLcMcNcOcPcQcRcScTcUcVcWcXcYcZc0c1c2c3c4c5c6c7c8c9c.c+dadbdcdddedfdgdhdidjdkdldmdndodpdqdrdsdtdudvdwdxdydzdAdBdCdDdEdFdGdHdIdJdKdLdMdNdOdPdQdRdSdTdUdVdWdXdYdZd0d1d2d3d4d5d6d7d8d9d.d+eaebecedeeefegeheiejekelemeneoepeqereseteuevewexeyezeAeBeCeDeEeFeGeHeIeJeKeLeMeNeOePeQeReSeTeUeVeWeXeYeZe0e1e2e3e4e5e6e7e8e9e.e+fafbfcfdfefffgfhfifjfkflfmfnfofpfqfrfsftfufvfwfxfyfzfAfBfCfDfEfFfGfHfIfJfKfLfMfNfOfPfQfRfSfTfUfVfWfXfYfZf0f1f2f3f4f5f6f7f8f9f.f+gagbgcgdgegfggghgigjgkglgmgngogpgqgrgsgtgugvgwgxgygzgAgBgCgDgEgFgGgHgIgJgKgLgMgNgOgPgQgRgSgTgUgVgWgXgYgZg0g1g2g3g4g5g6g7g8g9g.g+hahbhchdhehfhghhhihjhkhlhmhnhohphqhrhshthuhvhwhxhyhzhAhBhChDhEhFhGhHhIhJhKhLhMhNhOhPhQhRhShThUhVhWhXhYhZh0h1h2h3h4h5h6h7h8h9h.h+",
"aaabacadaeafagahaiajakalamanaoapaqarasatauavawaxayazaAaBaCaDaEaFaGaHaIaJaKaLaMaNaOaPaQaRaSaTaUaVaWaXaYaZa0a1a2a3a4a5a6a7a8a9a.a+babbbcbdbebfbgbhbibjbkblbmbnbobpbqbrbsbtbubvbwbxbybzbAbBbCbDbEbFbGbHbIbJbKbLbMbNbObPbQbRbSbTbUbVbWbXbYbZb0b1b2b3b4b5b6b7b8b9b.b+cacbcccdcecfcgchcicjckclcmcncocpcqcrcsctcucvcwcxcyczcAcBcCcDcEcFcGcHcIcJcKcLcMcNcOcPcQcRcScTcUcVcWcXcYcZc0c1c2c3c4c5c6c7c8c9c.c+dadbdcdddedfdgdhdidjdkdldmdndodpdqdrdsdtdudvdwdxdydzdAdBdCdDdEdFdGdHdIdJdKdLdMdNdOdPdQdRdSdTdUdVdWdXdYdZd0d1d2d3d4d5d6d7d8d9d.d+eaebecedeeefegeheiejekelemeneoepeqereseteuevewexeyezeAeBeCeDeEeFeGeHeIeJeKeLeMeNeOePeQeReSeTeUeVeWeXeYeZe0e1e2e3e4e5e6e7e8e9e.e+fafbfcfdfefffgfhfifjfkflfmfnfofpfqfrfsftfufvfwfxfyfzfAfBfCfDfEfFfGfHfIfJfKfLfMfNfOfPfQfRfSfTfUfVfWfXfYfZf0f1f2f3f4f5f6f7f8f9f.f+gagbgcgdgegfggghgigjgkglgmgngogpgqgrgsgtgugvgwgxgygzgAgBgCgDgEgFgGgHgIgJgKgLgMgNgOgPgQgRgSgTgUgVgWgXgYgZg0g1g2g3g4g5g6g7g8g9g.g+hahbhchdhehfhghhhihjhkhlhmhnhohphqhrhshthuhvhwhxhyhzhAhBhChDhEhFhGhHhIhJhKhLhMhNhOhPhQhRhShThUhVhWhXhYhZh0h1h2h3h4h5h6h7h8h9h.h+",
"aaabacadaeafagahaiajakalamanaoapaqarasatauavawaxayazaAaBaCaDaEaFaGaHaIaJaKaLaMaNaOaPaQaRaSaTaUaVaWaXaYaZa0a1a2a3a4a5a6a7a8a9a.a+babbbcbdbebfbgbhbibjbkblbmbnbobpbqbrbsbtbubvbwbxbybzbAbBbCbDbEbFbGbHbIbJbKbLbMbNbObPbQbRbSbTbUbVbWbXbYbZb0b1b2b3b4b5b6b7b8b9b.b+cacbcccdcecfcgchcicjckclcmcncocpcqcrcsctcucvcwcxcyczcAcBcCcDcEcFcGcHcIcJcKcLcMcNcOcPcQcRcScTcUcVcWcXcYcZc0c1c2c3c4c5c6c7c8c9c.c+dadbdcdddedfdgdhdidjdkdldmdndodpdqdrdsdtdudvdwdxdydzdAdBdCdDdEdFdGdHdIdJdKdLdMdNdOdPdQdRdSdTdUdVdWdXdYdZd0d1d2d3d4d5d6d7d8d9d.d+eaebecedeeefegeheiejekelemeneoepeqereseteuevewexeyezeAeBeCeDeEeFeGeHeIeJeKeLeMeNeOePeQeReSeTeUeVeWeXeYeZe0e1e2e3e4e5e6e7e8e9e.e+fafbfcfdfefffgfhfifjfkflfmfnfofpfqfrfsftfufvfwfxfyfzfAfBfCfDfEfFfGfHfIfJfKfLfMfNfOfPfQfRfSfTfUfVfWfXfYfZf0f1f2f3f4f5f6f7f8f9f.f+gagbgcgdgegfggghgigjgkglgmgngogpgqgrgsgtgugvgwgxgygzgAgBgCgDgEgFgGgHgIgJgKgLgMgNgOgPgQgRgSgTgUgVgWgXgYgZg0g1g2g3g4g5g6g7g8g9g.g+hahbhchdhehfhghhhihjhkhlhmhnhohphqhrhshthuhvhwhxhyhzhAhBhChDhEhFhGhHhIhJhKhLhMhNhOhPhQhRhShThUhVhWhXhYhZh0h1h2h3h4h5h6h7h8h9h.h+",
"aaabacadaeafagahaiajakalamanaoapaqarasatauavawaxayazaAaBaCaDaEaFaGaHaIaJaKaLaMaNaOaPaQaRaSaTaUaVaWaXaYaZa0a1a2a3a4a5a6a7a8a9a.a+babbbcbdbebfbgbhbibjbkblbmbnbobpbqbrbsbtbubvbwbxbybzbAbBbCbDbEbFbGbHbIbJbKbLbMbNbObPbQbRbSbTbUbVbWbXbYbZb0b1b2b3b4b5b6b7b8b9b.b+cacbcccdcecfcgchcicjckclcmcncocpcqcrcsctcucvcwcxcyczcAcBcCcDcEcFcGcHcIcJcKcLcMcNcOcPcQcRcScTcUcVcWcXcYcZc0c1c2c3c4c5c6c7c8c9c.c+dadbdcdddedfdgdhdidjdkdldmdndodpdqdrdsdtdudvdwdxdydzdAdBdCdDdEdFdGdHdIdJdKdLdMdNdOdPdQdRdSdTdUdVdWdXdYdZd0d1d2d3d4d5d6d7d8d9d.d+eaebecedeeefegeheiejekelemeneoepeqereseteuevewexeyezeAeBeCeDeEeFeGeHeIeJeKeLeMeNeOePeQeReSeTeUeVeWeXeYeZe0e1e2e3e4e5e6e7e8e9e.e+fafbfcfdfefffgfhfifjfkflfmfnfofpfqfrfsftfufvfwfxfyfzfAfBfCfDfEfFfGfHfIfJfKfLfMfNfOfPfQfRfSfTfUfVfWfXfYfZf0f1f2f3f4f5f6f7f8f9f.f+gagbgcgdgegfggghgigjgkglgmgngogpgqgrgsgtgugvgwgxgygzgAgBgCgDgEgFgGgHgIgJgKgLgMgNgOgPgQgRgSgTgUgVgWgXgYgZg0g1g2g3g4g5g6g7g8g9g.g+hahbhchdhehfhghhhihjhkhlhmhnhohphqhrhshthuhvhwhxhyhzhAhBhChDhEhFhGhHhIhJhKhLhMhNhOhPhQhRhShThUhVhWhXhYhZh0h1h2h3h4h5h6h7h8h9h.h+",
"aaabacadaeafagahaiajakalamanaoapaqarasatauavawaxayazaAaBaCaDaEaFaGaHaIaJaKaLaMaNaOaPaQaRaSaTaUaVaWaXaYaZa0a1a2a3a4a5a6a7a8a9a.a+babbbcbdbebfbgbhbibjbkblbmbnbobpbqbrbsbtbubvbwbxbybzbAbBbCbDbEbFbGbHbIbJbKbLbMbNbObPbQbRbSbTbUbVbWbXbYbZb0b1b2b3b4b5b6b7b8b9b.b+cacbcccdcecfcgchcicjckclcmcncocpcqcrcsctcucvcwcxcyczcAcBcCcDcEcFcGcHcIcJcKcLcMcNcOcPcQcRcScTcUcVcWcXcYcZc0c1c2c3c4c5c6c7c8c9c.c+dadbdcdddedfdgdhdidjdkdldmdndodpdqdrdsdtdudvdwdxdydzdAdBdCdDdEdFdGdHdIdJdKdLdMdNdOdPdQdRdSdTdUdVdWdXdYdZd0d1d2d3d4d5d6d7d8d9d.d+eaebecedeeefegeheiejekelemeneoepeqereseteuevewexeyezeAeBeCeDeEeFeGeHeIeJeKeLeMeNeOePeQeReSeTeUeVeWeXeYeZe0e1e2e3e4e5e6e7e8e9e.e+fafbfcfdfefffgfhfifjfkflfmfnfofpfqfrfsftfufvfwfxfyfzfAfBfCfDfEfFfGfHfIfJfKfLfMfNfOfPfQfRfSfTfUfVfWfXfYfZf0f1f2f3f4f5f6f7f8f9f.f+gagbgcgdgegfggghgigjgkglgmgngogpgqgrgsgtgugvgwgxgygzgAgBgCgDgEgFgGgHgIgJgKgLgMgNgOgPgQgRgSgTgUgVgWgXgYgZg0g1g2g3g4g5g6g7g8g9g.g+hahbhchdhehfhghhhihjhkhlhmhnhohphqhrhshthuhvhwhxhyhzhAhBhChDhEhFhGhHhIhJhKhLhMhNhOhPhQhRhShThUhVhWhXhYhZh0h1h2h3h4h5h6h7h8h9h.h+",
"aaabacadaeafagahaiajakalamanaoapaqarasatauavawaxayazaAaBaCaDaEaFaGaHaIaJaKaLaMaNaOaPaQaRaSaTaUaVaWaXaYaZa0a1a2a3a4a5a6a7a8a9a.a+babbbcbdbebfbgbhbibjbkblbmbnbobpbqbrbsbtbubvbwbxbybzbAbBbCbDbEbFbGbHbIbJbKbLbMbNbObPbQbRbSbTbUbVbWbXbYbZb0b1b2b3b4b5b6b7b8b9b.b+cacbcccdcecfcgchcicjckclcmcncocpcqcrcsctcucvcwcxcyczcAcBcCcDcEcFcGcHcIcJcKcLcMcNcOcPcQcRcScTcUcVcWcXcYcZc0c1c2c3c4c5c6c7c8c9c.c+dadbdcdddedfdgdhdidjdkdldmdndodpdqdrdsdtdudvdwdxdydzdAdBdCdDdEdFdGdHdIdJdKdLdMdNdOdPdQdRdSdTdUdVdWdXdYdZd0d1d2d3d4d5d6d7d8d9d.d+eaebecedeeefegeheiejekelemeneoepeqereseteuevewexeyezeAeBeCeDeEeFeGeHeIeJeKeLeMeNeOePeQeReSeTeUeVeWeXeYeZe0e1e2e3e4e5e6e7e8e9e.e+fafbfcfdfefffgfhfifjfkflfmfnfofpfqfrfsftfufvfwfxfyfzfAfBfCfDfEfFfGfHfIfJfKfLfMfNfOfPfQfRfSfTfUfVfWfXfYfZf0f1f2f3f4f5f6f7f8f9f.f+gagbgcgdgegfggghgigjgkglgmgngogpgqgrgsgtgugvgwgxgygzgAgBgCgDgEgFgGgHgIgJgKgLgMgNgOgPgQgRgSgTgUgVgWgXgYgZg0g1g2g3g4g5g6g7g8g9g.g+hahbhchdhehfhghhhihjhkhlhmhnhohphqhrhshthuhvhwhxhyhzhAhBhChDhEhFhGhHhIhJhKhLhMhNhOhPhQhRhShThUhVhWhXhYhZh0h1h2h3h4h5h6h7h8h9h.h+",
"aaabacadaeafagahaiajakalamanaoapaqarasatauavawaxayazaAaBaCaDaEaFaGaHaIaJaKaLaMaNaOaPaQaRaSaTaUaVaWaXaYaZa0a1a2a3a4a5a6a7a8a9a.a+babbbcbdbebfbgbhbibjbkblbmbnbobpbqbrbsbtbubvbwbxbybzbAbBbCbDbEbFbGbHbIbJbKbLbMbNbObPbQbRbSbTbUbVbWbXbYbZb0b1b2b3b4b5b6b7b8b9b.b+cacbcccdcecfcgchcicjckclcmcncocpcqcrcsctcucvcwcxcyczcAcBcCcDcEcFcGcHcIcJcKcLcMcNcOcPcQcRcScTcUcVcWcXcYcZc0c1c2c3c4c5c6c7c8c9c.c+dadbdcdddedfdgdhdidjdkdldmdndodpdqdrdsdtdudvdwdxdydzdAdBdCdDdEdFdGdHdIdJdKdLdMdNdOdPdQdRdSdTdUdVdWdXdYdZd0d1d2d3d4d5d6d7d8d9d.d+eaebecedeeefegeheiejekelemeneoepeqereseteuevewexeyezeAeBeCeDeEeFeGeHeIeJeKeLeMeNeOePeQeReSeTeUeVeWeXeYeZe0e1e2e3e4e5e6e7e8e9e.e+fafbfcfdfefffgfhfifjfkflfmfnfofpfqfrfsftfufvfwfxfyfzfAfBfCfDfEfFfGfHfIfJfKfLfMfNfOfPfQfRfSfTfUfVfWfXfYfZf0f1f2f3f4f5f6f7f8f9f.f+gagbgcgdgegfggghgigjgkglgmgngogpgqgrgsgtgugvgwgxgygzgAgBgCgDgEgFgGgHgIgJgKgLgMgNgOgPgQgRgSgTgUgVgWgXgYgZg0g1g2g3g4g5g6g7g8g9g.g+hahbhchdhehfhghhhihjhkhlhmhnhohphqhrhshthuhvhwhxhyhzhAhBhChDhEhFhGhHhIhJhKhLhMhNhOhPhQhRhShThUhVhWhXhYhZh0h1h2h3h4h5h6h7h8h9h.h+",
"aaabacadaeafagahaiajakalamanaoapaqarasatauavawaxayazaAaBaCaDaEaFaGaHaIaJaKaLaMaNaOaPaQaRaSaTaUaVaWaXaYaZa0a1a2a3a4a5a6a7a8a9a.a+babbbcbdbebfbgbhbibjbkblbmbnbobpbqbrbsbtbubvbwbxbybzbAbBbCbDbEbFbGbHbIbJbKbLbMbNbObPbQbRbSbTbUbVbWbXbYbZb0b1b2b3b4b5b6b7b8b9b.b+cacbcccdcecfcgchcicjckclcmcncocpcqcrcsctcucvcwcxcyczcAcBcCcDcEcFcGcHcIcJcKcLcMcNcOcPcQcRcScTcUcVcWcXcYcZc0c1c2c3c4c5c6c7c8c9c.c+dadbdcdddedfdgdhdidjdkdldmdndodpdqdrdsdtdudvdwdxdydzdAdBdCdDdEdFdGdHdIdJdKdLdMdNdOdPdQdRdSdTdUdVdWdXdYdZd0d1d2d3d4d5d6d7d8d9d.d+eaebecedeeefegeheiejekelemeneoepeqereseteuevewexeyezeAeBeCeDeEeFeGeHeIeJeKeLeMeNeOePeQeReSeTeUeVeWeXeYeZe0e1e2e3e4e5e6e7e8e9e.e+fafbfcfdfefffgfhfifjfkflfmfnfofpfqfrfsftfufvfwfxfyfzfAfBfCfDfEfFfGfHfIfJfKfLfMfNfOfPfQfRfSfTfUfVfWfXfYfZf0f1f2f3f4f5f6f7f8f9f.f+gagbgcgdgegfggghgigjgkglgmgngogpgqgrgsgtgugvgwgxgygzgAgBgCgDgEgFgGgHgIgJgKgLgMgNgOgPgQgRgSgTgUgVgWgXgYgZg0g1g2g3g4g5g6g7g8g9g.g+hahbhchdhehfhghhhihjhkhlhmhnhohphqhrhshthuhvhwhxhyhzhAhBhChDhEhFhGhHhIhJhKhLhMhNhOhPhQhRhShThUhVhWhXhYhZh0h1h2h3h4h5h6h7h8h9h.h+",
"aaabacadaeafagahaiajakalamanaoapaqarasatauavawaxayazaAaBaCaDaEaFaGaHaIaJaKaLaMaNaOaPaQaRaSaTaUaVaWaXaYaZa0a1a2a3a4a5a6a7a8a9a.a+babbbcbdbebfbgbhbibjbkblbmbnbobpbqbrbsbtbubvbwbxbybzbAbBbCbDbEbFbGbHbIbJbKbLbMbNbObPbQbRbSbTbUbVbWbXbYbZb0b1b2b3b4b5b6b7b8b9b.b+cacbcccdcecfcgchcicjckclcmcncocpcqcrcsctcucvcwcxcyczcAcBcCcDcEcFcGcHcIcJcKcLcMcNcOcPcQcRcScTcUcVcWcXcYcZc0c1c2c3c4c5c6c7c8c9c.c+dadbdcdddedfdgdhdidjdkdldmdndodpdqdrdsdtdudvdwdxdydzdAdBdCdDdEdFdGdHdIdJdKdLdMdNdOdPdQdRdSdTdUdVdWdXdYdZd0d1d2d3d4d5d6d7d8d9d.d+eaebecedeeefegeheiejekelemeneoepeqereseteuevewexeyezeAeBeCeDeEeFeGeHeIeJeKeLeMeNeOePeQeReSeTeUeVeWeXeYeZe0e1e2e3e4e5e6e7e8e9e.e+fafbfcfdfefffgfhfifjfkflfmfnfofpfqfrfsftfufvfwfxfyfzfAfBfCfDfEfFfGfHfIfJfKfLfMfNfOfPfQfRfSfTfUfVfWfXfYfZf0f1f2f3f4f5f6f7f8f9f.f+gagbgcgdgegfggghgigjgkglgmgngogpgqgrgsgtgugvgwgxgygzgAgBgCgDgEgFgGgHgIgJgKgLgMgNgOgPgQgRgSgTgUgVgWgXgYgZg0g1g2g3g4g5g6g7g8g9g.g+hahbhchdhehfhghhhihjhkhlhmhnhohphqhrhshthuhvhwhxhyhzhAhBhChDhEhFhGhHhIhJhKhLhMhNhOhPhQhRhShThUhVhWhXhYhZh0h1h2h3h4h5h6h7h8h9h.h+",
"aaabacadaeafagahaiajakalamanaoapaqarasatauavawaxayazaAaBaCaDaEaFaGaHaIaJaKaLaMaNaOaPaQaRaSaTaUaVaWaXaYaZa0a1a2a3a4a5a6a7a8a9a.a+babbbcbdbebfbgbhbibjbkblbmbnbobpbqbrbsbtbubvbwbxbybzbAbBbCbDbEbFbGbHbIbJbKbLbMbNbObPbQbRbSbTbUbVbWbXbYbZb0b1b2b3b4b5b6b7b8b9b.b+cacbcccdcecfcgchcicjckclcmcncocpcqcrcsctcucvcwcxcyczcAcBcCcDcEcFcGcHcIcJcKcLcMcNcOcPcQcRcScTcUcVcWcXcYcZc0c1c2c3c4c5c6c7c8c9c.c+dadbdcdddedfdgdhdidjdkdldmdndodpdqdrdsdtdudvdwdxdydzdAdBdCdDdEdFdGdHdIdJdKdLdMdNdOdPdQdRdSdTdUdVdWdXdYdZd0d1d2d3d4d5d6d7d8d9d.d+eaebecedeeefegeheiejekelemeneoepeqereseteuevewexeyezeAeBeCeDeEeFeGeHeIeJeKeLeMeNeOePeQeReSeTeUeVeWeXeYeZe0e1e2e3e4e5e6e7e8e9e.e+fafbfcfdfefffgfhfifjfkflfmfnfofpfqfrfsftfufvfwfxfyfzfAfBfCfDfEfFfGfHfIfJfKfLfMfNfOfPfQfRfSfTfUfVfWfXfYfZf0f1f2f3f4f5f6f7f8f9f.f+gagbgcgdgegfggghgigjgkglgmgngogpgqgrgsgtgugvgwgxgygzgAgBgCgDgEgFgGgHgIgJgKgLgMgNgOgPgQgRgSgTgUgVgWgXgYgZg0g1g2g3g4g5g6g7g8g9g.g+hahbhchdhehfhghhhihjhkhlhmhnhohphqhrhshthuhvhwhxhyhzhAhBhChDhEhFhGhHhIhJhKhLhMhNhOhPhQhRhShThUhVhWhXhYhZh0h1h2h3h4h5h6h7h8h9h.h+",
"aaabacadaeafagahaiajakalamanaoapaqarasatauavawaxayazaAaBaCaDaEaFaGaHaIaJaKaLaMaNaOaPaQaRaSaTaUaVaWaXaYaZa0a1a2a3a4a5a6a7a8a9a.a+babbbcbdbebfbgbhbibjbkblbmbnbobpbqbrbsbtbubvbwbxbybzbAbBbCbDbEbFbGbHbIbJbKbLbMbNbObPbQbRbSbTbUbVbWbXbYbZb0b1b2b3b4b5b6b7b8b9b.b+cacbcccdcecfcgchcicjckclcmcncocpcqcrcsctcucvcwcxcyczcAcBcCcDcEcFcGcHcIcJcKcLcMcNcOcPcQcRcScTcUcVcWcXcYcZc0c1c2c3c4c5c6c7c8c9c.c+dadbdcdddedfdgdhdidjdkdldmdndodpdqdrdsdtdudvdwdxdydzdAdBdCdDdEdFdGdHdIdJdKdLdMdNdOdPdQdRdSdTdUdVdWdXdYdZd0d1d2d3d4d5d6d7d8d9d.d+eaebecedeeefegeheiejekelemeneoepeqereseteuevewexeyezeAeBeCeDeEeFeGeHeIeJeKeLeMeNeOePeQeReSeTeUeVeWeXeYeZe0e1e2e3e4e5e6e7e8e9e.e+fafbfcfdfefffgfhfifjfkflfmfnfofpfqfrfsftfufvfwfxfyfzfAfBfCfDfEfFfGfHfIfJfKfLfMfNfOfPfQfRfSfTfUfVfWfXfYfZf0f1f2f3f4f5f6f7f8f9f.f+gagbgcgdgegfggghgigjgkglgmgngogpgqgrgsgtgugvgwgxgygzgAgBgCgDgEgFgGgHgIgJgKgLgMgNgOgPgQgRgSgTgUgVgWgXgYgZg0g1g2g3g4g5g6g7g8g9g.g+hahbhchdhehfhghhhihjhkhlhmhnhohphqhrhshthuhvhwhxhyhzhAhBhChDhEhFhGhHhIhJhKhLhMhNhOhPhQhRhShThUhVhWhXhYhZh0h1h2h3h4h5h6h7h8h9h.h+",
"aaabacadaeafagahaiajakalamanaoapaqarasatauavawaxayazaAaBaCaDaEaFaGaHaIaJaKaLaMaNaOaPaQaRaSaTaUaVaWaXaYaZa0a1a2a3a4a5a6a7a8a9a.a+babbbcbdbebfbgbhbibjbkblbmbnbobpbqbrbsbtbubvbwbxbybzbAbBbCbDbEbFbGbHbIbJbKbLbMbNbObPbQbRbSbTbUbVbWbXbYbZb0b1b2b3b4b5b6b7b8b9b.b+cacbcccdcecfcgchcicjckclcmcncocpcqcrcsctcucvcwcxcyczcAcBcCcDcEcFcGcHcIcJcKcLcMcNcOcPcQcRcScTcUcVcWcXcYcZc0c1c2c3c4c5c6c7c8c9c.c+dadbdcdddedfdgdhdidjdkdldmdndodpdqdrdsdtdudvdwdxdydzdAdBdCdDdEdFdGdHdIdJdKdLdMdNdOdPdQdRdSdTdUdVdWdXdYdZd0d1d2d3d4d5d6d7d8d9d.d+eaebecedeeefegeheiejekelemeneoepeqereseteuevewexeyezeAeBeCeDeEeFeGeHeIeJeKeLeMeNeOePeQeReSeTeUeVeWeXeYeZe0e1e2e3e4e5e6e7e8e9e.e+fafbfcfdfefffgfhfifjfkflfmfnfofpfqfrfsftfufvfwfxfyfzfAfBfCfDfEfFfGfHfIfJfKfLfMfNfOfPfQfRfSfTfUfVfWfXfYfZf0f1f2f3f4f5f6f7f8f9f.f+gagbgcgdgegfggghgigjgkglgmgngogpgqgrgsgtgugvgwgxgygzgAgBgCgDgEgFgGgHgIgJgKgLgMgNgOgPgQgRgSgTgUgVgWgXgYgZg0g1g2g3g4g5g6g7g8g9g.g+hahbhchdhehfhghhhihjhkhlhmhnhohphqhrhshthuhvhwhxhyhzhAhBhChDhEhFhGhHhIhJhKhLhMhNhOhPhQhRhShThUhVhWhXhYhZh0h1h2h3h4h5h6h7h8h9h.h+",
"aaabacadaeafagahaiajakalamanaoapaqarasatauavawaxayazaAaBaCaDaEaFaGaHaIaJaKaLaMaNaOaPaQaRaSaTaUaVaWaXaYaZa0a1a2a3a4a5a6a7a8a9a.a+babbbcbdbebfbgbhbibjbkblbmbnbobpbqbrbsbtbubvbwbxbybzbAbBbCbDbEbFbGbHbIbJbKbLbMbNbObPbQbRbSbTbUbVbWbXbYbZb0b1b2b3b4b5b6b7b8b9b.b+cacbcccdcecfcgchcicjckclcmcncocpcqcrcsctcucvcwcxcyczcAcBcCcDcEcFcGcHcIcJcKcLcMcNcOcPcQcRcScTcUcVcWcXcYcZc0c1c2c3c4c5c6c7c8c9c.c+dadbdcdddedfdgdhdidjdkdldmdndodpdqdrdsdtdudvdwdxdydzdAdBdCdDdEdFdGdHdIdJdKdLdMdNdOdPdQdRdSdTdUdVdWdXdYdZd0d1d2d3d4d5d6d7d8d9d.d+eaebecedeeefegeheiejekelemeneoepeqereseteuevewexeyezeAeBeCeDeEeFeGeHeIeJeKeLeMeNeOePeQeReSeTeUeVeWeXeYeZe0e1e2e3e4e5e6e7e8e9e.e+fafbfcfdfefffgfhfifjfkflfmfnfofpfqfrfsftfufvfwfxfyfzfAfBfCfDfEfFfGfHfIfJfKfLfMfNfOfPfQfRfSfTfUfVfWfXfYfZf0f1f2f3f4f5f6f7f8f9f.f+gagbgcgdgegfggghgigjgkglgmgngogpgqgrgsgtgugvgwgxgygzgAgBgCgDgEgFgGgHgIgJgKgLgMgNgOgPgQgRgSgTgUgVgWgXgYgZg0g1g2g3g4g5g6g7g8g9g.g+hahbhchdhehfhghhhihjhkhlhmhnhohphqhrhshthuhvhwhxhyhzhAhBhChDhEhFhGhHhIhJhKhLhMhNhOhPhQhRhShThUhVhWhXhYhZh0h1h2h3h4h5h6h7h8h9h.h+",
"aaabacadaeafagahaiajakalamanaoapaqarasatauavawaxayazaAaBaCaDaEaFaGaHaIaJaKaLaMaNaOaPaQaRaSaTaUaVaWaXaYaZa0a1a2a3a4a5a6a7a8a9a.a+babbbcbdbebfbgbhbibjbkblbmbnbobpbqbrbsbtbubvbwbxbybzbAbBbCbDbEbFbGbHbIbJbKbLbMbNbObPbQbRbSbTbUbVbWbXbYbZb0b1b2b3b4b5b6b7b8b9b.b+cacbcccdcecfcgchcicjckclcmcncocpcqcrcsctcucvcwcxcyczcAcBcCcDcEcFcGcHcIcJcKcLcMcNcOcPcQcRcScTcUcVcWcXcYcZc0c1c2c3c4c5c6c7c8c9c.c+dadbdcdddedfdgdhdidjdkdldmdndodpdqdrdsdtdudvdwdxdydzdAdBdCdDdEdFdGdHdIdJdKdLdMdNdOdPdQdRdSdTdUdVdWdXdYdZd0d1d2d3d4d5d6d7d8d9d.d+eaebecedeeefegeheiejekelemeneoepeqereseteuevewexeyezeAeBeCeDeEeFeGeHeIeJeKeLeMeNeOePeQeReSeTeUeVeWeXeYeZe0e1e2e3e4e5e6e7e8e9e.e+fafbfcfdfefffgfhfifjfkflfmfnfofpfqfrfsftfufvfwfxfyfzfAfBfCfDfEfFfGfHfIfJfKfLfMfNfOfPfQfRfSfTfUfVfWfXfYfZf0f1f2f3f4f5f6f7f8f9f.f+gagbgcgdgegfggghgigjgkglgmgngogpgqgrgsgtgugvgwgxgygzgAgBgCgDgEgFgGgHgIgJgKgLgMgNgOgPgQgRgSgTgUgVgWgXgYgZg0g1g2g3g4g5g6g7g8g9g.g+hahbhchdhehfhghhhihjhkhlhmhnhohphqhrhshthuhvhwhxhyhzhAhBhChDhEhFhGhHhIhJhKhLhMhNhOhPhQhRhShThUhVhWhXhYhZh0h1h2h3h4h5h6h7h8h9h.h+",
"aaabacadaeafagahaiajakalamanaoapaqarasatauavawaxayazaAaBaCaDaEaFaGaHaIaJaKaLaMaNaOaPaQaRaSaTaUaVaWaXaYaZa0a1a2a3a4a5a6a7a8a9a.a+babbbcbdbebfbgbhbibjbkblbmbnbobpbqbrbsbtbubvbwbxbybzbAbBbCbDbEbFbGbHbIbJbKbLbMbNbObPbQbRbSbTbUbVbWbXbYbZb0b1b2b3b4b5b6b7b8b9b.b+cacbcccdcecfcgchcicjckclcmcncocpcqcrcsctcucvcwcxcyczcAcBcCcDcEcFcGcHcIcJcKcLcMcNcOcPcQcRcScTcUcVcWcXcYcZc0c1c2c3c4c5c6c7c8c9c.c+dadbdcdddedfdgdhdidjdkdldmdndodpdqdrdsdtdudvdwdxdydzdAdBdCdDdEdFdGdHdIdJdKdLdMdNdOdPdQdRdSdTdUdVdWdXdYdZd0d1d2d3d4d5d6d7d8d9d.d+eaebecedeeefegeheiejekelemeneoepeqereseteuevewexeyezeAeBeCeDeEeFeGeHeIeJeKeLeMeNeOePeQeReSeTeUeVeWeXeYeZe0e1e2e3e4e5e6e7e8e9e.e+fafbfcfdfefffgfhfifjfkflfmfnfofpfqfrfsftfufvfwfxfyfzfAfBfCfDfEfFfGfHfIfJfKfLfMfNfOfPfQfRfSfTfUfVfWfXfYfZf0f1f2f3f4f5f6f7f8f9f.f+gagbgcgdgegfggghgigjgkglgmgngogpgqgrgsgtgugvgwgxgygzgAgBgCgDgEgFgGgHgIgJgKgLgMgNgOgPgQgRgSgTgUgVgWgXgYgZg0g1g2g3g4g5g6g7g8g9g.g+hahbhchdhehfhghhhihjhkhlhmhnhohphqhrhshthuhvhwhxhyhzhAhBhChDhEhFhGhHhIhJhKhLhMhNhOhPhQhRhShThUhVhWhXhYhZh0h1h2h3h4h5h6h7h8h9h.h+",
"aaabacadaeafagahaiajakalamanaoapaqarasatauavawaxayazaAaBaCaDaEaFaGaHaIaJaKaLaMaNaOaPaQaRaSaTaUaVaWaXaYaZa0a1a2a3a4a5a6a7a8a9a.a+babbbcbdbebfbgbhbibjbkblbmbnbobpbqbrbsbtbubvbwbxbybzbAbBbCbDbEbFbGbHbIbJbKbLbMbNbObPbQbRbSbTbUbVbWbXbYbZb0b1b2b3b4b5b6b7b8b9b.b+cacbcccdcecfcgchcicjckclcmcncocpcqcrcsctcucvcwcxcyczcAcBcCcDcEcFcGcHcIcJcKcLcMcNcOcPcQcRcScTcUcVcWcXcYcZc0c1c2c3c4c5c6c7c8c9c.c+dadbdcdddedfdgdhdidjdkdldmdndodpdqdrdsdtdudvdwdxdydzdAdBdCdDdEdFdGdHdIdJdKdLdMdNdOdPdQdRdSdTdUdVdWdXdYdZd0d1d2d3d4d5d6d7d8d9d.d+eaebecedeeefegeheiejekelemeneoepeqereseteuevewexeyezeAeBeCeDeEeFeGeHeIeJeKeLeMeNeOePeQeReSeTeUeVeWeXeYeZe0e1e2e3e4e5e6e7e8e9e.e+fafbfcfdfefffgfhfifjfkflfmfnfofpfqfrfsftfufvfwfxfyfzfAfBfCfDfEfFfGfHfIfJfKfLfMfNfOfPfQfRfSfTfUfVfWfXfYfZf0f1f2f3f4f5f6f7f8f9f.f+gagbgcgdgegfggghgigjgkglgmgngogpgqgrgsgtgugvgwgxgygzgAgBgCgDgEgFgGgHgIgJgKgLgMgNgOgPgQgRgSgTgUgVgWgXgYgZg0g1g2g3g4g5g6g7g8g9g.g+hahbhchdhehfhghhhihjhkhlhmhnhohphqhrhshthuhvhwhxhyhzhAhBhChDhEhFhGhHhIhJhKhLhMhNhOhPhQhRhShThUhVhWhXhYhZh0h1h2h3h4h5h6h7h8h9h.h+",
"aaabacadaeafagahaiajakalamanaoapaqarasatauavawaxayazaAaBaCaDaEaFaGaHaIaJaKaLaMaNaOaPaQaRaSaTaUaVaWaXaYaZa0a1a2a3a4a5a6a7a8a9a.a+babbbcbdbebfbgbhbibjbkblbmbnbobpbqbrbsbtbubvbwbxbybzbAbBbCbDbEbFbGbHbIbJbKbLbMbNbObPbQbRbSbTbUbVbWbXbYbZb0b1b2b3b4b5b6b7b8b9b.b+cacbcccdcecfcgchcicjckclcmcncocpcqcrcsctcucvcwcxcyczcAcBcCcDcEcFcGcHcIcJcKcLcMcNcOcPcQcRcScTcUcVcWcXcYcZc0c1c2c3c4c5c6c7c8c9c.c+dadbdcdddedfdgdhdidjdkdldmdndodpdqdrdsdtdudvdwdxdydzdAdBdCdDdEdFdGdHdIdJdKdLdMdNdOdPdQdRdSdTdUdVdWdXdYdZd0d1d2d3d4d5d6d7d8d9d.d+eaebecedeeefegeheiejekelemeneoepeqereseteuevewexeyezeAeBeCeDeEeFeGeHeIeJeKeLeMeNeOePeQeReSeTeUeVeWeXeYeZe0e1e2e3e4e5e6e7e8e9e.e+fafbfcfdfefffgfhfifjfkflfmfnfofpfqfrfsftfufvfwfxfyfzfAfBfCfDfEfFfGfHfIfJfKfLfMfNfOfPfQfRfSfTfUfVfWfXfYfZf0f1f2f3f4f5f6f7f8f9f.f+gagbgcgdgegfggghgigjgkglgmgngogpgqgrgsgtgugvgwgxgygzgAgBgCgDgEgFgGgHgIgJgKgLgMgNgOgPgQgRgSgTgUgVgWgXgYgZg0g1g2g3g4g5g6g7g8g9g.g+hahbhchdhehfhghhhihjhkhlhmhnhohphqhrhshthuhvhwhxhyhzhAhBhChDhEhFhGhHhIhJhKhLhMhNhOhPhQhRhShThUhVhWhXhYhZh0h1h2h3h4h5h6h7h8h9h.h+",
"aaabacadaeafagahaiajakalamanaoapaqarasatauavawaxayazaAaBaCaDaEaFaGaHaIaJaKaLaMaNaOaPaQaRaSaTaUaVaWaXaYaZa0a1a2a3a4a5a6a7a8a9a.a+babbbcbdbebfbgbhbibjbkblbmbnbobpbqbrbsbtbubvbwbxbybzbAbBbCbDbEbFbGbHbIbJbKbLbMbNbObPbQbRbSbTbUbVbWbXbYbZb0b1b2b3b4b5b6b7b8b9b.b+cacbcccdcecfcgchcicjckclcmcncocpcqcrcsctcucvcwcxcyczcAcBcCcDcEcFcGcHcIcJcKcLcMcNcOcPcQcRcScTcUcVcWcXcYcZc0c1c2c3c4c5c6c7c8c9c.c+dadbdcdddedfdgdhdidjdkdldmdndodpdqdrdsdtdudvdwdxdydzdAdBdCdDdEdFdGdHdIdJdKdLdMdNdOdPdQdRdSdTdUdVdWdXdYdZd0d1d2d3d4d5d6d7d8d9d.d+eaebecedeeefegeheiejekelemeneoepeqereseteuevewexeyezeAeBeCeDeEeFeGeHeIeJeKeLeMeNeOePeQeReSeTeUeVeWeXeYeZe0e1e2e3e4e5e6e7e8e9e.e+fafbfcfdfefffgfhfifjfkflfmfnfofpfqfrfsftfufvfwfxfyfzfAfBfCfDfEfFfGfHfIfJfKfLfMfNfOfPfQfRfSfTfUfVfWfXfYfZf0f1f2f3f4f5f6f7f8f9f.f+gagbgcgdgegfggghgigjgkglgmgngogpgqgrgsgtgugvgwgxgygzgAgBgCgDgEgFgGgHgIgJgKgLgMgNgOgPgQgRgSgTgUgVgWgXgYgZg0g1g2g3g4g5g6g7g8g9g.g+hahbhchdhehfhghhhihjhkhlhmhnhohphqhrhshthuhvhwhxhyhzhAhBhChDhEhFhGhHhIhJhKhLhMhNhOhPhQhRhShThUhVhWhXhYhZh0h1h2h3h4h5h6h7h8h9h.h+",
"aaabacadaeafagahaiajakalamanaoapaqarasatauavawaxayazaAaBaCaDaEaFaGaHaIaJaKaLaMaNaOaPaQaRaSaTaUaVaWaXaYaZa0a1a2a3a4a5a6a7a8a9a.a+babbbcbdbebfbgbhbibjbkblbmbnbobpbqbrbsbtbubvbwbxbybzbAbBbCbDbEbFbGbHbIbJbKbLbMbNbObPbQbRbSbTbUbVbWbXbYbZb0b1b2b3b4b5b6b7b8b9b.b+cacbcccdcecfcgchcicjckclcmcncocpcqcrcsctcucvcwcxcyczcAcBcCcDcEcFcGcHcIcJcKcLcMcNcOcPcQcRcScTcUcVcWcXcYcZc0c1c2c3c4c5c6c7c8c9c.c+dadbdcdddedfdgdhdidjdkdldmdndodpdqdrdsdtdudvdwdxdydzdAdBdCdDdEdFdGdHdIdJdKdLdMdNdOdPdQdRdSdTdUdVdWdXdYdZd0d1d2d3d4d5d6d7d8d9d.d+eaebecedeeefegeheiejekelemeneoepeqereseteuevewexeyezeAeBeCeDeEeFeGeHeIeJeKeLeMeNeOePeQeReSeTeUeVeWeXeYeZe0e1e2e3e4e5e6e7e8e9e.e+fafbfcfdfefffgfhfifjfkflfmfnfofpfqfrfsftfufvfwfxfyfzfAfBfCfDfEfFfGfHfIfJfKfLfMfNfOfPfQfRfSfTfUfVfWfXfYfZf0f1f2f3f4f5f6f7f8f9f.f+gagbgcgdgegfggghgigjgkglgmgngogpgqgrgsgtgugvgwgxgygzgAgBgCgDgEgFgGgHgIgJgKgLgMgNgOgPgQgRgSgTgUgVgWgXgYgZg0g1g2g3g4g5g6g7g8g9g.g+hahbhchdhehfhghhhihjhkhlhmhnhohphqhrhshthuhvhwhxhyhzhAhBhChDhEhFhGhHhIhJhKhLhMhNhOhPhQhRhShThUhVhWhXhYhZh0h1h2h3h4h5h6h7h8h9h.h+",
"aaabacadaeafagahaiajakalamanaoapaqarasatauavawaxayazaAaBaCaDaEaFaGaHaIaJaKaLaMaNaOaPaQaRaSaTaUaVaWaXaYaZa0a1a2a3a4a5a6a7a8a9a.a+babbbcbdbebfbgbhbibjbkblbmbnbobpbqbrbsbtbubvbwbxbybzbAbBbCbDbEbFbGbHbIbJbKbLbMbNbObPbQbRbSbTbUbVbWbXbYbZb0b1b2b3b4b5b6b7b8b9b.b+cacbcccdcecfcgchcicjckclcmcncocpcqcrcsctcucvcwcxcyczcAcBcCcDcEcFcGcHcIcJcKcLcMcNcOcPcQcRcScTcUcVcWcXcYcZc0c1c2c3c4c5c6c7c8c9c.c+dadbdcdddedfdgdhdidjdkdldmdndodpdqdrdsdtdudvdwdxdydzdAdBdCdDdEdFdGdHdIdJdKdLdMdNdOdPdQdRdSdTdUdVdWdXdYdZd0d1d2d3d4d5d6d7d8d9d.d+eaebecedeeefegeheiejekelemeneoepeqereseteuevewexeyezeAeBeCeDeEeFeGeHeIeJeKeLeMeNeOePeQeReSeTeUeVeWeXeYeZe0e1e2e3e4e5e6e7e8e9e.e+fafbfcfdfefffgfhfifjfkflfmfnfofpfqfrfsftfufvfwfxfyfzfAfBfCfDfEfFfGfHfIfJfKfLfMfNfOfPfQfRfSfTfUfVfWfXfYfZf0f1f2f3f4f5f6f7f8f9f.f+gagbgcgdgegfggghgigjgkglgmgngogpgqgrgsgtgugvgwgxgygzgAgBgCgDgEgFgGgHgIgJgKgLgMgNgOgPgQgRgSgTgUgVgWgXgYgZg0g1g2g3g4g5g6g7g8g9g.g+hahbhchdhehfhghhhihjhkhlhmhnhohphqhrhshthuhvhwhxhyhzhAhBhChDhEhFhGhHhIhJhKhLhMhNhOhPhQhRhShThUhVhWhXhYhZh0h1h2h3h4h5h6h7h8h9h.h+",
"aaabacadaeafagahaiajakalamanaoapaqarasatauavawaxayazaAaBaCaDaEaFaGaHaIaJaKaLaMaNaOaPaQaRaSaTaUaVaWaXaYaZa0a1a2a3a4a5a6a7a8a9a.a+babbbcbdbebfbgbhbibjbkblbmbnbobpbqbrbsbtbubvbwbxbybzbAbBbCbDbEbFbGbHbIbJbKbLbMbNbObPbQbRbSbTbUbVbWbXbYbZb0b1b2b3b4b5b6b7b8b9b.b+cacbcccdcecfcgchcicjckclcmcncocpcqcrcsctcucvcwcxcyczcAcBcCcDcEcFcGcHcIcJcKcLcMcNcOcPcQcRcScTcUcVcWcXcYcZc0c1c2c3c4c5c6c7c8c9c.c+dadbdcdddedfdgdhdidjdkdldmdndodpdqdrdsdtdudvdwdxdydzdAdBdCdDdEdFdGdHdIdJdKdLdMdNdOdPdQdRdSdTdUdVdWdXdYdZd0d1d2d3d4d5d6d7d8d9d.d+eaebecedeeefegeheiejekelemeneoepeqereseteuevewexeyezeAeBeCeDeEeFeGeHeIeJeKeLeMeNeOePeQeReSeTeUeVeWeXeYeZe0e1e2e3e4e5e6e7e8e9e.e+fafbfcfdfefffgfhfifjfkflfmfnfofpfqfrfsftfufvfwfxfyfzfAfBfCfDfEfFfGfHfIfJfKfLfMfNfOfPfQfRfSfTfUfVfWfXfYfZf0f1f2f3f4f5f6f7f8f9f.f+gagbgcgdgegfggghgigjgkglgmgngogpgqgrgsgtgugvgwgxgygzgAgBgCgDgEgFgGgHgIgJgKgLgMgNgOgPgQgRgSgTgUgVgWgXgYgZg0g1g2g3g4g5g6g7g8g9g.g+hahbhchdhehfhghhhihjhkhlhmhnhohphqhrhshthuhvhwhxhyhzhAhBhChDhEhFhGhHhIhJhKhLhMhNhOhPhQhRhShThUhVhWhXhYhZh0h1h2h3h4h5h6h7h8h9h.h+",
"aaabacadaeafagahaiajakalamanaoapaqarasatauavawaxayazaAaBaCaDaEaFaGaHaIaJaKaLaMaNaOaPaQaRaSaTaUaVaWaXaYaZa0a1a2a3a4a5a6a7a8a9a.a+babbbcbdbebfbgbhbibjbkblbmbnbobpbqbrbsbtbubvbwbxbybzbAbBbCbDbEbFbGbHbIbJbKbLbMbNbObPbQbRbSbTbUbVbWbXbYbZb0b1b2b3b4b5b6b7b8b9b.b+cacbcccdcecfcgchcicjckclcmcncocpcqcrcsctcucvcwcxcyczcAcBcCcDcEcFcGcHcIcJcKcLcMcNcOcPcQcRcScTcUcVcWcXcYcZc0c1c2c3c4c5c6c7c8c9c.c+dadbdcdddedfdgdhdidjdkdldmdndodpdqdrdsdtdudvdwdxdydzdAdBdCdDdEdFdGdHdIdJdKdLdMdNdOdPdQdRdSdTdUdVdWdXdYdZd0d1d2d3d4d5d6d7d8d9d.d+eaebecedeeefegeheiejekelemeneoepeqereseteuevewexeyezeAeBeCeDeEeFeGeHeIeJeKeLeMeNeOePeQeReSeTeUeVeWeXeYeZe0e1e2e3e4e5e6e7e8e9e.e+fafbfcfdfefffgfhfifjfkflfmfnfofpfqfrfsftfufvfwfxfyfzfAfBfCfDfEfFfGfHfIfJfKfLfMfNfOfPfQfRfSfTfUfVfWfXfYfZf0f1f2f3f4f5f6f7f8f9f.f+gagbgcgdgegfggghgigjgkglgmgngogpgqgrgsgtgugvgwgxgygzgAgBgCgDgEgFgGgHgIgJgKgLgMgNgOgPgQgRgSgTgUgVgWgXgYgZg0g1g2g3g4g5g6g7g8g9g.g+hahbhchdhehfhghhhihjhkhlhmhnhohphqhrhshthuhvhwhxhyhzhAhBhChDhEhFhGhHhIhJhKhLhMhNhOhPhQhRhShThUhVhWhXhYhZh0h1h2h3h4h5h6h7h8h9h.h+",
"aaabacadaeafagahaiajakalamanaoapaqarasatauavawaxayazaAaBaCaDaEaFaGaHaIaJaKaLaMaNaOaPaQaRaSaTaUaVaWaXaYaZa0a1a2a3a4a5a6a7a8a9a.a+babbbcbdbebfbgbhbibjbkblbmbnbobpbqbrbsbtbubvbwbxbybzbAbBbCbDbEbFbGbHbIbJbKbLbMbNbObPbQbRbSbTbUbVbWbXbYbZb0b1b2b3b4b5b6b7b8b9b.b+cacbcccdcecfcgchcicjckclcmcncocpcqcrcsctcucvcwcxcyczcAcBcCcDcEcFcGcHcIcJcKcLcMcNcOcPcQcRcScTcUcVcWcXcYcZc0c1c2c3c4c5c6c7c8c9c.c+dadbdcdddedfdgdhdidjdkdldmdndodpdqdrdsdtdudvdwdxdydzdAdBdCdDdEdFdGdHdIdJdKdLdMdNdOdPdQdRdSdTdUdVdWdXdYdZd0d1d2d3d4d5d6d7d8d9d.d+eaebecedeeefegeheiejekelemeneoepeqereseteuevewexeyezeAeBeCeDeEeFeGeHeIeJeKeLeMeNeOePeQeReSeTeUeVeWeXeYeZe0e1e2e3e4e5e6e7e8e9e.e+fafbfcfdfefffgfhfifjfkflfmfnfofpfqfrfsftfufvfwfxfyfzfAfBfCfDfEfFfGfHfIfJfKfLfMfNfOfPfQfRfSfTfUfVfWfXfYfZf0f1f2f3f4f5f6f7f8f9f.f+gagbgcgdgegfggghgigjgkglgmgngogpgqgrgsgtgugvgwgxgygzgAgBgCgDgEgFgGgHgIgJgKgLgMgNgOgPgQgRgSgTgUgVgWgXgYgZg0g1g2g3g4g5g6g7g8g9g.g+hahbhchdhehfhghhhihjhkhlhmhnhohphqhrhshthuhvhwhxhyhzhAhBhChDhEhFhGhHhIhJhKhLhMhNhOhPhQhRhShThUhVhWhXhYhZh0h1h2h3h4h5h6h7h8h9h.h+",
"aaabacadaeafagahaiajakalamanaoapaqarasatauavawaxayazaAaBaCaDaEaFaGaHaIaJaKaLaMaNaOaPaQaRaSaTaUaVaWaXaYaZa0a1a2a3a4a5a6a7a8a9a.a+babbbcbdbebfbgbhbibjbkblbmbnbobpbqbrbsbtbubvbwbxbybzbAbBbCbDbEbFbGbHbIbJbKbLbMbNbObPbQbRbSbTbUbVbWbXbYbZb0b1b2b3b4b5b6b7b8b9b.b+cacbcccdcecfcgchcicjckclcmcncocpcqcrcsctcucvcwcxcyczcAcBcCcDcEcFcGcHcIcJcKcLcMcNcOcPcQcRcScTcUcVcWcXcYcZc0c1c2c3c4c5c6c7c8c9c.c+dadbdcdddedfdgdhdidjdkdldmdndodpdqdrdsdtdudvdwdxdydzdAdBdCdDdEdFdGdHdIdJdKdLdMdNdOdPdQdRdSdTdUdVdWdXdYdZd0d1d2d3d4d5d6d7d8d9d.d+eaebecedeeefegeheiejekelemeneoepeqereseteuevewexeyezeAeBeCeDeEeFeGeHeIeJeKeLeMeNeOePeQeReSeTeUeVeWeXeYeZe0e1e2e3e4e5e6e7e8e9e.e+fafbfcfdfefffgfhfifjfkflfmfnfofpfqfrfsftfufvfwfxfyfzfAfBfCfDfEfFfGfHfIfJfKfLfMfNfOfPfQfRfSfTfUfVfWfXfYfZf0f1f2f3f4f5f6f7f8f9f.f+gagbgcgdgegfggghgigjgkglgmgngogpgqgrgsgtgugvgwgxgygzgAgBgCgDgEgFgGgHgIgJgKgLgMgNgOgPgQgRgSgTgUgVgWgXgYgZg0g1g2g3g4g5g6g7g8g9g.g+hahbhchdhehfhghhhihjhkhlhmhnhohphqhrhshthuhvhwhxhyhzhAhBhChDhEhFhGhHhIhJhKhLhMhNhOhPhQhRhShThUhVhWhXhYhZh0h1h2h3h4h5h6h7h8h9h.h+",
"aaabacadaeafagahaiajakalamanaoapaqarasatauavawaxayazaAaBaCaDaEaFaGaHaIaJaKaLaMaNaOaPaQaRaSaTaUaVaWaXaYaZa0a1a2a3a4a5a6a7a8a9a.a+babbbcbdbebfbgbhbibjbkblbmbnbobpbqbrbsbtbubvbwbxbybzbAbBbCbDbEbFbGbHbIbJbKbLbMbNbObPbQbRbSbTbUbVbWbXbYbZb0b1b2b3b4b5b6b7b8b9b.b+cacbcccdcecfcgchcicjckclcmcncocpcqcrcsctcucvcwcxcyczcAcBcCcDcEcFcGcHcIcJcKcLcMcNcOcPcQcRcScTcUcVcWcXcYcZc0c1c2c3c4c5c6c7c8c9c.c+dadbdcdddedfdgdhdidjdkdldmdndodpdqdrdsdtdudvdwdxdydzdAdBdCdDdEdFdGdHdIdJdKdLdMdNdOdPdQdRdSdTdUdVdWdXdYdZd0d1d2d3d4d5d6d7d8d9d.d+eaebecedeeefegeheiejekelemeneoepeqereseteuevewexeyezeAeBeCeDeEeFeGeHeIeJeKeLeMeNeOePeQeReSeTeUeVeWeXeYeZe0e1e2e3e4e5e6e7e8e9e.e+fafbfcfdfefffgfhfifjfkflfmfnfofpfqfrfsftfufvfwfxfyfzfAfBfCfDfEfFfGfHfIfJfKfLfMfNfOfPfQfRfSfTfUfVfWfXfYfZf0f1f2f3f4f5f6f7f8f9f.f+gagbgcgdgegfggghgigjgkglgmgngogpgqgrgsgtgugvgwgxgygzgAgBgCgDgEgFgGgHgIgJgKgLgMgNgOgPgQgRgSgTgUgVgWgXgYgZg0g1g2g3g4g5g6g7g8g9g.g+hahbhchdhehfhghhhihjhkhlhmhnhohphqhrhshthuhvhwhxhyhzhAhBhChDhEhFhGhHhIhJhKhLhMhNhOhPhQhRhShThUhVhWhXhYhZh0h1h2h3h4h5h6h7h8h9h.h+",
"aaabacadaeafagahaiajakalamanaoapaqarasatauavawaxayazaAaBaCaDaEaFaGaHaIaJaKaLaMaNaOaPaQaRaSaTaUaVaWaXaYaZa0a1a2a3a4a5a6a7a8a9a.a+babbbcbdbebfbgbhbibjbkblbmbnbobpbqbrbsbtbubvbwbxbybzbAbBbCbDbEbFbGbHbIbJbKbLbMbNbObPbQbRbSbTbUbVbWbXbYbZb0b1b2b3b4b5b6b7b8b9b.b+cacbcccdcecfcgchcicjckclcmcncocpcqcrcsctcucvcwcxcyczcAcBcCcDcEcFcGcHcIcJcKcLcMcNcOcPcQcRcScTcUcVcWcXcYcZc0c1c2c3c4c5c6c7c8c9c.c+dadbdcdddedfdgdhdidjdkdldmdndodpdqdrdsdtdudvdwdxdydzdAdBdCdDdEdFdGdHdIdJdKdLdMdNdOdPdQdRdSdTdUdVdWdXdYdZd0d1d2d3d4d5d6d7d8d9d.d+eaebecedeeefegeheiejekelemeneoepeqereseteuevewexeyezeAeBeCeDeEeFeGeHeIeJeKeLeMeNeOePeQeReSeTeUeVeWeXeYeZe0e1e2e3e4e5e6e7e8e9e.e+fafbfcfdfefffgfhfifjfkflfmfnfofpfqfrfsftfufvfwfxfyfzfAfBfCfDfEfFfGfHfIfJfKfLfMfNfOfPfQfRfSfTfUfVfWfXfYfZf0f1f2f3f4f5f6f7f8f9f.f+gagbgcgdgegfggghgigjgkglgmgngogpgqgrgsgtgugvgwgxgygzgAgBgCgDgEgFgGgHgIgJgKgLgMgNgOgPgQgRgSgTgUgVgWgXgYgZg0g1g2g3g4g5g6g7g8g9g.g+hahbhchdhehfhghhhihjhkhlhmhnhohphqhrhshthuhvhwhxhyhzhAhBhChDhEhFhGhHhIhJhKhLhMhNhOhPhQhRhShThUhVhWhXhYhZh0h1h2h3h4h5h6h7h8h9h.h+",
"aaabacadaeafagahaiajakalamanaoapaqarasatauavawaxayazaAaBaCaDaEaFaGaHaIaJaKaLaMaNaOaPaQaRaSaTaUaVaWaXaYaZa0a1a2a3a4a5a6a7a8a9a.a+babbbcbdbebfbgbhbibjbkblbmbnbobpbqbrbsbtbubvbwbxbybzbAbBbCbDbEbFbGbHbIbJbKbLbMbNbObPbQbRbSbTbUbVbWbXbYbZb0b1b2b3b4b5b6b7b8b9b.b+cacbcccdcecfcgchcicjckclcmcncocpcqcrcsctcucvcwcxcyczcAcBcCcDcEcFcGcHcIcJcKcLcMcNcOcPcQcRcScTcUcVcWcXcYcZc0c1c2c3c4c5c6c7c8c9c.c+dadbdcdddedfdgdhdidjdkdldmdndodpdqdrdsdtdudvdwdxdydzdAdBdCdDdEdFdGdHdIdJdKdLdMdNdOdPdQdRdSdTdUdVdWdXdYdZd0d1d2d3d4d5d6d7d8d9d.d+eaebecedeeefegeheiejekelemeneoepeqereseteuevewexeyezeAeBeCeDeEeFeGeHeIeJeKeLeMeNeOePeQeReSeTeUeVeWeXeYeZe0e1e2e3e4e5e6e7e8e9e.e+fafbfcfdfefffgfhfifjfkflfmfnfofpfqfrfsftfufvfwfxfyfzfAfBfCfDfEfFfGfHfIfJfKfLfMfNfOfPfQfRfSfTfUfVfWfXfYfZf0f1f2f3f4f5f6f7f8f9f.f+gagbgcgdgegfggghgigjgkglgmgngogpgqgrgsgtgugvgwgxgygzgAgBgCgDgEgFgGgHgIgJgKgLgMgNgOgPgQgRgSgTgUgVgWgXgYgZg0g1g2g3g4g5g6g7g8g9g.g+hahbhchdhehfhghhhihjhkhlhmhnhohphqhrhshthuhvhwhxhyhzhAhBhChDhEhFhGhHhIhJhKhLhMhNhOhPhQhRhShThUhVhWhXhYhZh0h1h2h3h4h5h6h7h8h9h.h+",
"aaabacadaeafagahaiajakalamanaoapaqarasatauavawaxayazaAaBaCaDaEaFaGaHaIaJaKaLaMaNaOaPaQaRaSaTaUaVaWaXaYaZa0a1a2a3a4a5a6a7a8a9a.a+babbbcbdbebfbgbhbibjbkblbmbnbobpbqbrbsbtbubvbwbxbybzbAbBbCbDbEbFbGbHbIbJbKbLbMbNbObPbQbRbSbTbUbVbWbXbYbZb0b1b2b3b4b5b6b7b8b9b.b+cacbcccdcecfcgchcicjckclcmcncocpcqcrcsctcucvcwcxcyczcAcBcCcDcEcFcGcHcIcJcKcLcMcNcOcPcQcRcScTcUcVcWcXcYcZc0c1c2c3c4c5c6c7c8c9c.c+dadbdcdddedfdgdhdidjdkdldmdndodpdqdrdsdtdudvdwdxdydzdAdBdCdDdEdFdGdHdIdJdKdLdMdNdOdPdQdRdSdTdUdVdWdXdYdZd0d1d2d3d4d5d6d7d8d9d.d+eaebecedeeefegeheiejekelemeneoepeqereseteuevewexeyezeAeBeCeDeEeFeGeHeIeJeKeLeMeNeOePeQeReSeTeUeVeWeXeYeZe0e1e2e3e4e5e6e7e8e9e.e+fafbfcfdfefffgfhfifjfkflfmfnfofpfqfrfsftfufvfwfxfyfzfAfBfCfDfEfFfGfHfIfJfKfLfMfNfOfPfQfRfSfTfUfVfWfXfYfZf0f1f2f3f4f5f6f7f8f9f.f+gagbgcgdgegfggghgigjgkglgmgngogpgqgrgsgtgugvgwgxgygzgAgBgCgDgEgFgGgHgIgJgKgLgMgNgOgPgQgRgSgTgUgVgWgXgYgZg0g1g2g3g4g5g6g7g8g9g.g+hahbhchdhehfhghhhihjhkhlhmhnhohphqhrhshthuhvhwhxhyhzhAhBhChDhEhFhGhHhIhJhKhLhMhNhOhPhQhRhShThUhVhWhXhYhZh0h1h2h3h4h5h6h7h8h9h.h+",
"aaabacadaeafagahaiajakalamanaoapaqarasatauavawaxayazaAaBaCaDaEaFaGaHaIaJaKaLaMaNaOaPaQaRaSaTaUaVaWaXaYaZa0a1a2a3a4a5a6a7a8a9a.a+babbbcbdbebfbgbhbibjbkblbmbnbobpbqbrbsbtbubvbwbxbybzbAbBbCbDbEbFbGbHbIbJbKbLbMbNbObPbQbRbSbTbUbVbWbXbYbZb0b1b2b3b4b5b6b7b8b9b.b+cacbcccdcecfcgchcicjckclcmcncocpcqcrcsctcucvcwcxcyczcAcBcCcDcEcFcGcHcIcJcKcLcMcNcOcPcQcRcScTcUcVcWcXcYcZc0c1c2c3c4c5c6c7c8c9c.c+dadbdcdddedfdgdhdidjdkdldmdndodpdqdrdsdtdudvdwdxdydzdAdBdCdDdEdFdGdHdIdJdKdLdMdNdOdPdQdRdSdTdUdVdWdXdYdZd0d1d2d3d4d5d6d7d8d9d.d+eaebecedeeefegeheiejekelemeneoepeqereseteuevewexeyezeAeBeCeDeEeFeGeHeIeJeKeLeMeNeOePeQeReSeTeUeVeWeXeYeZe0e1e2e3e4e5e6e7e8e9e.e+fafbfcfdfefffgfhfifjfkflfmfnfofpfqfrfsftfufvfwfxfyfzfAfBfCfDfEfFfGfHfIfJfKfLfMfNfOfPfQfRfSfTfUfVfWfXfYfZf0f1f2f3f4f5f6f7f8f9f.f+gagbgcgdgegfggghgigjgkglgmgngogpgqgrgsgtgugvgwgxgygzgAgBgCgDgEgFgGgHgIgJgKgLgMgNgOgPgQgRgSgTgUgVgWgXgYgZg0g1g2g3g4g5g6g7g8g9g.g+hahbhchdhehfhghhhihjhkhlhmhnhohphqhrhshthuhvhwhxhyhzhAhBhChDhEhFhGhHhIhJhKhLhMhNhOhPhQhRhShThUhVhWhXhYhZh0h1h2h3h4h5h6h7h8h9h.h+",
"aaabacadaeafagahaiajakalamanaoapaqarasatauavawaxayazaAaBaCaDaEaFaGaHaIaJaKaLaMaNaOaPaQaRaSaTaUaVaWaXaYaZa0a1a2a3a4a5a6a7a8a9a.a+babbbcbdbebfbgbhbibjbkblbmbnbobpbqbrbsbtbubvbwbxbybzbAbBbCbDbEbFbGbHbIbJbKbLbMbNbObPbQbRbSbTbUbVbWbXbYbZb0b1b2b3b4b5b6b7b8b9b.b+cacbcccdcecfcgchcicjckclcmcncocpcqcrcsctcucvcwcxcyczcAcBcCcDcEcFcGcHcIcJcKcLcMcNcOcPcQcRcScTcUcVcWcXcYcZc0c1c2c3c4c5c6c7c8c9c.c+dadbdcdddedfdgdhdidjdkdldmdndodpdqdrdsdtdudvdwdxdydzdAdBdCdDdEdFdGdHdIdJdKdLdMdNdOdPdQdRdSdTdUdVdWdXdYdZd0d1d2d3d4d5d6d7d8d9d.d+eaebecedeeefegeheiejekelemeneoepeqereseteuevewexeyezeAeBeCeDeEeFeGeHeIeJeKeLeMeNeOePeQeReSeTeUeVeWeXeYeZe0e1e2e3e4e5e6e7e8e9e.e+fafbfcfdfefffgfhfifjfkflfmfnfofpfqfrfsftfufvfwfxfyfzfAfBfCfDfEfFfGfHfIfJfKfLfMfNfOfPfQfRfSfTfUfVfWfXfYfZf0f1f2f3f4f5f6f7f8f9f.f+gagbgcgdgegfggghgigjgkglgmgngogpgqgrgsgtgugvgwgxgygzgAgBgCgDgEgFgGgHgIgJgKgLgMgNgOgPgQgRgSgTgUgVgWgXgYgZg0g1g2g3g4g5g6g7g8g9g.g+hahbhchdhehfhghhhihjhkhlhmhnhohphqhrhshthuhvhwhxhyhzhAhBhChDhEhFhGhHhIhJhKhLhMhNhOhPhQhRhShThUhVhWhXhYhZh0h1h2h3h4h5h6h7h8h9h.h+",
"aaabacadaeafagahaiajakalamanaoapaqarasatauavawaxayazaAaBaCaDaEaFaGaHaIaJaKaLaMaNaOaPaQaRaSaTaUaVaWaXaYaZa0a1a2a3a4a5a6a7a8a9a.a+babbbcbdbebfbgbhbibjbkblbmbnbobpbqbrbsbtbubvbwbxbybzbAbBbCbDbEbFbGbHbIbJbKbLbMbNbObPbQbRbSbTbUbVbWbXbYbZb0b1b2b3b4b5b6b7b8b9b.b+cacbcccdcecfcgchcicjckclcmcncocpcqcrcsctcucvcwcxcyczcAcBcCcDcEcFcGcHcIcJcKcLcMcNcOcPcQcRcScTcUcVcWcXcYcZc0c1c2c3c4c5c6c7c8c9c.c+dadbdcdddedfdgdhdidjdkdldmdndodpdqdrdsdtdudvdwdxdydzdAdBdCdDdEdFdGdHdIdJdKdLdMdNdOdPdQdRdSdTdUdVdWdXdYdZd0d1d2d3d4d5d6d7d8d9d.d+eaebecedeeefegeheiejekelemeneoepeqereseteuevewexeyezeAeBeCeDeEeFeGeHeIeJeKeLeMeNeOePeQeReSeTeUeVeWeXeYeZe0e1e2e3e4e5e6e7e8e9e.e+fafbfcfdfefffgfhfifjfkflfmfnfofpfqfrfsftfufvfwfxfyfzfAfBfCfDfEfFfGfHfIfJfKfLfMfNfOfPfQfRfSfTfUfVfWfXfYfZf0f1f2f3f4f5f6f7f8f9f.f+gagbgcgdgegfggghgigjgkglgmgngogpgqgrgsgtgugvgwgxgygzgAgBgCgDgEgFgGgHgIgJgKgLgMgNgOgPgQgRgSgTgUgVgWgXgYgZg0g1g2g3g4g5g6g7g8g9g.g+hahbhchdhehfhghhhihjhkhlhmhnhohphqhrhshthuhvhwhxhyhzhAhBhChDhEhFhGhHhIhJhKhLhMhNhOhPhQhRhShThUhVhWhXhYhZh0h1h2h3h4h5h6h7h8h9h.h+",
"aaabacadaeafagahaiajakalamanaoapaqarasatauavawaxayazaAaBaCaDaEaFaGaHaIaJaKaLaMaNaOaPaQaRaSaTaUaVaWaXaYaZa0a1a2a3a4a5a6a7a8a9a.a+babbbcbdbebfbgbhbibjbkblbmbnbobpbqbrbsbtbubvbwbxbybzbAbBbCbDbEbFbGbHbIbJbKbLbMbNbObPbQbRbSbTbUbVbWbXbYbZb0b1b2b3b4b5b6b7b8b9b.b+cacbcccdcecfcgchcicjckclcmcncocpcqcrcsctcucvcwcxcyczcAcBcCcDcEcFcGcHcIcJcKcLcMcNcOcPcQcRcScTcUcVcWcXcYcZc0c1c2c3c4c5c6c7c8c9c.c+dadbdcdddedfdgdhdidjdkdldmdndodpdqdrdsdtdudvdwdxdydzdAdBdCdDdEdFdGdHdIdJdKdLdMdNdOdPdQdRdSdTdUdVdWdXdYdZd0d1d2d3d4d5d6d7d8d9d.d+eaebecedeeefegeheiejekelemeneoepeqereseteuevewexeyezeAeBeCeDeEeFeGeHeIeJeKeLeMeNeOePeQeReSeTeUeVeWeXeYeZe0e1e2e3e4e5e6e7e8e9e.e+fafbfcfdfefffgfhfifjfkflfmfnfofpfqfrfsftfufvfwfxfyfzfAfBfCfDfEfFfGfHfIfJfKfLfMfNfOfPfQfRfSfTfUfVfWfXfYfZf0f1f2f3f4f5f6f7f8f9f.f+gagbgcgdgegfggghgigjgkglgmgngogpgqgrgsgtgugvgwgxgygzgAgBgCgDgEgFgGgHgIgJgKgLgMgNgOgPgQgRgSgTgUgVgWgXgYgZg0g1g2g3g4g5g6g7g8g9g.g+hahbhchdhehfhghhhihjhkhlhmhnhohphqhrhshthuhvhwhxhyhzhAhBhChDhEhFhGhHhIhJhKhLhMhNhOhPhQhRhShThUhVhWhXhYhZh0h1h2h3h4h5h6h7h8h9h.h+",
"aaabacadaeafagahaiajakalamanaoapaqarasatauavawaxayazaAaBaCaDaEaFaGaHaIaJaKaLaMaNaOaPaQaRaSaTaUaVaWaXaYaZa0a1a2a3a4a5a6a7a8a9a.a+babbbcbdbebfbgbhbibjbkblbmbnbobpbqbrbsbtbubvbwbxbybzbAbBbCbDbEbFbGbHbIbJbKbLbMbNbObPbQbRbSbTbUbVbWbXbYbZb0b1b2b3b4b5b6b7b8b9b.b+cacbcccdcecfcgchcicjckclcmcncocpcqcrcsctcucvcwcxcyczcAcBcCcDcEcFcGcHcIcJcKcLcMcNcOcPcQcRcScTcUcVcWcXcYcZc0c1c2c3c4c5c6c7c8c9c.c+dadbdcdddedfdgdhdidjdkdldmdndodpdqdrdsdtdudvdwdxdydzdAdBdCdDdEdFdGdHdIdJdKdLdMdNdOdPdQdRdSdTdUdVdWdXdYdZd0d1d2d3d4d5d6d7d8d9d.d+eaebecedeeefegeheiejekelemeneoepeqereseteuevewexeyezeAeBeCeDeEeFeGeHeIeJeKeLeMeNeOePeQeReSeTeUeVeWeXeYeZe0e1e2e3e4e5e6e7e8e9e.e+fafbfcfdfefffgfhfifjfkflfmfnfofpfqfrfsftfufvfwfxfyfzfAfBfCfDfEfFfGfHfIfJfKfLfMfNfOfPfQfRfSfTfUfVfWfXfYfZf0f1f2f3f4f5f6f7f8f9f.f+gagbgcgdgegfggghgigjgkglgmgngogpgqgrgsgtgugvgwgxgygzgAgBgCgDgEgFgGgHgIgJgKgLgMgNgOgPgQgRgSgTgUgVgWgXgYgZg0g1g2g3g4g5g6g7g8g9g.g+hahbhchdhehfhghhhihjhkhlhmhnhohphqhrhshthuhvhwhxhyhzhAhBhChDhEhFhGhHhIhJhKhLhMhNhOhPhQhRhShThUhVhWhXhYhZh0h1h2h3h4h5h6h7h8h9h.h+",
"aaabacadaeafagahaiajakalamanaoapaqarasatauavawaxayazaAaBaCaDaEaFaGaHaIaJaKaLaMaNaOaPaQaRaSaTaUaVaWaXaYaZa0a1a2a3a4a5a6a7a8a9a.a+babbbcbdbebfbgbhbibjbkblbmbnbobpbqbrbsbtbubvbwbxbybzbAbBbCbDbEbFbGbHbIbJbKbLbMbNbObPbQbRbSbTbUbVbWbXbYbZb0b1b2b3b4b5b6b7b8b9b.b+cacbcccdcecfcgchcicjckclcmcncocpcqcrcsctcucvcwcxcyczcAcBcCcDcEcFcGcHcIcJcKcLcMcNcOcPcQcRcScTcUcVcWcXcYcZc0c1c2c3c4c5c6c7c8c9c.c+dadbdcdddedfdgdhdidjdkdldmdndodpdqdrdsdtdudvdwdxdydzdAdBdCdDdEdFdGdHdIdJdKdLdMdNdOdPdQdRdSdTdUdVdWdXdYdZd0d1d2d3d4d5d6d7d8d9d.d+eaebecedeeefegeheiejekelemeneoepeqereseteuevewexeyezeAeBeCeDeEeFeGeHeIeJeKeLeMeNeOePeQeReSeTeUeVeWeXeYeZe0e1e2e3e4e5e6e7e8e9e.e+fafbfcfdfefffgfhfifjfkflfmfnfofpfqfrfsftfufvfwfxfyfzfAfBfCfDfEfFfGfHfIfJfKfLfMfNfOfPfQfRfSfTfUfVfWfXfYfZf0f1f2f3f4f5f6f7f8f9f.f+gagbgcgdgegfggghgigjgkglgmgngogpgqgrgsgtgugvgwgxgygzgAgBgCgDgEgFgGgHgIgJgKgLgMgNgOgPgQgRgSgTgUgVgWgXgYgZg0g1g2g3g4g5g6g7g8g9g.g+hahbhchdhehfhghhhihjhkhlhmhnhohphqhrhshthuhvhwhxhyhzhAhBhChDhEhFhGhHhIhJhKhLhMhNhOhPhQhRhShThUhVhWhXhYhZh0h1h2h3h4h5h6h7h8h9h.h+",
"aaabacadaeafagahaiajakalamanaoapaqarasatauavawaxayazaAaBaCaDaEaFaGaHaIaJaKaLaMaNaOaPaQaRaSaTaUaVaWaXaYaZa0a1a2a3a4a5a6a7a8a9a.a+babbbcbdbebfbgbhbibjbkblbmbnbobpbqbrbsbtbubvbwbxbybzbAbBbCbDbEbFbGbHbIbJbKbLbMbNbObPbQbRbSbTbUbVbWbXbYbZb0b1b2b3b4b5b6b7b8b9b.b+cacbcccdcecfcgchcicjckclcmcncocpcqcrcsctcucvcwcxcyczcAcBcCcDcEcFcGcHcIcJcKcLcMcNcOcPcQcRcScTcUcVcWcXcYcZc0c1c2c3c4c5c6c7c8c9c.c+dadbdcdddedfdgdhdidjdkdldmdndodpdqdrdsdtdudvdwdxdydzdAdBdCdDdEdFdGdHdIdJdKdLdMdNdOdPdQdRdSdTdUdVdWdXdYdZd0d1d2d3d4d5d6d7d8d9d.d+eaebecedeeefegeheiejekelemeneoepeqereseteuevewexeyezeAeBeCeDeEeFeGeHeIeJeKeLeMeNeOePeQeReSeTeUeVeWeXeYeZe0e1e2e3e4e5e6e7e8e9e.e+fafbfcfdfefffgfhfifjfkflfmfnfofpfqfrfsftfufvfwfxfyfzfAfBfCfDfEfFfGfHfIfJfKfLfMfNfOfPfQfRfSfTfUfVfWfXfYfZf0f1f2f3f4f5f6f7f8f9f.f+gagbgcgdgegfggghgigjgkglgmgngogpgqgrgsgtgugvgwgxgygzgAgBgCgDgEgFgGgHgIgJgKgLgMgNgOgPgQgRgSgTgUgVgWgXgYgZg0g1g2g3g4g5g6g7g8g9g.g+hahbhchdhehfhghhhihjhkhlhmhnhohphqhrhshthuhvhwhxhyhzhAhBhChDhEhFhGhHhIhJhKhLhMhNhOhPhQhRhShThUhVhWhXhYhZh0h1h2h3h4h5h6h7h8h9h.h+",
"aaabacadaeafagahaiajakalamanaoapaqarasatauavawaxayazaAaBaCaDaEaFaGaHaIaJaKaLaMaNaOaPaQaRaSaTaUaVaWaXaYaZa0a1a2a3a4a5a6a7a8a9a.a+babbbcbdbebfbgbhbibjbkblbmbnbobpbqbrbsbtbubvbwbxbybzbAbBbCbDbEbFbGbHbIbJbKbLbMbNbObPbQbRbSbTbUbVbWbXbYbZb0b1b2b3b4b5b6b7b8b9b.b+cacbcccdcecfcgchcicjckclcmcncocpcqcrcsctcucvcwcxcyczcAcBcCcDcEcFcGcHcIcJcKcLcMcNcOcPcQcRcScTcUcVcWcXcYcZc0c1c2c3c4c5c6c7c8c9c.c+dadbdcdddedfdgdhdidjdkdldmdndodpdqdrdsdtdudvdwdxdydzdAdBdCdDdEdFdGdHdIdJdKdLdMdNdOdPdQdRdSdTdUdVdWdXdYdZd0d1d2d3d4d5d6d7d8d9d.d+eaebecedeeefegeheiejekelemeneoepeqereseteuevewexeyezeAeBeCeDeEeFeGeHeIeJeKeLeMeNeOePeQeReSeTeUeVeWeXeYeZe0e1e2e3e4e5e6e7e8e9e.e+fafbfcfdfefffgfhfifjfkflfmfnfofpfqfrfsftfufvfwfxfyfzfAfBfCfDfEfFfGfHfIfJfKfLfMfNfOfPfQfRfSfTfUfVfWfXfYfZf0f1f2f3f4f5f6f7f8f9f.f+gagbgcgdgegfggghgigjgkglgmgngogpgqgrgsgtgugvgwgxgygzgAgBgCgDgEgFgGgHgIgJgKgLgMgNgOgPgQgRgSgTgUgVgWgXgYgZg0g1g2g3g4g5g6g7g8g9g.g+hahbhchdhehfhghhhihjhkhlhmhnhohphqhrhshthuhvhwhxhyhzhAhBhChDhEhFhGhHhIhJhKhLhMhNhOhPhQhRhShThUhVhWhXhYhZh0h1h2h3h4h5h6h7h8h9h.h+",
"aaabacadaeafagahaiajakalamanaoapaqarasatauavawaxayazaAaBaCaDaEaFaGaHaIaJaKaLaMaNaOaPaQaRaSaTaUaVaWaXaYaZa0a1a2a3a4a5a6a7a8a9a.a+babbbcbdbebfbgbhbibjbkblbmbnbobpbqbrbsbtbubvbwbxbybzbAbBbCbDbEbFbGbHbIbJbKbLbMbNbObPbQbRbSbTbUbVbWbXbYbZb0b1b2b3b4b5b6b7b8b9b.b+cacbcccdcecfcgchcicjckclcmcncocpcqcrcsctcucvcwcxcyczcAcBcCcDcEcFcGcHcIcJcKcLcMcNcOcPcQcRcScTcUcVcWcXcYcZc0c1c2c3c4c5c6c7c8c9c.c+dadbdcdddedfdgdhdidjdkdldmdndodpdqdrdsdtdudvdwdxdydzdAdBdCdDdEdFdGdHdIdJdKdLdMdNdOdPdQdRdSdTdUdVdWdXdYdZd0d1d2d3d4d5d6d7d8d9d.d+eaebecedeeefegeheiejekelemeneoepeqereseteuevewexeyezeAeBeCeDeEeFeGeHeIeJeKeLeMeNeOePeQeReSeTeUeVeWeXeYeZe0e1e2e3e4e5e6e7e8e9e.e+fafbfcfdfefffgfhfifjfkflfmfnfofpfqfrfsftfufvfwfxfyfzfAfBfCfDfEfFfGfHfIfJfKfLfMfNfOfPfQfRfSfTfUfVfWfXfYfZf0f1f2f3f4f5f6f7f8f9f.f+gagbgcgdgegfggghgigjgkglgmgngogpgqgrgsgtgugvgwgxgygzgAgBgCgDgEgFgGgHgIgJgKgLgMgNgOgPgQgRgSgTgUgVgWgXgYgZg0g1g2g3g4g5g6g7g8g9g.g+hahbhchdhehfhghhhihjhkhlhmhnhohphqhrhshthuhvhwhxhyhzhAhBhChDhEhFhGhHhIhJhKhLhMhNhOhPhQhRhShThUhVhWhXhYhZh0h1h2h3h4h5h6h7h8h9h.h+",
"aaabacadaeafagahaiajakalamanaoapaqarasatauavawaxayazaAaBaCaDaEaFaGaHaIaJaKaLaMaNaOaPaQaRaSaTaUaVaWaXaYaZa0a1a2a3a4a5a6a7a8a9a.a+babbbcbdbebfbgbhbibjbkblbmbnbobpbqbrbsbtbubvbwbxbybzbAbBbCbDbEbFbGbHbIbJbKbLbMbNbObPbQbRbSbTbUbVbWbXbYbZb0b1b2b3b4b5b6b7b8b9b.b+cacbcccdcecfcgchcicjckclcmcncocpcqcrcsctcucvcwcxcyczcAcBcCcDcEcFcGcHcIcJcKcLcMcNcOcPcQcRcScTcUcVcWcXcYcZc0c1c2c3c4c5c6c7c8c9c.c+dadbdcdddedfdgdhdidjdkdldmdndodpdqdrdsdtdudvdwdxdydzdAdBdCdDdEdFdGdHdIdJdKdLdMdNdOdPdQdRdSdTdUdVdWdXdYdZd0d1d2d3d4d5d6d7d8d9d.d+eaebecedeeefegeheiejekelemeneoepeqereseteuevewexeyezeAeBeCeDeEeFeGeHeIeJeKeLeMeNeOePeQeReSeTeUeVeWeXeYeZe0e1e2e3e4e5e6e7e8e9e.e+fafbfcfdfefffgfhfifjfkflfmfnfofpfqfrfsftfufvfwfxfyfzfAfBfCfDfEfFfGfHfIfJfKfLfMfNfOfPfQfRfSfTfUfVfWfXfYfZf0f1f2f3f4f5f6f7f8f9f.f+gagbgcgdgegfggghgigjgkglgmgngogpgqgrgsgtgugvgwgxgygzgAgBgCgDgEgFgGgHgIgJgKgLgMgNgOgPgQgRgSgTgUgVgWgXgYgZg0g1g2g3g4g5g6g7g8g9g.g+hahbhchdhehfhghhhihjhkhlhmhnhohphqhrhshthuhvhwhxhyhzhAhBhChDhEhFhGhHhIhJhKhLhMhNhOhPhQhRhShThUhVhWhXhYhZh0h1h2h3h4h5h6h7h8h9h.h+",
"aaabacadaeafagahaiajakalamanaoapaqarasatauavawaxayazaAaBaCaDaEaFaGaHaIaJaKaLaMaNaOaPaQaRaSaTaUaVaWaXaYaZa0a1a2a3a4a5a6a7a8a9a.a+babbbcbdbebfbgbhbibjbkblbmbnbobpbqbrbsbtbubvbwbxbybzbAbBbCbDbEbFbGbHbIbJbKbLbMbNbObPbQbRbSbTbUbVbWbXbYbZb0b1b2b3b4b5b6b7b8b9b.b+cacbcccdcecfcgchcicjckclcmcncocpcqcrcsctcucvcwcxcyczcAcBcCcDcEcFcGcHcIcJcKcLcMcNcOcPcQcRcScTcUcVcWcXcYcZc0c1c2c3c4c5c6c7c8c9c.c+dadbdcdddedfdgdhdidjdkdldmdndodpdqdrdsdtdudvdwdxdydzdAdBdCdDdEdFdGdHdIdJdKdLdMdNdOdPdQdRdSdTdUdVdWdXdYdZd0d1d2d3d4d5d6d7d8d9d.d+eaebecedeeefegeheiejekelemeneoepeqereseteuevewexeyezeAeBeCeDeEeFeGeHeIeJeKeLeMeNeOePeQeReSeTeUeVeWeXeYeZe0e1e2e3e4e5e6e7e8e9e.e+fafbfcfdfefffgfhfifjfkflfmfnfofpfqfrfsftfufvfwfxfyfzfAfBfCfDfEfFfGfHfIfJfKfLfMfNfOfPfQfRfSfTfUfVfWfXfYfZf0f1f2f3f4f5f6f7f8f9f.f+gagbgcgdgegfggghgigjgkglgmgngogpgqgrgsgtgugvgwgxgygzgAgBgCgDgEgFgGgHgIgJgKgLgMgNgOgPgQgRgSgTgUgVgWgXgYgZg0g1g2g3g4g5g6g7g8g9g.g+hahbhchdhehfhghhhihjhkhlhmhnhohphqhrhshthuhvhwhxhyhzhAhBhChDhEhFhGhHhIhJhKhLhMhNhOhPhQhRhShThUhVhWhXhYhZh0h1h2h3h4h5h6h7h8h9h.h+",
"aaabacadaeafagahaiajakalamanaoapaqarasatauavawaxayazaAaBaCaDaEaFaGaHaIaJaKaLaMaNaOaPaQaRaSaTaUaVaWaXaYaZa0a1a2a3a4a5a6a7a8a9a.a+babbbcbdbebfbgbhbibjbkblbmbnbobpbqbrbsbtbubvbwbxbybzbAbBbCbDbEbFbGbHbIbJbKbLbMbNbObPbQbRbSbTbUbVbWbXbYbZb0b1b2b3b4b5b6b7b8b9b.b+cacbcccdcecfcgchcicjckclcmcncocpcqcrcsctcucvcwcxcyczcAcBcCcDcEcFcGcHcIcJcKcLcMcNcOcPcQcRcScTcUcVcWcXcYcZc0c1c2c3c4c5c6c7c8c9c.c+dadbdcdddedfdgdhdidjdkdldmdndodpdqdrdsdtdudvdwdxdydzdAdBdCdDdEdFdGdHdIdJdKdLdMdNdOdPdQdRdSdTdUdVdWdXdYdZd0d1d2d3d4d5d6d7d8d9d.d+eaebecedeeefegeheiejekelemeneoepeqereseteuevewexeyezeAeBeCeDeEeFeGeHeIeJeKeLeMeNeOePeQeReSeTeUeVeWeXeYeZe0e1e2e3e4e5e6e7e8e9e.e+fafbfcfdfefffgfhfifjfkflfmfnfofpfqfrfsftfufvfwfxfyfzfAfBfCfDfEfFfGfHfIfJfKfLfMfNfOfPfQfRfSfTfUfVfWfXfYfZf0f1f2f3f4f5f6f7f8f9f.f+gagbgcgdgegfggghgigjgkglgmgngogpgqgrgsgtgugvgwgxgygzgAgBgCgDgEgFgGgHgIgJgKgLgMgNgOgPgQgRgSgTgUgVgWgXgYgZg0g1g2g3g4g5g6g7g8g9g.g+hahbhchdhehfhghhhihjhkhlhmhnhohphqhrhshthuhvhwhxhyhzhAhBhChDhEhFhGhHhIhJhKhLhMhNhOhPhQhRhShThUhVhWhXhYhZh0h1h2h3h4h5h6h7h8h9h.h+",
"aaabacadaeafagahaiajakalamanaoapaqarasatauavawaxayazaAaBaCaDaEaFaGaHaIaJaKaLaMaNaOaPaQaRaSaTaUaVaWaXaYaZa0a1a2a3a4a5a6a7a8a9a.a+babbbcbdbebfbgbhbibjbkblbmbnbobpbqbrbsbtbubvbwbxbybzbAbBbCbDbEbFbGbHbIbJbKbLbMbNbObPbQbRbSbTbUbVbWbXbYbZb0b1b2b3b4b5b6b7b8b9b.b+cacbcccdcecfcgchcicjckclcmcncocpcqcrcsctcucvcwcxcyczcAcBcCcDcEcFcGcHcIcJcKcLcMcNcOcPcQcRcScTcUcVcWcXcYcZc0c1c2c3c4c5c6c7c8c9c.c+dadbdcdddedfdgdhdidjdkdldmdndodpdqdrdsdtdudvdwdxdydzdAdBdCdDdEdFdGdHdIdJdKdLdMdNdOdPdQdRdSdTdUdVdWdXdYdZd0d1d2d3d4d5d6d7d8d9d.d+eaebecedeeefegeheiejekelemeneoepeqereseteuevewexeyezeAeBeCeDeEeFeGeHeIeJeKeLeMeNeOePeQeReSeTeUeVeWeXeYeZe0e1e2e3e4e5e6e7e8e9e.e+fafbfcfdfefffgfhfifjfkflfmfnfofpfqfrfsftfufvfwfxfyfzfAfBfCfDfEfFfGfHfIfJfKfLfMfNfOfPfQfRfSfTfUfVfWfXfYfZf0f1f2f3f4f5f6f7f8f9f.f+gagbgcgdgegfggghgigjgkglgmgngogpgqgrgsgtgugvgwgxgygzgAgBgCgDgEgFgGgHgIgJgKgLgMgNgOgPgQgRgSgTgUgVgWgXgYgZg0g1g2g3g4g5g6g7g8g9g.g+hahbhchdhehfhghhhihjhkhlhmhnhohphqhrhshthuhvhwhxhyhzhAhBhChDhEhFhGhHhIhJhKhLhMhNhOhPhQhRhShThUhVhWhXhYhZh0h1h2h3h4h5h6h7h8h9h.h+",
"aaabacadaeafagahaiajakalamanaoapaqarasatauavawaxayazaAaBaCaDaEaFaGaHaIaJaKaLaMaNaOaPaQaRaSaTaUaVaWaXaYaZa0a1a2a3a4a5a6a7a8a9a.a+babbbcbdbebfbgbhbibjbkblbmbnbobpbqbrbsbtbubvbwbxbybzbAbBbCbDbEbFbGbHbIbJbKbLbMbNbObPbQbRbSbTbUbVbWbXbYbZb0b1b2b3b4b5b6b7b8b9b.b+cacbcccdcecfcgchcicjckclcmcncocpcqcrcsctcucvcwcxcyczcAcBcCcDcEcFcGcHcIcJcKcLcMcNcOcPcQcRcScTcUcVcWcXcYcZc0c1c2c3c4c5c6c7c8c9c.c+dadbdcdddedfdgdhdidjdkdldmdndodpdqdrdsdtdudvdwdxdydzdAdBdCdDdEdFdGdHdIdJdKdLdMdNdOdPdQdRdSdTdUdVdWdXdYdZd0d1d2d3d4d5d6d7d8d9d.d+eaebecedeeefegeheiejekelemeneoepeqereseteuevewexeyezeAeBeCeDeEeFeGeHeIeJeKeLeMeNeOePeQeReSeTeUeVeWeXeYeZe0e1e2e3e4e5e6e7e8e9e.e+fafbfcfdfefffgfhfifjfkflfmfnfofpfqfrfsftfufvfwfxfyfzfAfBfCfDfEfFfGfHfIfJfKfLfMfNfOfPfQfRfSfTfUfVfWfXfYfZf0f1f2f3f4f5f6f7f8f9f.f+gagbgcgdgegfggghgigjgkglgmgngogpgqgrgsgtgugvgwgxgygzgAgBgCgDgEgFgGgHgIgJgKgLgMgNgOgPgQgRgSgTgUgVgWgXgYgZg0g1g2g3g4g5g6g7g8g9g.g+hahbhchdhehfhghhhihjhkhlhmhnhohphqhrhshthuhvhwhxhyhzhAhBhChDhEhFhGhHhIhJhKhLhMhNhOhPhQhRhShThUhVhWhXhYhZh0h1h2h3h4h5h6h7h8h9h.h+",
"aaabacadaeafagahaiajakalamanaoapaqarasatauavawaxayazaAaBaCaDaEaFaGaHaIaJaKaLaMaNaOaPaQaRaSaTaUaVaWaXaYaZa0a1a2a3a4a5a6a7a8a9a.a+babbbcbdbebfbgbhbibjbkblbmbnbobpbqbrbsbtbubvbwbxbybzbAbBbCbDbEbFbGbHbIbJbKbLbMbNbObPbQbRbSbTbUbVbWbXbYbZb0b1b2b3b4b5b6b7b8b9b.b+cacbcccdcecfcgchcicjckclcmcncocpcqcrcsctcucvcwcxcyczcAcBcCcDcEcFcGcHcIcJcKcLcMcNcOcPcQcRcScTcUcVcWcXcYcZc0c1c2c3c4c5c6c7c8c9c.c+dadbdcdddedfdgdhdidjdkdldmdndodpdqdrdsdtdudvdwdxdydzdAdBdCdDdEdFdGdHdIdJdKdLdMdNdOdPdQdRdSdTdUdVdWdXdYdZd0d1d2d3d4d5d6d7d8d9d.d+eaebecedeeefegeheiejekelemeneoepeqereseteuevewexeyezeAeBeCeDeEeFeGeHeIeJeKeLeMeNeOePeQeReSeTeUeVeWeXeYeZe0e1e2e3e4e5e6e7e8e9e.e+fafbfcfdfefffgfhfifjfkflfmfnfofpfqfrfsftfufvfwfxfyfzfAfBfCfDfEfFfGfHfIfJfKfLfMfNfOfPfQfRfSfTfUfVfWfXfYfZf0f1f2f3f4f5f6f7f8f9f.f+gagbgcgdgegfggghgigjgkglgmgngogpgqgrgsgtgugvgwgxgygzgAgBgCgDgEgFgGgHgIgJgKgLgMgNgOgPgQgRgSgTgUgVgWgXgYgZg0g1g2g3g4g5g6g7g8g9g.g+hahbhchdhehfhghhhihjhkhlhmhnhohphqhrhshthuhvhwhxhyhzhAhBhChDhEhFhGhHhIhJhKhLhMhNhOhPhQhRhShThUhVhWhXhYhZh0h1h2h3h4h5h6h7h8h9h.h+",
"aaabacadaeafagahaiajakalamanaoapaqarasatauavawaxayazaAaBaCaDaEaFaGaHaIaJaKaLaMaNaOaPaQaRaSaTaUaVaWaXaYaZa0a1a2a3a4a5a6a7a8a9a.a+babbbcbdbebfbgbhbibjbkblbmbnbobpbqbrbsbtbubvbwbxbybzbAbBbCbDbEbFbGbHbIbJbKbLbMbNbObPbQbRbSbTbUbVbWbXbYbZb0b1b2b3b4b5b6b7b8b9b.b+cacbcccdcecfcgchcicjckclcmcncocpcqcrcsctcucvcwcxcyczcAcBcCcDcEcFcGcHcIcJcKcLcMcNcOcPcQcRcScTcUcVcWcXcYcZc0c1c2c3c4c5c6c7c8c9c.c+dadbdcdddedfdgdhdidjdkdldmdndodpdqdrdsdtdudvdwdxdydzdAdBdCdDdEdFdGdHdIdJdKdLdMdNdOdPdQdRdSdTdUdVdWdXdYdZd0d1d2d3d4d5d6d7d8d9d.d+eaebecedeeefegeheiejekelemeneoepeqereseteuevewexeyezeAeBeCeDeEeFeGeHeIeJeKeLeMeNeOePeQeReSeTeUeVeWeXeYeZe0e1e2e3e4e5e6e7e8e9e.e+fafbfcfdfefffgfhfifjfkflfmfnfofpfqfrfsftfufvfwfxfyfzfAfBfCfDfEfFfGfHfIfJfKfLfMfNfOfPfQfRfSfTfUfVfWfXfYfZf0f1f2f3f4f5f6f7f8f9f.f+gagbgcgdgegfggghgigjgkglgmgngogpgqgrgsgtgugvgwgxgygzgAgBgCgDgEgFgGgHgIgJgKgLgMgNgOgPgQgRgSgTgUgVgWgXgYgZg0g1g2g3g4g5g6g7g8g9g.g+hahbhchdhehfhghhhihjhkhlhmhnhohphqhrhshthuhvhwhxhyhzhAhBhChDhEhFhGhHhIhJhKhLhMhNhOhPhQhRhShThUhVhWhXhYhZh0h1h2h3h4h5h6h7h8h9h.h+",
"aaabacadaeafagahaiajakalamanaoapaqarasatauavawaxayazaAaBaCaDaEaFaGaHaIaJaKaLaMaNaOaPaQaRaSaTaUaVaWaXaYaZa0a1a2a3a4a5a6a7a8a9a.a+babbbcbdbebfbgbhbibjbkblbmbnbobpbqbrbsbtbubvbwbxbybzbAbBbCbDbEbFbGbHbIbJbKbLbMbNbObPbQbRbSbTbUbVbWbXbYbZb0b1b2b3b4b5b6b7b8b9b.b+cacbcccdcecfcgchcicjckclcmcncocpcqcrcsctcucvcwcxcyczcAcBcCcDcEcFcGcHcIcJcKcLcMcNcOcPcQcRcScTcUcVcWcXcYcZc0c1c2c3c4c5c6c7c8c9c.c+dadbdcdddedfdgdhdidjdkdldmdndodpdqdrdsdtdudvdwdxdydzdAdBdCdDdEdFdGdHdIdJdKdLdMdNdOdPdQdRdSdTdUdVdWdXdYdZd0d1d2d3d4d5d6d7d8d9d.d+eaebecedeeefegeheiejekelemeneoepeqereseteuevewexeyezeAeBeCeDeEeFeGeHeIeJeKeLeMeNeOePeQeReSeTeUeVeWeXeYeZe0e1e2e3e4e5e6e7e8e9e.e+fafbfcfdfefffgfhfifjfkflfmfnfofpfqfrfsftfufvfwfxfyfzfAfBfCfDfEfFfGfHfIfJfKfLfMfNfOfPfQfRfSfTfUfVfWfXfYfZf0f1f2f3f4f5f6f7f8f9f.f+gagbgcgdgegfggghgigjgkglgmgngogpgqgrgsgtgugvgwgxgygzgAgBgCgDgEgFgGgHgIgJgKgLgMgNgOgPgQgRgSgTgUgVgWgXgYgZg0g1g2g3g4g5g6g7g8g9g.g+hahbhchdhehfhghhhihjhkhlhmhnhohphqhrhshthuhvhwhxhyhzhAhBhChDhEhFhGhHhIhJhKhLhMhNhOhPhQhRhShThUhVhWhXhYhZh0h1h2h3h4h5h6h7h8h9h.h+",
"aaabacadaeafagahaiajakalamanaoapaqarasatauavawaxayazaAaBaCaDaEaFaGaHaIaJaKaLaMaNaOaPaQaRaSaTaUaVaWaXaYaZa0a1a2a3a4a5a6a7a8a9a.a+babbbcbdbebfbgbhbibjbkblbmbnbobpbqbrbsbtbubvbwbxbybzbAbBbCbDbEbFbGbHbIbJbKbLbMbNbObPbQbRbSbTbUbVbWbXbYbZb0b1b2b3b4b5b6b7b8b9b.b+cacbcccdcecfcgchcicjckclcmcncocpcqcrcsctcucvcwcxcyczcAcBcCcDcEcFcGcHcIcJcKcLcMcNcOcPcQcRcScTcUcVcWcXcYcZc0c1c2c3c4c5c6c7c8c9c.c+dadbdcdddedfdgdhdidjdkdldmdndodpdqdrdsdtdudvdwdxdydzdAdBdCdDdEdFdGdHdIdJdKdLdMdNdOdPdQdRdSdTdUdVdWdXdYdZd0d1d2d3d4d5d6d7d8d9d.d+eaebecedeeefegeheiejekelemeneoepeqereseteuevewexeyezeAeBeCeDeEeFeGeHeIeJeKeLeMeNeOePeQeReSeTeUeVeWeXeYeZe0e1e2e3e4e5e6e7e8e9e.e+fafbfcfdfefffgfhfifjfkflfmfnfofpfqfrfsftfufvfwfxfyfzfAfBfCfDfEfFfGfHfIfJfKfLfMfNfOfPfQfRfSfTfUfVfWfXfYfZf0f1f2f3f4f5f6f7f8f9f.f+gagbgcgdgegfggghgigjgkglgmgngogpgqgrgsgtgugvgwgxgygzgAgBgCgDgEgFgGgHgIgJgKgLgMgNgOgPgQgRgSgTgUgVgWgXgYgZg0g1g2g3g4g5g6g7g8g9g.g+hahbhchdhehfhghhhihjhkhlhmhnhohphqhrhshthuhvhwhxhyhzhAhBhChDhEhFhGhHhIhJhKhLhMhNhOhPhQhRhShThUhVhWhXhYhZh0h1h2h3h4h5h6h7h8h9h.h+",
"aaabacadaeafagahaiajakalamanaoapaqarasatauavawaxayazaAaBaCaDaEaFaGaHaIaJaKaLaMaNaOaPaQaRaSaTaUaVaWaXaYaZa0a1a2a3a4a5a6a7a8a9a.a+babbbcbdbebfbgbhbibjbkblbmbnbobpbqbrbsbtbubvbwbxbybzbAbBbCbDbEbFbGbHbIbJbKbLbMbNbObPbQbRbSbTbUbVbWbXbYbZb0b1b2b3b4b5b6b7b8b9b.b+cacbcccdcecfcgchcicjckclcmcncocpcqcrcsctcucvcwcxcyczcAcBcCcDcEcFcGcHcIcJcKcLcMcNcOcPcQcRcScTcUcVcWcXcYcZc0c1c2c3c4c5c6c7c8c9c.c+dadbdcdddedfdgdhdidjdkdldmdndodpdqdrdsdtdudvdwdxdydzdAdBdCdDdEdFdGdHdIdJdKdLdMdNdOdPdQdRdSdTdUdVdWdXdYdZd0d1d2d3d4d5d6d7d8d9d.d+eaebecedeeefegeheiejekelemeneoepeqereseteuevewexeyezeAeBeCeDeEeFeGeHeIeJeKeLeMeNeOePeQeReSeTeUeVeWeXeYeZe0e1e2e3e4e5e6e7e8e9e.e+fafbfcfdfefffgfhfifjfkflfmfnfofpfqfrfsftfufvfwfxfyfzfAfBfCfDfEfFfGfHfIfJfKfLfMfNfOfPfQfRfSfTfUfVfWfXfYfZf0f1f2f3f4f5f6f7f8f9f.f+gagbgcgdgegfggghgigjgkglgmgngogpgqgrgsgtgugvgwgxgygzgAgBgCgDgEgFgGgHgIgJgKgLgMgNgOgPgQgRgSgTgUgVgWgXgYgZg0g1g2g3g4g5g6g7g8g9g.g+hahbhchdhehfhghhhihjhkhlhmhnhohphqhrhshthuhvhwhxhyhzhAhBhChDhEhFhGhHhIhJhKhLhMhNhOhPhQhRhShThUhVhWhXhYhZh0h1h2h3h4h5h6h7h8h9h.h+",
"aaabacadaeafagahaiajakalamanaoapaqarasatauavawaxayazaAaBaCaDaEaFaGaHaIaJaKaLaMaNaOaPaQaRaSaTaUaVaWaXaYaZa0a1a2a3a4a5a6a7a8a9a.a+babbbcbdbebfbgbhbibjbkblbmbnbobpbqbrbsbtbubvbwbxbybzbAbBbCbDbEbFbGbHbIbJbKbLbMbNbObPbQbRbSbTbUbVbWbXbYbZb0b1b2b3b4b5b6b7b8b9b.b+cacbcccdcecfcgchcicjckclcmcncocpcqcrcsctcucvcwcxcyczcAcBcCcDcEcFcGcHcIcJcKcLcMcNcOcPcQcRcScTcUcVcWcXcYcZc0c1c2c3c4c5c6c7c8c9c.c+dadbdcdddedfdgdhdidjdkdldmdndodpdqdrdsdtdudvdwdxdydzdAdBdCdDdEdFdGdHdIdJdKdLdMdNdOdPdQdRdSdTdUdVdWdXdYdZd0d1d2d3d4d5d6d7d8d9d.d+eaebecedeeefegeheiejekelemeneoepeqereseteuevewexeyezeAeBeCeDeEeFeGeHeIeJeKeLeMeNeOePeQeReSeTeUeVeWeXeYeZe0e1e2e3e4e5e6e7e8e9e.e+fafbfcfdfefffgfhfifjfkflfmfnfofpfqfrfsftfufvfwfxfyfzfAfBfCfDfEfFfGfHfIfJfKfLfMfNfOfPfQfRfSfTfUfVfWfXfYfZf0f1f2f3f4f5f6f7f8f9f.f+gagbgcgdgegfggghgigjgkglgmgngogpgqgrgsgtgugvgwgxgygzgAgBgCgDgEgFgGgHgIgJgKgLgMgNgOgPgQgRgSgTgUgVgWgXgYgZg0g1g2g3g4g5g6g7g8g9g.g+hahbhchdhehfhghhhihjhkhlhmhnhohphqhrhshthuhvhwhxhyhzhAhBhChDhEhFhGhHhIhJhKhLhMhNhOhPhQhRhShThUhVhWhXhYhZh0h1h2h3h4h5h6h7h8h9h.h+",
"aaabacadaeafagahaiajakalamanaoapaqarasatauavawaxayazaAaBaCaDaEaFaGaHaIaJaKaLaMaNaOaPaQaRaSaTaUaVaWaXaYaZa0a1a2a3a4a5a6a7a8a9a.a+babbbcbdbebfbgbhbibjbkblbmbnbobpbqbrbsbtbubvbwbxbybzbAbBbCbDbEbFbGbHbIbJbKbLbMbNbObPbQbRbSbTbUbVbWbXbYbZb0b1b2b3b4b5b6b7b8b9b.b+cacbcccdcecfcgchcicjckclcmcncocpcqcrcsctcucvcwcxcyczcAcBcCcDcEcFcGcHcIcJcKcLcMcNcOcPcQcRcScTcUcVcWcXcYcZc0c1c2c3c4c5c6c7c8c9c.c+dadbdcdddedfdgdhdidjdkdldmdndodpdqdrdsdtdudvdwdxdydzdAdBdCdDdEdFdGdHdIdJdKdLdMdNdOdPdQdRdSdTdUdVdWdXdYdZd0d1d2d3d4d5d6d7d8d9d.d+eaebecedeeefegeheiejekelemeneoepeqereseteuevewexeyezeAeBeCeDeEeFeGeHeIeJeKeLeMeNeOePeQeReSeTeUeVeWeXeYeZe0e1e2e3e4e5e6e7e8e9e.e+fafbfcfdfefffgfhfifjfkflfmfnfofpfqfrfsftfufvfwfxfyfzfAfBfCfDfEfFfGfHfIfJfKfLfMfNfOfPfQfRfSfTfUfVfWfXfYfZf0f1f2f3f4f5f6f7f8f9f.f+gagbgcgdgegfggghgigjgkglgmgngogpgqgrgsgtgugvgwgxgygzgAgBgCgDgEgFgGgHgIgJgKgLgMgNgOgPgQgRgSgTgUgVgWgXgYgZg0g1g2g3g4g5g6g7g8g9g.g+hahbhchdhehfhghhhihjhkhlhmhnhohphqhrhshthuhvhwhxhyhzhAhBhChDhEhFhGhHhIhJhKhLhMhNhOhPhQhRhShThUhVhWhXhYhZh0h1h2h3h4h5h6h7h8h9h.h+",
"aaabacadaeafagahaiajakalamanaoapaqarasatauavawaxayazaAaBaCaDaEaFaGaHaIaJaKaLaMaNaOaPaQaRaSaTaUaVaWaXaYaZa0a1a2a3a4a5a6a7a8a9a.a+babbbcbdbebfbgbhbibjbkblbmbnbobpbqbrbsbtbubvbwbxbybzbAbBbCbDbEbFbGbHbIbJbKbLbMbNbObPbQbRbSbTbUbVbWbXbYbZb0b1b2b3b4b5b6b7b8b9b.b+cacbcccdcecfcgchcicjckclcmcncocpcqcrcsctcucvcwcxcyczcAcBcCcDcEcFcGcHcIcJcKcLcMcNcOcPcQcRcScTcUcVcWcXcYcZc0c1c2c3c4c5c6c7c8c9c.c+dadbdcdddedfdgdhdidjdkdldmdndodpdqdrdsdtdudvdwdxdydzdAdBdCdDdEdFdGdHdIdJdKdLdMdNdOdPdQdRdSdTdUdVdWdXdYdZd0d1d2d3d4d5d6d7d8d9d.d+eaebecedeeefegeheiejekelemeneoepeqereseteuevewexeyezeAeBeCeDeEeFeGeHeIeJeKeLeMeNeOePeQeReSeTeUeVeWeXeYeZe0e1e2e3e4e5e6e7e8e9e.e+fafbfcfdfefffgfhfifjfkflfmfnfofpfqfrfsftfufvfwfxfyfzfAfBfCfDfEfFfGfHfIfJfKfLfMfNfOfPfQfRfSfTfUfVfWfXfYfZf0f1f2f3f4f5f6f7f8f9f.f+gagbgcgdgegfggghgigjgkglgmgngogpgqgrgsgtgugvgwgxgygzgAgBgCgDgEgFgGgHgIgJgKgLgMgNgOgPgQgRgSgTgUgVgWgXgYgZg0g1g2g3g4g5g6g7g8g9g.g+hahbhchdhehfhghhhihjhkhlhmhnhohphqhrhshthuhvhwhxhyhzhAhBhChDhEhFhGhHhIhJhKhLhMhNhOhPhQhRhShThUhVhWhXhYhZh0h1h2h3h4h5h6h7h8h9h.h+",
"aaabacadaeafagahaiajakalamanaoapaqarasatauavawaxayazaAaBaCaDaEaFaGaHaIaJaKaLaMaNaOaPaQaRaSaTaUaVaWaXaYaZa0a1a2a3a4a5a6a7a8a9a.a+babbbcbdbebfbgbhbibjbkblbmbnbobpbqbrbsbtbubvbwbxbybzbAbBbCbDbEbFbGbHbIbJbKbLbMbNbObPbQbRbSbTbUbVbWbXbYbZb0b1b2b3b4b5b6b7b8b9b.b+cacbcccdcecfcgchcicjckclcmcncocpcqcrcsctcucvcwcxcyczcAcBcCcDcEcFcGcHcIcJcKcLcMcNcOcPcQcRcScTcUcVcWcXcYcZc0c1c2c3c4c5c6c7c8c9c.c+dadbdcdddedfdgdhdidjdkdldmdndodpdqdrdsdtdudvdwdxdydzdAdBdCdDdEdFdGdHdIdJdKdLdMdNdOdPdQdRdSdTdUdVdWdXdYdZd0d1d2d3d4d5d6d7d8d9d.d+eaebecedeeefegeheiejekelemeneoepeqereseteuevewexeyezeAeBeCeDeEeFeGeHeIeJeKeLeMeNeOePeQeReSeTeUeVeWeXeYeZe0e1e2e3e4e5e6e7e8e9e.e+fafbfcfdfefffgfhfifjfkflfmfnfofpfqfrfsftfufvfwfxfyfzfAfBfCfDfEfFfGfHfIfJfKfLfMfNfOfPfQfRfSfTfUfVfWfXfYfZf0f1f2f3f4f5f6f7f8f9f.f+gagbgcgdgegfggghgigjgkglgmgngogpgqgrgsgtgugvgwgxgygzgAgBgCgDgEgFgGgHgIgJgKgLgMgNgOgPgQgRgSgTgUgVgWgXgYgZg0g1g2g3g4g5g6g7g8g9g.g+hahbhchdhehfhghhhihjhkhlhmhnhohphqhrhshthuhvhwhxhyhzhAhBhChDhEhFhGhHhIhJhKhLhMhNhOhPhQhRhShThUhVhWhXhYhZh0h1h2h3h4h5h6h7h8h9h.h+",
"aaabacadaeafagahaiajakalamanaoapaqarasatauavawaxayazaAaBaCaDaEaFaGaHaIaJaKaLaMaNaOaPaQaRaSaTaUaVaWaXaYaZa0a1a2a3a4a5a6a7a8a9a.a+babbbcbdbebfbgbhbibjbkblbmbnbobpbqbrbsbtbubvbwbxbybzbAbBbCbDbEbFbGbHbIbJbKbLbMbNbObPbQbRbSbTbUbVbWbXbYbZb0b1b2b3b4b5b6b7b8b9b.b+cacbcccdcecfcgchcicjckclcmcncocpcqcrcsctcucvcwcxcyczcAcBcCcDcEcFcGcHcIcJcKcLcMcNcOcPcQcRcScTcUcVcWcXcYcZc0c1c2c3c4c5c6c7c8c9c.c+dadbdcdddedfdgdhdidjdkdldmdndodpdqdrdsdtdudvdwdxdydzdAdBdCdDdEdFdGdHdIdJdKdLdMdNdOdPdQdRdSdTdUdVdWdXdYdZd0d1d2d3d4d5d6d7d8d9d.d+eaebecedeeefegeheiejekelemeneoepeqereseteuevewexeyezeAeBeCeDeEeFeGeHeIeJeKeLeMeNeOePeQeReSeTeUeVeWeXeYeZe0e1e2e3e4e5e6e7e8e9e.e+fafbfcfdfefffgfhfifjfkflfmfnfofpfqfrfsftfufvfwfxfyfzfAfBfCfDfEfFfGfHfIfJfKfLfMfNfOfPfQfRfSfTfUfVfWfXfYfZf0f1f2f3f4f5f6f7f8f9f.f+gagbgcgdgegfggghgigjgkglgmgngogpgqgrgsgtgugvgwgxgygzgAgBgCgDgEgFgGgHgIgJgKgLgMgNgOgPgQgRgSgTgUgVgWgXgYgZg0g1g2g3g4g5g6g7g8g9g.g+hahbhchdhehfhghhhihjhkhlhmhnhohphqhrhshthuhvhwhxhyhzhAhBhChDhEhFhGhHhIhJhKhLhMhNhOhPhQhRhShThUhVhWhXhYhZh0h1h2h3h4h5h6h7h8h9h.h+",
"aaabacadaeafagahaiajakalamanaoapaqarasatauavawaxayazaAaBaCaDaEaFaGaHaIaJaKaLaMaNaOaPaQaRaSaTaUaVaWaXaYaZa0a1a2a3a4a5a6a7a8a9a.a+babbbcbdbebfbgbhbibjbkblbmbnbobpbqbrbsbtbubvbwbxbybzbAbBbCbDbEbFbGbHbIbJbKbLbMbNbObPbQbRbSbTbUbVbWbXbYbZb0b1b2b3b4b5b6b7b8b9b.b+cacbcccdcecfcgchcicjckclcmcncocpcqcrcsctcucvcwcxcyczcAcBcCcDcEcFcGcHcIcJcKcLcMcNcOcPcQcRcScTcUcVcWcXcYcZc0c1c2c3c4c5c6c7c8c9c.c+dadbdcdddedfdgdhdidjdkdldmdndodpdqdrdsdtdudvdwdxdydzdAdBdCdDdEdFdGdHdIdJdKdLdMdNdOdPdQdRdSdTdUdVdWdXdYdZd0d1d2d3d4d5d6d7d8d9d.d+eaebecedeeefegeheiejekelemeneoepeqereseteuevewexeyezeAeBeCeDeEeFeGeHeIeJeKeLeMeNeOePeQeReSeTeUeVeWeXeYeZe0e1e2e3e4e5e6e7e8e9e.e+fafbfcfdfefffgfhfifjfkflfmfnfofpfqfrfsftfufvfwfxfyfzfAfBfCfDfEfFfGfHfIfJfKfLfMfNfOfPfQfRfSfTfUfVfWfXfYfZf0f1f2f3f4f5f6f7f8f9f.f+gagbgcgdgegfggghgigjgkglgmgngogpgqgrgsgtgugvgwgxgygzgAgBgCgDgEgFgGgHgIgJgKgLgMgNgOgPgQgRgSgTgUgVgWgXgYgZg0g1g2g3g4g5g6g7g8g9g.g+hahbhchdhehfhghhhihjhkhlhmhnhohphqhrhshthuhvhwhxhyhzhAhBhChDhEhFhGhHhIhJhKhLhMhNhOhPhQhRhShThUhVhWhXhYhZh0h1h2h3h4h5h6h7h8h9h.h+",
"aaabacadaeafagahaiajakalamanaoapaqarasatauavawaxayazaAaBaCaDaEaFaGaHaIaJaKaLaMaNaOaPaQaRaSaTaUaVaWaXaYaZa0a1a2a3a4a5a6a7a8a9a.a+babbbcbdbebfbgbhbibjbkblbmbnbobpbqbrbsbtbubvbwbxbybzbAbBbCbDbEbFbGbHbIbJbKbLbMbNbObPbQbRbSbTbUbVbWbXbYbZb0b1b2b3b4b5b6b7b8b9b.b+cacbcccdcecfcgchcicjckclcmcncocpcqcrcsctcucvcwcxcyczcAcBcCcDcEcFcGcHcIcJcKcLcMcNcOcPcQcRcScTcUcVcWcXcYcZc0c1c2c3c4c5c6c7c8c9c.c+dadbdcdddedfdgdhdidjdkdldmdndodpdqdrdsdtdudvdwdxdydzdAdBdCdDdEdFdGdHdIdJdKdLdMdNdOdPdQdRdSdTdUdVdWdXdYdZd0d1d2d3d4d5d6d7d8d9d.d+eaebecedeeefegeheiejekelemeneoepeqereseteuevewexeyezeAeBeCeDeEeFeGeHeIeJeKeLeMeNeOePeQeReSeTeUeVeWeXeYeZe0e1e2e3e4e5e6e7e8e9e.e+fafbfcfdfefffgfhfifjfkflfmfnfofpfqfrfsftfufvfwfxfyfzfAfBfCfDfEfFfGfHfIfJfKfLfMfNfOfPfQfRfSfTfUfVfWfXfYfZf0f1f2f3f4f5f6f7f8f9f.f+gagbgcgdgegfggghgigjgkglgmgngogpgqgrgsgtgugvgwgxgygzgAgBgCgDgEgFgGgHgIgJgKgLgMgNgOgPgQgRgSgTgUgVgWgXgYgZg0g1g2g3g4g5g6g7g8g9g.g+hahbhchdhehfhghhhihjhkhlhmhnhohphqhrhshthuhvhwhxhyhzhAhBhChDhEhFhGhHhIhJhKhLhMhNhOhPhQhRhShThUhVhWhXhYhZh0h1h2h3h4h5h6h7h8h9h.h+",
"aaabacadaeafagahaiajakalamanaoapaqarasatauavawaxayazaAaBaCaDaEaFaGaHaIaJaKaLaMaNaOaPaQaRaSaTaUaVaWaXaYaZa0a1a2a3a4a5a6a7a8a9a.a+babbbcbdbebfbgbhbibjbkblbmbnbobpbqbrbsbtbubvbwbxbybzbAbBbCbDbEbFbGbHbIbJbKbLbMbNbObPbQbRbSbTbUbVbWbXbYbZb0b1b2b3b4b5b6b7b8b9b.b+cacbcccdcecfcgchcicjckclcmcncocpcqcrcsctcucvcwcxcyczcAcBcCcDcEcFcGcHcIcJcKcLcMcNcOcPcQcRcScTcUcVcWcXcYcZc0c1c2c3c4c5c6c7c8c9c.c+dadbdcdddedfdgdhdidjdkdldmdndodpdqdrdsdtdudvdwdxdydzdAdBdCdDdEdFdGdHdIdJdKdLdMdNdOdPdQdRdSdTdUdVdWdXdYdZd0d1d2d3d4d5d6d7d8d9d.d+eaebecedeeefegeheiejekelemeneoepeqereseteuevewexeyezeAeBeCeDeEeFeGeHeIeJeKeLeMeNeOePeQeReSeTeUeVeWeXeYeZe0e1e2e3e4e5e6e7e8e9e.e+fafbfcfdfefffgfhfifjfkflfmfnfofpfqfrfsftfufvfwfxfyfzfAfBfCfDfEfFfGfHfIfJfKfLfMfNfOfPfQfRfSfTfUfVfWfXfYfZf0f1f2f3f4f5f6f7f8f9f.f+gagbgcgdgegfggghgigjgkglgmgngogpgqgrgsgtgugvgwgxgygzgAgBgCgDgEgFgGgHgIgJgKgLgMgNgOgPgQgRgSgTgUgVgWgXgYgZg0g1g2g3g4g5g6g7g8g9g.g+hahbhchdhehfhghhhihjhkhlhmhnhohphqhrhshthuhvhwhxhyhzhAhBhChDhEhFhGhHhIhJhKhLhMhNhOhPhQhRhShThUhVhWhXhYhZh0h1h2h3h4h5h6h7h8h9h.h+",
"aaabacadaeafagahaiajakalamanaoapaqarasatauavawaxayazaAaBaCaDaEaFaGaHaIaJaKaLaMaNaOaPaQaRaSaTaUaVaWaXaYaZa0a1a2a3a4a5a6a7a8a9a.a+babbbcbdbebfbgbhbibjbkblbmbnbobpbqbrbsbtbubvbwbxbybzbAbBbCbDbEbFbGbHbIbJbKbLbMbNbObPbQbRbSbTbUbVbWbXbYbZb0b1b2b3b4b5b6b7b8b9b.b+cacbcccdcecfcgchcicjckclcmcncocpcqcrcsctcucvcwcxcyczcAcBcCcDcEcFcGcHcIcJcKcLcMcNcOcPcQcRcScTcUcVcWcXcYcZc0c1c2c3c4c5c6c7c8c9c.c+dadbdcdddedfdgdhdidjdkdldmdndodpdqdrdsdtdudvdwdxdydzdAdBdCdDdEdFdGdHdIdJdKdLdMdNdOdPdQdRdSdTdUdVdWdXdYdZd0d1d2d3d4d5d6d7d8d9d.d+eaebecedeeefegeheiejekelemeneoepeqereseteuevewexeyezeAeBeCeDeEeFeGeHeIeJeKeLeMeNeOePeQeReSeTeUeVeWeXeYeZe0e1e2e3e4e5e6e7e8e9e.e+fafbfcfdfefffgfhfifjfkflfmfnfofpfqfrfsftfufvfwfxfyfzfAfBfCfDfEfFfGfHfIfJfKfLfMfNfOfPfQfRfSfTfUfVfWfXfYfZf0f1f2f3f4f5f6f7f8f9f.f+gagbgcgdgegfggghgigjgkglgmgngogpgqgrgsgtgugvgwgxgygzgAgBgCgDgEgFgGgHgIgJgKgLgMgNgOgPgQgRgSgTgUgVgWgXgYgZg0g1g2g3g4g5g6g7g8g9g.g+hahbhchdhehfhghhhihjhkhlhmhnhohphqhrhshthuhvhwhxhyhzhAhBhChDhEhFhGhHhIhJhKhLhMhNhOhPhQhRhShThUhVhWhXhYhZh0h1h2h3h4h5h6h7h8h9h.h+",
"aaabacadaeafagahaiajakalamanaoapaqarasatauavawaxayazaAaBaCaDaEaFaGaHaIaJaKaLaMaNaOaPaQaRaSaTaUaVaWaXaYaZa0a1a2a3a4a5a6a7a8a9a.a+babbbcbdbebfbgbhbibjbkblbmbnbobpbqbrbsbtbubvbwbxbybzbAbBbCbDbEbFbGbHbIbJbKbLbMbNbObPbQbRbSbTbUbVbWbXbYbZb0b1b2b3b4b5b6b7b8b9b.b+cacbcccdcecfcgchcicjckclcmcncocpcqcrcsctcucvcwcxcyczcAcBcCcDcEcFcGcHcIcJcKcLcMcNcOcPcQcRcScTcUcVcWcXcYcZc0c1c2c3c4c5c6c7c8c9c.c+dadbdcdddedfdgdhdidjdkdldmdndodpdqdrdsdtdudvdwdxdydzdAdBdCdDdEdFdGdHdIdJdKdLdMdNdOdPdQdRdSdTdUdVdWdXdYdZd0d1d2d3d4d5d6d7d8d9d.d+eaebecedeeefegeheiejekelemeneoepeqereseteuevewexeyezeAeBeCeDeEeFeGeHeIeJeKeLeMeNeOePeQeReSeTeUeVeWeXeYeZe0e1e2e3e4e5e6e7e8e9e.e+fafbfcfdfefffgfhfifjfkflfmfnfofpfqfrfsftfufvfwfxfyfzfAfBfCfDfEfFfGfHfIfJfKfLfMfNfOfPfQfRfSfTfUfVfWfXfYfZf0f1f2f3f4f5f6f7f8f9f.f+gagbgcgdgegfggghgigjgkglgmgngogpgqgrgsgtgugvgwgxgygzgAgBgCgDgEgFgGgHgIgJgKgLgMgNgOgPgQgRgSgTgUgVgWgXgYgZg0g1g2g3g4g5g6g7g8g9g.g+hahbhchdhehfhghhhihjhkhlhmhnhohphqhrhshthuhvhwhxhyhzhAhBhChDhEhFhGhHhIhJhKhLhMhNhOhPhQhRhShThUhVhWhXhYhZh0h1h2h3h4h5h6h7h8h9h.h+",
"aaabacadaeafagahaiajakalamanaoapaqarasatauavawaxayazaAaBaCaDaEaFaGaHaIaJaKaLaMaNaOaPaQaRaSaTaUaVaWaXaYaZa0a1a2a3a4a5a6a7a8a9a.a+babbbcbdbebfbgbhbibjbkblbmbnbobpbqbrbsbtbubvbwbxbybzbAbBbCbDbEbFbGbHbIbJbKbLbMbNbObPbQbRbSbTbUbVbWbXbYbZb0b1b2b3b4b5b6b7b8b9b.b+cacbcccdcecfcgchcicjckclcmcncocpcqcrcsctcucvcwcxcyczcAcBcCcDcEcFcGcHcIcJcKcLcMcNcOcPcQcRcScTcUcVcWcXcYcZc0c1c2c3c4c5c6c7c8c9c.c+dadbdcdddedfdgdhdidjdkdldmdndodpdqdrdsdtdudvdwdxdydzdAdBdCdDdEdFdGdHdIdJdKdLdMdNdOdPdQdRdSdTdUdVdWdXdYdZd0d1d2d3d4d5d6d7d8d9d.d+eaebecedeeefegeheiejekelemeneoepeqereseteuevewexeyezeAeBeCeDeEeFeGeHeIeJeKeLeMeNeOePeQeReSeTeUeVeWeXeYeZe0e1e2e3e4e5e6e7e8e9e.e+fafbfcfdfefffgfhfifjfkflfmfnfofpfqfrfsftfufvfwfxfyfzfAfBfCfDfEfFfGfHfIfJfKfLfMfNfOfPfQfRfSfTfUfVfWfXfYfZf0f1f2f3f4f5f6f7f8f9f.f+gagbgcgdgegfggghgigjgkglgmgngogpgqgrgsgtgugvgwgxgygzgAgBgCgDgEgFgGgHgIgJgKgLgMgNgOgPgQgRgSgTgUgVgWgXgYgZg0g1g2g3g4g5g6g7g8g9g.g+hahbhchdhehfhghhhihjhkhlhmhnhohphqhrhshthuhvhwhxhyhzhAhBhChDhEhFhGhHhIhJhKhLhMhNhOhPhQhRhShThUhVhWhXhYhZh0h1h2h3h4h5h6h7h8h9h.h+",
"aaabacadaeafagahaiajakalamanaoapaqarasatauavawaxayazaAaBaCaDaEaFaGaHaIaJaKaLaMaNaOaPaQaRaSaTaUaVaWaXaYaZa0a1a2a3a4a5a6a7a8a9a.a+babbbcbdbebfbgbhbibjbkblbmbnbobpbqbrbsbtbubvbwbxbybzbAbBbCbDbEbFbGbHbIbJbKbLbMbNbObPbQbRbSbTbUbVbWbXbYbZb0b1b2b3b4b5b6b7b8b9b.b+cacbcccdcecfcgchcicjckclcmcncocpcqcrcsctcucvcwcxcyczcAcBcCcDcEcFcGcHcIcJcKcLcMcNcOcPcQcRcScTcUcVcWcXcYcZc0c1c2c3c4c5c6c7c8c9c.c+dadbdcdddedfdgdhdidjdkdldmdndodpdqdrdsdtdudvdwdxdydzdAdBdCdDdEdFdGdHdIdJdKdLdMdNdOdPdQdRdSdTdUdVdWdXdYdZd0d1d2d3d4d5d6d7d8d9d.d+eaebecedeeefegeheiejekelemeneoepeqereseteuevewexeyezeAeBeCeDeEeFeGeHeIeJeKeLeMeNeOePeQeReSeTeUeVeWeXeYeZe0e1e2e3e4e5e6e7e8e9e.e+fafbfcfdfefffgfhfifjfkflfmfnfofpfqfrfsftfufvfwfxfyfzfAfBfCfDfEfFfGfHfIfJfKfLfMfNfOfPfQfRfSfTfUfVfWfXfYfZf0f1f2f3f4f5f6f7f8f9f.f+gagbgcgdgegfggghgigjgkglgmgngogpgqgrgsgtgugvgwgxgygzgAgBgCgDgEgFgGgHgIgJgKgLgMgNgOgPgQgRgSgTgUgVgWgXgYgZg0g1g2g3g4g5g6g7g8g9g.g+hahbhchdhehfhghhhihjhkhlhmhnhohphqhrhshthuhvhwhxhyhzhAhBhChDhEhFhGhHhIhJhKhLhMhNhOhPhQhRhShThUhVhWhXhYhZh0h1h2h3h4h5h6h7h8h9h.h+",
"aaabacadaeafagahaiajakalamanaoapaqarasatauavawaxayazaAaBaCaDaEaFaGaHaIaJaKaLaMaNaOaPaQaRaSaTaUaVaWaXaYaZa0a1a2a3a4a5a6a7a8a9a.a+babbbcbdbebfbgbhbibjbkblbmbnbobpbqbrbsbtbubvbwbxbybzbAbBbCbDbEbFbGbHbIbJbKbLbMbNbObPbQbRbSbTbUbVbWbXbYbZb0b1b2b3b4b5b6b7b8b9b.b+cacbcccdcecfcgchcicjckclcmcncocpcqcrcsctcucvcwcxcyczcAcBcCcDcEcFcGcHcIcJcKcLcMcNcOcPcQcRcScTcUcVcWcXcYcZc0c1c2c3c4c5c6c7c8c9c.c+dadbdcdddedfdgdhdidjdkdldmdndodpdqdrdsdtdudvdwdxdydzdAdBdCdDdEdFdGdHdIdJdKdLdMdNdOdPdQdRdSdTdUdVdWdXdYdZd0d1d2d3d4d5d6d7d8d9d.d+eaebecedeeefegeheiejekelemeneoepeqereseteuevewexeyezeAeBeCeDeEeFeGeHeIeJeKeLeMeNeOePeQeReSeTeUeVeWeXeYeZe0e1e2e3e4e5e6e7e8e9e.e+fafbfcfdfefffgfhfifjfkflfmfnfofpfqfrfsftfufvfwfxfyfzfAfBfCfDfEfFfGfHfIfJfKfLfMfNfOfPfQfRfSfTfUfVfWfXfYfZf0f1f2f3f4f5f6f7f8f9f.f+gagbgcgdgegfggghgigjgkglgmgngogpgqgrgsgtgugvgwgxgygzgAgBgCgDgEgFgGgHgIgJgKgLgMgNgOgPgQgRgSgTgUgVgWgXgYgZg0g1g2g3g4g5g6g7g8g9g.g+hahbhchdhehfhghhhihjhkhlhmhnhohphqhrhshthuhvhwhxhyhzhAhBhChDhEhFhGhHhIhJhKhLhMhNhOhPhQhRhShThUhVhWhXhYhZh0h1h2h3h4h5h6h7h8h9h.h+",
"aaabacadaeafagahaiajakalamanaoapaqarasatauavawaxayazaAaBaCaDaEaFaGaHaIaJaKaLaMaNaOaPaQaRaSaTaUaVaWaXaYaZa0a1a2a3a4a5a6a7a8a9a.a+babbbcbdbebfbgbhbibjbkblbmbnbobpbqbrbsbtbubvbwbxbybzbAbBbCbDbEbFbGbHbIbJbKbLbMbNbObPbQbRbSbTbUbVbWbXbYbZb0b1b2b3b4b5b6b7b8b9b.b+cacbcccdcecfcgchcicjckclcmcncocpcqcrcsctcucvcwcxcyczcAcBcCcDcEcFcGcHcIcJcKcLcMcNcOcPcQcRcScTcUcVcWcXcYcZc0c1c2c3c4c5c6c7c8c9c.c+dadbdcdddedfdgdhdidjdkdldmdndodpdqdrdsdtdudvdwdxdydzdAdBdCdDdEdFdGdHdIdJdKdLdMdNdOdPdQdRdSdTdUdVdWdXdYdZd0d1d2d3d4d5d6d7d8d9d.d+eaebecedeeefegeheiejekelemeneoepeqereseteuevewexeyezeAeBeCeDeEeFeGeHeIeJeKeLeMeNeOePeQeReSeTeUeVeWeXeYeZe0e1e2e3e4e5e6e7e8e9e.e+fafbfcfdfefffgfhfifjfkflfmfnfofpfqfrfsftfufvfwfxfyfzfAfBfCfDfEfFfGfHfIfJfKfLfMfNfOfPfQfRfSfTfUfVfWfXfYfZf0f1f2f3f4f5f6f7f8f9f.f+gagbgcgdgegfggghgigjgkglgmgngogpgqgrgsgtgugvgwgxgygzgAgBgCgDgEgFgGgHgIgJgKgLgMgNgOgPgQgRgSgTgUgVgWgXgYgZg0g1g2g3g4g5g6g7g8g9g.g+hahbhchdhehfhghhhihjhkhlhmhnhohphqhrhshthuhvhwhxhyhzhAhBhChDhEhFhGhHhIhJhKhLhMhNhOhPhQhRhShThUhVhWhXhYhZh0h1h2h3h4h5h6h7h8h9h.h+",
"aaabacadaeafagahaiajakalamanaoapaqarasatauavawaxayazaAaBaCaDaEaFaGaHaIaJaKaLaMaNaOaPaQaRaSaTaUaVaWaXaYaZa0a1a2a3a4a5a6a7a8a9a.a+babbbcbdbebfbgbhbibjbkblbmbnbobpbqbrbsbtbubvbwbxbybzbAbBbCbDbEbFbGbHbIbJbKbLbMbNbObPbQbRbSbTbUbVbWbXbYbZb0b1b2b3b4b5b6b7b8b9b.b+cacbcccdcecfcgchcicjckclcmcncocpcqcrcsctcucvcwcxcyczcAcBcCcDcEcFcGcHcIcJcKcLcMcNcOcPcQcRcScTcUcVcWcXcYcZc0c1c2c3c4c5c6c7c8c9c.c+dadbdcdddedfdgdhdidjdkdldmdndodpdqdrdsdtdudvdwdxdydzdAdBdCdDdEdFdGdHdIdJdKdLdMdNdOdPdQdRdSdTdUdVdWdXdYdZd0d1d2d3d4d5d6d7d8d9d.d+eaebecedeeefegeheiejekelemeneoepeqereseteuevewexeyezeAeBeCeDeEeFeGeHeIeJeKeLeMeNeOePeQeReSeTeUeVeWeXeYeZe0e1e2e3e4e5e6e7e8e9e.e+fafbfcfdfefffgfhfifjfkflfmfnfofpfqfrfsftfufvfwfxfyfzfAfBfCfDfEfFfGfHfIfJfKfLfMfNfOfPfQfRfSfTfUfVfWfXfYfZf0f1f2f3f4f5f6f7f8f9f.f+gagbgcgdgegfggghgigjgkglgmgngogpgqgrgsgtgugvgwgxgygzgAgBgCgDgEgFgGgHgIgJgKgLgMgNgOgPgQgRgSgTgUgVgWgXgYgZg0g1g2g3g4g5g6g7g8g9g.g+hahbhchdhehfhghhhihjhkhlhmhnhohphqhrhshthuhvhwhxhyhzhAhBhChDhEhFhGhHhIhJhKhLhMhNhOhPhQhRhShThUhVhWhXhYhZh0h1h2h3h4h5h6h7h8h9h.h+",
"aaabacadaeafagahaiajakalamanaoapaqarasatauavawaxayazaAaBaCaDaEaFaGaHaIaJaKaLaMaNaOaPaQaRaSaTaUaVaWaXaYaZa0a1a2a3a4a5a6a7a8a9a.a+babbbcbdbebfbgbhbibjbkblbmbnbobpbqbrbsbtbubvbwbxbybzbAbBbCbDbEbFbGbHbIbJbKbLbMbNbObPbQbRbSbTbUbVbWbXbYbZb0b1b2b3b4b5b6b7b8b9b.b+cacbcccdcecfcgchcicjckclcmcncocpcqcrcsctcucvcwcxcyczcAcBcCcDcEcFcGcHcIcJcKcLcMcNcOcPcQcRcScTcUcVcWcXcYcZc0c1c2c3c4c5c6c7c8c9c.c+dadbdcdddedfdgdhdidjdkdldmdndodpdqdrdsdtdudvdwdxdydzdAdBdCdDdEdFdGdHdIdJdKdLdMdNdOdPdQdRdSdTdUdVdWdXdYdZd0d1d2d3d4d5d6d7d8d9d.d+eaebecedeeefegeheiejekelemeneoepeqereseteuevewexeyezeAeBeCeDeEeFeGeHeIeJeKeLeMeNeOePeQeReSeTeUeVeWeXeYeZe0e1e2e3e4e5e6e7e8e9e.e+fafbfcfdfefffgfhfifjfkflfmfnfofpfqfrfsftfufvfwfxfyfzfAfBfCfDfEfFfGfHfIfJfKfLfMfNfOfPfQfRfSfTfUfVfWfXfYfZf0f1f2f3f4f5f6f7f8f9f.f+gagbgcgdgegfggghgigjgkglgmgngogpgqgrgsgtgugvgwgxgygzgAgBgCgDgEgFgGgHgIgJgKgLgMgNgOgPgQgRgSgTgUgVgWgXgYgZg0g1g2g3g4g5g6g7g8g9g.g+hahbhchdhehfhghhhihjhkhlhmhnhohphqhrhshthuhvhwhxhyhzhAhBhChDhEhFhGhHhIhJhKhLhMhNhOhPhQhRhShThUhVhWhXhYhZh0h1h2h3h4h5h6h7h8h9h.h+",
"aaabacadaeafagahaiajakalamanaoapaqarasatauavawaxayazaAaBaCaDaEaFaGaHaIaJaKaLaMaNaOaPaQaRaSaTaUaVaWaXaYaZa0a1a2a3a4a5a6a7a8a9a.a+babbbcbdbebfbgbhbibjbkblbmbnbobpbqbrbsbtbubvbwbxbybzbAbBbCbDbEbFbGbHbIbJbKbLbMbNbObPbQbRbSbTbUbVbWbXbYbZb0b1b2b3b4b5b6b7b8b9b.b+cacbcccdcecfcgchcicjckclcmcncocpcqcrcsctcucvcwcxcyczcAcBcCcDcEcFcGcHcIcJcKcLcMcNcOcPcQcRcScTcUcVcWcXcYcZc0c1c2c3c4c5c6c7c8c9c.c+dadbdcdddedfdgdhdidjdkdldmdndodpdqdrdsdtdudvdwdxdydzdAdBdCdDdEdFdGdHdIdJdKdLdMdNdOdPdQdRdSdTdUdVdWdXdYdZd0d1d2d3d4d5d6d7d8d9d.d+eaebecedeeefegeheiejekelemeneoepeqereseteuevewexeyezeAeBeCeDeEeFeGeHeIeJeKeLeMeNeOePeQeReSeTeUeVeWeXeYeZe0e1e2e3e4e5e6e7e8e9e.e+fafbfcfdfefffgfhfifjfkflfmfnfofpfqfrfsftfufvfwfxfyfzfAfBfCfDfEfFfGfHfIfJfKfLfMfNfOfPfQfRfSfTfUfVfWfXfYfZf0f1f2f3f4f5f6f7f8f9f.f+gagbgcgdgegfggghgigjgkglgmgngogpgqgrgsgtgugvgwgxgygzgAgBgCgDgEgFgGgHgIgJgKgLgMgNgOgPgQgRgSgTgUgVgWgXgYgZg0g1g2g3g4g5g6g7g8g9g.g+hahbhchdhehfhghhhihjhkhlhmhnhohphqhrhshthuhvhwhxhyhzhAhBhChDhEhFhGhHhIhJhKhLhMhNhOhPhQhRhShThUhVhWhXhYhZh0h1h2h3h4h5h6h7h8h9h.h+",
"aaabacadaeafagahaiajakalamanaoapaqarasatauavawaxayazaAaBaCaDaEaFaGaHaIaJaKaLaMaNaOaPaQaRaSaTaUaVaWaXaYaZa0a1a2a3a4a5a6a7a8a9a.a+babbbcbdbebfbgbhbibjbkblbmbnbobpbqbrbsbtbubvbwbxbybzbAbBbCbDbEbFbGbHbIbJbKbLbMbNbObPbQbRbSbTbUbVbWbXbYbZb0b1b2b3b4b5b6b7b8b9b.b+cacbcccdcecfcgchcicjckclcmcncocpcqcrcsctcucvcwcxcyczcAcBcCcDcEcFcGcHcIcJcKcLcMcNcOcPcQcRcScTcUcVcWcXcYcZc0c1c2c3c4c5c6c7c8c9c.c+dadbdcdddedfdgdhdidjdkdldmdndodpdqdrdsdtdudvdwdxdydzdAdBdCdDdEdFdGdHdIdJdKdLdMdNdOdPdQdRdSdTdUdVdWdXdYdZd0d1d2d3d4d5d6d7d8d9d.d+eaebecedeeefegeheiejekelemeneoepeqereseteuevewexeyezeAeBeCeDeEeFeGeHeIeJeKeLeMeNeOePeQeReSeTeUeVeWeXeYeZe0e1e2e3e4e5e6e7e8e9e.e+fafbfcfdfefffgfhfifjfkflfmfnfofpfqfrfsftfufvfwfxfyfzfAfBfCfDfEfFfGfHfIfJfKfLfMfNfOfPfQfRfSfTfUfVfWfXfYfZf0f1f2f3f4f5f6f7f8f9f.f+gagbgcgdgegfggghgigjgkglgmgngogpgqgrgsgtgugvgwgxgygzgAgBgCgDgEgFgGgHgIgJgKgLgMgNgOgPgQgRgSgTgUgVgWgXgYgZg0g1g2g3g4g5g6g7g8g9g.g+hahbhchdhehfhghhhihjhkhlhmhnhohphqhrhshthuhvhwhxhyhzhAhBhChDhEhFhGhHhIhJhKhLhMhNhOhPhQhRhShThUhVhWhXhYhZh0h1h2h3h4h5h6h7h8h9h.h+",
"aaabacadaeafagahaiajakalamanaoapaqarasatauavawaxayazaAaBaCaDaEaFaGaHaIaJaKaLaMaNaOaPaQaRaSaTaUaVaWaXaYaZa0a1a2a3a4a5a6a7a8a9a.a+babbbcbdbebfbgbhbibjbkblbmbnbobpbqbrbsbtbubvbwbxbybzbAbBbCbDbEbFbGbHbIbJbKbLbMbNbObPbQbRbSbTbUbVbWbXbYbZb0b1b2b3b4b5b6b7b8b9b.b+cacbcccdcecfcgchcicjckclcmcncocpcqcrcsctcucvcwcxcyczcAcBcCcDcEcFcGcHcIcJcKcLcMcNcOcPcQcRcScTcUcVcWcXcYcZc0c1c2c3c4c5c6c7c8c9c.c+dadbdcdddedfdgdhdidjdkdldmdndodpdqdrdsdtdudvdwdxdydzdAdBdCdDdEdFdGdHdIdJdKdLdMdNdOdPdQdRdSdTdUdVdWdXdYdZd0d1d2d3d4d5d6d7d8d9d.d+eaebecedeeefegeheiejekelemeneoepeqereseteuevewexeyezeAeBeCeDeEeFeGeHeIeJeKeLeMeNeOePeQeReSeTeUeVeWeXeYeZe0e1e2e3e4e5e6e7e8e9e.e+fafbfcfdfefffgfhfifjfkflfmfnfofpfqfrfsftfufvfwfxfyfzfAfBfCfDfEfFfGfHfIfJfKfLfMfNfOfPfQfRfSfTfUfVfWfXfYfZf0f1f2f3f4f5f6f7f8f9f.f+gagbgcgdgegfggghgigjgkglgmgngogpgqgrgsgtgugvgwgxgygzgAgBgCgDgEgFgGgHgIgJgKgLgMgNgOgPgQgRgSgTgUgVgWgXgYgZg0g1g2g3g4g5g6g7g8g9g.g+hahbhchdhehfhghhhihjhkhlhmhnhohphqhrhshthuhvhwhxhyhzhAhBhChDhEhFhGhHhIhJhKhLhMhNhOhPhQhRhShThUhVhWhXhYhZh0h1h2h3h4h5h6h7h8h9h.h+",
"aaabacadaeafagahaiajakalamanaoapaqarasatauavawaxayazaAaBaCaDaEaFaGaHaIaJaKaLaMaNaOaPaQaRaSaTaUaVaWaXaYaZa0a1a2a3a4a5a6a7a8a9a.a+babbbcbdbebfbgbhbibjbkblbmbnbobpbqbrbsbtbubvbwbxbybzbAbBbCbDbEbFbGbHbIbJbKbLbMbNbObPbQbRbSbTbUbVbWbXbYbZb0b1b2b3b4b5b6b7b8b9b.b+cacbcccdcecfcgchcicjckclcmcncocpcqcrcsctcucvcwcxcyczcAcBcCcDcEcFcGcHcIcJcKcLcMcNcOcPcQcRcScTcUcVcWcXcYcZc0c1c2c3c4c5c6c7c8c9c.c+dadbdcdddedfdgdhdidjdkdldmdndodpdqdrdsdtdudvdwdxdydzdAdBdCdDdEdFdGdHdIdJdKdLdMdNdOdPdQdRdSdTdUdVdWdXdYdZd0d1d2d3d4d5d6d7d8d9d.d+eaebecedeeefegeheiejekelemeneoepeqereseteuevewexeyezeAeBeCeDeEeFeGeHeIeJeKeLeMeNeOePeQeReSeTeUeVeWeXeYeZe0e1e2e3e4e5e6e7e8e9e.e+fafbfcfdfefffgfhfifjfkflfmfnfofpfqfrfsftfufvfwfxfyfzfAfBfCfDfEfFfGfHfIfJfKfLfMfNfOfPfQfRfSfTfUfVfWfXfYfZf0f1f2f3f4f5f6f7f8f9f.f+gagbgcgdgegfggghgigjgkglgmgngogpgqgrgsgtgugvgwgxgygzgAgBgCgDgEgFgGgHgIgJgKgLgMgNgOgPgQgRgSgTgUgVgWgXgYgZg0g1g2g3g4g5g6g7g8g9g.g+hahbhchdhehfhghhhihjhkhlhmhnhohphqhrhshthuhvhwhxhyhzhAhBhChDhEhFhGhHhIhJhKhLhMhNhOhPhQhRhShThUhVhWhXhYhZh0h1h2h3h4h5h6h7h8h9h.h+",
"aaabacadaeafagahaiajakalamanaoapaqarasatauavawaxayazaAaBaCaDaEaFaGaHaIaJaKaLaMaNaOaPaQaRaSaTaUaVaWaXaYaZa0a1a2a3a4a5a6a7a8a9a.a+babbbcbdbebfbgbhbibjbkblbmbnbobpbqbrbsbtbubvbwbxbybzbAbBbCbDbEbFbGbHbIbJbKbLbMbNbObPbQbRbSbTbUbVbWbXbYbZb0b1b2b3b4b5b6b7b8b9b.b+cacbcccdcecfcgchcicjckclcmcncocpcqcrcsctcucvcwcxcyczcAcBcCcDcEcFcGcHcIcJcKcLcMcNcOcPcQcRcScTcUcVcWcXcYcZc0c1c2c3c4c5c6c7c8c9c.c+dadbdcdddedfdgdhdidjdkdldmdndodpdqdrdsdtdudvdwdxdydzdAdBdCdDdEdFdGdHdIdJdKdLdMdNdOdPdQdRdSdTdUdVdWdXdYdZd0d1d2d3d4d5d6d7d8d9d.d+eaebecedeeefegeheiejekelemeneoepeqereseteuevewexeyezeAeBeCeDeEeFeGeHeIeJeKeLeMeNeOePeQeReSeTeUeVeWeXeYeZe0e1e2e3e4e5e6e7e8e9e.e+fafbfcfdfefffgfhfifjfkflfmfnfofpfqfrfsftfufvfwfxfyfzfAfBfCfDfEfFfGfHfIfJfKfLfMfNfOfPfQfRfSfTfUfVfWfXfYfZf0f1f2f3f4f5f6f7f8f9f.f+gagbgcgdgegfggghgigjgkglgmgngogpgqgrgsgtgugvgwgxgygzgAgBgCgDgEgFgGgHgIgJgKgLgMgNgOgPgQgRgSgTgUgVgWgXgYgZg0g1g2g3g4g5g6g7g8g9g.g+hahbhchdhehfhghhhihjhkhlhmhnhohphqhrhshthuhvhwhxhyhzhAhBhChDhEhFhGhHhIhJhKhLhMhNhOhPhQhRhShThUhVhWhXhYhZh0h1h2h3h4h5h6h7h8h9h.h+",
"aaabacadaeafagahaiajakalamanaoapaqarasatauavawaxayazaAaBaCaDaEaFaGaHaIaJaKaLaMaNaOaPaQaRaSaTaUaVaWaXaYaZa0a1a2a3a4a5a6a7a8a9a.a+babbbcbdbebfbgbhbibjbkblbmbnbobpbqbrbsbtbubvbwbxbybzbAbBbCbDbEbFbGbHbIbJbKbLbMbNbObPbQbRbSbTbUbVbWbXbYbZb0b1b2b3b4b5b6b7b8b9b.b+cacbcccdcecfcgchcicjckclcmcncocpcqcrcsctcucvcwcxcyczcAcBcCcDcEcFcGcHcIcJcKcLcMcNcOcPcQcRcScTcUcVcWcXcYcZc0c1c2c3c4c5c6c7c8c9c.c+dadbdcdddedfdgdhdidjdkdldmdndodpdqdrdsdtdudvdwdxdydzdAdBdCdDdEdFdGdHdIdJdKdLdMdNdOdPdQdRdSdTdUdVdWdXdYdZd0d1d2d3d4d5d6d7d8d9d.d+eaebecedeeefegeheiejekelemeneoepeqereseteuevewexeyezeAeBeCeDeEeFeGeHeIeJeKeLeMeNeOePeQeReSeTeUeVeWeXeYeZe0e1e2e3e4e5e6e7e8e9e.e+fafbfcfdfefffgfhfifjfkflfmfnfofpfqfrfsftfufvfwfxfyfzfAfBfCfDfEfFfGfHfIfJfKfLfMfNfOfPfQfRfSfTfUfVfWfXfYfZf0f1f2f3f4f5f6f7f8f9f.f+gagbgcgdgegfggghgigjgkglgmgngogpgqgrgsgtgugvgwgxgygzgAgBgCgDgEgFgGgHgIgJgKgLgMgNgOgPgQgRgSgTgUgVgWgXgYgZg0g1g2g3g4g5g6g7g8g9g.g+hahbhchdhehfhghhhihjhkhlhmhnhohphqhrhshthuhvhwhxhyhzhAhBhChDhEhFhGhHhIhJhKhLhMhNhOhPhQhRhShThUhVhWhXhYhZh0h1h2h3h4h5h6h7h8h9h.h+",
"aaabacadaeafagahaiajakalamanaoapaqarasatauavawaxayazaAaBaCaDaEaFaGaHaIaJaKaLaMaNaOaPaQaRaSaTaUaVaWaXaYaZa0a1a2a3a4a5a6a7a8a9a.a+babbbcbdbebfbgbhbibjbkblbmbnbobpbqbrbsbtbubvbwbxbybzbAbBbCbDbEbFbGbHbIbJbKbLbMbNbObPbQbRbSbTbUbVbWbXbYbZb0b1b2b3b4b5b6b7b8b9b.b+cacbcccdcecfcgchcicjckclcmcncocpcqcrcsctcucvcwcxcyczcAcBcCcDcEcFcGcHcIcJcKcLcMcNcOcPcQcRcScTcUcVcWcXcYcZc0c1c2c3c4c5c6c7c8c9c.c+dadbdcdddedfdgdhdidjdkdldmdndodpdqdrdsdtdudvdwdxdydzdAdBdCdDdEdFdGdHdIdJdKdLdMdNdOdPdQdRdSdTdUdVdWdXdYdZd0d1d2d3d4d5d6d7d8d9d.d+eaebecedeeefegeheiejekelemeneoepeqereseteuevewexeyezeAeBeCeDeEeFeGeHeIeJeKeLeMeNeOePeQeReSeTeUeVeWeXeYeZe0e1e2e3e4e5e6e7e8e9e.e+fafbfcfdfefffgfhfifjfkflfmfnfofpfqfrfsftfufvfwfxfyfzfAfBfCfDfEfFfGfHfIfJfKfLfMfNfOfPfQfRfSfTfUfVfWfXfYfZf0f1f2f3f4f5f6f7f8f9f.f+gagbgcgdgegfggghgigjgkglgmgngogpgqgrgsgtgugvgwgxgygzgAgBgCgDgEgFgGgHgIgJgKgLgMgNgOgPgQgRgSgTgUgVgWgXgYgZg0g1g2g3g4g5g6g7g8g9g.g+hahbhchdhehfhghhhihjhkhlhmhnhohphqhrhshthuhvhwhxhyhzhAhBhChDhEhFhGhHhIhJhKhLhMhNhOhPhQhRhShThUhVhWhXhYhZh0h1h2h3h4h5h6h7h8h9h.h+",
"aaabacadaeafagahaiajakalamanaoapaqarasatauavawaxayazaAaBaCaDaEaFaGaHaIaJaKaLaMaNaOaPaQaRaSaTaUaVaWaXaYaZa0a1a2a3a4a5a6a7a8a9a.a+babbbcbdbebfbgbhbibjbkblbmbnbobpbqbrbsbtbubvbwbxbybzbAbBbCbDbEbFbGbHbIbJbKbLbMbNbObPbQbRbSbTbUbVbWbXbYbZb0b1b2b3b4b5b6b7b8b9b.b+cacbcccdcecfcgchcicjckclcmcncocpcqcrcsctcucvcwcxcyczcAcBcCcDcEcFcGcHcIcJcKcLcMcNcOcPcQcRcScTcUcVcWcXcYcZc0c1c2c3c4c5c6c7c8c9c.c+dadbdcdddedfdgdhdidjdkdldmdndodpdqdrdsdtdudvdwdxdydzdAdBdCdDdEdFdGdHdIdJdKdLdMdNdOdPdQdRdSdTdUdVdWdXdYdZd0d1d2d3d4d5d6d7d8d9d.d+eaebecedeeefegeheiejekelemeneoepeqereseteuevewexeyezeAeBeCeDeEeFeGeHeIeJeKeLeMeNeOePeQeReSeTeUeVeWeXeYeZe0e1e2e3e4e5e6e7e8e9e.e+fafbfcfdfefffgfhfifjfkflfmfnfofpfqfrfsftfufvfwfxfyfzfAfBfCfDfEfFfGfHfIfJfKfLfMfNfOfPfQfRfSfTfUfVfWfXfYfZf0f1f2f3f4f5f6f7f8f9f.f+gagbgcgdgegfggghgigjgkglgmgngogpgqgrgsgtgugvgwgxgygzgAgBgCgDgEgFgGgHgIgJgKgLgMgNgOgPgQgRgSgTgUgVgWgXgYgZg0g1g2g3g4g5g6g7g8g9g.g+hahbhchdhehfhghhhihjhkhlhmhnhohphqhrhshthuhvhwhxhyhzhAhBhChDhEhFhGhHhIhJhKhLhMhNhOhPhQhRhShThUhVhWhXhYhZh0h1h2h3h4h5h6h7h8h9h.h+",
"aaabacadaeafagahaiajakalamanaoapaqarasatauavawaxayazaAaBaCaDaEaFaGaHaIaJaKaLaMaNaOaPaQaRaSaTaUaVaWaXaYaZa0a1a2a3a4a5a6a7a8a9a.a+babbbcbdbebfbgbhbibjbkblbmbnbobpbqbrbsbtbubvbwbxbybzbAbBbCbDbEbFbGbHbIbJbKbLbMbNbObPbQbRbSbTbUbVbWbXbYbZb0b1b2b3b4b5b6b7b8b9b.b+cacbcccdcecfcgchcicjckclcmcncocpcqcrcsctcucvcwcxcyczcAcBcCcDcEcFcGcHcIcJcKcLcMcNcOcPcQcRcScTcUcVcWcXcYcZc0c1c2c3c4c5c6c7c8c9c.c+dadbdcdddedfdgdhdidjdkdldmdndodpdqdrdsdtdudvdwdxdydzdAdBdCdDdEdFdGdHdIdJdKdLdMdNdOdPdQdRdSdTdUdVdWdXdYdZd0d1d2d3d4d5d6d7d8d9d.d+eaebecedeeefegeheiejekelemeneoepeqereseteuevewexeyezeAeBeCeDeEeFeGeHeIeJeKeLeMeNeOePeQeReSeTeUeVeWeXeYeZe0e1e2e3e4e5e6e7e8e9e.e+fafbfcfdfefffgfhfifjfkflfmfnfofpfqfrfsftfufvfwfxfyfzfAfBfCfDfEfFfGfHfIfJfKfLfMfNfOfPfQfRfSfTfUfVfWfXfYfZf0f1f2f3f4f5f6f7f8f9f.f+gagbgcgdgegfggghgigjgkglgmgngogpgqgrgsgtgugvgwgxgygzgAgBgCgDgEgFgGgHgIgJgKgLgMgNgOgPgQgRgSgTgUgVgWgXgYgZg0g1g2g3g4g5g6g7g8g9g.g+hahbhchdhehfhghhhihjhkhlhmhnhohphqhrhshthuhvhwhxhyhzhAhBhChDhEhFhGhHhIhJhKhLhMhNhOhPhQhRhShThUhVhWhXhYhZh0h1h2h3h4h5h6h7h8h9h.h+",
"aaabacadaeafagahaiajakalamanaoapaqarasatauavawaxayazaAaBaCaDaEaFaGaHaIaJaKaLaMaNaOaPaQaRaSaTaUaVaWaXaYaZa0a1a2a3a4a5a6a7a8a9a.a+babbbcbdbebfbgbhbibjbkblbmbnbobpbqbrbsbtbubvbwbxbybzbAbBbCbDbEbFbGbHbIbJbKbLbMbNbObPbQbRbSbTbUbVbWbXbYbZb0b1b2b3b4b5b6b7b8b9b.b+cacbcccdcecfcgchcicjckclcmcncocpcqcrcsctcucvcwcxcyczcAcBcCcDcEcFcGcHcIcJcKcLcMcNcOcPcQcRcScTcUcVcWcXcYcZc0c1c2c3c4c5c6c7c8c9c.c+dadbdcdddedfdgdhdidjdkdldmdndodpdqdrdsdtdudvdwdxdydzdAdBdCdDdEdFdGdHdIdJdKdLdMdNdOdPdQdRdSdTdUdVdWdXdYdZd0d1d2d3d4d5d6d7d8d9d.d+eaebecedeeefegeheiejekelemeneoepeqereseteuevewexeyezeAeBeCeDeEeFeGeHeIeJeKeLeMeNeOePeQeReSeTeUeVeWeXeYeZe0e1e2e3e4e5e6e7e8e9e.e+fafbfcfdfefffgfhfifjfkflfmfnfofpfqfrfsftfufvfwfxfyfzfAfBfCfDfEfFfGfHfIfJfKfLfMfNfOfPfQfRfSfTfUfVfWfXfYfZf0f1f2f3f4f5f6f7f8f9f.f+gagbgcgdgegfggghgigjgkglgmgngogpgqgrgsgtgugvgwgxgygzgAgBgCgDgEgFgGgHgIgJgKgLgMgNgOgPgQgRgSgTgUgVgWgXgYgZg0g1g2g3g4g5g6g7g8g9g.g+hahbhchdhehfhghhhihjhkhlhmhnhohphqhrhshthuhvhwhxhyhzhAhBhChDhEhFhGhHhIhJhKhLhMhNhOhPhQhRhShThUhVhWhXhYhZh0h1h2h3h4h5h6h7h8h9h.h+",
"aaabacadaeafagahaiajakalamanaoapaqarasatauavawaxayazaAaBaCaDaEaFaGaHaIaJaKaLaMaNaOaPaQaRaSaTaUaVaWaXaYaZa0a1a2a3a4a5a6a7a8a9a.a+babbbcbdbebfbgbhbibjbkblbmbnbobpbqbrbsbtbubvbwbxbybzbAbBbCbDbEbFbGbHbIbJbKbLbMbNbObPbQbRbSbTbUbVbWbXbYbZb0b1b2b3b4b5b6b7b8b9b.b+cacbcccdcecfcgchcicjckclcmcncocpcqcrcsctcucvcwcxcyczcAcBcCcDcEcFcGcHcIcJcKcLcMcNcOcPcQcRcScTcUcVcWcXcYcZc0c1c2c3c4c5c6c7c8c9c.c+dadbdcdddedfdgdhdidjdkdldmdndodpdqdrdsdtdudvdwdxdydzdAdBdCdDdEdFdGdHdIdJdKdLdMdNdOdPdQdRdSdTdUdVdWdXdYdZd0d1d2d3d4d5d6d7d8d9d.d+eaebecedeeefegeheiejekelemeneoepeqereseteuevewexeyezeAeBeCeDeEeFeGeHeIeJeKeLeMeNeOePeQeReSeTeUeVeWeXeYeZe0e1e2e3e4e5e6e7e8e9e.e+fafbfcfdfefffgfhfifjfkflfmfnfofpfqfrfsftfufvfwfxfyfzfAfBfCfDfEfFfGfHfIfJfKfLfMfNfOfPfQfRfSfTfUfVfWfXfYfZf0f1f2f3f4f5f6f7f8f9f.f+gagbgcgdgegfggghgigjgkglgmgngogpgqgrgsgtgugvgwgxgygzgAgBgCgDgEgFgGgHgIgJgKgLgMgNgOgPgQgRgSgTgUgVgWgXgYgZg0g1g2g3g4g5g6g7g8g9g.g+hahbhchdhehfhghhhihjhkhlhmhnhohphqhrhshthuhvhwhxhyhzhAhBhChDhEhFhGhHhIhJhKhLhMhNhOhPhQhRhShThUhVhWhXhYhZh0h1h2h3h4h5h6h7h8h9h.h+",
"aaabacadaeafagahaiajakalamanaoapaqarasatauavawaxayazaAaBaCaDaEaFaGaHaIaJaKaLaMaNaOaPaQaRaSaTaUaVaWaXaYaZa0a1a2a3a4a5a6a7a8a9a.a+babbbcbdbebfbgbhbibjbkblbmbnbobpbqbrbsbtbubvbwbxbybzbAbBbCbDbEbFbGbHbIbJbKbLbMbNbObPbQbRbSbTbUbVbWbXbYbZb0b1b2b3b4b5b6b7b8b9b.b+cacbcccdcecfcgchcicjckclcmcncocpcqcrcsctcucvcwcxcyczcAcBcCcDcEcFcGcHcIcJcKcLcMcNcOcPcQcRcScTcUcVcWcXcYcZc0c1c2c3c4c5c6c7c8c9c.c+dadbdcdddedfdgdhdidjdkdldmdndodpdqdrdsdtdudvdwdxdydzdAdBdCdDdEdFdGdHdIdJdKdLdMdNdOdPdQdRdSdTdUdVdWdXdYdZd0d1d2d3d4d5d6d7d8d9d.d+eaebecedeeefegeheiejekelemeneoepeqereseteuevewexeyezeAeBeCeDeEeFeGeHeIeJeKeLeMeNeOePeQeReSeTeUeVeWeXeYeZe0e1e2e3e4e5e6e7e8e9e.e+fafbfcfdfefffgfhfifjfkflfmfnfofpfqfrfsftfufvfwfxfyfzfAfBfCfDfEfFfGfHfIfJfKfLfMfNfOfPfQfRfSfTfUfVfWfXfYfZf0f1f2f3f4f5f6f7f8f9f.f+gagbgcgdgegfggghgigjgkglgmgngogpgqgrgsgtgugvgwgxgygzgAgBgCgDgEgFgGgHgIgJgKgLgMgNgOgPgQgRgSgTgUgVgWgXgYgZg0g1g2g3g4g5g6g7g8g9g.g+hahbhchdhehfhghhhihjhkhlhmhnhohphqhrhshthuhvhwhxhyhzhAhBhChDhEhFhGhHhIhJhKhLhMhNhOhPhQhRhShThUhVhWhXhYhZh0h1h2h3h4h5h6h7h8h9h.h+",
"aaabacadaeafagahaiajakalamanaoapaqarasatauavawaxayazaAaBaCaDaEaFaGaHaIaJaKaLaMaNaOaPaQaRaSaTaUaVaWaXaYaZa0a1a2a3a4a5a6a7a8a9a.a+babbbcbdbebfbgbhbibjbkblbmbnbobpbqbrbsbtbubvbwbxbybzbAbBbCbDbEbFbGbHbIbJbKbLbMbNbObPbQbRbSbTbUbVbWbXbYbZb0b1b2b3b4b5b6b7b8b9b.b+cacbcccdcecfcgchcicjckclcmcncocpcqcrcsctcucvcwcxcyczcAcBcCcDcEcFcGcHcIcJcKcLcMcNcOcPcQcRcScTcUcVcWcXcYcZc0c1c2c3c4c5c6c7c8c9c.c+dadbdcdddedfdgdhdidjdkdldmdndodpdqdrdsdtdudvdwdxdydzdAdBdCdDdEdFdGdHdIdJdKdLdMdNdOdPdQdRdSdTdUdVdWdXdYdZd0d1d2d3d4d5d6d7d8d9d.d+eaebecedeeefegeheiejekelemeneoepeqereseteuevewexeyezeAeBeCeDeEeFeGeHeIeJeKeLeMeNeOePeQeReSeTeUeVeWeXeYeZe0e1e2e3e4e5e6e7e8e9e.e+fafbfcfdfefffgfhfifjfkflfmfnfofpfqfrfsftfufvfwfxfyfzfAfBfCfDfEfFfGfHfIfJfKfLfMfNfOfPfQfRfSfTfUfVfWfXfYfZf0f1f2f3f4f5f6f7f8f9f.f+gagbgcgdgegfggghgigjgkglgmgngogpgqgrgsgtgugvgwgxgygzgAgBgCgDgEgFgGgHgIgJgKgLgMgNgOgPgQgRgSgTgUgVgWgXgYgZg0g1g2g3g4g5g6g7g8g9g.g+hahbhchdhehfhghhhihjhkhlhmhnhohphqhrhshthuhvhwhxhyhzhAhBhChDhEhFhGhHhIhJhKhLhMhNhOhPhQhRhShThUhVhWhXhYhZh0h1h2h3h4h5h6h7h8h9h.h+",
"aaabacadaeafagahaiajakalamanaoapaqarasatauavawaxayazaAaBaCaDaEaFaGaHaIaJaKaLaMaNaOaPaQaRaSaTaUaVaWaXaYaZa0a1a2a3a4a5a6a7a8a9a.a+babbbcbdbebfbgbhbibjbkblbmbnbobpbqbrbsbtbubvbwbxbybzbAbBbCbDbEbFbGbHbIbJbKbLbMbNbObPbQbRbSbTbUbVbWbXbYbZb0b1b2b3b4b5b6b7b8b9b.b+cacbcccdcecfcgchcicjckclcmcncocpcqcrcsctcucvcwcxcyczcAcBcCcDcEcFcGcHcIcJcKcLcMcNcOcPcQcRcScTcUcVcWcXcYcZc0c1c2c3c4c5c6c7c8c9c.c+dadbdcdddedfdgdhdidjdkdldmdndodpdqdrdsdtdudvdwdxdydzdAdBdCdDdEdFdGdHdIdJdKdLdMdNdOdPdQdRdSdTdUdVdWdXdYdZd0d1d2d3d4d5d6d7d8d9d.d+eaebecedeeefegeheiejekelemeneoepeqereseteuevewexeyezeAeBeCeDeEeFeGeHeIeJeKeLeMeNeOePeQeReSeTeUeVeWeXeYeZe0e1e2e3e4e5e6e7e8e9e.e+fafbfcfdfefffgfhfifjfkflfmfnfofpfqfrfsftfufvfwfxfyfzfAfBfCfDfEfFfGfHfIfJfKfLfMfNfOfPfQfRfSfTfUfVfWfXfYfZf0f1f2f3f4f5f6f7f8f9f.f+gagbgcgdgegfggghgigjgkglgmgngogpgqgrgsgtgugvgwgxgygzgAgBgCgDgEgFgGgHgIgJgKgLgMgNgOgPgQgRgSgTgUgVgWgXgYgZg0g1g2g3g4g5g6g7g8g9g.g+hahbhchdhehfhghhhihjhkhlhmhnhohphqhrhshthuhvhwhxhyhzhAhBhChDhEhFhGhHhIhJhKhLhMhNhOhPhQhRhShThUhVhWhXhYhZh0h1h2h3h4h5h6h7h8h9h.h+",
"aaabacadaeafagahaiajakalamanaoapaqarasatauavawaxayazaAaBaCaDaEaFaGaHaIaJaKaLaMaNaOaPaQaRaSaTaUaVaWaXaYaZa0a1a2a3a4a5a6a7a8a9a.a+babbbcbdbebfbgbhbibjbkblbmbnbobpbqbrbsbtbubvbwbxbybzbAbBbCbDbEbFbGbHbIbJbKbLbMbNbObPbQbRbSbTbUbVbWbXbYbZb0b1b2b3b4b5b6b7b8b9b.b+cacbcccdcecfcgchcicjckclcmcncocpcqcrcsctcucvcwcxcyczcAcBcCcDcEcFcGcHcIcJcKcLcMcNcOcPcQcRcScTcUcVcWcXcYcZc0c1c2c3c4c5c6c7c8c9c.c+dadbdcdddedfdgdhdidjdkdldmdndodpdqdrdsdtdudvdwdxdydzdAdBdCdDdEdFdGdHdIdJdKdLdMdNdOdPdQdRdSdTdUdVdWdXdYdZd0d1d2d3d4d5d6d7d8d9d.d+eaebecedeeefegeheiejekelemeneoepeqereseteuevewexeyezeAeBeCeDeEeFeGeHeIeJeKeLeMeNeOePeQeReSeTeUeVeWeXeYeZe0e1e2e3e4e5e6e7e8e9e.e+fafbfcfdfefffgfhfifjfkflfmfnfofpfqfrfsftfufvfwfxfyfzfAfBfCfDfEfFfGfHfIfJfKfLfMfNfOfPfQfRfSfTfUfVfWfXfYfZf0f1f2f3f4f5f6f7f8f9f.f+gagbgcgdgegfggghgigjgkglgmgngogpgqgrgsgtgugvgwgxgygzgAgBgCgDgEgFgGgHgIgJgKgLgMgNgOgPgQgRgSgTgUgVgWgXgYgZg0g1g2g3g4g5g6g7g8g9g.g+hahbhchdhehfhghhhihjhkhlhmhnhohphqhrhshthuhvhwhxhyhzhAhBhChDhEhFhGhHhIhJhKhLhMhNhOhPhQhRhShThUhVhWhXhYhZh0h1h2h3h4h5h6h7h8h9h.h+",
"aaabacadaeafagahaiajakalamanaoapaqarasatauavawaxayazaAaBaCaDaEaFaGaHaIaJaKaLaMaNaOaPaQaRaSaTaUaVaWaXaYaZa0a1a2a3a4a5a6a7a8a9a.a+babbbcbdbebfbgbhbibjbkblbmbnbobpbqbrbsbtbubvbwbxbybzbAbBbCbDbEbFbGbHbIbJbKbLbMbNbObPbQbRbSbTbUbVbWbXbYbZb0b1b2b3b4b5b6b7b8b9b.b+cacbcccdcecfcgchcicjckclcmcncocpcqcrcsctcucvcwcxcyczcAcBcCcDcEcFcGcHcIcJcKcLcMcNcOcPcQcRcScTcUcVcWcXcYcZc0c1c2c3c4c5c6c7c8c9c.c+dadbdcdddedfdgdhdidjdkdldmdndodpdqdrdsdtdudvdwdxdydzdAdBdCdDdEdFdGdHdIdJdKdLdMdNdOdPdQdRdSdTdUdVdWdXdYdZd0d1d2d3d4d5d6d7d8d9d.d+eaebecedeeefegeheiejekelemeneoepeqereseteuevewexeyezeAeBeCeDeEeFeGeHeIeJeKeLeMeNeOePeQeReSeTeUeVeWeXeYeZe0e1e2e3e4e5e6e7e8e9e.e+fafbfcfdfefffgfhfifjfkflfmfnfofpfqfrfsftfufvfwfxfyfzfAfBfCfDfEfFfGfHfIfJfKfLfMfNfOfPfQfRfSfTfUfVfWfXfYfZf0f1f2f3f4f5f6f7f8f9f.f+gagbgcgdgegfggghgigjgkglgmgngogpgqgrgsgtgugvgwgxgygzgAgBgCgDgEgFgGgHgIgJgKgLgMgNgOgPgQgRgSgTgUgVgWgXgYgZg0g1g2g3g4g5g6g7g8g9g.g+hahbhchdhehfhghhhihjhkhlhmhnhohphqhrhshthuhvhwhxhyhzhAhBhChDhEhFhGhHhIhJhKhLhMhNhOhPhQhRhShThUhVhWhXhYhZh0h1h2h3h4h5h6h7h8h9h.h+",
"aaabacadaeafagahaiajakalamanaoapaqarasatauavawaxayazaAaBaCaDaEaFaGaHaIaJaKaLaMaNaOaPaQaRaSaTaUaVaWaXaYaZa0a1a2a3a4a5a6a7a8a9a.a+babbbcbdbebfbgbhbibjbkblbmbnbobpbqbrbsbtbubvbwbxbybzbAbBbCbDbEbFbGbHbIbJbKbLbMbNbObPbQbRbSbTbUbVbWbXbYbZb0b1b2b3b4b5b6b7b8b9b.b+cacbcccdcecfcgchcicjckclcmcncocpcqcrcsctcucvcwcxcyczcAcBcCcDcEcFcGcHcIcJcKcLcMcNcOcPcQcRcScTcUcVcWcXcYcZc0c1c2c3c4c5c6c7c8c9c.c+dadbdcdddedfdgdhdidjdkdldmdndodpdqdrdsdtdudvdwdxdydzdAdBdCdDdEdFdGdHdIdJdKdLdMdNdOdPdQdRdSdTdUdVdWdXdYdZd0d1d2d3d4d5d6d7d8d9d.d+eaebecedeeefegeheiejekelemeneoepeqereseteuevewexeyezeAeBeCeDeEeFeGeHeIeJeKeLeMeNeOePeQeReSeTeUeVeWeXeYeZe0e1e2e3e4e5e6e7e8e9e.e+fafbfcfdfefffgfhfifjfkflfmfnfofpfqfrfsftfufvfwfxfyfzfAfBfCfDfEfFfGfHfIfJfKfLfMfNfOfPfQfRfSfTfUfVfWfXfYfZf0f1f2f3f4f5f6f7f8f9f.f+gagbgcgdgegfggghgigjgkglgmgngogpgqgrgsgtgugvgwgxgygzgAgBgCgDgEgFgGgHgIgJgKgLgMgNgOgPgQgRgSgTgUgVgWgXgYgZg0g1g2g3g4g5g6g7g8g9g.g+hahbhchdhehfhghhhihjhkhlhmhnhohphqhrhshthuhvhwhxhyhzhAhBhChDhEhFhGhHhIhJhKhLhMhNhOhPhQhRhShThUhVhWhXhYhZh0h1h2h3h4h5h6h7h8h9h.h+",
"aaabacadaeafagahaiajakalamanaoapaqarasatauavawaxayazaAaBaCaDaEaFaGaHaIaJaKaLaMaNaOaPaQaRaSaTaUaVaWaXaYaZa0a1a2a3a4a5a6a7a8a9a.a+babbbcbdbebfbgbhbibjbkblbmbnbobpbqbrbsbtbubvbwbxbybzbAbBbCbDbEbFbGbHbIbJbKbLbMbNbObPbQbRbSbTbUbVbWbXbYbZb0b1b2b3b4b5b6b7b8b9b.b+cacbcccdcecfcgchcicjckclcmcncocpcqcrcsctcucvcwcxcyczcAcBcCcDcEcFcGcHcIcJcKcLcMcNcOcPcQcRcScTcUcVcWcXcYcZc0c1c2c3c4c5c6c7c8c9c.c+dadbdcdddedfdgdhdidjdkdldmdndodpdqdrdsdtdudvdwdxdydzdAdBdCdDdEdFdGdHdIdJdKdLdMdNdOdPdQdRdSdTdUdVdWdXdYdZd0d1d2d3d4d5d6d7d8d9d.d+eaebecedeeefegeheiejekelemeneoepeqereseteuevewexeyezeAeBeCeDeEeFeGeHeIeJeKeLeMeNeOePeQeReSeTeUeVeWeXeYeZe0e1e2e3e4e5e6e7e8e9e.e+fafbfcfdfefffgfhfifjfkflfmfnfofpfqfrfsftfufvfwfxfyfzfAfBfCfDfEfFfGfHfIfJfKfLfMfNfOfPfQfRfSfTfUfVfWfXfYfZf0f1f2f3f4f5f6f7f8f9f.f+gagbgcgdgegfggghgigjgkglgmgngogpgqgrgsgtgugvgwgxgygzgAgBgCgDgEgFgGgHgIgJgKgLgMgNgOgPgQgRgSgTgUgVgWgXgYgZg0g1g2g3g4g5g6g7g8g9g.g+hahbhchdhehfhghhhihjhkhlhmhnhohphqhrhshthuhvhwhxhyhzhAhBhChDhEhFhGhHhIhJhKhLhMhNhOhPhQhRhShThUhVhWhXhYhZh0h1h2h3h4h5h6h7h8h9h.h+",
"aaabacadaeafagahaiajakalamanaoapaqarasatauavawaxayazaAaBaCaDaEaFaGaHaIaJaKaLaMaNaOaPaQaRaSaTaUaVaWaXaYaZa0a1a2a3a4a5a6a7a8a9a.a+babbbcbdbebfbgbhbibjbkblbmbnbobpbqbrbsbtbubvbwbxbybzbAbBbCbDbEbFbGbHbIbJbKbLbMbNbObPbQbRbSbTbUbVbWbXbYbZb0b1b2b3b4b5b6b7b8b9b.b+cacbcccdcecfcgchcicjckclcmcncocpcqcrcsctcucvcwcxcyczcAcBcCcDcEcFcGcHcIcJcKcLcMcNcOcPcQcRcScTcUcVcWcXcYcZc0c1c2c3c4c5c6c7c8c9c.c+dadbdcdddedfdgdhdidjdkdldmdndodpdqdrdsdtdudvdwdxdydzdAdBdCdDdEdFdGdHdIdJdKdLdMdNdOdPdQdRdSdTdUdVdWdXdYdZd0d1d2d3d4d5d6d7d8d9d.d+eaebecedeeefegeheiejekelemeneoepeqereseteuevewexeyezeAeBeCeDeEeFeGeHeIeJeKeLeMeNeOePeQeReSeTeUeVeWeXeYeZe0e1e2e3e4e5e6e7e8e9e.e+fafbfcfdfefffgfhfifjfkflfmfnfofpfqfrfsftfufvfwfxfyfzfAfBfCfDfEfFfGfHfIfJfKfLfMfNfOfPfQfRfSfTfUfVfWfXfYfZf0f1f2f3f4f5f6f7f8f9f.f+gagbgcgdgegfggghgigjgkglgmgngogpgqgrgsgtgugvgwgxgygzgAgBgCgDgEgFgGgHgIgJgKgLgMgNgOgPgQgRgSgTgUgVgWgXgYgZg0g1g2g3g4g5g6g7g8g9g.g+hahbhchdhehfhghhhihjhkhlhmhnhohphqhrhshthuhvhwhxhyhzhAhBhChDhEhFhGhHhIhJhKhLhMhNhOhPhQhRhShThUhVhWhXhYhZh0h1h2h3h4h5h6h7h8h9h.h+",
"aaabacadaeafagahaiajakalamanaoapaqarasatauavawaxayazaAaBaCaDaEaFaGaHaIaJaKaLaMaNaOaPaQaRaSaTaUaVaWaXaYaZa0a1a2a3a4a5a6a7a8a9a.a+babbbcbdbebfbgbhbibjbkblbmbnbobpbqbrbsbtbubvbwbxbybzbAbBbCbDbEbFbGbHbIbJbKbLbMbNbObPbQbRbSbTbUbVbWbXbYbZb0b1b2b3b4b5b6b7b8b9b.b+cacbcccdcecfcgchcicjckclcmcncocpcqcrcsctcucvcwcxcyczcAcBcCcDcEcFcGcHcIcJcKcLcMcNcOcPcQcRcScTcUcVcWcXcYcZc0c1c2c3c4c5c6c7c8c9c.c+dadbdcdddedfdgdhdidjdkdldmdndodpdqdrdsdtdudvdwdxdydzdAdBdCdDdEdFdGdHdIdJdKdLdMdNdOdPdQdRdSdTdUdVdWdXdYdZd0d1d2d3d4d5d6d7d8d9d.d+eaebecedeeefegeheiejekelemeneoepeqereseteuevewexeyezeAeBeCeDeEeFeGeHeIeJeKeLeMeNeOePeQeReSeTeUeVeWeXeYeZe0e1e2e3e4e5e6e7e8e9e.e+fafbfcfdfefffgfhfifjfkflfmfnfofpfqfrfsftfufvfwfxfyfzfAfBfCfDfEfFfGfHfIfJfKfLfMfNfOfPfQfRfSfTfUfVfWfXfYfZf0f1f2f3f4f5f6f7f8f9f.f+gagbgcgdgegfggghgigjgkglgmgngogpgqgrgsgtgugvgwgxgygzgAgBgCgDgEgFgGgHgIgJgKgLgMgNgOgPgQgRgSgTgUgVgWgXgYgZg0g1g2g3g4g5g6g7g8g9g.g+hahbhchdhehfhghhhihjhkhlhmhnhohphqhrhshthuhvhwhxhyhzhAhBhChDhEhFhGhHhIhJhKhLhMhNhOhPhQhRhShThUhVhWhXhYhZh0h1h2h3h4h5h6h7h8h9h.h+",
"aaabacadaeafagahaiajakalamanaoapaqarasatauavawaxayazaAaBaCaDaEaFaGaHaIaJaKaLaMaNaOaPaQaRaSaTaUaVaWaXaYaZa0a1a2a3a4a5a6a7a8a9a.a+babbbcbdbebfbgbhbibjbkblbmbnbobpbqbrbsbtbubvbwbxbybzbAbBbCbDbEbFbGbHbIbJbKbLbMbNbObPbQbRbSbTbUbVbWbXbYbZb0b1b2b3b4b5b6b7b8b9b.b+cacbcccdcecfcgchcicjckclcmcncocpcqcrcsctcucvcwcxcyczcAcBcCcDcEcFcGcHcIcJcKcLcMcNcOcPcQcRcScTcUcVcWcXcYcZc0c1c2c3c4c5c6c7c8c9c.c+dadbdcdddedfdgdhdidjdkdldmdndodpdqdrdsdtdudvdwdxdydzdAdBdCdDdEdFdGdHdIdJdKdLdMdNdOdPdQdRdSdTdUdVdWdXdYdZd0d1d2d3d4d5d6d7d8d9d.d+eaebecedeeefegeheiejekelemeneoepeqereseteuevewexeyezeAeBeCeDeEeFeGeHeIeJeKeLeMeNeOePeQeReSeTeUeVeWeXeYeZe0e1e2e3e4e5e6e7e8e9e.e+fafbfcfdfefffgfhfifjfkflfmfnfofpfqfrfsftfufvfwfxfyfzfAfBfCfDfEfFfGfHfIfJfKfLfMfNfOfPfQfRfSfTfUfVfWfXfYfZf0f1f2f3f4f5f6f7f8f9f.f+gagbgcgdgegfggghgigjgkglgmgngogpgqgrgsgtgugvgwgxgygzgAgBgCgDgEgFgGgHgIgJgKgLgMgNgOgPgQgRgSgTgUgVgWgXgYgZg0g1g2g3g4g5g6g7g8g9g.g+hahbhchdhehfhghhhihjhkhlhmhnhohphqhrhshthuhvhwhxhyhzhAhBhChDhEhFhGhHhIhJhKhLhMhNhOhPhQhRhShThUhVhWhXhYhZh0h1h2h3h4h5h6h7h8h9h.h+",
"aaabacadaeafagahaiajakalamanaoapaqarasatauavawaxayazaAaBaCaDaEaFaGaHaIaJaKaLaMaNaOaPaQaRaSaTaUaVaWaXaYaZa0a1a2a3a4a5a6a7a8a9a.a+babbbcbdbebfbgbhbibjbkblbmbnbobpbqbrbsbtbubvbwbxbybzbAbBbCbDbEbFbGbHbIbJbKbLbMbNbObPbQbRbSbTbUbVbWbXbYbZb0b1b2b3b4b5b6b7b8b9b.b+cacbcccdcecfcgchcicjckclcmcncocpcqcrcsctcucvcwcxcyczcAcBcCcDcEcFcGcHcIcJcKcLcMcNcOcPcQcRcScTcUcVcWcXcYcZc0c1c2c3c4c5c6c7c8c9c.c+dadbdcdddedfdgdhdidjdkdldmdndodpdqdrdsdtdudvdwdxdydzdAdBdCdDdEdFdGdHdIdJdKdLdMdNdOdPdQdRdSdTdUdVdWdXdYdZd0d1d2d3d4d5d6d7d8d9d.d+eaebecedeeefegeheiejekelemeneoepeqereseteuevewexeyezeAeBeCeDeEeFeGeHeIeJeKeLeMeNeOePeQeReSeTeUeVeWeXeYeZe0e1e2e3e4e5e6e7e8e9e.e+fafbfcfdfefffgfhfifjfkflfmfnfofpfqfrfsftfufvfwfxfyfzfAfBfCfDfEfFfGfHfIfJfKfLfMfNfOfPfQfRfSfTfUfVfWfXfYfZf0f1f2f3f4f5f6f7f8f9f.f+gagbgcgdgegfggghgigjgkglgmgngogpgqgrgsgtgugvgwgxgygzgAgBgCgDgEgFgGgHgIgJgKgLgMgNgOgPgQgRgSgTgUgVgWgXgYgZg0g1g2g3g4g5g6g7g8g9g.g+hahbhchdhehfhghhhihjhkhlhmhnhohphqhrhshthuhvhwhxhyhzhAhBhChDhEhFhGhHhIhJhKhLhMhNhOhPhQhRhShThUhVhWhXhYhZh0h1h2h3h4h5h6h7h8h9h.h+",
"aaabacadaeafagahaiajakalamanaoapaqarasatauavawaxayazaAaBaCaDaEaFaGaHaIaJaKaLaMaNaOaPaQaRaSaTaUaVaWaXaYaZa0a1a2a3a4a5a6a7a8a9a.a+babbbcbdbebfbgbhbibjbkblbmbnbobpbqbrbsbtbubvbwbxbybzbAbBbCbDbEbFbGbHbIbJbKbLbMbNbObPbQbRbSbTbUbVbWbXbYbZb0b1b2b3b4b5b6b7b8b9b.b+cacbcccdcecfcgchcicjckclcmcncocpcqcrcsctcucvcwcxcyczcAcBcCcDcEcFcGcHcIcJcKcLcMcNcOcPcQcRcScTcUcVcWcXcYcZc0c1c2c3c4c5c6c7c8c9c.c+dadbdcdddedfdgdhdidjdkdldmdndodpdqdrdsdtdudvdwdxdydzdAdBdCdDdEdFdGdHdIdJdKdLdMdNdOdPdQdRdSdTdUdVdWdXdYdZd0d1d2d3d4d5d6d7d8d9d.d+eaebecedeeefegeheiejekelemeneoepeqereseteuevewexeyezeAeBeCeDeEeFeGeHeIeJeKeLeMeNeOePeQeReSeTeUeVeWeXeYeZe0e1e2e3e4e5e6e7e8e9e.e+fafbfcfdfefffgfhfifjfkflfmfnfofpfqfrfsftfufvfwfxfyfzfAfBfCfDfEfFfGfHfIfJfKfLfMfNfOfPfQfRfSfTfUfVfWfXfYfZf0f1f2f3f4f5f6f7f8f9f.f+gagbgcgdgegfggghgigjgkglgmgngogpgqgrgsgtgugvgwgxgygzgAgBgCgDgEgFgGgHgIgJgKgLgMgNgOgPgQgRgSgTgUgVgWgXgYgZg0g1g2g3g4g5g6g7g8g9g.g+hahbhchdhehfhghhhihjhkhlhmhnhohphqhrhshthuhvhwhxhyhzhAhBhChDhEhFhGhHhIhJhKhLhMhNhOhPhQhRhShThUhVhWhXhYhZh0h1h2h3h4h5h6h7h8h9h.h+",
"aaabacadaeafagahaiajakalamanaoapaqarasatauavawaxayazaAaBaCaDaEaFaGaHaIaJaKaLaMaNaOaPaQaRaSaTaUaVaWaXaYaZa0a1a2a3a4a5a6a7a8a9a.a+babbbcbdbebfbgbhbibjbkblbmbnbobpbqbrbsbtbubvbwbxbybzbAbBbCbDbEbFbGbHbIbJbKbLbMbNbObPbQbRbSbTbUbVbWbXbYbZb0b1b2b3b4b5b6b7b8b9b.b+cacbcccdcecfcgchcicjckclcmcncocpcqcrcsctcucvcwcxcyczcAcBcCcDcEcFcGcHcIcJcKcLcMcNcOcPcQcRcScTcUcVcWcXcYcZc0c1c2c3c4c5c6c7c8c9c.c+dadbdcdddedfdgdhdidjdkdldmdndodpdqdrdsdtdudvdwdxdydzdAdBdCdDdEdFdGdHdIdJdKdLdMdNdOdPdQdRdSdTdUdVdWdXdYdZd0d1d2d3d4d5d6d7d8d9d.d+eaebecedeeefegeheiejekelemeneoepeqereseteuevewexeyezeAeBeCeDeEeFeGeHeIeJeKeLeMeNeOePeQeReSeTeUeVeWeXeYeZe0e1e2e3e4e5e6e7e8e9e.e+fafbfcfdfefffgfhfifjfkflfmfnfofpfqfrfsftfufvfwfxfyfzfAfBfCfDfEfFfGfHfIfJfKfLfMfNfOfPfQfRfSfTfUfVfWfXfYfZf0f1f2f3f4f5f6f7f8f9f.f+gagbgcgdgegfggghgigjgkglgmgngogpgqgrgsgtgugvgwgxgygzgAgBgCgDgEgFgGgHgIgJgKgLgMgNgOgPgQgRgSgTgUgVgWgXgYgZg0g1g2g3g4g5g6g7g8g9g.g+hahbhchdhehfhghhhihjhkhlhmhnhohphqhrhshthuhvhwhxhyhzhAhBhChDhEhFhGhHhIhJhKhLhMhNhOhPhQhRhShThUhVhWhXhYhZh0h1h2h3h4h5h6h7h8h9h.h+",
"aaabacadaeafagahaiajakalamanaoapaqarasatauavawaxayazaAaBaCaDaEaFaGaHaIaJaKaLaMaNaOaPaQaRaSaTaUaVaWaXaYaZa0a1a2a3a4a5a6a7a8a9a.a+babbbcbdbebfbgbhbibjbkblbmbnbobpbqbrbsbtbubvbwbxbybzbAbBbCbDbEbFbGbHbIbJbKbLbMbNbObPbQbRbSbTbUbVbWbXbYbZb0b1b2b3b4b5b6b7b8b9b.b+cacbcccdcecfcgchcicjckclcmcncocpcqcrcsctcucvcwcxcyczcAcBcCcDcEcFcGcHcIcJcKcLcMcNcOcPcQcRcScTcUcVcWcXcYcZc0c1c2c3c4c5c6c7c8c9c.c+dadbdcdddedfdgdhdidjdkdldmdndodpdqdrdsdtdudvdwdxdydzdAdBdCdDdEdFdGdHdIdJdKdLdMdNdOdPdQdRdSdTdUdVdWdXdYdZd0d1d2d3d4d5d6d7d8d9d.d+eaebecedeeefegeheiejekelemeneoepeqereseteuevewexeyezeAeBeCeDeEeFeGeHeIeJeKeLeMeNeOePeQeReSeTeUeVeWeXeYeZe0e1e2e3e4e5e6e7e8e9e.e+fafbfcfdfefffgfhfifjfkflfmfnfofpfqfrfsftfufvfwfxfyfzfAfBfCfDfEfFfGfHfIfJfKfLfMfNfOfPfQfRfSfTfUfVfWfXfYfZf0f1f2f3f4f5f6f7f8f9f.f+gagbgcgdgegfggghgigjgkglgmgngogpgqgrgsgtgugvgwgxgygzgAgBgCgDgEgFgGgHgIgJgKgLgMgNgOgPgQgRgSgTgUgVgWgXgYgZg0g1g2g3g4g5g6g7g8g9g.g+hahbhchdhehfhghhhihjhkhlhmhnhohphqhrhshthuhvhwhxhyhzhAhBhChDhEhFhGhHhIhJhKhLhMhNhOhPhQhRhShThUhVhWhXhYhZh0h1h2h3h4h5h6h7h8h9h.h+",
"aaabacadaeafagahaiajakalamanaoapaqarasatauavawaxayazaAaBaCaDaEaFaGaHaIaJaKaLaMaNaOaPaQaRaSaTaUaVaWaXaYaZa0a1a2a3a4a5a6a7a8a9a.a+babbbcbdbebfbgbhbibjbkblbmbnbobpbqbrbsbtbubvbwbxbybzbAbBbCbDbEbFbGbHbIbJbKbLbMbNbObPbQbRbSbTbUbVbWbXbYbZb0b1b2b3b4b5b6b7b8b9b.b+cacbcccdcecfcgchcicjckclcmcncocpcqcrcsctcucvcwcxcyczcAcBcCcDcEcFcGcHcIcJcKcLcMcNcOcPcQcRcScTcUcVcWcXcYcZc0c1c2c3c4c5c6c7c8c9c.c+dadbdcdddedfdgdhdidjdkdldmdndodpdqdrdsdtdudvdwdxdydzdAdBdCdDdEdFdGdHdIdJdKdLdMdNdOdPdQdRdSdTdUdVdWdXdYdZd0d1d2d3d4d5d6d7d8d9d.d+eaebecedeeefegeheiejekelemeneoepeqereseteuevewexeyezeAeBeCeDeEeFeGeHeIeJeKeLeMeNeOePeQeReSeTeUeVeWeXeYeZe0e1e2e3e4e5e6e7e8e9e.e+fafbfcfdfefffgfhfifjfkflfmfnfofpfqfrfsftfufvfwfxfyfzfAfBfCfDfEfFfGfHfIfJfKfLfMfNfOfPfQfRfSfTfUfVfWfXfYfZf0f1f2f3f4f5f6f7f8f9f.f+gagbgcgdgegfggghgigjgkglgmgngogpgqgrgsgtgugvgwgxgygzgAgBgCgDgEgFgGgHgIgJgKgLgMgNgOgPgQgRgSgTgUgVgWgXgYgZg0g1g2g3g4g5g6g7g8g9g.g+hahbhchdhehfhghhhihjhkhlhmhnhohphqhrhshthuhvhwhxhyhzhAhBhChDhEhFhGhHhIhJhKhLhMhNhOhPhQhRhShThUhVhWhXhYhZh0h1h2h3h4h5h6h7h8h9h.h+",
"aaabacadaeafagahaiajakalamanaoapaqarasatauavawaxayazaAaBaCaDaEaFaGaHaIaJaKaLaMaNaOaPaQaRaSaTaUaVaWaXaYaZa0a1a2a3a4a5a6a7a8a9a.a+babbbcbdbebfbgbhbibjbkblbmbnbobpbqbrbsbtbubvbwbxbybzbAbBbCbDbEbFbGbHbIbJbKbLbMbNbObPbQbRbSbTbUbVbWbXbYbZb0b1b2b3b4b5b6b7b8b9b.b+cacbcccdcecfcgchcicjckclcmcncocpcqcrcsctcucvcwcxcyczcAcBcCcDcEcFcGcHcIcJcKcLcMcNcOcPcQcRcScTcUcVcWcXcYcZc0c1c2c3c4c5c6c7c8c9c.c+dadbdcdddedfdgdhdidjdkdldmdndodpdqdrdsdtdudvdwdxdydzdAdBdCdDdEdFdGdHdIdJdKdLdMdNdOdPdQdRdSdTdUdVdWdXdYdZd0d1d2d3d4d5d6d7d8d9d.d+eaebecedeeefegeheiejekelemeneoepeqereseteuevewexeyezeAeBeCeDeEeFeGeHeIeJeKeLeMeNeOePeQeReSeTeUeVeWeXeYeZe0e1e2e3e4e5e6e7e8e9e.e+fafbfcfdfefffgfhfifjfkflfmfnfofpfqfrfsftfufvfwfxfyfzfAfBfCfDfEfFfGfHfIfJfKfLfMfNfOfPfQfRfSfTfUfVfWfXfYfZf0f1f2f3f4f5f6f7f8f9f.f+gagbgcgdgegfggghgigjgkglgmgngogpgqgrgsgtgugvgwgxgygzgAgBgCgDgEgFgGgHgIgJgKgLgMgNgOgPgQgRgSgTgUgVgWgXgYgZg0g1g2g3g4g5g6g7g8g9g.g+hahbhchdhehfhghhhihjhkhlhmhnhohphqhrhshthuhvhwhxhyhzhAhBhChDhEhFhGhHhIhJhKhLhMhNhOhPhQhRhShThUhVhWhXhYhZh0h1h2h3h4h5h6h7h8h9h.h+",
"aaabacadaeafagahaiajakalamanaoapaqarasatauavawaxayazaAaBaCaDaEaFaGaHaIaJaKaLaMaNaOaPaQaRaSaTaUaVaWaXaYaZa0a1a2a3a4a5a6a7a8a9a.a+babbbcbdbebfbgbhbibjbkblbmbnbobpbqbrbsbtbubvbwbxbybzbAbBbCbDbEbFbGbHbIbJbKbLbMbNbObPbQbRbSbTbUbVbWbXbYbZb0b1b2b3b4b5b6b7b8b9b.b+cacbcccdcecfcgchcicjckclcmcncocpcqcrcsctcucvcwcxcyczcAcBcCcDcEcFcGcHcIcJcKcLcMcNcOcPcQcRcScTcUcVcWcXcYcZc0c1c2c3c4c5c6c7c8c9c.c+dadbdcdddedfdgdhdidjdkdldmdndodpdqdrdsdtdudvdwdxdydzdAdBdCdDdEdFdGdHdIdJdKdLdMdNdOdPdQdRdSdTdUdVdWdXdYdZd0d1d2d3d4d5d6d7d8d9d.d+eaebecedeeefegeheiejekelemeneoepeqereseteuevewexeyezeAeBeCeDeEeFeGeHeIeJeKeLeMeNeOePeQeReSeTeUeVeWeXeYeZe0e1e2e3e4e5e6e7e8e9e.e+fafbfcfdfefffgfhfifjfkflfmfnfofpfqfrfsftfufvfwfxfyfzfAfBfCfDfEfFfGfHfIfJfKfLfMfNfOfPfQfRfSfTfUfVfWfXfYfZf0f1f2f3f4f5f6f7f8f9f.f+gagbgcgdgegfggghgigjgkglgmgngogpgqgrgsgtgugvgwgxgygzgAgBgCgDgEgFgGgHgIgJgKgLgMgNgOgPgQgRgSgTgUgVgWgXgYgZg0g1g2g3g4g5g6g7g8g9g.g+hahbhchdhehfhghhhihjhkhlhmhnhohphqhrhshthuhvhwhxhyhzhAhBhChDhEhFhGhHhIhJhKhLhMhNhOhPhQhRhShThUhVhWhXhYhZh0h1h2h3h4h5h6h7h8h9h.h+",
"aaabacadaeafagahaiajakalamanaoapaqarasatauavawaxayazaAaBaCaDaEaFaGaHaIaJaKaLaMaNaOaPaQaRaSaTaUaVaWaXaYaZa0a1a2a3a4a5a6a7a8a9a.a+babbbcbdbebfbgbhbibjbkblbmbnbobpbqbrbsbtbubvbwbxbybzbAbBbCbDbEbFbGbHbIbJbKbLbMbNbObPbQbRbSbTbUbVbWbXbYbZb0b1b2b3b4b5b6b7b8b9b.b+cacbcccdcecfcgchcicjckclcmcncocpcqcrcsctcucvcwcxcyczcAcBcCcDcEcFcGcHcIcJcKcLcMcNcOcPcQcRcScTcUcVcWcXcYcZc0c1c2c3c4c5c6c7c8c9c.c+dadbdcdddedfdgdhdidjdkdldmdndodpdqdrdsdtdudvdwdxdydzdAdBdCdDdEdFdGdHdIdJdKdLdMdNdOdPdQdRdSdTdUdVdWdXdYdZd0d1d2d3d4d5d6d7d8d9d.d+eaebecedeeefegeheiejekelemeneoepeqereseteuevewexeyezeAeBeCeDeEeFeGeHeIeJeKeLeMeNeOePeQeReSeTeUeVeWeXeYeZe0e1e2e3e4e5e6e7e8e9e.e+fafbfcfdfefffgfhfifjfkflfmfnfofpfqfrfsftfufvfwfxfyfzfAfBfCfDfEfFfGfHfIfJfKfLfMfNfOfPfQfRfSfTfUfVfWfXfYfZf0f1f2f3f4f5f6f7f8f9f.f+gagbgcgdgegfggghgigjgkglgmgngogpgqgrgsgtgugvgwgxgygzgAgBgCgDgEgFgGgHgIgJgKgLgMgNgOgPgQgRgSgTgUgVgWgXgYgZg0g1g2g3g4g5g6g7g8g9g.g+hahbhchdhehfhghhhihjhkhlhmhnhohphqhrhshthuhvhwhxhyhzhAhBhChDhEhFhGhHhIhJhKhLhMhNhOhPhQhRhShThUhVhWhXhYhZh0h1h2h3h4h5h6h7h8h9h.h+",
"aaabacadaeafagahaiajakalamanaoapaqarasatauavawaxayazaAaBaCaDaEaFaGaHaIaJaKaLaMaNaOaPaQaRaSaTaUaVaWaXaYaZa0a1a2a3a4a5a6a7a8a9a.a+babbbcbdbebfbgbhbibjbkblbmbnbobpbqbrbsbtbubvbwbxbybzbAbBbCbDbEbFbGbHbIbJbKbLbMbNbObPbQbRbSbTbUbVbWbXbYbZb0b1b2b3b4b5b6b7b8b9b.b+cacbcccdcecfcgchcicjckclcmcncocpcqcrcsctcucvcwcxcyczcAcBcCcDcEcFcGcHcIcJcKcLcMcNcOcPcQcRcScTcUcVcWcXcYcZc0c1c2c3c4c5c6c7c8c9c.c+dadbdcdddedfdgdhdidjdkdldmdndodpdqdrdsdtdudvdwdxdydzdAdBdCdDdEdFdGdHdIdJdKdLdMdNdOdPdQdRdSdTdUdVdWdXdYdZd0d1d2d3d4d5d6d7d8d9d.d+eaebecedeeefegeheiejekelemeneoepeqereseteuevewexeyezeAeBeCeDeEeFeGeHeIeJeKeLeMeNeOePeQeReSeTeUeVeWeXeYeZe0e1e2e3e4e5e6e7e8e9e.e+fafbfcfdfefffgfhfifjfkflfmfnfofpfqfrfsftfufvfwfxfyfzfAfBfCfDfEfFfGfHfIfJfKfLfMfNfOfPfQfRfSfTfUfVfWfXfYfZf0f1f2f3f4f5f6f7f8f9f.f+gagbgcgdgegfggghgigjgkglgmgngogpgqgrgsgtgugvgwgxgygzgAgBgCgDgEgFgGgHgIgJgKgLgMgNgOgPgQgRgSgTgUgVgWgXgYgZg0g1g2g3g4g5g6g7g8g9g.g+hahbhchdhehfhghhhihjhkhlhmhnhohphqhrhshthuhvhwhxhyhzhAhBhChDhEhFhGhHhIhJhKhLhMhNhOhPhQhRhShThUhVhWhXhYhZh0h1h2h3h4h5h6h7h8h9h.h+",
"aaabacadaeafagahaiajakalamanaoapaqarasatauavawaxayazaAaBaCaDaEaFaGaHaIaJaKaLaMaNaOaPaQaRaSaTaUaVaWaXaYaZa0a1a2a3a4a5a6a7a8a9a.a+babbbcbdbebfbgbhbibjbkblbmbnbobpbqbrbsbtbubvbwbxbybzbAbBbCbDbEbFbGbHbIbJbKbLbMbNbObPbQbRbSbTbUbVbWbXbYbZb0b1b2b3b4b5b6b7b8b9b.b+cacbcccdcecfcgchcicjckclcmcncocpcqcrcsctcucvcwcxcyczcAcBcCcDcEcFcGcHcIcJcKcLcMcNcOcPcQcRcScTcUcVcWcXcYcZc0c1c2c3c4c5c6c7c8c9c.c+dadbdcdddedfdgdhdidjdkdldmdndodpdqdrdsdtdudvdwdxdydzdAdBdCdDdEdFdGdHdIdJdKdLdMdNdOdPdQdRdSdTdUdVdWdXdYdZd0d1d2d3d4d5d6d7d8d9d.d+eaebecedeeefegeheiejekelemeneoepeqereseteuevewexeyezeAeBeCeDeEeFeGeHeIeJeKeLeMeNeOePeQeReSeTeUeVeWeXeYeZe0e1e2e3e4e5e6e7e8e9e.e+fafbfcfdfefffgfhfifjfkflfmfnfofpfqfrfsftfufvfwfxfyfzfAfBfCfDfEfFfGfHfIfJfKfLfMfNfOfPfQfRfSfTfUfVfWfXfYfZf0f1f2f3f4f5f6f7f8f9f.f+gagbgcgdgegfggghgigjgkglgmgngogpgqgrgsgtgugvgwgxgygzgAgBgCgDgEgFgGgHgIgJgKgLgMgNgOgPgQgRgSgTgUgVgWgXgYgZg0g1g2g3g4g5g6g7g8g9g.g+hahbhchdhehfhghhhihjhkhlhmhnhohphqhrhshthuhvhwhxhyhzhAhBhChDhEhFhGhHhIhJhKhLhMhNhOhPhQhRhShThUhVhWhXhYhZh0h1h2h3h4h5h6h7h8h9h.h+",
"aaabacadaeafagahaiajakalamanaoapaqarasatauavawaxayazaAaBaCaDaEaFaGaHaIaJaKaLaMaNaOaPaQaRaSaTaUaVaWaXaYaZa0a1a2a3a4a5a6a7a8a9a.a+babbbcbdbebfbgbhbibjbkblbmbnbobpbqbrbsbtbubvbwbxbybzbAbBbCbDbEbFbGbHbIbJbKbLbMbNbObPbQbRbSbTbUbVbWbXbYbZb0b1b2b3b4b5b6b7b8b9b.b+cacbcccdcecfcgchcicjckclcmcncocpcqcrcsctcucvcwcxcyczcAcBcCcDcEcFcGcHcIcJcKcLcMcNcOcPcQcRcScTcUcVcWcXcYcZc0c1c2c3c4c5c6c7c8c9c.c+dadbdcdddedfdgdhdidjdkdldmdndodpdqdrdsdtdudvdwdxdydzdAdBdCdDdEdFdGdHdIdJdKdLdMdNdOdPdQdRdSdTdUdVdWdXdYdZd0d1d2d3d4d5d6d7d8d9d.d+eaebecedeeefegeheiejekelemeneoepeqereseteuevewexeyezeAeBeCeDeEeFeGeHeIeJeKeLeMeNeOePeQeReSeTeUeVeWeXeYeZe0e1e2e3e4e5e6e7e8e9e.e+fafbfcfdfefffgfhfifjfkflfmfnfofpfqfrfsftfufvfwfxfyfzfAfBfCfDfEfFfGfHfIfJfKfLfMfNfOfPfQfRfSfTfUfVfWfXfYfZf0f1f2f3f4f5f6f7f8f9f.f+gagbgcgdgegfggghgigjgkglgmgngogpgqgrgsgtgugvgwgxgygzgAgBgCgDgEgFgGgHgIgJgKgLgMgNgOgPgQgRgSgTgUgVgWgXgYgZg0g1g2g3g4g5g6g7g8g9g.g+hahbhchdhehfhghhhihjhkhlhmhnhohphqhrhshthuhvhwhxhyhzhAhBhChDhEhFhGhHhIhJhKhLhMhNhOhPhQhRhShThUhVhWhXhYhZh0h1h2h3h4h5h6h7h8h9h.h+",
"aaabacadaeafagahaiajakalamanaoapaqarasatauavawaxayazaAaBaCaDaEaFaGaHaIaJaKaLaMaNaOaPaQaRaSaTaUaVaWaXaYaZa0a1a2a3a4a5a6a7a8a9a.a+babbbcbdbebfbgbhbibjbkblbmbnbobpbqbrbsbtbubvbwbxbybzbAbBbCbDbEbFbGbHbIbJbKbLbMbNbObPbQbRbSbTbUbVbWbXbYbZb0b1b2b3b4b5b6b7b8b9b.b+cacbcccdcecfcgchcicjckclcmcncocpcqcrcsctcucvcwcxcyczcAcBcCcDcEcFcGcHcIcJcKcLcMcNcOcPcQcRcScTcUcVcWcXcYcZc0c1c2c3c4c5c6c7c8c9c.c+dadbdcdddedfdgdhdidjdkdldmdndodpdqdrdsdtdudvdwdxdydzdAdBdCdDdEdFdGdHdIdJdKdLdMdNdOdPdQdRdSdTdUdVdWdXdYdZd0d1d2d3d4d5d6d7d8d9d.d+eaebecedeeefegeheiejekelemeneoepeqereseteuevewexeyezeAeBeCeDeEeFeGeHeIeJeKeLeMeNeOePeQeReSeTeUeVeWeXeYeZe0e1e2e3e4e5e6e7e8e9e.e+fafbfcfdfefffgfhfifjfkflfmfnfofpfqfrfsftfufvfwfxfyfzfAfBfCfDfEfFfGfHfIfJfKfLfMfNfOfPfQfRfSfTfUfVfWfXfYfZf0f1f2f3f4f5f6f7f8f9f.f+gagbgcgdgegfggghgigjgkglgmgngogpgqgrgsgtgugvgwgxgygzgAgBgCgDgEgFgGgHgIgJgKgLgMgNgOgPgQgRgSgTgUgVgWgXgYgZg0g1g2g3g4g5g6g7g8g9g.g+hahbhchdhehfhghhhihjhkhlhmhnhohphqhrhshthuhvhwhxhyhzhAhBhChDhEhFhGhHhIhJhKhLhMhNhOhPhQhRhShThUhVhWhXhYhZh0h1h2h3h4h5h6h7h8h9h.h+",
"aaabacadaeafagahaiajakalamanaoapaqarasatauavawaxayazaAaBaCaDaEaFaGaHaIaJaKaLaMaNaOaPaQaRaSaTaUaVaWaXaYaZa0a1a2a3a4a5a6a7a8a9a.a+babbbcbdbebfbgbhbibjbkblbmbnbobpbqbrbsbtbubvbwbxbybzbAbBbCbDbEbFbGbHbIbJbKbLbMbNbObPbQbRbSbTbUbVbWbXbYbZb0b1b2b3b4b5b6b7b8b9b.b+cacbcccdcecfcgchcicjckclcmcncocpcqcrcsctcucvcwcxcyczcAcBcCcDcEcFcGcHcIcJcKcLcMcNcOcPcQcRcScTcUcVcWcXcYcZc0c1c2c3c4c5c6c7c8c9c.c+dadbdcdddedfdgdhdidjdkdldmdndodpdqdrdsdtdudvdwdxdydzdAdBdCdDdEdFdGdHdIdJdKdLdMdNdOdPdQdRdSdTdUdVdWdXdYdZd0d1d2d3d4d5d6d7d8d9d.d+eaebecedeeefegeheiejekelemeneoepeqereseteuevewexeyezeAeBeCeDeEeFeGeHeIeJeKeLeMeNeOePeQeReSeTeUeVeWeXeYeZe0e1e2e3e4e5e6e7e8e9e.e+fafbfcfdfefffgfhfifjfkflfmfnfofpfqfrfsftfufvfwfxfyfzfAfBfCfDfEfFfGfHfIfJfKfLfMfNfOfPfQfRfSfTfUfVfWfXfYfZf0f1f2f3f4f5f6f7f8f9f.f+gagbgcgdgegfggghgigjgkglgmgngogpgqgrgsgtgugvgwgxgygzgAgBgCgDgEgFgGgHgIgJgKgLgMgNgOgPgQgRgSgTgUgVgWgXgYgZg0g1g2g3g4g5g6g7g8g9g.g+hahbhchdhehfhghhhihjhkhlhmhnhohphqhrhshthuhvhwhxhyhzhAhBhChDhEhFhGhHhIhJhKhLhMhNhOhPhQhRhShThUhVhWhXhYhZh0h1h2h3h4h5h6h7h8h9h.h+",
"aaabacadaeafagahaiajakalamanaoapaqarasatauavawaxayazaAaBaCaDaEaFaGaHaIaJaKaLaMaNaOaPaQaRaSaTaUaVaWaXaYaZa0a1a2a3a4a5a6a7a8a9a.a+babbbcbdbebfbgbhbibjbkblbmbnbobpbqbrbsbtbubvbwbxbybzbAbBbCbDbEbFbGbHbIbJbKbLbMbNbObPbQbRbSbTbUbVbWbXbYbZb0b1b2b3b4b5b6b7b8b9b.b+cacbcccdcecfcgchcicjckclcmcncocpcqcrcsctcucvcwcxcyczcAcBcCcDcEcFcGcHcIcJcKcLcMcNcOcPcQcRcScTcUcVcWcXcYcZc0c1c2c3c4c5c6c7c8c9c.c+dadbdcdddedfdgdhdidjdkdldmdndodpdqdrdsdtdudvdwdxdydzdAdBdCdDdEdFdGdHdIdJdKdLdMdNdOdPdQdRdSdTdUdVdWdXdYdZd0d1d2d3d4d5d6d7d8d9d.d+eaebecedeeefegeheiejekelemeneoepeqereseteuevewexeyezeAeBeCeDeEeFeGeHeIeJeKeLeMeNeOePeQeReSeTeUeVeWeXeYeZe0e1e2e3e4e5e6e7e8e9e.e+fafbfcfdfefffgfhfifjfkflfmfnfofpfqfrfsftfufvfwfxfyfzfAfBfCfDfEfFfGfHfIfJfKfLfMfNfOfPfQfRfSfTfUfVfWfXfYfZf0f1f2f3f4f5f6f7f8f9f.f+gagbgcgdgegfggghgigjgkglgmgngogpgqgrgsgtgugvgwgxgygzgAgBgCgDgEgFgGgHgIgJgKgLgMgNgOgPgQgRgSgTgUgVgWgXgYgZg0g1g2g3g4g5g6g7g8g9g.g+hahbhchdhehfhghhhihjhkhlhmhnhohphqhrhshthuhvhwhxhyhzhAhBhChDhEhFhGhHhIhJhKhLhMhNhOhPhQhRhShThUhVhWhXhYhZh0h1h2h3h4h5h6h7h8h9h.h+",
"aaabacadaeafagahaiajakalamanaoapaqarasatauavawaxayazaAaBaCaDaEaFaGaHaIaJaKaLaMaNaOaPaQaRaSaTaUaVaWaXaYaZa0a1a2a3a4a5a6a7a8a9a.a+babbbcbdbebfbgbhbibjbkblbmbnbobpbqbrbsbtbubvbwbxbybzbAbBbCbDbEbFbGbHbIbJbKbLbMbNbObPbQbRbSbTbUbVbWbXbYbZb0b1b2b3b4b5b6b7b8b9b.b+cacbcccdcecfcgchcicjckclcmcncocpcqcrcsctcucvcwcxcyczcAcBcCcDcEcFcGcHcIcJcKcLcMcNcOcPcQcRcScTcUcVcWcXcYcZc0c1c2c3c4c5c6c7c8c9c.c+dadbdcdddedfdgdhdidjdkdldmdndodpdqdrdsdtdudvdwdxdydzdAdBdCdDdEdFdGdHdIdJdKdLdMdNdOdPdQdRdSdTdUdVdWdXdYdZd0d1d2d3d4d5d6d7d8d9d.d+eaebecedeeefegeheiejekelemeneoepeqereseteuevewexeyezeAeBeCeDeEeFeGeHeIeJeKeLeMeNeOePeQeReSeTeUeVeWeXeYeZe0e1e2e3e4e5e6e7e8e9e.e+fafbfcfdfefffgfhfifjfkflfmfnfofpfqfrfsftfufvfwfxfyfzfAfBfCfDfEfFfGfHfIfJfKfLfMfNfOfPfQfRfSfTfUfVfWfXfYfZf0f1f2f3f4f5f6f7f8f9f.f+gagbgcgdgegfggghgigjgkglgmgngogpgqgrgsgtgugvgwgxgygzgAgBgCgDgEgFgGgHgIgJgKgLgMgNgOgPgQgRgSgTgUgVgWgXgYgZg0g1g2g3g4g5g6g7g8g9g.g+hahbhchdhehfhghhhihjhkhlhmhnhohphqhrhshthuhvhwhxhyhzhAhBhChDhEhFhGhHhIhJhKhLhMhNhOhPhQhRhShThUhVhWhXhYhZh0h1h2h3h4h5h6h7h8h9h.h+",
"aaabacadaeafagahaiajakalamanaoapaqarasatauavawaxayazaAaBaCaDaEaFaGaHaIaJaKaLaMaNaOaPaQaRaSaTaUaVaWaXaYaZa0a1a2a3a4a5a6a7a8a9a.a+babbbcbdbebfbgbhbibjbkblbmbnbobpbqbrbsbtbubvbwbxbybzbAbBbCbDbEbFbGbHbIbJbKbLbMbNbObPbQbRbSbTbUbVbWbXbYbZb0b1b2b3b4b5b6b7b8b9b.b+cacbcccdcecfcgchcicjckclcmcncocpcqcrcsctcucvcwcxcyczcAcBcCcDcEcFcGcHcIcJcKcLcMcNcOcPcQcRcScTcUcVcWcXcYcZc0c1c2c3c4c5c6c7c8c9c.c+dadbdcdddedfdgdhdidjdkdldmdndodpdqdrdsdtdudvdwdxdydzdAdBdCdDdEdFdGdHdIdJdKdLdMdNdOdPdQdRdSdTdUdVdWdXdYdZd0d1d2d3d4d5d6d7d8d9d.d+eaebecedeeefegeheiejekelemeneoepeqereseteuevewexeyezeAeBeCeDeEeFeGeHeIeJeKeLeMeNeOePeQeReSeTeUeVeWeXeYeZe0e1e2e3e4e5e6e7e8e9e.e+fafbfcfdfefffgfhfifjfkflfmfnfofpfqfrfsftfufvfwfxfyfzfAfBfCfDfEfFfGfHfIfJfKfLfMfNfOfPfQfRfSfTfUfVfWfXfYfZf0f1f2f3f4f5f6f7f8f9f.f+gagbgcgdgegfggghgigjgkglgmgngogpgqgrgsgtgugvgwgxgygzgAgBgCgDgEgFgGgHgIgJgKgLgMgNgOgPgQgRgSgTgUgVgWgXgYgZg0g1g2g3g4g5g6g7g8g9g.g+hahbhchdhehfhghhhihjhkhlhmhnhohphqhrhshthuhvhwhxhyhzhAhBhChDhEhFhGhHhIhJhKhLhMhNhOhPhQhRhShThUhVhWhXhYhZh0h1h2h3h4h5h6h7h8h9h.h+",
"aaabacadaeafagahaiajakalamanaoapaqarasatauavawaxayazaAaBaCaDaEaFaGaHaIaJaKaLaMaNaOaPaQaRaSaTaUaVaWaXaYaZa0a1a2a3a4a5a6a7a8a9a.a+babbbcbdbebfbgbhbibjbkblbmbnbobpbqbrbsbtbubvbwbxbybzbAbBbCbDbEbFbGbHbIbJbKbLbMbNbObPbQbRbSbTbUbVbWbXbYbZb0b1b2b3b4b5b6b7b8b9b.b+cacbcccdcecfcgchcicjckclcmcncocpcqcrcsctcucvcwcxcyczcAcBcCcDcEcFcGcHcIcJcKcLcMcNcOcPcQcRcScTcUcVcWcXcYcZc0c1c2c3c4c5c6c7c8c9c.c+dadbdcdddedfdgdhdidjdkdldmdndodpdqdrdsdtdudvdwdxdydzdAdBdCdDdEdFdGdHdIdJdKdLdMdNdOdPdQdRdSdTdUdVdWdXdYdZd0d1d2d3d4d5d6d7d8d9d.d+eaebecedeeefegeheiejekelemeneoepeqereseteuevewexeyezeAeBeCeDeEeFeGeHeIeJeKeLeMeNeOePeQeReSeTeUeVeWeXeYeZe0e1e2e3e4e5e6e7e8e9e.e+fafbfcfdfefffgfhfifjfkflfmfnfofpfqfrfsftfufvfwfxfyfzfAfBfCfDfEfFfGfHfIfJfKfLfMfNfOfPfQfRfSfTfUfVfWfXfYfZf0f1f2f3f4f5f6f7f8f9f.f+gagbgcgdgegfggghgigjgkglgmgngogpgqgrgsgtgugvgwgxgygzgAgBgCgDgEgFgGgHgIgJgKgLgMgNgOgPgQgRgSgTgUgVgWgXgYgZg0g1g2g3g4g5g6g7g8g9g.g+hahbhchdhehfhghhhihjhkhlhmhnhohphqhrhshthuhvhwhxhyhzhAhBhChDhEhFhGhHhIhJhKhLhMhNhOhPhQhRhShThUhVhWhXhYhZh0h1h2h3h4h5h6h7h8h9h.h+",
"aaabacadaeafagahaiajakalamanaoapaqarasatauavawaxayazaAaBaCaDaEaFaGaHaIaJaKaLaMaNaOaPaQaRaSaTaUaVaWaXaYaZa0a1a2a3a4a5a6a7a8a9a.a+babbbcbdbebfbgbhbibjbkblbmbnbobpbqbrbsbtbubvbwbxbybzbAbBbCbDbEbFbGbHbIbJbKbLbMbNbObPbQbRbSbTbUbVbWbXbYbZb0b1b2b3b4b5b6b7b8b9b.b+cacbcccdcecfcgchcicjckclcmcncocpcqcrcsctcucvcwcxcyczcAcBcCcDcEcFcGcHcIcJcKcLcMcNcOcPcQcRcScTcUcVcWcXcYcZc0c1c2c3c4c5c6c7c8c9c.c+dadbdcdddedfdgdhdidjdkdldmdndodpdqdrdsdtdudvdwdxdydzdAdBdCdDdEdFdGdHdIdJdKdLdMdNdOdPdQdRdSdTdUdVdWdXdYdZd0d1d2d3d4d5d6d7d8d9d.d+eaebecedeeefegeheiejekelemeneoepeqereseteuevewexeyezeAeBeCeDeEeFeGeHeIeJeKeLeMeNeOePeQeReSeTeUeVeWeXeYeZe0e1e2e3e4e5e6e7e8e9e.e+fafbfcfdfefffgfhfifjfkflfmfnfofpfqfrfsftfufvfwfxfyfzfAfBfCfDfEfFfGfHfIfJfKfLfMfNfOfPfQfRfSfTfUfVfWfXfYfZf0f1f2f3f4f5f6f7f8f9f.f+gagbgcgdgegfggghgigjgkglgmgngogpgqgrgsgtgugvgwgxgygzgAgBgCgDgEgFgGgHgIgJgKgLgMgNgOgPgQgRgSgTgUgVgWgXgYgZg0g1g2g3g4g5g6g7g8g9g.g+hahbhchdhehfhghhhihjhkhlhmhnhohphqhrhshthuhvhwhxhyhzhAhBhChDhEhFhGhHhIhJhKhLhMhNhOhPhQhRhShThUhVhWhXhYhZh0h1h2h3h4h5h6h7h8h9h.h+",
"aaabacadaeafagahaiajakalamanaoapaqarasatauavawaxayazaAaBaCaDaEaFaGaHaIaJaKaLaMaNaOaPaQaRaSaTaUaVaWaXaYaZa0a1a2a3a4a5a6a7a8a9a.a+babbbcbdbebfbgbhbibjbkblbmbnbobpbqbrbsbtbubvbwbxbybzbAbBbCbDbEbFbGbHbIbJbKbLbMbNbObPbQbRbSbTbUbVbWbXbYbZb0b1b2b3b4b5b6b7b8b9b.b+cacbcccdcecfcgchcicjckclcmcncocpcqcrcsctcucvcwcxcyczcAcBcCcDcEcFcGcHcIcJcKcLcMcNcOcPcQcRcScTcUcVcWcXcYcZc0c1c2c3c4c5c6c7c8c9c.c+dadbdcdddedfdgdhdidjdkdldmdndodpdqdrdsdtdudvdwdxdydzdAdBdCdDdEdFdGdHdIdJdKdLdMdNdOdPdQdRdSdTdUdVdWdXdYdZd0d1d2d3d4d5d6d7d8d9d.d+eaebecedeeefegeheiejekelemeneoepeqereseteuevewexeyezeAeBeCeDeEeFeGeHeIeJeKeLeMeNeOePeQeReSeTeUeVeWeXeYeZe0e1e2e3e4e5e6e7e8e9e.e+fafbfcfdfefffgfhfifjfkflfmfnfofpfqfrfsftfufvfwfxfyfzfAfBfCfDfEfFfGfHfIfJfKfLfMfNfOfPfQfRfSfTfUfVfWfXfYfZf0f1f2f3f4f5f6f7f8f9f.f+gagbgcgdgegfggghgigjgkglgmgngogpgqgrgsgtgugvgwgxgygzgAgBgCgDgEgFgGgHgIgJgKgLgMgNgOgPgQgRgSgTgUgVgWgXgYgZg0g1g2g3g4g5g6g7g8g9g.g+hahbhchdhehfhghhhihjhkhlhmhnhohphqhrhshthuhvhwhxhyhzhAhBhChDhEhFhGhHhIhJhKhLhMhNhOhPhQhRhShThUhVhWhXhYhZh0h1h2h3h4h5h6h7h8h9h.h+",
"aaabacadaeafagahaiajakalamanaoapaqarasatauavawaxayazaAaBaCaDaEaFaGaHaIaJaKaLaMaNaOaPaQaRaSaTaUaVaWaXaYaZa0a1a2a3a4a5a6a7a8a9a.a+babbbcbdbebfbgbhbibjbkblbmbnbobpbqbrbsbtbubvbwbxbybzbAbBbCbDbEbFbGbHbIbJbKbLbMbNbObPbQbRbSbTbUbVbWbXbYbZb0b1b2b3b4b5b6b7b8b9b.b+cacbcccdcecfcgchcicjckclcmcncocpcqcrcsctcucvcwcxcyczcAcBcCcDcEcFcGcHcIcJcKcLcMcNcOcPcQcRcScTcUcVcWcXcYcZc0c1c2c3c4c5c6c7c8c9c.c+dadbdcdddedfdgdhdidjdkdldmdndodpdqdrdsdtdudvdwdxdydzdAdBdCdDdEdFdGdHdIdJdKdLdMdNdOdPdQdRdSdTdUdVdWdXdYdZd0d1d2d3d4d5d6d7d8d9d.d+eaebecedeeefegeheiejekelemeneoepeqereseteuevewexeyezeAeBeCeDeEeFeGeHeIeJeKeLeMeNeOePeQeReSeTeUeVeWeXeYeZe0e1e2e3e4e5e6e7e8e9e.e+fafbfcfdfefffgfhfifjfkflfmfnfofpfqfrfsftfufvfwfxfyfzfAfBfCfDfEfFfGfHfIfJfKfLfMfNfOfPfQfRfSfTfUfVfWfXfYfZf0f1f2f3f4f5f6f7f8f9f.f+gagbgcgdgegfggghgigjgkglgmgngogpgqgrgsgtgugvgwgxgygzgAgBgCgDgEgFgGgHgIgJgKgLgMgNgOgPgQgRgSgTgUgVgWgXgYgZg0g1g2g3g4g5g6g7g8g9g.g+hahbhchdhehfhghhhihjhkhlhmhnhohphqhrhshthuhvhwhxhyhzhAhBhChDhEhFhGhHhIhJhKhLhMhNhOhPhQhRhShThUhVhWhXhYhZh0h1h2h3h4h5h6h7h8h9h.h+",
"aaabacadaeafagahaiajakalamanaoapaqarasatauavawaxayazaAaBaCaDaEaFaGaHaIaJaKaLaMaNaOaPaQaRaSaTaUaVaWaXaYaZa0a1a2a3a4a5a6a7a8a9a.a+babbbcbdbebfbgbhbibjbkblbmbnbobpbqbrbsbtbubvbwbxbybzbAbBbCbDbEbFbGbHbIbJbKbLbMbNbObPbQbRbSbTbUbVbWbXbYbZb0b1b2b3b4b5b6b7b8b9b.b+cacbcccdcecfcgchcicjckclcmcncocpcqcrcsctcucvcwcxcyczcAcBcCcDcEcFcGcHcIcJcKcLcMcNcOcPcQcRcScTcUcVcWcXcYcZc0c1c2c3c4c5c6c7c8c9c.c+dadbdcdddedfdgdhdidjdkdldmdndodpdqdrdsdtdudvdwdxdydzdAdBdCdDdEdFdGdHdIdJdKdLdMdNdOdPdQdRdSdTdUdVdWdXdYdZd0d1d2d3d4d5d6d7d8d9d.d+eaebecedeeefegeheiejekelemeneoepeqereseteuevewexeyezeAeBeCeDeEeFeGeHeIeJeKeLeMeNeOePeQeReSeTeUeVeWeXeYeZe0e1e2e3e4e5e6e7e8e9e.e+fafbfcfdfefffgfhfifjfkflfmfnfofpfqfrfsftfufvfwfxfyfzfAfBfCfDfEfFfGfHfIfJfKfLfMfNfOfPfQfRfSfTfUfVfWfXfYfZf0f1f2f3f4f5f6f7f8f9f.f+gagbgcgdgegfggghgigjgkglgmgngogpgqgrgsgtgugvgwgxgygzgAgBgCgDgEgFgGgHgIgJgKgLgMgNgOgPgQgRgSgTgUgVgWgXgYgZg0g1g2g3g4g5g6g7g8g9g.g+hahbhchdhehfhghhhihjhkhlhmhnhohphqhrhshthuhvhwhxhyhzhAhBhChDhEhFhGhHhIhJhKhLhMhNhOhPhQhRhShThUhVhWhXhYhZh0h1h2h3h4h5h6h7h8h9h.h+",
"aaabacadaeafagahaiajakalamanaoapaqarasatauavawaxayazaAaBaCaDaEaFaGaHaIaJaKaLaMaNaOaPaQaRaSaTaUaVaWaXaYaZa0a1a2a3a4a5a6a7a8a9a.a+babbbcbdbebfbgbhbibjbkblbmbnbobpbqbrbsbtbubvbwbxbybzbAbBbCbDbEbFbGbHbIbJbKbLbMbNbObPbQbRbSbTbUbVbWbXbYbZb0b1b2b3b4b5b6b7b8b9b.b+cacbcccdcecfcgchcicjckclcmcncocpcqcrcsctcucvcwcxcyczcAcBcCcDcEcFcGcHcIcJcKcLcMcNcOcPcQcRcScTcUcVcWcXcYcZc0c1c2c3c4c5c6c7c8c9c.c+dadbdcdddedfdgdhdidjdkdldmdndodpdqdrdsdtdudvdwdxdydzdAdBdCdDdEdFdGdHdIdJdKdLdMdNdOdPdQdRdSdTdUdVdWdXdYdZd0d1d2d3d4d5d6d7d8d9d.d+eaebecedeeefegeheiejekelemeneoepeqereseteuevewexeyezeAeBeCeDeEeFeGeHeIeJeKeLeMeNeOePeQeReSeTeUeVeWeXeYeZe0e1e2e3e4e5e6e7e8e9e.e+fafbfcfdfefffgfhfifjfkflfmfnfofpfqfrfsftfufvfwfxfyfzfAfBfCfDfEfFfGfHfIfJfKfLfMfNfOfPfQfRfSfTfUfVfWfXfYfZf0f1f2f3f4f5f6f7f8f9f.f+gagbgcgdgegfggghgigjgkglgmgngogpgqgrgsgtgugvgwgxgygzgAgBgCgDgEgFgGgHgIgJgKgLgMgNgOgPgQgRgSgTgUgVgWgXgYgZg0g1g2g3g4g5g6g7g8g9g.g+hahbhchdhehfhghhhihjhkhlhmhnhohphqhrhshthuhvhwhxhyhzhAhBhChDhEhFhGhHhIhJhKhLhMhNhOhPhQhRhShThUhVhWhXhYhZh0h1h2h3h4h5h6h7h8h9h.h+",
"aaabacadaeafagahaiajakalamanaoapaqarasatauavawaxayazaAaBaCaDaEaFaGaHaIaJaKaLaMaNaOaPaQaRaSaTaUaVaWaXaYaZa0a1a2a3a4a5a6a7a8a9a.a+babbbcbdbebfbgbhbibjbkblbmbnbobpbqbrbsbtbubvbwbxbybzbAbBbCbDbEbFbGbHbIbJbKbLbMbNbObPbQbRbSbTbUbVbWbXbYbZb0b1b2b3b4b5b6b7b8b9b.b+cacbcccdcecfcgchcicjckclcmcncocpcqcrcsctcucvcwcxcyczcAcBcCcDcEcFcGcHcIcJcKcLcMcNcOcPcQcRcScTcUcVcWcXcYcZc0c1c2c3c4c5c6c7c8c9c.c+dadbdcdddedfdgdhdidjdkdldmdndodpdqdrdsdtdudvdwdxdydzdAdBdCdDdEdFdGdHdIdJdKdLdMdNdOdPdQdRdSdTdUdVdWdXdYdZd0d1d2d3d4d5d6d7d8d9d.d+eaebecedeeefegeheiejekelemeneoepeqereseteuevewexeyezeAeBeCeDeEeFeGeHeIeJeKeLeMeNeOePeQeReSeTeUeVeWeXeYeZe0e1e2e3e4e5e6e7e8e9e.e+fafbfcfdfefffgfhfifjfkflfmfnfofpfqfrfsftfufvfwfxfyfzfAfBfCfDfEfFfGfHfIfJfKfLfMfNfOfPfQfRfSfTfUfVfWfXfYfZf0f1f2f3f4f5f6f7f8f9f.f+gagbgcgdgegfggghgigjgkglgmgngogpgqgrgsgtgugvgwgxgygzgAgBgCgDgEgFgGgHgIgJgKgLgMgNgOgPgQgRgSgTgUgVgWgXgYgZg0g1g2g3g4g5g6g7g8g9g.g+hahbhchdhehfhghhhihjhkhlhmhnhohphqhrhshthuhvhwhxhyhzhAhBhChDhEhFhGhHhIhJhKhLhMhNhOhPhQhRhShThUhVhWhXhYhZh0h1h2h3h4h5h6h7h8h9h.h+",
"aaabacadaeafagahaiajakalamanaoapaqarasatauavawaxayazaAaBaCaDaEaFaGaHaIaJaKaLaMaNaOaPaQaRaSaTaUaVaWaXaYaZa0a1a2a3a4a5a6a7a8a9a.a+babbbcbdbebfbgbhbibjbkblbmbnbobpbqbrbsbtbubvbwbxbybzbAbBbCbDbEbFbGbHbIbJbKbLbMbNbObPbQbRbSbTbUbVbWbXbYbZb0b1b2b3b4b5b6b7b8b9b.b+cacbcccdcecfcgchcicjckclcmcncocpcqcrcsctcucvcwcxcyczcAcBcCcDcEcFcGcHcIcJcKcLcMcNcOcPcQcRcScTcUcVcWcXcYcZc0c1c2c3c4c5c6c7c8c9c.c+dadbdcdddedfdgdhdidjdkdldmdndodpdqdrdsdtdudvdwdxdydzdAdBdCdDdEdFdGdHdIdJdKdLdMdNdOdPdQdRdSdTdUdVdWdXdYdZd0d1d2d3d4d5d6d7d8d9d.d+eaebecedeeefegeheiejekelemeneoepeqereseteuevewexeyezeAeBeCeDeEeFeGeHeIeJeKeLeMeNeOePeQeReSeTeUeVeWeXeYeZe0e1e2e3e4e5e6e7e8e9e.e+fafbfcfdfefffgfhfifjfkflfmfnfofpfqfrfsftfufvfwfxfyfzfAfBfCfDfEfFfGfHfIfJfKfLfMfNfOfPfQfRfSfTfUfVfWfXfYfZf0f1f2f3f4f5f6f7f8f9f.f+gagbgcgdgegfggghgigjgkglgmgngogpgqgrgsgtgugvgwgxgygzgAgBgCgDgEgFgGgHgIgJgKgLgMgNgOgPgQgRgSgTgUgVgWgXgYgZg0g1g2g3g4g5g6g7g8g9g.g+hahbhchdhehfhghhhihjhkhlhmhnhohphqhrhshthuhvhwhxhyhzhAhBhChDhEhFhGhHhIhJhKhLhMhNhOhPhQhRhShThUhVhWhXhYhZh0h1h2h3h4h5h6h7h8h9h.h+",
"aaabacadaeafagahaiajakalamanaoapaqarasatauavawaxayazaAaBaCaDaEaFaGaHaIaJaKaLaMaNaOaPaQaRaSaTaUaVaWaXaYaZa0a1a2a3a4a5a6a7a8a9a.a+babbbcbdbebfbgbhbibjbkblbmbnbobpbqbrbsbtbubvbwbxbybzbAbBbCbDbEbFbGbHbIbJbKbLbMbNbObPbQbRbSbTbUbVbWbXbYbZb0b1b2b3b4b5b6b7b8b9b.b+cacbcccdcecfcgchcicjckclcmcncocpcqcrcsctcucvcwcxcyczcAcBcCcDcEcFcGcHcIcJcKcLcMcNcOcPcQcRcScTcUcVcWcXcYcZc0c1c2c3c4c5c6c7c8c9c.c+dadbdcdddedfdgdhdidjdkdldmdndodpdqdrdsdtdudvdwdxdydzdAdBdCdDdEdFdGdHdIdJdKdLdMdNdOdPdQdRdSdTdUdVdWdXdYdZd0d1d2d3d4d5d6d7d8d9d.d+eaebecedeeefegeheiejekelemeneoepeqereseteuevewexeyezeAeBeCeDeEeFeGeHeIeJeKeLeMeNeOePeQeReSeTeUeVeWeXeYeZe0e1e2e3e4e5e6e7e8e9e.e+fafbfcfdfefffgfhfifjfkflfmfnfofpfqfrfsftfufvfwfxfyfzfAfBfCfDfEfFfGfHfIfJfKfLfMfNfOfPfQfRfSfTfUfVfWfXfYfZf0f1f2f3f4f5f6f7f8f9f.f+gagbgcgdgegfggghgigjgkglgmgngogpgqgrgsgtgugvgwgxgygzgAgBgCgDgEgFgGgHgIgJgKgLgMgNgOgPgQgRgSgTgUgVgWgXgYgZg0g1g2g3g4g5g6g7g8g9g.g+hahbhchdhehfhghhhihjhkhlhmhnhohphqhrhshthuhvhwhxhyhzhAhBhChDhEhFhGhHhIhJhKhLhMhNhOhPhQhRhShThUhVhWhXhYhZh0h1h2h3h4h5h6h7h8h9h.h+",
"aaabacadaeafagahaiajakalamanaoapaqarasatauavawaxayazaAaBaCaDaEaFaGaHaIaJaKaLaMaNaOaPaQaRaSaTaUaVaWaXaYaZa0a1a2a3a4a5a6a7a8a9a.a+babbbcbdbebfbgbhbibjbkblbmbnbobpbqbrbsbtbubvbwbxbybzbAbBbCbDbEbFbGbHbIbJbKbLbMbNbObPbQbRbSbTbUbVbWbXbYbZb0b1b2b3b4b5b6b7b8b9b.b+cacbcccdcecfcgchcicjckclcmcncocpcqcrcsctcucvcwcxcyczcAcBcCcDcEcFcGcHcIcJcKcLcMcNcOcPcQcRcScTcUcVcWcXcYcZc0c1c2c3c4c5c6c7c8c9c.c+dadbdcdddedfdgdhdidjdkdldmdndodpdqdrdsdtdudvdwdxdydzdAdBdCdDdEdFdGdHdIdJdKdLdMdNdOdPdQdRdSdTdUdVdWdXdYdZd0d1d2d3d4d5d6d7d8d9d.d+eaebecedeeefegeheiejekelemeneoepeqereseteuevewexeyezeAeBeCeDeEeFeGeHeIeJeKeLeMeNeOePeQeReSeTeUeVeWeXeYeZe0e1e2e3e4e5e6e7e8e9e.e+fafbfcfdfefffgfhfifjfkflfmfnfofpfqfrfsftfufvfwfxfyfzfAfBfCfDfEfFfGfHfIfJfKfLfMfNfOfPfQfRfSfTfUfVfWfXfYfZf0f1f2f3f4f5f6f7f8f9f.f+gagbgcgdgegfggghgigjgkglgmgngogpgqgrgsgtgugvgwgxgygzgAgBgCgDgEgFgGgHgIgJgKgLgMgNgOgPgQgRgSgTgUgVgWgXgYgZg0g1g2g3g4g5g6g7g8g9g.g+hahbhchdhehfhghhhihjhkhlhmhnhohphqhrhshthuhvhwhxhyhzhAhBhChDhEhFhGhHhIhJhKhLhMhNhOhPhQhRhShThUhVhWhXhYhZh0h1h2h3h4h5h6h7h8h9h.h+",
"aaabacadaeafagahaiajakalamanaoapaqarasatauavawaxayazaAaBaCaDaEaFaGaHaIaJaKaLaMaNaOaPaQaRaSaTaUaVaWaXaYaZa0a1a2a3a4a5a6a7a8a9a.a+babbbcbdbebfbgbhbibjbkblbmbnbobpbqbrbsbtbubvbwbxbybzbAbBbCbDbEbFbGbHbIbJbKbLbMbNbObPbQbRbSbTbUbVbWbXbYbZb0b1b2b3b4b5b6b7b8b9b.b+cacbcccdcecfcgchcicjckclcmcncocpcqcrcsctcucvcwcxcyczcAcBcCcDcEcFcGcHcIcJcKcLcMcNcOcPcQcRcScTcUcVcWcXcYcZc0c1c2c3c4c5c6c7c8c9c.c+dadbdcdddedfdgdhdidjdkdldmdndodpdqdrdsdtdudvdwdxdydzdAdBdCdDdEdFdGdHdIdJdKdLdMdNdOdPdQdRdSdTdUdVdWdXdYdZd0d1d2d3d4d5d6d7d8d9d.d+eaebecedeeefegeheiejekelemeneoepeqereseteuevewexeyezeAeBeCeDeEeFeGeHeIeJeKeLeMeNeOePeQeReSeTeUeVeWeXeYeZe0e1e2e3e4e5e6e7e8e9e.e+fafbfcfdfefffgfhfifjfkflfmfnfofpfqfrfsftfufvfwfxfyfzfAfBfCfDfEfFfGfHfIfJfKfLfMfNfOfPfQfRfSfTfUfVfWfXfYfZf0f1f2f3f4f5f6f7f8f9f.f+gagbgcgdgegfggghgigjgkglgmgngogpgqgrgsgtgugvgwgxgygzgAgBgCgDgEgFgGgHgIgJgKgLgMgNgOgPgQgRgSgTgUgVgWgXgYgZg0g1g2g3g4g5g6g7g8g9g.g+hahbhchdhehfhghhhihjhkhlhmhnhohphqhrhshthuhvhwhxhyhzhAhBhChDhEhFhGhHhIhJhKhLhMhNhOhPhQhRhShThUhVhWhXhYhZh0h1h2h3h4h5h6h7h8h9h.h+",
"aaabacadaeafagahaiajakalamanaoapaqarasatauavawaxayazaAaBaCaDaEaFaGaHaIaJaKaLaMaNaOaPaQaRaSaTaUaVaWaXaYaZa0a1a2a3a4a5a6a7a8a9a.a+babbbcbdbebfbgbhbibjbkblbmbnbobpbqbrbsbtbubvbwbxbybzbAbBbCbDbEbFbGbHbIbJbKbLbMbNbObPbQbRbSbTbUbVbWbXbYbZb0b1b2b3b4b5b6b7b8b9b.b+cacbcccdcecfcgchcicjckclcmcncocpcqcrcsctcucvcwcxcyczcAcBcCcDcEcFcGcHcIcJcKcLcMcNcOcPcQcRcScTcUcVcWcXcYcZc0c1c2c3c4c5c6c7c8c9c.c+dadbdcdddedfdgdhdidjdkdldmdndodpdqdrdsdtdudvdwdxdydzdAdBdCdDdEdFdGdHdIdJdKdLdMdNdOdPdQdRdSdTdUdVdWdXdYdZd0d1d2d3d4d5d6d7d8d9d.d+eaebecedeeefegeheiejekelemeneoepeqereseteuevewexeyezeAeBeCeDeEeFeGeHeIeJeKeLeMeNeOePeQeReSeTeUeVeWeXeYeZe0e1e2e3e4e5e6e7e8e9e.e+fafbfcfdfefffgfhfifjfkflfmfnfofpfqfrfsftfufvfwfxfyfzfAfBfCfDfEfFfGfHfIfJfKfLfMfNfOfPfQfRfSfTfUfVfWfXfYfZf0f1f2f3f4f5f6f7f8f9f.f+gagbgcgdgegfggghgigjgkglgmgngogpgqgrgsgtgugvgwgxgygzgAgBgCgDgEgFgGgHgIgJgKgLgMgNgOgPgQgRgSgTgUgVgWgXgYgZg0g1g2g3g4g5g6g7g8g9g.g+hahbhchdhehfhghhhihjhkhlhmhnhohphqhrhshthuhvhwhxhyhzhAhBhChDhEhFhGhHhIhJhKhLhMhNhOhPhQhRhShThUhVhWhXhYhZh0h1h2h3h4h5h6h7h8h9h.h+",
"aaabacadaeafagahaiajakalamanaoapaqarasatauavawaxayazaAaBaCaDaEaFaGaHaIaJaKaLaMaNaOaPaQaRaSaTaUaVaWaXaYaZa0a1a2a3a4a5a6a7a8a9a.a+babbbcbdbebfbgbhbibjbkblbmbnbobpbqbrbsbtbubvbwbxbybzbAbBbCbDbEbFbGbHbIbJbKbLbMbNbObPbQbRbSbTbUbVbWbXbYbZb0b1b2b3b4b5b6b7b8b9b.b+cacbcccdcecfcgchcicjckclcmcncocpcqcrcsctcucvcwcxcyczcAcBcCcDcEcFcGcHcIcJcKcLcMcNcOcPcQcRcScTcUcVcWcXcYcZc0c1c2c3c4c5c6c7c8c9c.c+dadbdcdddedfdgdhdidjdkdldmdndodpdqdrdsdtdudvdwdxdydzdAdBdCdDdEdFdGdHdIdJdKdLdMdNdOdPdQdRdSdTdUdVdWdXdYdZd0d1d2d3d4d5d6d7d8d9d.d+eaebecedeeefegeheiejekelemeneoepeqereseteuevewexeyezeAeBeCeDeEeFeGeHeIeJeKeLeMeNeOePeQeReSeTeUeVeWeXeYeZe0e1e2e3e4e5e6e7e8e9e.e+fafbfcfdfefffgfhfifjfkflfmfnfofpfqfrfsftfufvfwfxfyfzfAfBfCfDfEfFfGfHfIfJfKfLfMfNfOfPfQfRfSfTfUfVfWfXfYfZf0f1f2f3f4f5f6f7f8f9f.f+gagbgcgdgegfggghgigjgkglgmgngogpgqgrgsgtgugvgwgxgygzgAgBgCgDgEgFgGgHgIgJgKgLgMgNgOgPgQgRgSgTgUgVgWgXgYgZg0g1g2g3g4g5g6g7g8g9g.g+hahbhchdhehfhghhhihjhkhlhmhnhohphqhrhshthuhvhwhxhyhzhAhBhChDhEhFhGhHhIhJhKhLhMhNhOhPhQhRhShThUhVhWhXhYhZh0h1h2h3h4h5h6h7h8h9h.h+",
"aaabacadaeafagahaiajakalamanaoapaqarasatauavawaxayazaAaBaCaDaEaFaGaHaIaJaKaLaMaNaOaPaQaRaSaTaUaVaWaXaYaZa0a1a2a3a4a5a6a7a8a9a.a+babbbcbdbebfbgbhbibjbkblbmbnbobpbqbrbsbtbubvbwbxbybzbAbBbCbDbEbFbGbHbIbJbKbLbMbNbObPbQbRbSbTbUbVbWbXbYbZb0b1b2b3b4b5b6b7b8b9b.b+cacbcccdcecfcgchcicjckclcmcncocpcqcrcsctcucvcwcxcyczcAcBcCcDcEcFcGcHcIcJcKcLcMcNcOcPcQcRcScTcUcVcWcXcYcZc0c1c2c3c4c5c6c7c8c9c.c+dadbdcdddedfdgdhdidjdkdldmdndodpdqdrdsdtdudvdwdxdydzdAdBdCdDdEdFdGdHdIdJdKdLdMdNdOdPdQdRdSdTdUdVdWdXdYdZd0d1d2d3d4d5d6d7d8d9d.d+eaebecedeeefegeheiejekelemeneoepeqereseteuevewexeyezeAeBeCeDeEeFeGeHeIeJeKeLeMeNeOePeQeReSeTeUeVeWeXeYeZe0e1e2e3e4e5e6e7e8e9e.e+fafbfcfdfefffgfhfifjfkflfmfnfofpfqfrfsftfufvfwfxfyfzfAfBfCfDfEfFfGfHfIfJfKfLfMfNfOfPfQfRfSfTfUfVfWfXfYfZf0f1f2f3f4f5f6f7f8f9f.f+gagbgcgdgegfggghgigjgkglgmgngogpgqgrgsgtgugvgwgxgygzgAgBgCgDgEgFgGgHgIgJgKgLgMgNgOgPgQgRgSgTgUgVgWgXgYgZg0g1g2g3g4g5g6g7g8g9g.g+hahbhchdhehfhghhhihjhkhlhmhnhohphqhrhshthuhvhwhxhyhzhAhBhChDhEhFhGhHhIhJhKhLhMhNhOhPhQhRhShThUhVhWhXhYhZh0h1h2h3h4h5h6h7h8h9h.h+",
"aaabacadaeafagahaiajakalamanaoapaqarasatauavawaxayazaAaBaCaDaEaFaGaHaIaJaKaLaMaNaOaPaQaRaSaTaUaVaWaXaYaZa0a1a2a3a4a5a6a7a8a9a.a+babbbcbdbebfbgbhbibjbkblbmbnbobpbqbrbsbtbubvbwbxbybzbAbBbCbDbEbFbGbHbIbJbKbLbMbNbObPbQbRbSbTbUbVbWbXbYbZb0b1b2b3b4b5b6b7b8b9b.b+cacbcccdcecfcgchcicjckclcmcncocpcqcrcsctcucvcwcxcyczcAcBcCcDcEcFcGcHcIcJcKcLcMcNcOcPcQcRcScTcUcVcWcXcYcZc0c1c2c3c4c5c6c7c8c9c.c+dadbdcdddedfdgdhdidjdkdldmdndodpdqdrdsdtdudvdwdxdydzdAdBdCdDdEdFdGdHdIdJdKdLdMdNdOdPdQdRdSdTdUdVdWdXdYdZd0d1d2d3d4d5d6d7d8d9d.d+eaebecedeeefegeheiejekelemeneoepeqereseteuevewexeyezeAeBeCeDeEeFeGeHeIeJeKeLeMeNeOePeQeReSeTeUeVeWeXeYeZe0e1e2e3e4e5e6e7e8e9e.e+fafbfcfdfefffgfhfifjfkflfmfnfofpfqfrfsftfufvfwfxfyfzfAfBfCfDfEfFfGfHfIfJfKfLfMfNfOfPfQfRfSfTfUfVfWfXfYfZf0f1f2f3f4f5f6f7f8f9f.f+gagbgcgdgegfggghgigjgkglgmgngogpgqgrgsgtgugvgwgxgygzgAgBgCgDgEgFgGgHgIgJgKgLgMgNgOgPgQgRgSgTgUgVgWgXgYgZg0g1g2g3g4g5g6g7g8g9g.g+hahbhchdhehfhghhhihjhkhlhmhnhohphqhrhshthuhvhwhxhyhzhAhBhChDhEhFhGhHhIhJhKhLhMhNhOhPhQhRhShThUhVhWhXhYhZh0h1h2h3h4h5h6h7h8h9h.h+",
"aaabacadaeafagahaiajakalamanaoapaqarasatauavawaxayazaAaBaCaDaEaFaGaHaIaJaKaLaMaNaOaPaQaRaSaTaUaVaWaXaYaZa0a1a2a3a4a5a6a7a8a9a.a+babbbcbdbebfbgbhbibjbkblbmbnbobpbqbrbsbtbubvbwbxbybzbAbBbCbDbEbFbGbHbIbJbKbLbMbNbObPbQbRbSbTbUbVbWbXbYbZb0b1b2b3b4b5b6b7b8b9b.b+cacbcccdcecfcgchcicjckclcmcncocpcqcrcsctcucvcwcxcyczcAcBcCcDcEcFcGcHcIcJcKcLcMcNcOcPcQcRcScTcUcVcWcXcYcZc0c1c2c3c4c5c6c7c8c9c.c+dadbdcdddedfdgdhdidjdkdldmdndodpdqdrdsdtdudvdwdxdydzdAdBdCdDdEdFdGdHdIdJdKdLdMdNdOdPdQdRdSdTdUdVdWdXdYdZd0d1d2d3d4d5d6d7d8d9d.d+eaebecedeeefegeheiejekelemeneoepeqereseteuevewexeyezeAeBeCeDeEeFeGeHeIeJeKeLeMeNeOePeQeReSeTeUeVeWeXeYeZe0e1e2e3e4e5e6e7e8e9e.e+fafbfcfdfefffgfhfifjfkflfmfnfofpfqfrfsftfufvfwfxfyfzfAfBfCfDfEfFfGfHfIfJfKfLfMfNfOfPfQfRfSfTfUfVfWfXfYfZf0f1f2f3f4f5f6f7f8f9f.f+gagbgcgdgegfggghgigjgkglgmgngogpgqgrgsgtgugvgwgxgygzgAgBgCgDgEgFgGgHgIgJgKgLgMgNgOgPgQgRgSgTgUgVgWgXgYgZg0g1g2g3g4g5g6g7g8g9g.g+hahbhchdhehfhghhhihjhkhlhmhnhohphqhrhshthuhvhwhxhyhzhAhBhChDhEhFhGhHhIhJhKhLhMhNhOhPhQhRhShThUhVhWhXhYhZh0h1h2h3h4h5h6h7h8h9h.h+",
"aaabacadaeafagahaiajakalamanaoapaqarasatauavawaxayazaAaBaCaDaEaFaGaHaIaJaKaLaMaNaOaPaQaRaSaTaUaVaWaXaYaZa0a1a2a3a4a5a6a7a8a9a.a+babbbcbdbebfbgbhbibjbkblbmbnbobpbqbrbsbtbubvbwbxbybzbAbBbCbDbEbFbGbHbIbJbKbLbMbNbObPbQbRbSbTbUbVbWbXbYbZb0b1b2b3b4b5b6b7b8b9b.b+cacbcccdcecfcgchcicjckclcmcncocpcqcrcsctcucvcwcxcyczcAcBcCcDcEcFcGcHcIcJcKcLcMcNcOcPcQcRcScTcUcVcWcXcYcZc0c1c2c3c4c5c6c7c8c9c.c+dadbdcdddedfdgdhdidjdkdldmdndodpdqdrdsdtdudvdwdxdydzdAdBdCdDdEdFdGdHdIdJdKdLdMdNdOdPdQdRdSdTdUdVdWdXdYdZd0d1d2d3d4d5d6d7d8d9d.d+eaebecedeeefegeheiejekelemeneoepeqereseteuevewexeyezeAeBeCeDeEeFeGeHeIeJeKeLeMeNeOePeQeReSeTeUeVeWeXeYeZe0e1e2e3e4e5e6e7e8e9e.e+fafbfcfdfefffgfhfifjfkflfmfnfofpfqfrfsftfufvfwfxfyfzfAfBfCfDfEfFfGfHfIfJfKfLfMfNfOfPfQfRfSfTfUfVfWfXfYfZf0f1f2f3f4f5f6f7f8f9f.f+gagbgcgdgegfggghgigjgkglgmgngogpgqgrgsgtgugvgwgxgygzgAgBgCgDgEgFgGgHgIgJgKgLgMgNgOgPgQgRgSgTgUgVgWgXgYgZg0g1g2g3g4g5g6g7g8g9g.g+hahbhchdhehfhghhhihjhkhlhmhnhohphqhrhshthuhvhwhxhyhzhAhBhChDhEhFhGhHhIhJhKhLhMhNhOhPhQhRhShThUhVhWhXhYhZh0h1h2h3h4h5h6h7h8h9h.h+",
"aaabacadaeafagahaiajakalamanaoapaqarasatauavawaxayazaAaBaCaDaEaFaGaHaIaJaKaLaMaNaOaPaQaRaSaTaUaVaWaXaYaZa0a1a2a3a4a5a6a7a8a9a.a+babbbcbdbebfbgbhbibjbkblbmbnbobpbqbrbsbtbubvbwbxbybzbAbBbCbDbEbFbGbHbIbJbKbLbMbNbObPbQbRbSbTbUbVbWbXbYbZb0b1b2b3b4b5b6b7b8b9b.b+cacbcccdcecfcgchcicjckclcmcncocpcqcrcsctcucvcwcxcyczcAcBcCcDcEcFcGcHcIcJcKcLcMcNcOcPcQcRcScTcUcVcWcXcYcZc0c1c2c3c4c5c6c7c8c9c.c+dadbdcdddedfdgdhdidjdkdldmdndodpdqdrdsdtdudvdwdxdydzdAdBdCdDdEdFdGdHdIdJdKdLdMdNdOdPdQdRdSdTdUdVdWdXdYdZd0d1d2d3d4d5d6d7d8d9d.d+eaebecedeeefegeheiejekelemeneoepeqereseteuevewexeyezeAeBeCeDeEeFeGeHeIeJeKeLeMeNeOePeQeReSeTeUeVeWeXeYeZe0e1e2e3e4e5e6e7e8e9e.e+fafbfcfdfefffgfhfifjfkflfmfnfofpfqfrfsftfufvfwfxfyfzfAfBfCfDfEfFfGfHfIfJfKfLfMfNfOfPfQfRfSfTfUfVfWfXfYfZf0f1f2f3f4f5f6f7f8f9f.f+gagbgcgdgegfggghgigjgkglgmgngogpgqgrgsgtgugvgwgxgygzgAgBgCgDgEgFgGgHgIgJgKgLgMgNgOgPgQgRgSgTgUgVgWgXgYgZg0g1g2g3g4g5g6g7g8g9g.g+hahbhchdhehfhghhhihjhkhlhmhnhohphqhrhshthuhvhwhxhyhzhAhBhChDhEhFhGhHhIhJhKhLhMhNhOhPhQhRhShThUhVhWhXhYhZh0h1h2h3h4h5h6h7h8h9h.h+",
"aaabacadaeafagahaiajakalamanaoapaqarasatauavawaxayazaAaBaCaDaEaFaGaHaIaJaKaLaMaNaOaPaQaRaSaTaUaVaWaXaYaZa0a1a2a3a4a5a6a7a8a9a.a+babbbcbdbebfbgbhbibjbkblbmbnbobpbqbrbsbtbubvbwbxbybzbAbBbCbDbEbFbGbHbIbJbKbLbMbNbObPbQbRbSbTbUbVbWbXbYbZb0b1b2b3b4b5b6b7b8b9b.b+cacbcccdcecfcgchcicjckclcmcncocpcqcrcsctcucvcwcxcyczcAcBcCcDcEcFcGcHcIcJcKcLcMcNcOcPcQcRcScTcUcVcWcXcYcZc0c1c2c3c4c5c6c7c8c9c.c+dadbdcdddedfdgdhdidjdkdldmdndodpdqdrdsdtdudvdwdxdydzdAdBdCdDdEdFdGdHdIdJdKdLdMdNdOdPdQdRdSdTdUdVdWdXdYdZd0d1d2d3d4d5d6d7d8d9d.d+eaebecedeeefegeheiejekelemeneoepeqereseteuevewexeyezeAeBeCeDeEeFeGeHeIeJeKeLeMeNeOePeQeReSeTeUeVeWeXeYeZe0e1e2e3e4e5e6e7e8e9e.e+fafbfcfdfefffgfhfifjfkflfmfnfofpfqfrfsftfufvfwfxfyfzfAfBfCfDfEfFfGfHfIfJfKfLfMfNfOfPfQfRfSfTfUfVfWfXfYfZf0f1f2f3f4f5f6f7f8f9f.f+gagbgcgdgegfggghgigjgkglgmgngogpgqgrgsgtgugvgwgxgygzgAgBgCgDgEgFgGgHgIgJgKgLgMgNgOgPgQgRgSgTgUgVgWgXgYgZg0g1g2g3g4g5g6g7g8g9g.g+hahbhchdhehfhghhhihjhkhlhmhnhohphqhrhshthuhvhwhxhyhzhAhBhChDhEhFhGhHhIhJhKhLhMhNhOhPhQhRhShThUhVhWhXhYhZh0h1h2h3h4h5h6h7h8h9h.h+",
"aaabacadaeafagahaiajakalamanaoapaqarasatauavawaxayazaAaBaCaDaEaFaGaHaIaJaKaLaMaNaOaPaQaRaSaTaUaVaWaXaYaZa0a1a2a3a4a5a6a7a8a9a.a+babbbcbdbebfbgbhbibjbkblbmbnbobpbqbrbsbtbubvbwbxbybzbAbBbCbDbEbFbGbHbIbJbKbLbMbNbObPbQbRbSbTbUbVbWbXbYbZb0b1b2b3b4b5b6b7b8b9b.b+cacbcccdcecfcgchcicjckclcmcncocpcqcrcsctcucvcwcxcyczcAcBcCcDcEcFcGcHcIcJcKcLcMcNcOcPcQcRcScTcUcVcWcXcYcZc0c1c2c3c4c5c6c7c8c9c.c+dadbdcdddedfdgdhdidjdkdldmdndodpdqdrdsdtdudvdwdxdydzdAdBdCdDdEdFdGdHdIdJdKdLdMdNdOdPdQdRdSdTdUdVdWdXdYdZd0d1d2d3d4d5d6d7d8d9d.d+eaebecedeeefegeheiejekelemeneoepeqereseteuevewexeyezeAeBeCeDeEeFeGeHeIeJeKeLeMeNeOePeQeReSeTeUeVeWeXeYeZe0e1e2e3e4e5e6e7e8e9e.e+fafbfcfdfefffgfhfifjfkflfmfnfofpfqfrfsftfufvfwfxfyfzfAfBfCfDfEfFfGfHfIfJfKfLfMfNfOfPfQfRfSfTfUfVfWfXfYfZf0f1f2f3f4f5f6f7f8f9f.f+gagbgcgdgegfggghgigjgkglgmgngogpgqgrgsgtgugvgwgxgygzgAgBgCgDgEgFgGgHgIgJgKgLgMgNgOgPgQgRgSgTgUgVgWgXgYgZg0g1g2g3g4g5g6g7g8g9g.g+hahbhchdhehfhghhhihjhkhlhmhnhohphqhrhshthuhvhwhxhyhzhAhBhChDhEhFhGhHhIhJhKhLhMhNhOhPhQhRhShThUhVhWhXhYhZh0h1h2h3h4h5h6h7h8h9h.h+",
"aaabacadaeafagahaiajakalamanaoapaqarasatauavawaxayazaAaBaCaDaEaFaGaHaIaJaKaLaMaNaOaPaQaRaSaTaUaVaWaXaYaZa0a1a2a3a4a5a6a7a8a9a.a+babbbcbdbebfbgbhbibjbkblbmbnbobpbqbrbsbtbubvbwbxbybzbAbBbCbDbEbFbGbHbIbJbKbLbMbNbObPbQbRbSbTbUbVbWbXbYbZb0b1b2b3b4b5b6b7b8b9b.b+cacbcccdcecfcgchcicjckclcmcncocpcqcrcsctcucvcwcxcyczcAcBcCcDcEcFcGcHcIcJcKcLcMcNcOcPcQcRcScTcUcVcWcXcYcZc0c1c2c3c4c5c6c7c8c9c.c+dadbdcdddedfdgdhdidjdkdldmdndodpdqdrdsdtdudvdwdxdydzdAdBdCdDdEdFdGdHdIdJdKdLdMdNdOdPdQdRdSdTdUdVdWdXdYdZd0d1d2d3d4d5d6d7d8d9d.d+eaebecedeeefegeheiejekelemeneoepeqereseteuevewexeyezeAeBeCeDeEeFeGeHeIeJeKeLeMeNeOePeQeReSeTeUeVeWeXeYeZe0e1e2e3e4e5e6e7e8e9e.e+fafbfcfdfefffgfhfifjfkflfmfnfofpfqfrfsftfufvfwfxfyfzfAfBfCfDfEfFfGfHfIfJfKfLfMfNfOfPfQfRfSfTfUfVfWfXfYfZf0f1f2f3f4f5f6f7f8f9f.f+gagbgcgdgegfggghgigjgkglgmgngogpgqgrgsgtgugvgwgxgygzgAgBgCgDgEgFgGgHgIgJgKgLgMgNgOgPgQgRgSgTgUgVgWgXgYgZg0g1g2g3g4g5g6g7g8g9g.g+hahbhchdhehfhghhhihjhkhlhmhnhohphqhrhshthuhvhwhxhyhzhAhBhChDhEhFhGhHhIhJhKhLhMhNhOhPhQhRhShThUhVhWhXhYhZh0h1h2h3h4h5h6h7h8h9h.h+",
"aaabacadaeafagahaiajakalamanaoapaqarasatauavawaxayazaAaBaCaDaEaFaGaHaIaJaKaLaMaNaOaPaQaRaSaTaUaVaWaXaYaZa0a1a2a3a4a5a6a7a8a9a.a+babbbcbdbebfbgbhbibjbkblbmbnbobpbqbrbsbtbubvbwbxbybzbAbBbCbDbEbFbGbHbIbJbKbLbMbNbObPbQbRbSbTbUbVbWbXbYbZb0b1b2b3b4b5b6b7b8b9b.b+cacbcccdcecfcgchcicjckclcmcncocpcqcrcsctcucvcwcxcyczcAcBcCcDcEcFcGcHcIcJcKcLcMcNcOcPcQcRcScTcUcVcWcXcYcZc0c1c2c3c4c5c6c7c8c9c.c+dadbdcdddedfdgdhdidjdkdldmdndodpdqdrdsdtdudvdwdxdydzdAdBdCdDdEdFdGdHdIdJdKdLdMdNdOdPdQdRdSdTdUdVdWdXdYdZd0d1d2d3d4d5d6d7d8d9d.d+eaebecedeeefegeheiejekelemeneoepeqereseteuevewexeyezeAeBeCeDeEeFeGeHeIeJeKeLeMeNeOePeQeReSeTeUeVeWeXeYeZe0e1e2e3e4e5e6e7e8e9e.e+fafbfcfdfefffgfhfifjfkflfmfnfofpfqfrfsftfufvfwfxfyfzfAfBfCfDfEfFfGfHfIfJfKfLfMfNfOfPfQfRfSfTfUfVfWfXfYfZf0f1f2f3f4f5f6f7f8f9f.f+gagbgcgdgegfggghgigjgkglgmgngogpgqgrgsgtgugvgwgxgygzgAgBgCgDgEgFgGgHgIgJgKgLgMgNgOgPgQgRgSgTgUgVgWgXgYgZg0g1g2g3g4g5g6g7g8g9g.g+hahbhchdhehfhghhhihjhkhlhmhnhohphqhrhshthuhvhwhxhyhzhAhBhChDhEhFhGhHhIhJhKhLhMhNhOhPhQhRhShThUhVhWhXhYhZh0h1h2h3h4h5h6h7h8h9h.h+",
"aaabacadaeafagahaiajakalamanaoapaqarasatauavawaxayazaAaBaCaDaEaFaGaHaIaJaKaLaMaNaOaPaQaRaSaTaUaVaWaXaYaZa0a1a2a3a4a5a6a7a8a9a.a+babbbcbdbebfbgbhbibjbkblbmbnbobpbqbrbsbtbubvbwbxbybzbAbBbCbDbEbFbGbHbIbJbKbLbMbNbObPbQbRbSbTbUbVbWbXbYbZb0b1b2b3b4b5b6b7b8b9b.b+cacbcccdcecfcgchcicjckclcmcncocpcqcrcsctcucvcwcxcyczcAcBcCcDcEcFcGcHcIcJcKcLcMcNcOcPcQcRcScTcUcVcWcXcYcZc0c1c2c3c4c5c6c7c8c9c.c+dadbdcdddedfdgdhdidjdkdldmdndodpdqdrdsdtdudvdwdxdydzdAdBdCdDdEdFdGdHdIdJdKdLdMdNdOdPdQdRdSdTdUdVdWdXdYdZd0d1d2d3d4d5d6d7d8d9d.d+eaebecedeeefegeheiejekelemeneoepeqereseteuevewexeyezeAeBeCeDeEeFeGeHeIeJeKeLeMeNeOePeQeReSeTeUeVeWeXeYeZe0e1e2e3e4e5e6e7e8e9e.e+fafbfcfdfefffgfhfifjfkflfmfnfofpfqfrfsftfufvfwfxfyfzfAfBfCfDfEfFfGfHfIfJfKfLfMfNfOfPfQfRfSfTfUfVfWfXfYfZf0f1f2f3f4f5f6f7f8f9f.f+gagbgcgdgegfggghgigjgkglgmgngogpgqgrgsgtgugvgwgxgygzgAgBgCgDgEgFgGgHgIgJgKgLgMgNgOgPgQgRgSgTgUgVgWgXgYgZg0g1g2g3g4g5g6g7g8g9g.g+hahbhchdhehfhghhhihjhkhlhmhnhohphqhrhshthuhvhwhxhyhzhAhBhChDhEhFhGhHhIhJhKhLhMhNhOhPhQhRhShThUhVhWhXhYhZh0h1h2h3h4h5h6h7h8h9h.h+",
"aaabacadaeafagahaiajakalamanaoapaqarasatauavawaxayazaAaBaCaDaEaFaGaHaIaJaKaLaMaNaOaPaQaRaSaTaUaVaWaXaYaZa0a1a2a3a4a5a6a7a8a9a.a+babbbcbdbebfbgbhbibjbkblbmbnbobpbqbrbsbtbubvbwbxbybzbAbBbCbDbEbFbGbHbIbJbKbLbMbNbObPbQbRbSbTbUbVbWbXbYbZb0b1b2b3b4b5b6b7b8b9b.b+cacbcccdcecfcgchcicjckclcmcncocpcqcrcsctcucvcwcxcyczcAcBcCcDcEcFcGcHcIcJcKcLcMcNcOcPcQcRcScTcUcVcWcXcYcZc0c1c2c3c4c5c6c7c8c9c.c+dadbdcdddedfdgdhdidjdkdldmdndodpdqdrdsdtdudvdwdxdydzdAdBdCdDdEdFdGdHdIdJdKdLdMdNdOdPdQdRdSdTdUdVdWdXdYdZd0d1d2d3d4d5d6d7d8d9d.d+eaebecedeeefegeheiejekelemeneoepeqereseteuevewexeyezeAeBeCeDeEeFeGeHeIeJeKeLeMeNeOePeQeReSeTeUeVeWeXeYeZe0e1e2e3e4e5e6e7e8e9e.e+fafbfcfdfefffgfhfifjfkflfmfnfofpfqfrfsftfufvfwfxfyfzfAfBfCfDfEfFfGfHfIfJfKfLfMfNfOfPfQfRfSfTfUfVfWfXfYfZf0f1f2f3f4f5f6f7f8f9f.f+gagbgcgdgegfggghgigjgkglgmgngogpgqgrgsgtgugvgwgxgygzgAgBgCgDgEgFgGgHgIgJgKgLgMgNgOgPgQgRgSgTgUgVgWgXgYgZg0g1g2g3g4g5g6g7g8g9g.g+hahbhchdhehfhghhhihjhkhlhmhnhohphqhrhshthuhvhwhxhyhzhAhBhChDhEhFhGhHhIhJhKhLhMhNhOhPhQhRhShThUhVhWhXhYhZh0h1h2h3h4h5h6h7h8h9h.h+",
"aaabacadaeafagahaiajakalamanaoapaqarasatauavawaxayazaAaBaCaDaEaFaGaHaIaJaKaLaMaNaOaPaQaRaSaTaUaVaWaXaYaZa0a1a2a3a4a5a6a7a8a9a.a+babbbcbdbebfbgbhbibjbkblbmbnbobpbqbrbsbtbubvbwbxbybzbAbBbCbDbEbFbGbHbIbJbKbLbMbNbObPbQbRbSbTbUbVbWbXbYbZb0b1b2b3b4b5b6b7b8b9b.b+cacbcccdcecfcgchcicjckclcmcncocpcqcrcsctcucvcwcxcyczcAcBcCcDcEcFcGcHcIcJcKcLcMcNcOcPcQcRcScTcUcVcWcXcYcZc0c1c2c3c4c5c6c7c8c9c.c+dadbdcdddedfdgdhdidjdkdldmdndodpdqdrdsdtdudvdwdxdydzdAdBdCdDdEdFdGdHdIdJdKdLdMdNdOdPdQdRdSdTdUdVdWdXdYdZd0d1d2d3d4d5d6d7d8d9d.d+eaebecedeeefegeheiejekelemeneoepeqereseteuevewexeyezeAeBeCeDeEeFeGeHeIeJeKeLeMeNeOePeQeReSeTeUeVeWeXeYeZe0e1e2e3e4e5e6e7e8e9e.e+fafbfcfdfefffgfhfifjfkflfmfnfofpfqfrfsftfufvfwfxfyfzfAfBfCfDfEfFfGfHfIfJfKfLfMfNfOfPfQfRfSfTfUfVfWfXfYfZf0f1f2f3f4f5f6f7f8f9f.f+gagbgcgdgegfggghgigjgkglgmgngogpgqgrgsgtgugvgwgxgygzgAgBgCgDgEgFgGgHgIgJgKgLgMgNgOgPgQgRgSgTgUgVgWgXgYgZg0g1g2g3g4g5g6g7g8g9g.g+hahbhchdhehfhghhhihjhkhlhmhnhohphqhrhshthuhvhwhxhyhzhAhBhChDhEhFhGhHhIhJhKhLhMhNhOhPhQhRhShThUhVhWhXhYhZh0h1h2h3h4h5h6h7h8h9h.h+",
"aaabacadaeafagahaiajakalamanaoapaqarasatauavawaxayazaAaBaCaDaEaFaGaHaIaJaKaLaMaNaOaPaQaRaSaTaUaVaWaXaYaZa0a1a2a3a4a5a6a7a8a9a.a+babbbcbdbebfbgbhbibjbkblbmbnbobpbqbrbsbtbubvbwbxbybzbAbBbCbDbEbFbGbHbIbJbKbLbMbNbObPbQbRbSbTbUbVbWbXbYbZb0b1b2b3b4b5b6b7b8b9b.b+cacbcccdcecfcgchcicjckclcmcncocpcqcrcsctcucvcwcxcyczcAcBcCcDcEcFcGcHcIcJcKcLcMcNcOcPcQcRcScTcUcVcWcXcYcZc0c1c2c3c4c5c6c7c8c9c.c+dadbdcdddedfdgdhdidjdkdldmdndodpdqdrdsdtdudvdwdxdydzdAdBdCdDdEdFdGdHdIdJdKdLdMdNdOdPdQdRdSdTdUdVdWdXdYdZd0d1d2d3d4d5d6d7d8d9d.d+eaebecedeeefegeheiejekelemeneoepeqereseteuevewexeyezeAeBeCeDeEeFeGeHeIeJeKeLeMeNeOePeQeReSeTeUeVeWeXeYeZe0e1e2e3e4e5e6e7e8e9e.e+fafbfcfdfefffgfhfifjfkflfmfnfofpfqfrfsftfufvfwfxfyfzfAfBfCfDfEfFfGfHfIfJfKfLfMfNfOfPfQfRfSfTfUfVfWfXfYfZf0f1f2f3f4f5f6f7f8f9f.f+gagbgcgdgegfggghgigjgkglgmgngogpgqgrgsgtgugvgwgxgygzgAgBgCgDgEgFgGgHgIgJgKgLgMgNgOgPgQgRgSgTgUgVgWgXgYgZg0g1g2g3g4g5g6g7g8g9g.g+hahbhchdhehfhghhhihjhkhlhmhnhohphqhrhshthuhvhwhxhyhzhAhBhChDhEhFhGhHhIhJhKhLhMhNhOhPhQhRhShThUhVhWhXhYhZh0h1h2h3h4h5h6h7h8h9h.h+",
"aaabacadaeafagahaiajakalamanaoapaqarasatauavawaxayazaAaBaCaDaEaFaGaHaIaJaKaLaMaNaOaPaQaRaSaTaUaVaWaXaYaZa0a1a2a3a4a5a6a7a8a9a.a+babbbcbdbebfbgbhbibjbkblbmbnbobpbqbrbsbtbubvbwbxbybzbAbBbCbDbEbFbGbHbIbJbKbLbMbNbObPbQbRbSbTbUbVbWbXbYbZb0b1b2b3b4b5b6b7b8b9b.b+cacbcccdcecfcgchcicjckclcmcncocpcqcrcsctcucvcwcxcyczcAcBcCcDcEcFcGcHcIcJcKcLcMcNcOcPcQcRcScTcUcVcWcXcYcZc0c1c2c3c4c5c6c7c8c9c.c+dadbdcdddedfdgdhdidjdkdldmdndodpdqdrdsdtdudvdwdxdydzdAdBdCdDdEdFdGdHdIdJdKdLdMdNdOdPdQdRdSdTdUdVdWdXdYdZd0d1d2d3d4d5d6d7d8d9d.d+eaebecedeeefegeheiejekelemeneoepeqereseteuevewexeyezeAeBeCeDeEeFeGeHeIeJeKeLeMeNeOePeQeReSeTeUeVeWeXeYeZe0e1e2e3e4e5e6e7e8e9e.e+fafbfcfdfefffgfhfifjfkflfmfnfofpfqfrfsftfufvfwfxfyfzfAfBfCfDfEfFfGfHfIfJfKfLfMfNfOfPfQfRfSfTfUfVfWfXfYfZf0f1f2f3f4f5f6f7f8f9f.f+gagbgcgdgegfggghgigjgkglgmgngogpgqgrgsgtgugvgwgxgygzgAgBgCgDgEgFgGgHgIgJgKgLgMgNgOgPgQgRgSgTgUgVgWgXgYgZg0g1g2g3g4g5g6g7g8g9g.g+hahbhchdhehfhghhhihjhkhlhmhnhohphqhrhshthuhvhwhxhyhzhAhBhChDhEhFhGhHhIhJhKhLhMhNhOhPhQhRhShThUhVhWhXhYhZh0h1h2h3h4h5h6h7h8h9h.h+",
"aaabacadaeafagahaiajakalamanaoapaqarasatauavawaxayazaAaBaCaDaEaFaGaHaIaJaKaLaMaNaOaPaQaRaSaTaUaVaWaXaYaZa0a1a2a3a4a5a6a7a8a9a.a+babbbcbdbebfbgbhbibjbkblbmbnbobpbqbrbsbtbubvbwbxbybzbAbBbCbDbEbFbGbHbIbJbKbLbMbNbObPbQbRbSbTbUbVbWbXbYbZb0b1b2b3b4b5b6b7b8b9b.b+cacbcccdcecfcgchcicjckclcmcncocpcqcrcsctcucvcwcxcyczcAcBcCcDcEcFcGcHcIcJcKcLcMcNcOcPcQcRcScTcUcVcWcXcYcZc0c1c2c3c4c5c6c7c8c9c.c+dadbdcdddedfdgdhdidjdkdldmdndodpdqdrdsdtdudvdwdxdydzdAdBdCdDdEdFdGdHdIdJdKdLdMdNdOdPdQdRdSdTdUdVdWdXdYdZd0d1d2d3d4d5d6d7d8d9d.d+eaebecedeeefegeheiejekelemeneoepeqereseteuevewexeyezeAeBeCeDeEeFeGeHeIeJeKeLeMeNeOePeQeReSeTeUeVeWeXeYeZe0e1e2e3e4e5e6e7e8e9e.e+fafbfcfdfefffgfhfifjfkflfmfnfofpfqfrfsftfufvfwfxfyfzfAfBfCfDfEfFfGfHfIfJfKfLfMfNfOfPfQfRfSfTfUfVfWfXfYfZf0f1f2f3f4f5f6f7f8f9f.f+gagbgcgdgegfggghgigjgkglgmgngogpgqgrgsgtgugvgwgxgygzgAgBgCgDgEgFgGgHgIgJgKgLgMgNgOgPgQgRgSgTgUgVgWgXgYgZg0g1g2g3g4g5g6g7g8g9g.g+hahbhchdhehfhghhhihjhkhlhmhnhohphqhrhshthuhvhwhxhyhzhAhBhChDhEhFhGhHhIhJhKhLhMhNhOhPhQhRhShThUhVhWhXhYhZh0h1h2h3h4h5h6h7h8h9h.h+",
"aaabacadaeafagahaiajakalamanaoapaqarasatauavawaxayazaAaBaCaDaEaFaGaHaIaJaKaLaMaNaOaPaQaRaSaTaUaVaWaXaYaZa0a1a2a3a4a5a6a7a8a9a.a+babbbcbdbebfbgbhbibjbkblbmbnbobpbqbrbsbtbubvbwbxbybzbAbBbCbDbEbFbGbHbIbJbKbLbMbNbObPbQbRbSbTbUbVbWbXbYbZb0b1b2b3b4b5b6b7b8b9b.b+cacbcccdcecfcgchcicjckclcmcncocpcqcrcsctcucvcwcxcyczcAcBcCcDcEcFcGcHcIcJcKcLcMcNcOcPcQcRcScTcUcVcWcXcYcZc0c1c2c3c4c5c6c7c8c9c.c+dadbdcdddedfdgdhdidjdkdldmdndodpdqdrdsdtdudvdwdxdydzdAdBdCdDdEdFdGdHdIdJdKdLdMdNdOdPdQdRdSdTdUdVdWdXdYdZd0d1d2d3d4d5d6d7d8d9d.d+eaebecedeeefegeheiejekelemeneoepeqereseteuevewexeyezeAeBeCeDeEeFeGeHeIeJeKeLeMeNeOePeQeReSeTeUeVeWeXeYeZe0e1e2e3e4e5e6e7e8e9e.e+fafbfcfdfefffgfhfifjfkflfmfnfofpfqfrfsftfufvfwfxfyfzfAfBfCfDfEfFfGfHfIfJfKfLfMfNfOfPfQfRfSfTfUfVfWfXfYfZf0f1f2f3f4f5f6f7f8f9f.f+gagbgcgdgegfggghgigjgkglgmgngogpgqgrgsgtgugvgwgxgygzgAgBgCgDgEgFgGgHgIgJgKgLgMgNgOgPgQgRgSgTgUgVgWgXgYgZg0g1g2g3g4g5g6g7g8g9g.g+hahbhchdhehfhghhhihjhkhlhmhnhohphqhrhshthuhvhwhxhyhzhAhBhChDhEhFhGhHhIhJhKhLhMhNhOhPhQhRhShThUhVhWhXhYhZh0h1h2h3h4h5h6h7h8h9h.h+",
"aaabacadaeafagahaiajakalamanaoapaqarasatauavawaxayazaAaBaCaDaEaFaGaHaIaJaKaLaMaNaOaPaQaRaSaTaUaVaWaXaYaZa0a1a2a3a4a5a6a7a8a9a.a+babbbcbdbebfbgbhbibjbkblbmbnbobpbqbrbsbtbubvbwbxbybzbAbBbCbDbEbFbGbHbIbJbKbLbMbNbObPbQbRbSbTbUbVbWbXbYbZb0b1b2b3b4b5b6b7b8b9b.b+cacbcccdcecfcgchcicjckclcmcncocpcqcrcsctcucvcwcxcyczcAcBcCcDcEcFcGcHcIcJcKcLcMcNcOcPcQcRcScTcUcVcWcXcYcZc0c1c2c3c4c5c6c7c8c9c.c+dadbdcdddedfdgdhdidjdkdldmdndodpdqdrdsdtdudvdwdxdydzdAdBdCdDdEdFdGdHdIdJdKdLdMdNdOdPdQdRdSdTdUdVdWdXdYdZd0d1d2d3d4d5d6d7d8d9d.d+eaebecedeeefegeheiejekelemeneoepeqereseteuevewexeyezeAeBeCeDeEeFeGeHeIeJeKeLeMeNeOePeQeReSeTeUeVeWeXeYeZe0e1e2e3e4e5e6e7e8e9e.e+fafbfcfdfefffgfhfifjfkflfmfnfofpfqfrfsftfufvfwfxfyfzfAfBfCfDfEfFfGfHfIfJfKfLfMfNfOfPfQfRfSfTfUfVfWfXfYfZf0f1f2f3f4f5f6f7f8f9f.f+gagbgcgdgegfggghgigjgkglgmgngogpgqgrgsgtgugvgwgxgygzgAgBgCgDgEgFgGgHgIgJgKgLgMgNgOgPgQgRgSgTgUgVgWgXgYgZg0g1g2g3g4g5g6g7g8g9g.g+hahbhchdhehfhghhhihjhkhlhmhnhohphqhrhshthuhvhwhxhyhzhAhBhChDhEhFhGhHhIhJhKhLhMhNhOhPhQhRhShThUhVhWhXhYhZh0h1h2h3h4h5h6h7h8h9h.h+",
"aaabacadaeafagahaiajakalamanaoapaqarasatauavawaxayazaAaBaCaDaEaFaGaHaIaJaKaLaMaNaOaPaQaRaSaTaUaVaWaXaYaZa0a1a2a3a4a5a6a7a8a9a.a+babbbcbdbebfbgbhbibjbkblbmbnbobpbqbrbsbtbubvbwbxbybzbAbBbCbDbEbFbGbHbIbJbKbLbMbNbObPbQbRbSbTbUbVbWbXbYbZb0b1b2b3b4b5b6b7b8b9b.b+cacbcccdcecfcgchcicjckclcmcncocpcqcrcsctcucvcwcxcyczcAcBcCcDcEcFcGcHcIcJcKcLcMcNcOcPcQcRcScTcUcVcWcXcYcZc0c1c2c3c4c5c6c7c8c9c.c+dadbdcdddedfdgdhdidjdkdldmdndodpdqdrdsdtdudvdwdxdydzdAdBdCdDdEdFdGdHdIdJdKdLdMdNdOdPdQdRdSdTdUdVdWdXdYdZd0d1d2d3d4d5d6d7d8d9d.d+eaebecedeeefegeheiejekelemeneoepeqereseteuevewexeyezeAeBeCeDeEeFeGeHeIeJeKeLeMeNeOePeQeReSeTeUeVeWeXeYeZe0e1e2e3e4e5e6e7e8e9e.e+fafbfcfdfefffgfhfifjfkflfmfnfofpfqfrfsftfufvfwfxfyfzfAfBfCfDfEfFfGfHfIfJfKfLfMfNfOfPfQfRfSfTfUfVfWfXfYfZf0f1f2f3f4f5f6f7f8f9f.f+gagbgcgdgegfggghgigjgkglgmgngogpgqgrgsgtgugvgwgxgygzgAgBgCgDgEgFgGgHgIgJgKgLgMgNgOgPgQgRgSgTgUgVgWgXgYgZg0g1g2g3g4g5g6g7g8g9g.g+hahbhchdhehfhghhhihjhkhlhmhnhohphqhrhshthuhvhwhxhyhzhAhBhChDhEhFhGhHhIhJhKhLhMhNhOhPhQhRhShThUhVhWhXhYhZh0h1h2h3h4h5h6h7h8h9h.h+",
"aaabacadaeafagahaiajakalamanaoapaqarasatauavawaxayazaAaBaCaDaEaFaGaHaIaJaKaLaMaNaOaPaQaRaSaTaUaVaWaXaYaZa0a1a2a3a4a5a6a7a8a9a.a+babbbcbdbebfbgbhbibjbkblbmbnbobpbqbrbsbtbubvbwbxbybzbAbBbCbDbEbFbGbHbIbJbKbLbMbNbObPbQbRbSbTbUbVbWbXbYbZb0b1b2b3b4b5b6b7b8b9b.b+cacbcccdcecfcgchcicjckclcmcncocpcqcrcsctcucvcwcxcyczcAcBcCcDcEcFcGcHcIcJcKcLcMcNcOcPcQcRcScTcUcVcWcXcYcZc0c1c2c3c4c5c6c7c8c9c.c+dadbdcdddedfdgdhdidjdkdldmdndodpdqdrdsdtdudvdwdxdydzdAdBdCdDdEdFdGdHdIdJdKdLdMdNdOdPdQdRdSdTdUdVdWdXdYdZd0d1d2d3d4d5d6d7d8d9d.d+eaebecedeeefegeheiejekelemeneoepeqereseteuevewexeyezeAeBeCeDeEeFeGeHeIeJeKeLeMeNeOePeQeReSeTeUeVeWeXeYeZe0e1e2e3e4e5e6e7e8e9e.e+fafbfcfdfefffgfhfifjfkflfmfnfofpfqfrfsftfufvfwfxfyfzfAfBfCfDfEfFfGfHfIfJfKfLfMfNfOfPfQfRfSfTfUfVfWfXfYfZf0f1f2f3f4f5f6f7f8f9f.f+gagbgcgdgegfggghgigjgkglgmgngogpgqgrgsgtgugvgwgxgygzgAgBgCgDgEgFgGgHgIgJgKgLgMgNgOgPgQgRgSgTgUgVgWgXgYgZg0g1g2g3g4g5g6g7g8g9g.g+hahbhchdhehfhghhhihjhkhlhmhnhohphqhrhshthuhvhwhxhyhzhAhBhChDhEhFhGhHhIhJhKhLhMhNhOhPhQhRhShThUhVhWhXhYhZh0h1h2h3h4h5h6h7h8h9h.h+",
"aaabacadaeafagahaiajakalamanaoapaqarasatauavawaxayazaAaBaCaDaEaFaGaHaIaJaKaLaMaNaOaPaQaRaSaTaUaVaWaXaYaZa0a1a2a3a4a5a6a7a8a9a.a+babbbcbdbebfbgbhbibjbkblbmbnbobpbqbrbsbtbubvbwbxbybzbAbBbCbDbEbFbGbHbIbJbKbLbMbNbObPbQbRbSbTbUbVbWbXbYbZb0b1b2b3b4b5b6b7b8b9b.b+cacbcccdcecfcgchcicjckclcmcncocpcqcrcsctcucvcwcxcyczcAcBcCcDcEcFcGcHcIcJcKcLcMcNcOcPcQcRcScTcUcVcWcXcYcZc0c1c2c3c4c5c6c7c8c9c.c+dadbdcdddedfdgdhdidjdkdldmdndodpdqdrdsdtdudvdwdxdydzdAdBdCdDdEdFdGdHdIdJdKdLdMdNdOdPdQdRdSdTdUdVdWdXdYdZd0d1d2d3d4d5d6d7d8d9d.d+eaebecedeeefegeheiejekelemeneoepeqereseteuevewexeyezeAeBeCeDeEeFeGeHeIeJeKeLeMeNeOePeQeReSeTeUeVeWeXeYeZe0e1e2e3e4e5e6e7e8e9e.e+fafbfcfdfefffgfhfifjfkflfmfnfofpfqfrfsftfufvfwfxfyfzfAfBfCfDfEfFfGfHfIfJfKfLfMfNfOfPfQfRfSfTfUfVfWfXfYfZf0f1f2f3f4f5f6f7f8f9f.f+gagbgcgdgegfggghgigjgkglgmgngogpgqgrgsgtgugvgwgxgygzgAgBgCgDgEgFgGgHgIgJgKgLgMgNgOgPgQgRgSgTgUgVgWgXgYgZg0g1g2g3g4g5g6g7g8g9g.g+hahbhchdhehfhghhhihjhkhlhmhnhohphqhrhshthuhvhwhxhyhzhAhBhChDhEhFhGhHhIhJhKhLhMhNhOhPhQhRhShThUhVhWhXhYhZh0h1h2h3h4h5h6h7h8h9h.h+",
"aaabacadaeafagahaiajakalamanaoapaqarasatauavawaxayazaAaBaCaDaEaFaGaHaIaJaKaLaMaNaOaPaQaRaSaTaUaVaWaXaYaZa0a1a2a3a4a5a6a7a8a9a.a+babbbcbdbebfbgbhbibjbkblbmbnbobpbqbrbsbtbubvbwbxbybzbAbBbCbDbEbFbGbHbIbJbKbLbMbNbObPbQbRbSbTbUbVbWbXbYbZb0b1b2b3b4b5b6b7b8b9b.b+cacbcccdcecfcgchcicjckclcmcncocpcqcrcsctcucvcwcxcyczcAcBcCcDcEcFcGcHcIcJcKcLcMcNcOcPcQcRcScTcUcVcWcXcYcZc0c1c2c3c4c5c6c7c8c9c.c+dadbdcdddedfdgdhdidjdkdldmdndodpdqdrdsdtdudvdwdxdydzdAdBdCdDdEdFdGdHdIdJdKdLdMdNdOdPdQdRdSdTdUdVdWdXdYdZd0d1d2d3d4d5d6d7d8d9d.d+eaebecedeeefegeheiejekelemeneoepeqereseteuevewexeyezeAeBeCeDeEeFeGeHeIeJeKeLeMeNeOePeQeReSeTeUeVeWeXeYeZe0e1e2e3e4e5e6e7e8e9e.e+fafbfcfdfefffgfhfifjfkflfmfnfofpfqfrfsftfufvfwfxfyfzfAfBfCfDfEfFfGfHfIfJfKfLfMfNfOfPfQfRfSfTfUfVfWfXfYfZf0f1f2f3f4f5f6f7f8f9f.f+gagbgcgdgegfggghgigjgkglgmgngogpgqgrgsgtgugvgwgxgygzgAgBgCgDgEgFgGgHgIgJgKgLgMgNgOgPgQgRgSgTgUgVgWgXgYgZg0g1g2g3g4g5g6g7g8g9g.g+hahbhchdhehfhghhhihjhkhlhmhnhohphqhrhshthuhvhwhxhyhzhAhBhChDhEhFhGhHhIhJhKhLhMhNhOhPhQhRhShThUhVhWhXhYhZh0h1h2h3h4h5h6h7h8h9h.h+",
"aaabacadaeafagahaiajakalamanaoapaqarasatauavawaxayazaAaBaCaDaEaFaGaHaIaJaKaLaMaNaOaPaQaRaSaTaUaVaWaXaYaZa0a1a2a3a4a5a6a7a8a9a.a+babbbcbdbebfbgbhbibjbkblbmbnbobpbqbrbsbtbubvbwbxbybzbAbBbCbDbEbFbGbHbIbJbKbLbMbNbObPbQbRbSbTbUbVbWbXbYbZb0b1b2b3b4b5b6b7b8b9b.b+cacbcccdcecfcgchcicjckclcmcncocpcqcrcsctcucvcwcxcyczcAcBcCcDcEcFcGcHcIcJcKcLcMcNcOcPcQcRcScTcUcVcWcXcYcZc0c1c2c3c4c5c6c7c8c9c.c+dadbdcdddedfdgdhdidjdkdldmdndodpdqdrdsdtdudvdwdxdydzdAdBdCdDdEdFdGdHdIdJdKdLdMdNdOdPdQdRdSdTdUdVdWdXdYdZd0d1d2d3d4d5d6d7d8d9d.d+eaebecedeeefegeheiejekelemeneoepeqereseteuevewexeyezeAeBeCeDeEeFeGeHeIeJeKeLeMeNeOePeQeReSeTeUeVeWeXeYeZe0e1e2e3e4e5e6e7e8e9e.e+fafbfcfdfefffgfhfifjfkflfmfnfofpfqfrfsftfufvfwfxfyfzfAfBfCfDfEfFfGfHfIfJfKfLfMfNfOfPfQfRfSfTfUfVfWfXfYfZf0f1f2f3f4f5f6f7f8f9f.f+gagbgcgdgegfggghgigjgkglgmgngogpgqgrgsgtgugvgwgxgygzgAgBgCgDgEgFgGgHgIgJgKgLgMgNgOgPgQgRgSgTgUgVgWgXgYgZg0g1g2g3g4g5g6g7g8g9g.g+hahbhchdhehfhghhhihjhkhlhmhnhohphqhrhshthuhvhwhxhyhzhAhBhChDhEhFhGhHhIhJhKhLhMhNhOhPhQhRhShThUhVhWhXhYhZh0h1h2h3h4h5h6h7h8h9h.h+",
"aaabacadaeafagahaiajakalamanaoapaqarasatauavawaxayazaAaBaCaDaEaFaGaHaIaJaKaLaMaNaOaPaQaRaSaTaUaVaWaXaYaZa0a1a2a3a4a5a6a7a8a9a.a+babbbcbdbebfbgbhbibjbkblbmbnbobpbqbrbsbtbubvbwbxbybzbAbBbCbDbEbFbGbHbIbJbKbLbMbNbObPbQbRbSbTbUbVbWbXbYbZb0b1b2b3b4b5b6b7b8b9b.b+cacbcccdcecfcgchcicjckclcmcncocpcqcrcsctcucvcwcxcyczcAcBcCcDcEcFcGcHcIcJcKcLcMcNcOcPcQcRcScTcUcVcWcXcYcZc0c1c2c3c4c5c6c7c8c9c.c+dadbdcdddedfdgdhdidjdkdldmdndodpdqdrdsdtdudvdwdxdydzdAdBdCdDdEdFdGdHdIdJdKdLdMdNdOdPdQdRdSdTdUdVdWdXdYdZd0d1d2d3d4d5d6d7d8d9d.d+eaebecedeeefegeheiejekelemeneoepeqereseteuevewexeyezeAeBeCeDeEeFeGeHeIeJeKeLeMeNeOePeQeReSeTeUeVeWeXeYeZe0e1e2e3e4e5e6e7e8e9e.e+fafbfcfdfefffgfhfifjfkflfmfnfofpfqfrfsftfufvfwfxfyfzfAfBfCfDfEfFfGfHfIfJfKfLfMfNfOfPfQfRfSfTfUfVfWfXfYfZf0f1f2f3f4f5f6f7f8f9f.f+gagbgcgdgegfggghgigjgkglgmgngogpgqgrgsgtgugvgwgxgygzgAgBgCgDgEgFgGgHgIgJgKgLgMgNgOgPgQgRgSgTgUgVgWgXgYgZg0g1g2g3g4g5g6g7g8g9g.g+hahbhchdhehfhghhhihjhkhlhmhnhohphqhrhshthuhvhwhxhyhzhAhBhChDhEhFhGhHhIhJhKhLhMhNhOhPhQhRhShThUhVhWhXhYhZh0h1h2h3h4h5h6h7h8h9h.h+",
"aaabacadaeafagahaiajakalamanaoapaqarasatauavawaxayazaAaBaCaDaEaFaGaHaIaJaKaLaMaNaOaPaQaRaSaTaUaVaWaXaYaZa0a1a2a3a4a5a6a7a8a9a.a+babbbcbdbebfbgbhbibjbkblbmbnbobpbqbrbsbtbubvbwbxbybzbAbBbCbDbEbFbGbHbIbJbKbLbMbNbObPbQbRbSbTbUbVbWbXbYbZb0b1b2b3b4b5b6b7b8b9b.b+cacbcccdcecfcgchcicjckclcmcncocpcqcrcsctcucvcwcxcyczcAcBcCcDcEcFcGcHcIcJcKcLcMcNcOcPcQcRcScTcUcVcWcXcYcZc0c1c2c3c4c5c6c7c8c9c.c+dadbdcdddedfdgdhdidjdkdldmdndodpdqdrdsdtdudvdwdxdydzdAdBdCdDdEdFdGdHdIdJdKdLdMdNdOdPdQdRdSdTdUdVdWdXdYdZd0d1d2d3d4d5d6d7d8d9d.d+eaebecedeeefegeheiejekelemeneoepeqereseteuevewexeyezeAeBeCeDeEeFeGeHeIeJeKeLeMeNeOePeQeReSeTeUeVeWeXeYeZe0e1e2e3e4e5e6e7e8e9e.e+fafbfcfdfefffgfhfifjfkflfmfnfofpfqfrfsftfufvfwfxfyfzfAfBfCfDfEfFfGfHfIfJfKfLfMfNfOfPfQfRfSfTfUfVfWfXfYfZf0f1f2f3f4f5f6f7f8f9f.f+gagbgcgdgegfggghgigjgkglgmgngogpgqgrgsgtgugvgwgxgygzgAgBgCgDgEgFgGgHgIgJgKgLgMgNgOgPgQgRgSgTgUgVgWgXgYgZg0g1g2g3g4g5g6g7g8g9g.g+hahbhchdhehfhghhhihjhkhlhmhnhohphqhrhshthuhvhwhxhyhzhAhBhChDhEhFhGhHhIhJhKhLhMhNhOhPhQhRhShThUhVhWhXhYhZh0h1h2h3h4h5h6h7h8h9h.h+",
"aaabacadaeafagahaiajakalamanaoapaqarasatauavawaxayazaAaBaCaDaEaFaGaHaIaJaKaLaMaNaOaPaQaRaSaTaUaVaWaXaYaZa0a1a2a3a4a5a6a7a8a9a.a+babbbcbdbebfbgbhbibjbkblbmbnbobpbqbrbsbtbubvbwbxbybzbAbBbCbDbEbFbGbHbIbJbKbLbMbNbObPbQbRbSbTbUbVbWbXbYbZb0b1b2b3b4b5b6b7b8b9b.b+cacbcccdcecfcgchcicjckclcmcncocpcqcrcsctcucvcwcxcyczcAcBcCcDcEcFcGcHcIcJcKcLcMcNcOcPcQcRcScTcUcVcWcXcYcZc0c1c2c3c4c5c6c7c8c9c.c+dadbdcdddedfdgdhdidjdkdldmdndodpdqdrdsdtdudvdwdxdydzdAdBdCdDdEdFdGdHdIdJdKdLdMdNdOdPdQdRdSdTdUdVdWdXdYdZd0d1d2d3d4d5d6d7d8d9d.d+eaebecedeeefegeheiejekelemeneoepeqereseteuevewexeyezeAeBeCeDeEeFeGeHeIeJeKeLeMeNeOePeQeReSeTeUeVeWeXeYeZe0e1e2e3e4e5e6e7e8e9e.e+fafbfcfdfefffgfhfifjfkflfmfnfofpfqfrfsftfufvfwfxfyfzfAfBfCfDfEfFfGfHfIfJfKfLfMfNfOfPfQfRfSfTfUfVfWfXfYfZf0f1f2f3f4f5f6f7f8f9f.f+gagbgcgdgegfggghgigjgkglgmgngogpgqgrgsgtgugvgwgxgygzgAgBgCgDgEgFgGgHgIgJgKgLgMgNgOgPgQgRgSgTgUgVgWgXgYgZg0g1g2g3g4g5g6g7g8g9g.g+hahbhchdhehfhghhhihjhkhlhmhnhohphqhrhshthuhvhwhxhyhzhAhBhChDhEhFhGhHhIhJhKhLhMhNhOhPhQhRhShThUhVhWhXhYhZh0h1h2h3h4h5h6h7h8h9h.h+",
"aaabacadaeafagahaiajakalamanaoapaqarasatauavawaxayazaAaBaCaDaEaFaGaHaIaJaKaLaMaNaOaPaQaRaSaTaUaVaWaXaYaZa0a1a2a3a4a5a6a7a8a9a.a+babbbcbdbebfbgbhbibjbkblbmbnbobpbqbrbsbtbubvbwbxbybzbAbBbCbDbEbFbGbHbIbJbKbLbMbNbObPbQbRbSbTbUbVbWbXbYbZb0b1b2b3b4b5b6b7b8b9b.b+cacbcccdcecfcgchcicjckclcmcncocpcqcrcsctcucvcwcxcyczcAcBcCcDcEcFcGcHcIcJcKcLcMcNcOcPcQcRcScTcUcVcWcXcYcZc0c1c2c3c4c5c6c7c8c9c.c+dadbdcdddedfdgdhdidjdkdldmdndodpdqdrdsdtdudvdwdxdydzdAdBdCdDdEdFdGdHdIdJdKdLdMdNdOdPdQdRdSdTdUdVdWdXdYdZd0d1d2d3d4d5d6d7d8d9d.d+eaebecedeeefegeheiejekelemeneoepeqereseteuevewexeyezeAeBeCeDeEeFeGeHeIeJeKeLeMeNeOePeQeReSeTeUeVeWeXeYeZe0e1e2e3e4e5e6e7e8e9e.e+fafbfcfdfefffgfhfifjfkflfmfnfofpfqfrfsftfufvfwfxfyfzfAfBfCfDfEfFfGfHfIfJfKfLfMfNfOfPfQfRfSfTfUfVfWfXfYfZf0f1f2f3f4f5f6f7f8f9f.f+gagbgcgdgegfggghgigjgkglgmgngogpgqgrgsgtgugvgwgxgygzgAgBgCgDgEgFgGgHgIgJgKgLgMgNgOgPgQgRgSgTgUgVgWgXgYgZg0g1g2g3g4g5g6g7g8g9g.g+hahbhchdhehfhghhhihjhkhlhmhnhohphqhrhshthuhvhwhxhyhzhAhBhChDhEhFhGhHhIhJhKhLhMhNhOhPhQhRhShThUhVhWhXhYhZh0h1h2h3h4h5h6h7h8h9h.h+",
"aaabacadaeafagahaiajakalamanaoapaqarasatauavawaxayazaAaBaCaDaEaFaGaHaIaJaKaLaMaNaOaPaQaRaSaTaUaVaWaXaYaZa0a1a2a3a4a5a6a7a8a9a.a+babbbcbdbebfbgbhbibjbkblbmbnbobpbqbrbsbtbubvbwbxbybzbAbBbCbDbEbFbGbHbIbJbKbLbMbNbObPbQbRbSbTbUbVbWbXbYbZb0b1b2b3b4b5b6b7b8b9b.b+cacbcccdcecfcgchcicjckclcmcncocpcqcrcsctcucvcwcxcyczcAcBcCcDcEcFcGcHcIcJcKcLcMcNcOcPcQcRcScTcUcVcWcXcYcZc0c1c2c3c4c5c6c7c8c9c.c+dadbdcdddedfdgdhdidjdkdldmdndodpdqdrdsdtdudvdwdxdydzdAdBdCdDdEdFdGdHdIdJdKdLdMdNdOdPdQdRdSdTdUdVdWdXdYdZd0d1d2d3d4d5d6d7d8d9d.d+eaebecedeeefegeheiejekelemeneoepeqereseteuevewexeyezeAeBeCeDeEeFeGeHeIeJeKeLeMeNeOePeQeReSeTeUeVeWeXeYeZe0e1e2e3e4e5e6e7e8e9e.e+fafbfcfdfefffgfhfifjfkflfmfnfofpfqfrfsftfufvfwfxfyfzfAfBfCfDfEfFfGfHfIfJfKfLfMfNfOfPfQfRfSfTfUfVfWfXfYfZf0f1f2f3f4f5f6f7f8f9f.f+gagbgcgdgegfggghgigjgkglgmgngogpgqgrgsgtgugvgwgxgygzgAgBgCgDgEgFgGgHgIgJgKgLgMgNgOgPgQgRgSgTgUgVgWgXgYgZg0g1g2g3g4g5g6g7g8g9g.g+hahbhchdhehfhghhhihjhkhlhmhnhohphqhrhshthuhvhwhxhyhzhAhBhChDhEhFhGhHhIhJhKhLhMhNhOhPhQhRhShThUhVhWhXhYhZh0h1h2h3h4h5h6h7h8h9h.h+",
"aaabacadaeafagahaiajakalamanaoapaqarasatauavawaxayazaAaBaCaDaEaFaGaHaIaJaKaLaMaNaOaPaQaRaSaTaUaVaWaXaYaZa0a1a2a3a4a5a6a7a8a9a.a+babbbcbdbebfbgbhbibjbkblbmbnbobpbqbrbsbtbubvbwbxbybzbAbBbCbDbEbFbGbHbIbJbKbLbMbNbObPbQbRbSbTbUbVbWbXbYbZb0b1b2b3b4b5b6b7b8b9b.b+cacbcccdcecfcgchcicjckclcmcncocpcqcrcsctcucvcwcxcyczcAcBcCcDcEcFcGcHcIcJcKcLcMcNcOcPcQcRcScTcUcVcWcXcYcZc0c1c2c3c4c5c6c7c8c9c.c+dadbdcdddedfdgdhdidjdkdldmdndodpdqdrdsdtdudvdwdxdydzdAdBdCdDdEdFdGdHdIdJdKdLdMdNdOdPdQdRdSdTdUdVdWdXdYdZd0d1d2d3d4d5d6d7d8d9d.d+eaebecedeeefegeheiejekelemeneoepeqereseteuevewexeyezeAeBeCeDeEeFeGeHeIeJeKeLeMeNeOePeQeReSeTeUeVeWeXeYeZe0e1e2e3e4e5e6e7e8e9e.e+fafbfcfdfefffgfhfifjfkflfmfnfofpfqfrfsftfufvfwfxfyfzfAfBfCfDfEfFfGfHfIfJfKfLfMfNfOfPfQfRfSfTfUfVfWfXfYfZf0f1f2f3f4f5f6f7f8f9f.f+gagbgcgdgegfggghgigjgkglgmgngogpgqgrgsgtgugvgwgxgygzgAgBgCgDgEgFgGgHgIgJgKgLgMgNgOgPgQgRgSgTgUgVgWgXgYgZg0g1g2g3g4g5g6g7g8g9g.g+hahbhchdhehfhghhhihjhkhlhmhnhohphqhrhshthuhvhwhxhyhzhAhBhChDhEhFhGhHhIhJhKhLhMhNhOhPhQhRhShThUhVhWhXhYhZh0h1h2h3h4h5h6h7h8h9h.h+",
"aaabacadaeafagahaiajakalamanaoapaqarasatauavawaxayazaAaBaCaDaEaFaGaHaIaJaKaLaMaNaOaPaQaRaSaTaUaVaWaXaYaZa0a1a2a3a4a5a6a7a8a9a.a+babbbcbdbebfbgbhbibjbkblbmbnbobpbqbrbsbtbubvbwbxbybzbAbBbCbDbEbFbGbHbIbJbKbLbMbNbObPbQbRbSbTbUbVbWbXbYbZb0b1b2b3b4b5b6b7b8b9b.b+cacbcccdcecfcgchcicjckclcmcncocpcqcrcsctcucvcwcxcyczcAcBcCcDcEcFcGcHcIcJcKcLcMcNcOcPcQcRcScTcUcVcWcXcYcZc0c1c2c3c4c5c6c7c8c9c.c+dadbdcdddedfdgdhdidjdkdldmdndodpdqdrdsdtdudvdwdxdydzdAdBdCdDdEdFdGdHdIdJdKdLdMdNdOdPdQdRdSdTdUdVdWdXdYdZd0d1d2d3d4d5d6d7d8d9d.d+eaebecedeeefegeheiejekelemeneoepeqereseteuevewexeyezeAeBeCeDeEeFeGeHeIeJeKeLeMeNeOePeQeReSeTeUeVeWeXeYeZe0e1e2e3e4e5e6e7e8e9e.e+fafbfcfdfefffgfhfifjfkflfmfnfofpfqfrfsftfufvfwfxfyfzfAfBfCfDfEfFfGfHfIfJfKfLfMfNfOfPfQfRfSfTfUfVfWfXfYfZf0f1f2f3f4f5f6f7f8f9f.f+gagbgcgdgegfggghgigjgkglgmgngogpgqgrgsgtgugvgwgxgygzgAgBgCgDgEgFgGgHgIgJgKgLgMgNgOgPgQgRgSgTgUgVgWgXgYgZg0g1g2g3g4g5g6g7g8g9g.g+hahbhchdhehfhghhhihjhkhlhmhnhohphqhrhshthuhvhwhxhyhzhAhBhChDhEhFhGhHhIhJhKhLhMhNhOhPhQhRhShThUhVhWhXhYhZh0h1h2h3h4h5h6h7h8h9h.h+",
"aaabacadaeafagahaiajakalamanaoapaqarasatauavawaxayazaAaBaCaDaEaFaGaHaIaJaKaLaMaNaOaPaQaRaSaTaUaVaWaXaYaZa0a1a2a3a4a5a6a7a8a9a.a+babbbcbdbebfbgbhbibjbkblbmbnbobpbqbrbsbtbubvbwbxbybzbAbBbCbDbEbFbGbHbIbJbKbLbMbNbObPbQbRbSbTbUbVbWbXbYbZb0b1b2b3b4b5b6b7b8b9b.b+cacbcccdcecfcgchcicjckclcmcncocpcqcrcsctcucvcwcxcyczcAcBcCcDcEcFcGcHcIcJcKcLcMcNcOcPcQcRcScTcUcVcWcXcYcZc0c1c2c3c4c5c6c7c8c9c.c+dadbdcdddedfdgdhdidjdkdldmdndodpdqdrdsdtdudvdwdxdydzdAdBdCdDdEdFdGdHdIdJdKdLdMdNdOdPdQdRdSdTdUdVdWdXdYdZd0d1d2d3d4d5d6d7d8d9d.d+eaebecedeeefegeheiejekelemeneoepeqereseteuevewexeyezeAeBeCeDeEeFeGeHeIeJeKeLeMeNeOePeQeReSeTeUeVeWeXeYeZe0e1e2e3e4e5e6e7e8e9e.e+fafbfcfdfefffgfhfifjfkflfmfnfofpfqfrfsftfufvfwfxfyfzfAfBfCfDfEfFfGfHfIfJfKfLfMfNfOfPfQfRfSfTfUfVfWfXfYfZf0f1f2f3f4f5f6f7f8f9f.f+gagbgcgdgegfggghgigjgkglgmgngogpgqgrgsgtgugvgwgxgygzgAgBgCgDgEgFgGgHgIgJgKgLgMgNgOgPgQgRgSgTgUgVgWgXgYgZg0g1g2g3g4g5g6g7g8g9g.g+hahbhchdhehfhghhhihjhkhlhmhnhohphqhrhshthuhvhwhxhyhzhAhBhChDhEhFhGhHhIhJhKhLhMhNhOhPhQhRhShThUhVhWhXhYhZh0h1h2h3h4h5h6h7h8h9h.h+",
"aaabacadaeafagahaiajakalamanaoapaqarasatauavawaxayazaAaBaCaDaEaFaGaHaIaJaKaLaMaNaOaPaQaRaSaTaUaVaWaXaYaZa0a1a2a3a4a5a6a7a8a9a.a+babbbcbdbebfbgbhbibjbkblbmbnbobpbqbrbsbtbubvbwbxbybzbAbBbCbDbEbFbGbHbIbJbKbLbMbNbObPbQbRbSbTbUbVbWbXbYbZb0b1b2b3b4b5b6b7b8b9b.b+cacbcccdcecfcgchcicjckclcmcncocpcqcrcsctcucvcwcxcyczcAcBcCcDcEcFcGcHcIcJcKcLcMcNcOcPcQcRcScTcUcVcWcXcYcZc0c1c2c3c4c5c6c7c8c9c.c+dadbdcdddedfdgdhdidjdkdldmdndodpdqdrdsdtdudvdwdxdydzdAdBdCdDdEdFdGdHdIdJdKdLdMdNdOdPdQdRdSdTdUdVdWdXdYdZd0d1d2d3d4d5d6d7d8d9d.d+eaebecedeeefegeheiejekelemeneoepeqereseteuevewexeyezeAeBeCeDeEeFeGeHeIeJeKeLeMeNeOePeQeReSeTeUeVeWeXeYeZe0e1e2e3e4e5e6e7e8e9e.e+fafbfcfdfefffgfhfifjfkflfmfnfofpfqfrfsftfufvfwfxfyfzfAfBfCfDfEfFfGfHfIfJfKfLfMfNfOfPfQfRfSfTfUfVfWfXfYfZf0f1f2f3f4f5f6f7f8f9f.f+gagbgcgdgegfggghgigjgkglgmgngogpgqgrgsgtgugvgwgxgygzgAgBgCgDgEgFgGgHgIgJgKgLgMgNgOgPgQgRgSgTgUgVgWgXgYgZg0g1g2g3g4g5g6g7g8g9g.g+hahbhchdhehfhghhhihjhkhlhmhnhohphqhrhshthuhvhwhxhyhzhAhBhChDhEhFhGhHhIhJhKhLhMhNhOhPhQhRhShThUhVhWhXhYhZh0h1h2h3h4h5h6h7h8h9h.h+",
"aaabacadaeafagahaiajakalamanaoapaqarasatauavawaxayazaAaBaCaDaEaFaGaHaIaJaKaLaMaNaOaPaQaRaSaTaUaVaWaXaYaZa0a1a2a3a4a5a6a7a8a9a.a+babbbcbdbebfbgbhbibjbkblbmbnbobpbqbrbsbtbubvbwbxbybzbAbBbCbDbEbFbGbHbIbJbKbLbMbNbObPbQbRbSbTbUbVbWbXbYbZb0b1b2b3b4b5b6b7b8b9b.b+cacbcccdcecfcgchcicjckclcmcncocpcqcrcsctcucvcwcxcyczcAcBcCcDcEcFcGcHcIcJcKcLcMcNcOcPcQcRcScTcUcVcWcXcYcZc0c1c2c3c4c5c6c7c8c9c.c+dadbdcdddedfdgdhdidjdkdldmdndodpdqdrdsdtdudvdwdxdydzdAdBdCdDdEdFdGdHdIdJdKdLdMdNdOdPdQdRdSdTdUdVdWdXdYdZd0d1d2d3d4d5d6d7d8d9d.d+eaebecedeeefegeheiejekelemeneoepeqereseteuevewexeyezeAeBeCeDeEeFeGeHeIeJeKeLeMeNeOePeQeReSeTeUeVeWeXeYeZe0e1e2e3e4e5e6e7e8e9e.e+fafbfcfdfefffgfhfifjfkflfmfnfofpfqfrfsftfufvfwfxfyfzfAfBfCfDfEfFfGfHfIfJfKfLfMfNfOfPfQfRfSfTfUfVfWfXfYfZf0f1f2f3f4f5f6f7f8f9f.f+gagbgcgdgegfggghgigjgkglgmgngogpgqgrgsgtgugvgwgxgygzgAgBgCgDgEgFgGgHgIgJgKgLgMgNgOgPgQgRgSgTgUgVgWgXgYgZg0g1g2g3g4g5g6g7g8g9g.g+hahbhchdhehfhghhhihjhkhlhmhnhohphqhrhshthuhvhwhxhyhzhAhBhChDhEhFhGhHhIhJhKhLhMhNhOhPhQhRhShThUhVhWhXhYhZh0h1h2h3h4h5h6h7h8h9h.h+",
"aaabacadaeafagahaiajakalamanaoapaqarasatauavawaxayazaAaBaCaDaEaFaGaHaIaJaKaLaMaNaOaPaQaRaSaTaUaVaWaXaYaZa0a1a2a3a4a5a6a7a8a9a.a+babbbcbdbebfbgbhbibjbkblbmbnbobpbqbrbsbtbubvbwbxbybzbAbBbCbDbEbFbGbHbIbJbKbLbMbNbObPbQbRbSbTbUbVbWbXbYbZb0b1b2b3b4b5b6b7b8b9b.b+cacbcccdcecfcgchcicjckclcmcncocpcqcrcsctcucvcwcxcyczcAcBcCcDcEcFcGcHcIcJcKcLcMcNcOcPcQcRcScTcUcVcWcXcYcZc0c1c2c3c4c5c6c7c8c9c.c+dadbdcdddedfdgdhdidjdkdldmdndodpdqdrdsdtdudvdwdxdydzdAdBdCdDdEdFdGdHdIdJdKdLdMdNdOdPdQdRdSdTdUdVdWdXdYdZd0d1d2d3d4d5d6d7d8d9d.d+eaebecedeeefegeheiejekelemeneoepeqereseteuevewexeyezeAeBeCeDeEeFeGeHeIeJeKeLeMeNeOePeQeReSeTeUeVeWeXeYeZe0e1e2e3e4e5e6e7e8e9e.e+fafbfcfdfefffgfhfifjfkflfmfnfofpfqfrfsftfufvfwfxfyfzfAfBfCfDfEfFfGfHfIfJfKfLfMfNfOfPfQfRfSfTfUfVfWfXfYfZf0f1f2f3f4f5f6f7f8f9f.f+gagbgcgdgegfggghgigjgkglgmgngogpgqgrgsgtgugvgwgxgygzgAgBgCgDgEgFgGgHgIgJgKgLgMgNgOgPgQgRgSgTgUgVgWgXgYgZg0g1g2g3g4g5g6g7g8g9g.g+hahbhchdhehfhghhhihjhkhlhmhnhohphqhrhshthuhvhwhxhyhzhAhBhChDhEhFhGhHhIhJhKhLhMhNhOhPhQhRhShThUhVhWhXhYhZh0h1h2h3h4h5h6h7h8h9h.h+",
"aaabacadaeafagahaiajakalamanaoapaqarasatauavawaxayazaAaBaCaDaEaFaGaHaIaJaKaLaMaNaOaPaQaRaSaTaUaVaWaXaYaZa0a1a2a3a4a5a6a7a8a9a.a+babbbcbdbebfbgbhbibjbkblbmbnbobpbqbrbsbtbubvbwbxbybzbAbBbCbDbEbFbGbHbIbJbKbLbMbNbObPbQbRbSbTbUbVbWbXbYbZb0b1b2b3b4b5b6b7b8b9b.b+cacbcccdcecfcgchcicjckclcmcncocpcqcrcsctcucvcwcxcyczcAcBcCcDcEcFcGcHcIcJcKcLcMcNcOcPcQcRcScTcUcVcWcXcYcZc0c1c2c3c4c5c6c7c8c9c.c+dadbdcdddedfdgdhdidjdkdldmdndodpdqdrdsdtdudvdwdxdydzdAdBdCdDdEdFdGdHdIdJdKdLdMdNdOdPdQdRdSdTdUdVdWdXdYdZd0d1d2d3d4d5d6d7d8d9d.d+eaebecedeeefegeheiejekelemeneoepeqereseteuevewexeyezeAeBeCeDeEeFeGeHeIeJeKeLeMeNeOePeQeReSeTeUeVeWeXeYeZe0e1e2e3e4e5e6e7e8e9e.e+fafbfcfdfefffgfhfifjfkflfmfnfofpfqfrfsftfufvfwfxfyfzfAfBfCfDfEfFfGfHfIfJfKfLfMfNfOfPfQfRfSfTfUfVfWfXfYfZf0f1f2f3f4f5f6f7f8f9f.f+gagbgcgdgegfggghgigjgkglgmgngogpgqgrgsgtgugvgwgxgygzgAgBgCgDgEgFgGgHgIgJgKgLgMgNgOgPgQgRgSgTgUgVgWgXgYgZg0g1g2g3g4g5g6g7g8g9g.g+hahbhchdhehfhghhhihjhkhlhmhnhohphqhrhshthuhvhwhxhyhzhAhBhChDhEhFhGhHhIhJhKhLhMhNhOhPhQhRhShThUhVhWhXhYhZh0h1h2h3h4h5h6h7h8h9h.h+",
"aaabacadaeafagahaiajakalamanaoapaqarasatauavawaxayazaAaBaCaDaEaFaGaHaIaJaKaLaMaNaOaPaQaRaSaTaUaVaWaXaYaZa0a1a2a3a4a5a6a7a8a9a.a+babbbcbdbebfbgbhbibjbkblbmbnbobpbqbrbsbtbubvbwbxbybzbAbBbCbDbEbFbGbHbIbJbKbLbMbNbObPbQbRbSbTbUbVbWbXbYbZb0b1b2b3b4b5b6b7b8b9b.b+cacbcccdcecfcgchcicjckclcmcncocpcqcrcsctcucvcwcxcyczcAcBcCcDcEcFcGcHcIcJcKcLcMcNcOcPcQcRcScTcUcVcWcXcYcZc0c1c2c3c4c5c6c7c8c9c.c+dadbdcdddedfdgdhdidjdkdldmdndodpdqdrdsdtdudvdwdxdydzdAdBdCdDdEdFdGdHdIdJdKdLdMdNdOdPdQdRdSdTdUdVdWdXdYdZd0d1d2d3d4d5d6d7d8d9d.d+eaebecedeeefegeheiejekelemeneoepeqereseteuevewexeyezeAeBeCeDeEeFeGeHeIeJeKeLeMeNeOePeQeReSeTeUeVeWeXeYeZe0e1e2e3e4e5e6e7e8e9e.e+fafbfcfdfefffgfhfifjfkflfmfnfofpfqfrfsftfufvfwfxfyfzfAfBfCfDfEfFfGfHfIfJfKfLfMfNfOfPfQfRfSfTfUfVfWfXfYfZf0f1f2f3f4f5f6f7f8f9f.f+gagbgcgdgegfggghgigjgkglgmgngogpgqgrgsgtgugvgwgxgygzgAgBgCgDgEgFgGgHgIgJgKgLgMgNgOgPgQgRgSgTgUgVgWgXgYgZg0g1g2g3g4g5g6g7g8g9g.g+hahbhchdhehfhghhhihjhkhlhmhnhohphqhrhshthuhvhwhxhyhzhAhBhChDhEhFhGhHhIhJhKhLhMhNhOhPhQhRhShThUhVhWhXhYhZh0h1h2h3h4h5h6h7h8h9h.h+",
"aaabacadaeafagahaiajakalamanaoapaqarasatauavawaxayazaAaBaCaDaEaFaGaHaIaJaKaLaMaNaOaPaQaRaSaTaUaVaWaXaYaZa0a1a2a3a4a5a6a7a8a9a.a+babbbcbdbebfbgbhbibjbkblbmbnbobpbqbrbsbtbubvbwbxbybzbAbBbCbDbEbFbGbHbIbJbKbLbMbNbObPbQbRbSbTbUbVbWbXbYbZb0b1b2b3b4b5b6b7b8b9b.b+cacbcccdcecfcgchcicjckclcmcncocpcqcrcsctcucvcwcxcyczcAcBcCcDcEcFcGcHcIcJcKcLcMcNcOcPcQcRcScTcUcVcWcXcYcZc0c1c2c3c4c5c6c7c8c9c.c+dadbdcdddedfdgdhdidjdkdldmdndodpdqdrdsdtdudvdwdxdydzdAdBdCdDdEdFdGdHdIdJdKdLdMdNdOdPdQdRdSdTdUdVdWdXdYdZd0d1d2d3d4d5d6d7d8d9d.d+eaebecedeeefegeheiejekelemeneoepeqereseteuevewexeyezeAeBeCeDeEeFeGeHeIeJeKeLeMeNeOePeQeReSeTeUeVeWeXeYeZe0e1e2e3e4e5e6e7e8e9e.e+fafbfcfdfefffgfhfifjfkflfmfnfofpfqfrfsftfufvfwfxfyfzfAfBfCfDfEfFfGfHfIfJfKfLfMfNfOfPfQfRfSfTfUfVfWfXfYfZf0f1f2f3f4f5f6f7f8f9f.f+gagbgcgdgegfggghgigjgkglgmgngogpgqgrgsgtgugvgwgxgygzgAgBgCgDgEgFgGgHgIgJgKgLgMgNgOgPgQgRgSgTgUgVgWgXgYgZg0g1g2g3g4g5g6g7g8g9g.g+hahbhchdhehfhghhhihjhkhlhmhnhohphqhrhshthuhvhwhxhyhzhAhBhChDhEhFhGhHhIhJhKhLhMhNhOhPhQhRhShThUhVhWhXhYhZh0h1h2h3h4h5h6h7h8h9h.h+",
"aaabacadaeafagahaiajakalamanaoapaqarasatauavawaxayazaAaBaCaDaEaFaGaHaIaJaKaLaMaNaOaPaQaRaSaTaUaVaWaXaYaZa0a1a2a3a4a5a6a7a8a9a.a+babbbcbdbebfbgbhbibjbkblbmbnbobpbqbrbsbtbubvbwbxbybzbAbBbCbDbEbFbGbHbIbJbKbLbMbNbObPbQbRbSbTbUbVbWbXbYbZb0b1b2b3b4b5b6b7b8b9b.b+cacbcccdcecfcgchcicjckclcmcncocpcqcrcsctcucvcwcxcyczcAcBcCcDcEcFcGcHcIcJcKcLcMcNcOcPcQcRcScTcUcVcWcXcYcZc0c1c2c3c4c5c6c7c8c9c.c+dadbdcdddedfdgdhdidjdkdldmdndodpdqdrdsdtdudvdwdxdydzdAdBdCdDdEdFdGdHdIdJdKdLdMdNdOdPdQdRdSdTdUdVdWdXdYdZd0d1d2d3d4d5d6d7d8d9d.d+eaebecedeeefegeheiejekelemeneoepeqereseteuevewexeyezeAeBeCeDeEeFeGeHeIeJeKeLeMeNeOePeQeReSeTeUeVeWeXeYeZe0e1e2e3e4e5e6e7e8e9e.e+fafbfcfdfefffgfhfifjfkflfmfnfofpfqfrfsftfufvfwfxfyfzfAfBfCfDfEfFfGfHfIfJfKfLfMfNfOfPfQfRfSfTfUfVfWfXfYfZf0f1f2f3f4f5f6f7f8f9f.f+gagbgcgdgegfggghgigjgkglgmgngogpgqgrgsgtgugvgwgxgygzgAgBgCgDgEgFgGgHgIgJgKgLgMgNgOgPgQgRgSgTgUgVgWgXgYgZg0g1g2g3g4g5g6g7g8g9g.g+hahbhchdhehfhghhhihjhkhlhmhnhohphqhrhshthuhvhwhxhyhzhAhBhChDhEhFhGhHhIhJhKhLhMhNhOhPhQhRhShThUhVhWhXhYhZh0h1h2h3h4h5h6h7h8h9h.h+",
"aaabacadaeafagahaiajakalamanaoapaqarasatauavawaxayazaAaBaCaDaEaFaGaHaIaJaKaLaMaNaOaPaQaRaSaTaUaVaWaXaYaZa0a1a2a3a4a5a6a7a8a9a.a+babbbcbdbebfbgbhbibjbkblbmbnbobpbqbrbsbtbubvbwbxbybzbAbBbCbDbEbFbGbHbIbJbKbLbMbNbObPbQbRbSbTbUbVbWbXbYbZb0b1b2b3b4b5b6b7b8b9b.b+cacbcccdcecfcgchcicjckclcmcncocpcqcrcsctcucvcwcxcyczcAcBcCcDcEcFcGcHcIcJcKcLcMcNcOcPcQcRcScTcUcVcWcXcYcZc0c1c2c3c4c5c6c7c8c9c.c+dadbdcdddedfdgdhdidjdkdldmdndodpdqdrdsdtdudvdwdxdydzdAdBdCdDdEdFdGdHdIdJdKdLdMdNdOdPdQdRdSdTdUdVdWdXdYdZd0d1d2d3d4d5d6d7d8d9d.d+eaebecedeeefegeheiejekelemeneoepeqereseteuevewexeyezeAeBeCeDeEeFeGeHeIeJeKeLeMeNeOePeQeReSeTeUeVeWeXeYeZe0e1e2e3e4e5e6e7e8e9e.e+fafbfcfdfefffgfhfifjfkflfmfnfofpfqfrfsftfufvfwfxfyfzfAfBfCfDfEfFfGfHfIfJfKfLfMfNfOfPfQfRfSfTfUfVfWfXfYfZf0f1f2f3f4f5f6f7f8f9f.f+gagbgcgdgegfggghgigjgkglgmgngogpgqgrgsgtgugvgwgxgygzgAgBgCgDgEgFgGgHgIgJgKgLgMgNgOgPgQgRgSgTgUgVgWgXgYgZg0g1g2g3g4g5g6g7g8g9g.g+hahbhchdhehfhghhhihjhkhlhmhnhohphqhrhshthuhvhwhxhyhzhAhBhChDhEhFhGhHhIhJhKhLhMhNhOhPhQhRhShThUhVhWhXhYhZh0h1h2h3h4h5h6h7h8h9h.h+",
"aaabacadaeafagahaiajakalamanaoapaqarasatauavawaxayazaAaBaCaDaEaFaGaHaIaJaKaLaMaNaOaPaQaRaSaTaUaVaWaXaYaZa0a1a2a3a4a5a6a7a8a9a.a+babbbcbdbebfbgbhbibjbkblbmbnbobpbqbrbsbtbubvbwbxbybzbAbBbCbDbEbFbGbHbIbJbKbLbMbNbObPbQbRbSbTbUbVbWbXbYbZb0b1b2b3b4b5b6b7b8b9b.b+cacbcccdcecfcgchcicjckclcmcncocpcqcrcsctcucvcwcxcyczcAcBcCcDcEcFcGcHcIcJcKcLcMcNcOcPcQcRcScTcUcVcWcXcYcZc0c1c2c3c4c5c6c7c8c9c.c+dadbdcdddedfdgdhdidjdkdldmdndodpdqdrdsdtdudvdwdxdydzdAdBdCdDdEdFdGdHdIdJdKdLdMdNdOdPdQdRdSdTdUdVdWdXdYdZd0d1d2d3d4d5d6d7d8d9d.d+eaebecedeeefegeheiejekelemeneoepeqereseteuevewexeyezeAeBeCeDeEeFeGeHeIeJeKeLeMeNeOePeQeReSeTeUeVeWeXeYeZe0e1e2e3e4e5e6e7e8e9e.e+fafbfcfdfefffgfhfifjfkflfmfnfofpfqfrfsftfufvfwfxfyfzfAfBfCfDfEfFfGfHfIfJfKfLfMfNfOfPfQfRfSfTfUfVfWfXfYfZf0f1f2f3f4f5f6f7f8f9f.f+gagbgcgdgegfggghgigjgkglgmgngogpgqgrgsgtgugvgwgxgygzgAgBgCgDgEgFgGgHgIgJgKgLgMgNgOgPgQgRgSgTgUgVgWgXgYgZg0g1g2g3g4g5g6g7g8g9g.g+hahbhchdhehfhghhhihjhkhlhmhnhohphqhrhshthuhvhwhxhyhzhAhBhChDhEhFhGhHhIhJhKhLhMhNhOhPhQhRhShThUhVhWhXhYhZh0h1h2h3h4h5h6h7h8h9h.h+",
"aaabacadaeafagahaiajakalamanaoapaqarasatauavawaxayazaAaBaCaDaEaFaGaHaIaJaKaLaMaNaOaPaQaRaSaTaUaVaWaXaYaZa0a1a2a3a4a5a6a7a8a9a.a+babbbcbdbebfbgbhbibjbkblbmbnbobpbqbrbsbtbubvbwbxbybzbAbBbCbDbEbFbGbHbIbJbKbLbMbNbObPbQbRbSbTbUbVbWbXbYbZb0b1b2b3b4b5b6b7b8b9b.b+cacbcccdcecfcgchcicjckclcmcncocpcqcrcsctcucvcwcxcyczcAcBcCcDcEcFcGcHcIcJcKcLcMcNcOcPcQcRcScTcUcVcWcXcYcZc0c1c2c3c4c5c6c7c8c9c.c+dadbdcdddedfdgdhdidjdkdldmdndodpdqdrdsdtdudvdwdxdydzdAdBdCdDdEdFdGdHdIdJdKdLdMdNdOdPdQdRdSdTdUdVdWdXdYdZd0d1d2d3d4d5d6d7d8d9d.d+eaebecedeeefegeheiejekelemeneoepeqereseteuevewexeyezeAeBeCeDeEeFeGeHeIeJeKeLeMeNeOePeQeReSeTeUeVeWeXeYeZe0e1e2e3e4e5e6e7e8e9e.e+fafbfcfdfefffgfhfifjfkflfmfnfofpfqfrfsftfufvfwfxfyfzfAfBfCfDfEfFfGfHfIfJfKfLfMfNfOfPfQfRfSfTfUfVfWfXfYfZf0f1f2f3f4f5f6f7f8f9f.f+gagbgcgdgegfggghgigjgkglgmgngogpgqgrgsgtgugvgwgxgygzgAgBgCgDgEgFgGgHgIgJgKgLgMgNgOgPgQgRgSgTgUgVgWgXgYgZg0g1g2g3g4g5g6g7g8g9g.g+hahbhchdhehfhghhhihjhkhlhmhnhohphqhrhshthuhvhwhxhyhzhAhBhChDhEhFhGhHhIhJhKhLhMhNhOhPhQhRhShThUhVhWhXhYhZh0h1h2h3h4h5h6h7h8h9h.h+",
"aaabacadaeafagahaiajakalamanaoapaqarasatauavawaxayazaAaBaCaDaEaFaGaHaIaJaKaLaMaNaOaPaQaRaSaTaUaVaWaXaYaZa0a1a2a3a4a5a6a7a8a9a.a+babbbcbdbebfbgbhbibjbkblbmbnbobpbqbrbsbtbubvbwbxbybzbAbBbCbDbEbFbGbHbIbJbKbLbMbNbObPbQbRbSbTbUbVbWbXbYbZb0b1b2b3b4b5b6b7b8b9b.b+cacbcccdcecfcgchcicjckclcmcncocpcqcrcsctcucvcwcxcyczcAcBcCcDcEcFcGcHcIcJcKcLcMcNcOcPcQcRcScTcUcVcWcXcYcZc0c1c2c3c4c5c6c7c8c9c.c+dadbdcdddedfdgdhdidjdkdldmdndodpdqdrdsdtdudvdwdxdydzdAdBdCdDdEdFdGdHdIdJdKdLdMdNdOdPdQdRdSdTdUdVdWdXdYdZd0d1d2d3d4d5d6d7d8d9d.d+eaebecedeeefegeheiejekelemeneoepeqereseteuevewexeyezeAeBeCeDeEeFeGeHeIeJeKeLeMeNeOePeQeReSeTeUeVeWeXeYeZe0e1e2e3e4e5e6e7e8e9e.e+fafbfcfdfefffgfhfifjfkflfmfnfofpfqfrfsftfufvfwfxfyfzfAfBfCfDfEfFfGfHfIfJfKfLfMfNfOfPfQfRfSfTfUfVfWfXfYfZf0f1f2f3f4f5f6f7f8f9f.f+gagbgcgdgegfggghgigjgkglgmgngogpgqgrgsgtgugvgwgxgygzgAgBgCgDgEgFgGgHgIgJgKgLgMgNgOgPgQgRgSgTgUgVgWgXgYgZg0g1g2g3g4g5g6g7g8g9g.g+hahbhchdhehfhghhhihjhkhlhmhnhohphqhrhshthuhvhwhxhyhzhAhBhChDhEhFhGhHhIhJhKhLhMhNhOhPhQhRhShThUhVhWhXhYhZh0h1h2h3h4h5h6h7h8h9h.h+",
"aaabacadaeafagahaiajakalamanaoapaqarasatauavawaxayazaAaBaCaDaEaFaGaHaIaJaKaLaMaNaOaPaQaRaSaTaUaVaWaXaYaZa0a1a2a3a4a5a6a7a8a9a.a+babbbcbdbebfbgbhbibjbkblbmbnbobpbqbrbsbtbubvbwbxbybzbAbBbCbDbEbFbGbHbIbJbKbLbMbNbObPbQbRbSbTbUbVbWbXbYbZb0b1b2b3b4b5b6b7b8b9b.b+cacbcccdcecfcgchcicjckclcmcncocpcqcrcsctcucvcwcxcyczcAcBcCcDcEcFcGcHcIcJcKcLcMcNcOcPcQcRcScTcUcVcWcXcYcZc0c1c2c3c4c5c6c7c8c9c.c+dadbdcdddedfdgdhdidjdkdldmdndodpdqdrdsdtdudvdwdxdydzdAdBdCdDdEdFdGdHdIdJdKdLdMdNdOdPdQdRdSdTdUdVdWdXdYdZd0d1d2d3d4d5d6d7d8d9d.d+eaebecedeeefegeheiejekelemeneoepeqereseteuevewexeyezeAeBeCeDeEeFeGeHeIeJeKeLeMeNeOePeQeReSeTeUeVeWeXeYeZe0e1e2e3e4e5e6e7e8e9e.e+fafbfcfdfefffgfhfifjfkflfmfnfofpfqfrfsftfufvfwfxfyfzfAfBfCfDfEfFfGfHfIfJfKfLfMfNfOfPfQfRfSfTfUfVfWfXfYfZf0f1f2f3f4f5f6f7f8f9f.f+gagbgcgdgegfggghgigjgkglgmgngogpgqgrgsgtgugvgwgxgygzgAgBgCgDgEgFgGgHgIgJgKgLgMgNgOgPgQgRgSgTgUgVgWgXgYgZg0g1g2g3g4g5g6g7g8g9g.g+hahbhchdhehfhghhhihjhkhlhmhnhohphqhrhshthuhvhwhxhyhzhAhBhChDhEhFhGhHhIhJhKhLhMhNhOhPhQhRhShThUhVhWhXhYhZh0h1h2h3h4h5h6h7h8h9h.h+",
"aaabacadaeafagahaiajakalamanaoapaqarasatauavawaxayazaAaBaCaDaEaFaGaHaIaJaKaLaMaNaOaPaQaRaSaTaUaVaWaXaYaZa0a1a2a3a4a5a6a7a8a9a.a+babbbcbdbebfbgbhbibjbkblbmbnbobpbqbrbsbtbubvbwbxbybzbAbBbCbDbEbFbGbHbIbJbKbLbMbNbObPbQbRbSbTbUbVbWbXbYbZb0b1b2b3b4b5b6b7b8b9b.b+cacbcccdcecfcgchcicjckclcmcncocpcqcrcsctcucvcwcxcyczcAcBcCcDcEcFcGcHcIcJcKcLcMcNcOcPcQcRcScTcUcVcWcXcYcZc0c1c2c3c4c5c6c7c8c9c.c+dadbdcdddedfdgdhdidjdkdldmdndodpdqdrdsdtdudvdwdxdydzdAdBdCdDdEdFdGdHdIdJdKdLdMdNdOdPdQdRdSdTdUdVdWdXdYdZd0d1d2d3d4d5d6d7d8d9d.d+eaebecedeeefegeheiejekelemeneoepeqereseteuevewexeyezeAeBeCeDeEeFeGeHeIeJeKeLeMeNeOePeQeReSeTeUeVeWeXeYeZe0e1e2e3e4e5e6e7e8e9e.e+fafbfcfdfefffgfhfifjfkflfmfnfofpfqfrfsftfufvfwfxfyfzfAfBfCfDfEfFfGfHfIfJfKfLfMfNfOfPfQfRfSfTfUfVfWfXfYfZf0f1f2f3f4f5f6f7f8f9f.f+gagbgcgdgegfggghgigjgkglgmgngogpgqgrgsgtgugvgwgxgygzgAgBgCgDgEgFgGgHgIgJgKgLgMgNgOgPgQgRgSgTgUgVgWgXgYgZg0g1g2g3g4g5g6g7g8g9g.g+hahbhchdhehfhghhhihjhkhlhmhnhohphqhrhshthuhvhwhxhyhzhAhBhChDhEhFhGhHhIhJhKhLhMhNhOhPhQhRhShThUhVhWhXhYhZh0h1h2h3h4h5h6h7h8h9h.h+",
"aaabacadaeafagahaiajakalamanaoapaqarasatauavawaxayazaAaBaCaDaEaFaGaHaIaJaKaLaMaNaOaPaQaRaSaTaUaVaWaXaYaZa0a1a2a3a4a5a6a7a8a9a.a+babbbcbdbebfbgbhbibjbkblbmbnbobpbqbrbsbtbubvbwbxbybzbAbBbCbDbEbFbGbHbIbJbKbLbMbNbObPbQbRbSbTbUbVbWbXbYbZb0b1b2b3b4b5b6b7b8b9b.b+cacbcccdcecfcgchcicjckclcmcncocpcqcrcsctcucvcwcxcyczcAcBcCcDcEcFcGcHcIcJcKcLcMcNcOcPcQcRcScTcUcVcWcXcYcZc0c1c2c3c4c5c6c7c8c9c.c+dadbdcdddedfdgdhdidjdkdldmdndodpdqdrdsdtdudvdwdxdydzdAdBdCdDdEdFdGdHdIdJdKdLdMdNdOdPdQdRdSdTdUdVdWdXdYdZd0d1d2d3d4d5d6d7d8d9d.d+eaebecedeeefegeheiejekelemeneoepeqereseteuevewexeyezeAeBeCeDeEeFeGeHeIeJeKeLeMeNeOePeQeReSeTeUeVeWeXeYeZe0e1e2e3e4e5e6e7e8e9e.e+fafbfcfdfefffgfhfifjfkflfmfnfofpfqfrfsftfufvfwfxfyfzfAfBfCfDfEfFfGfHfIfJfKfLfMfNfOfPfQfRfSfTfUfVfWfXfYfZf0f1f2f3f4f5f6f7f8f9f.f+gagbgcgdgegfggghgigjgkglgmgngogpgqgrgsgtgugvgwgxgygzgAgBgCgDgEgFgGgHgIgJgKgLgMgNgOgPgQgRgSgTgUgVgWgXgYgZg0g1g2g3g4g5g6g7g8g9g.g+hahbhchdhehfhghhhihjhkhlhmhnhohphqhrhshthuhvhwhxhyhzhAhBhChDhEhFhGhHhIhJhKhLhMhNhOhPhQhRhShThUhVhWhXhYhZh0h1h2h3h4h5h6h7h8h9h.h+",
"aaabacadaeafagahaiajakalamanaoapaqarasatauavawaxayazaAaBaCaDaEaFaGaHaIaJaKaLaMaNaOaPaQaRaSaTaUaVaWaXaYaZa0a1a2a3a4a5a6a7a8a9a.a+babbbcbdbebfbgbhbibjbkblbmbnbobpbqbrbsbtbubvbwbxbybzbAbBbCbDbEbFbGbHbIbJbKbLbMbNbObPbQbRbSbTbUbVbWbXbYbZb0b1b2b3b4b5b6b7b8b9b.b+cacbcccdcecfcgchcicjckclcmcncocpcqcrcsctcucvcwcxcyczcAcBcCcDcEcFcGcHcIcJcKcLcMcNcOcPcQcRcScTcUcVcWcXcYcZc0c1c2c3c4c5c6c7c8c9c.c+dadbdcdddedfdgdhdidjdkdldmdndodpdqdrdsdtdudvdwdxdydzdAdBdCdDdEdFdGdHdIdJdKdLdMdNdOdPdQdRdSdTdUdVdWdXdYdZd0d1d2d3d4d5d6d7d8d9d.d+eaebecedeeefegeheiejekelemeneoepeqereseteuevewexeyezeAeBeCeDeEeFeGeHeIeJeKeLeMeNeOePeQeReSeTeUeVeWeXeYeZe0e1e2e3e4e5e6e7e8e9e.e+fafbfcfdfefffgfhfifjfkflfmfnfofpfqfrfsftfufvfwfxfyfzfAfBfCfDfEfFfGfHfIfJfKfLfMfNfOfPfQfRfSfTfUfVfWfXfYfZf0f1f2f3f4f5f6f7f8f9f.f+gagbgcgdgegfggghgigjgkglgmgngogpgqgrgsgtgugvgwgxgygzgAgBgCgDgEgFgGgHgIgJgKgLgMgNgOgPgQgRgSgTgUgVgWgXgYgZg0g1g2g3g4g5g6g7g8g9g.g+hahbhchdhehfhghhhihjhkhlhmhnhohphqhrhshthuhvhwhxhyhzhAhBhChDhEhFhGhHhIhJhKhLhMhNhOhPhQhRhShThUhVhWhXhYhZh0h1h2h3h4h5h6h7h8h9h.h+",
"aaabacadaeafagahaiajakalamanaoapaqarasatauavawaxayazaAaBaCaDaEaFaGaHaIaJaKaLaMaNaOaPaQaRaSaTaUaVaWaXaYaZa0a1a2a3a4a5a6a7a8a9a.a+babbbcbdbebfbgbhbibjbkblbmbnbobpbqbrbsbtbubvbwbxbybzbAbBbCbDbEbFbGbHbIbJbKbLbMbNbObPbQbRbSbTbUbVbWbXbYbZb0b1b2b3b4b5b6b7b8b9b.b+cacbcccdcecfcgchcicjckclcmcncocpcqcrcsctcucvcwcxcyczcAcBcCcDcEcFcGcHcIcJcKcLcMcNcOcPcQcRcScTcUcVcWcXcYcZc0c1c2c3c4c5c6c7c8c9c.c+dadbdcdddedfdgdhdidjdkdldmdndodpdqdrdsdtdudvdwdxdydzdAdBdCdDdEdFdGdHdIdJdKdLdMdNdOdPdQdRdSdTdUdVdWdXdYdZd0d1d2d3d4d5d6d7d8d9d.d+eaebecedeeefegeheiejekelemeneoepeqereseteuevewexeyezeAeBeCeDeEeFeGeHeIeJeKeLeMeNeOePeQeReSeTeUeVeWeXeYeZe0e1e2e3e4e5e6e7e8e9e.e+fafbfcfdfefffgfhfifjfkflfmfnfofpfqfrfsftfufvfwfxfyfzfAfBfCfDfEfFfGfHfIfJfKfLfMfNfOfPfQfRfSfTfUfVfWfXfYfZf0f1f2f3f4f5f6f7f8f9f.f+gagbgcgdgegfggghgigjgkglgmgngogpgqgrgsgtgugvgwgxgygzgAgBgCgDgEgFgGgHgIgJgKgLgMgNgOgPgQgRgSgTgUgVgWgXgYgZg0g1g2g3g4g5g6g7g8g9g.g+hahbhchdhehfhghhhihjhkhlhmhnhohphqhrhshthuhvhwhxhyhzhAhBhChDhEhFhGhHhIhJhKhLhMhNhOhPhQhRhShThUhVhWhXhYhZh0h1h2h3h4h5h6h7h8h9h.h+",
"aaabacadaeafagahaiajakalamanaoapaqarasatauavawaxayazaAaBaCaDaEaFaGaHaIaJaKaLaMaNaOaPaQaRaSaTaUaVaWaXaYaZa0a1a2a3a4a5a6a7a8a9a.a+babbbcbdbebfbgbhbibjbkblbmbnbobpbqbrbsbtbubvbwbxbybzbAbBbCbDbEbFbGbHbIbJbKbLbMbNbObPbQbRbSbTbUbVbWbXbYbZb0b1b2b3b4b5b6b7b8b9b.b+cacbcccdcecfcgchcicjckclcmcncocpcqcrcsctcucvcwcxcyczcAcBcCcDcEcFcGcHcIcJcKcLcMcNcOcPcQcRcScTcUcVcWcXcYcZc0c1c2c3c4c5c6c7c8c9c.c+dadbdcdddedfdgdhdidjdkdldmdndodpdqdrdsdtdudvdwdxdydzdAdBdCdDdEdFdGdHdIdJdKdLdMdNdOdPdQdRdSdTdUdVdWdXdYdZd0d1d2d3d4d5d6d7d8d9d.d+eaebecedeeefegeheiejekelemeneoepeqereseteuevewexeyezeAeBeCeDeEeFeGeHeIeJeKeLeMeNeOePeQeReSeTeUeVeWeXeYeZe0e1e2e3e4e5e6e7e8e9e.e+fafbfcfdfefffgfhfifjfkflfmfnfofpfqfrfsftfufvfwfxfyfzfAfBfCfDfEfFfGfHfIfJfKfLfMfNfOfPfQfRfSfTfUfVfWfXfYfZf0f1f2f3f4f5f6f7f8f9f.f+gagbgcgdgegfggghgigjgkglgmgngogpgqgrgsgtgugvgwgxgygzgAgBgCgDgEgFgGgHgIgJgKgLgMgNgOgPgQgRgSgTgUgVgWgXgYgZg0g1g2g3g4g5g6g7g8g9g.g+hahbhchdhehfhghhhihjhkhlhmhnhohphqhrhshthuhvhwhxhyhzhAhBhChDhEhFhGhHhIhJhKhLhMhNhOhPhQhRhShThUhVhWhXhYhZh0h1h2h3h4h5h6h7h8h9h.h+",
"aaabacadaeafagahaiajakalamanaoapaqarasatauavawaxayazaAaBaCaDaEaFaGaHaIaJaKaLaMaNaOaPaQaRaSaTaUaVaWaXaYaZa0a1a2a3a4a5a6a7a8a9a.a+babbbcbdbebfbgbhbibjbkblbmbnbobpbqbrbsbtbubvbwbxbybzbAbBbCbDbEbFbGbHbIbJbKbLbMbNbObPbQbRbSbTbUbVbWbXbYbZb0b1b2b3b4b5b6b7b8b9b.b+cacbcccdcecfcgchcicjckclcmcncocpcqcrcsctcucvcwcxcyczcAcBcCcDcEcFcGcHcIcJcKcLcMcNcOcPcQcRcScTcUcVcWcXcYcZc0c1c2c3c4c5c6c7c8c9c.c+dadbdcdddedfdgdhdidjdkdldmdndodpdqdrdsdtdudvdwdxdydzdAdBdCdDdEdFdGdHdIdJdKdLdMdNdOdPdQdRdSdTdUdVdWdXdYdZd0d1d2d3d4d5d6d7d8d9d.d+eaebecedeeefegeheiejekelemeneoepeqereseteuevewexeyezeAeBeCeDeEeFeGeHeIeJeKeLeMeNeOePeQeReSeTeUeVeWeXeYeZe0e1e2e3e4e5e6e7e8e9e.e+fafbfcfdfefffgfhfifjfkflfmfnfofpfqfrfsftfufvfwfxfyfzfAfBfCfDfEfFfGfHfIfJfKfLfMfNfOfPfQfRfSfTfUfVfWfXfYfZf0f1f2f3f4f5f6f7f8f9f.f+gagbgcgdgegfggghgigjgkglgmgngogpgqgrgsgtgugvgwgxgygzgAgBgCgDgEgFgGgHgIgJgKgLgMgNgOgPgQgRgSgTgUgVgWgXgYgZg0g1g2g3g4g5g6g7g8g9g.g+hahbhchdhehfhghhhihjhkhlhmhnhohphqhrhshthuhvhwhxhyhzhAhBhChDhEhFhGhHhIhJhKhLhMhNhOhPhQhRhShThUhVhWhXhYhZh0h1h2h3h4h5h6h7h8h9h.h+",
"aaabacadaeafagahaiajakalamanaoapaqarasatauavawaxayazaAaBaCaDaEaFaGaHaIaJaKaLaMaNaOaPaQaRaSaTaUaVaWaXaYaZa0a1a2a3a4a5a6a7a8a9a.a+babbbcbdbebfbgbhbibjbkblbmbnbobpbqbrbsbtbubvbwbxbybzbAbBbCbDbEbFbGbHbIbJbKbLbMbNbObPbQbRbSbTbUbVbWbXbYbZb0b1b2b3b4b5b6b7b8b9b.b+cacbcccdcecfcgchcicjckclcmcncocpcqcrcsctcucvcwcxcyczcAcBcCcDcEcFcGcHcIcJcKcLcMcNcOcPcQcRcScTcUcVcWcXcYcZc0c1c2c3c4c5c6c7c8c9c.c+dadbdcdddedfdgdhdidjdkdldmdndodpdqdrdsdtdudvdwdxdydzdAdBdCdDdEdFdGdHdIdJdKdLdMdNdOdPdQdRdSdTdUdVdWdXdYdZd0d1d2d3d4d5d6d7d8d9d.d+eaebecedeeefegeheiejekelemeneoepeqereseteuevewexeyezeAeBeCeDeEeFeGeHeIeJeKeLeMeNeOePeQeReSeTeUeVeWeXeYeZe0e1e2e3e4e5e6e7e8e9e.e+fafbfcfdfefffgfhfifjfkflfmfnfofpfqfrfsftfufvfwfxfyfzfAfBfCfDfEfFfGfHfIfJfKfLfMfNfOfPfQfRfSfTfUfVfWfXfYfZf0f1f2f3f4f5f6f7f8f9f.f+gagbgcgdgegfggghgigjgkglgmgngogpgqgrgsgtgugvgwgxgygzgAgBgCgDgEgFgGgHgIgJgKgLgMgNgOgPgQgRgSgTgUgVgWgXgYgZg0g1g2g3g4g5g6g7g8g9g.g+hahbhchdhehfhghhhihjhkhlhmhnhohphqhrhshthuhvhwhxhyhzhAhBhChDhEhFhGhHhIhJhKhLhMhNhOhPhQhRhShThUhVhWhXhYhZh0h1h2h3h4h5h6h7h8h9h.h+"
};
