/* XPM */
static char *_b6a0a9c216045b4ab1c48f6b9a21d50tf9b1aaYVzWR1tdl[] = {
/* columns rows colors chars-per-pixel */
"35 35 253 2 ",
"   c #3E5979",
".  c #337970",
"X  c #495472",
"o  c #47577C",
"O  c #49687D",
"+  c #586679",
"@  c #5E787B",
"#  c #69746B",
"$  c #6A7070",
"%  c #1FA230",
"&  c #2CA634",
"*  c #73B23A",
"=  c #16AA58",
"-  c #14B053",
";  c #2AA95A",
":  c #39B650",
">  c #1E9E69",
",  c #1D9673",
"<  c #399368",
"1  c #288877",
"2  c #309172",
"3  c #18A576",
"4  c #0DB571",
"5  c #28A662",
"6  c #2FAB6D",
"7  c #25A772",
"8  c #5E8F50",
"9  c #4FAC53",
"0  c #77AC4D",
"q  c #67AC57",
"w  c #7AA754",
"e  c #66B656",
"r  c #58956C",
"t  c #4C8378",
"y  c #4F9071",
"u  c #7C936D",
"i  c #6B857B",
"p  c #728675",
"a  c #729674",
"s  c #51B069",
"d  c #4DA877",
"f  c #71A565",
"g  c #6DAF70",
"h  c #A59006",
"j  c #B5A60F",
"k  c #A89C2A",
"l  c #92B13A",
"z  c #AEA330",
"x  c #C4AA23",
"c  c #989A4E",
"v  c #8B9855",
"b  c #979554",
"n  c #AA9C4E",
"m  c #9AAA48",
"M  c #8BB44C",
"N  c #96B045",
"B  c #86AA58",
"V  c #9AA95B",
"C  c #87B251",
"Z  c #98B257",
"A  c #A9A745",
"S  c #B8A84C",
"D  c #A8A657",
"F  c #BAAA57",
"G  c #A3B258",
"H  c #B1B355",
"J  c #85936D",
"K  c #969766",
"L  c #879D78",
"P  c #9B9B72",
"I  c #A69D69",
"U  c #A39E71",
"Y  c #98AF66",
"T  c #97A975",
"R  c #ABA262",
"E  c #A8A968",
"W  c #B8A966",
"Q  c #B9B26A",
"!  c #A8A879",
"~  c #B5AA7A",
"^  c #B1B277",
"/  c #C1AE45",
"(  c #3E5A87",
")  c #3D5A9B",
"_  c #3B6989",
"`  c #377389",
"'  c #386899",
"]  c #2E7796",
"[  c #397696",
"{  c #3D5CAC",
"}  c #356AA7",
"|  c #2B7AA7",
" . c #3777A6",
".. c #3372AE",
"X. c #455888",
"o. c #435594",
"O. c #4C5094",
"+. c #4B6D83",
"@. c #466788",
"#. c #436D8B",
"$. c #566B85",
"%. c #4D7385",
"&. c #467789",
"*. c #4B738A",
"=. c #567589",
"-. c #466A95",
";. c #536D9F",
":. c #477696",
">. c #5B7D94",
",. c #577698",
"<. c #666E8B",
"1. c #63728A",
"2. c #657A8B",
"3. c #737F86",
"4. c #657C95",
"5. c #405AB2",
"6. c #4966A6",
"7. c #4377A4",
"8. c #5478A5",
"9. c #1B8F9B",
"0. c #1B9896",
"q. c #26888F",
"w. c #2C928F",
"e. c #298D97",
"r. c #388395",
"t. c #36999B",
"y. c #15A883",
"u. c #39A887",
"i. c #2CAA93",
"p. c #189AA7",
"a. c #3784AD",
"s. c #288BBB",
"d. c #2596BB",
"f. c #15A1A4",
"g. c #18B2AB",
"h. c #0EA8BC",
"j. c #18A7B7",
"k. c #35AEAF",
"l. c #29A7B6",
"z. c #37A6B5",
"x. c #43898C",
"c. c #4C918C",
"v. c #57998A",
"b. c #458897",
"n. c #558695",
"m. c #589791",
"M. c #67878A",
"N. c #778785",
"B. c #669988",
"V. c #76948C",
"C. c #698397",
"Z. c #76889C",
"A. c #699896",
"S. c #79989C",
"D. c #57A588",
"F. c #59B38E",
"G. c #4CAE95",
"H. c #59A897",
"J. c #69A68C",
"K. c #61B28A",
"L. c #79B18E",
"P. c #66AB98",
"I. c #75A798",
"U. c #66B397",
"Y. c #5885A6",
"T. c #508FAA",
"R. c #4A9ABB",
"E. c #5B99B9",
"W. c #6487A9",
"Q. c #7787A1",
"!. c #6994A7",
"~. c #6C94AC",
"^. c #629AAD",
"/. c #7395A4",
"(. c #7494AD",
"). c #7899A8",
"_. c #728EB2",
"`. c #6494B3",
"'. c #6C94B3",
"]. c #6C99B3",
"[. c #6699B8",
"{. c #7598B7",
"}. c #47A2AA",
"|. c #58A6A9",
" X c #48A8BA",
".X c #57A4B5",
"XX c #51B3B1",
"oX c #55B5B8",
"OX c #65A7A4",
"+X c #78A5A9",
"@X c #63A8B4",
"#X c #7BA8B5",
"$X c #1F8DC4",
"%X c #1A9AC8",
"&X c #149AD4",
"*X c #1694D9",
"=X c #2B9ACA",
"-X c #3598D4",
";X c #0DA6C6",
":X c #12A5C6",
">X c #15A6CA",
",X c #05B5C8",
"<X c #0CAAD7",
"1X c #18A8D6",
"2X c #09B2DD",
"3X c #1EB5DB",
"4X c #2BA9C4",
"5X c #33A5CC",
"6X c #38A7C9",
"7X c #35B3CB",
"8X c #29A9D5",
"9X c #27B3D3",
"0X c #0F9DE0",
"qX c #0EAFE3",
"wX c #03B5E3",
"eX c #469BC7",
"rX c #5A9BC4",
"tX c #5295D5",
"yX c #699EC1",
"uX c #47A5C6",
"iX c #56A5C9",
"pX c #44B8C8",
"aX c #40A1D3",
"sX c #6AA0C3",
"dX c #8D8C8E",
"fX c #899586",
"gX c #989D89",
"hX c #8B9E9C",
"jX c #999F98",
"kX c #B09D9D",
"lX c #86A986",
"zX c #98A78A",
"xX c #84A59A",
"cX c #99A69D",
"vX c #A7A588",
"bX c #B3A885",
"nX c #B4AD8C",
"mX c #B5B089",
"MX c #A7A798",
"NX c #ADAC9C",
"BX c #B6AB96",
"VX c #AFB191",
"CX c #859BA8",
"ZX c #909CA9",
"AX c #87A8AA",
"SX c #97A6A7",
"DX c #83B2A6",
"FX c #99B2AD",
"GX c #88A6B5",
"HX c #97AAB5",
"JX c #A2ACA4",
"KX c #A8A8A7",
"LX c #AEAFA4",
/* pixels */
").HXbXS KXJXKXSXS.j..X_ CXNXvXF jXW vXHXOX|.C.<.cXSXMXW KXKXLXMX|..XC.",
"KX'.~.m v.n J.U.G.4 f.#.JX[.z.N }.i.#XP.G.6 c.$.! S.CXD P I E.OXu.6 $.",
"LX'.+X'.'.k.3X1XK.9Xi.>.HX].xX{.^.l.8XeXP.5Xd $.AX(.vX(.CXOXiXiXL.eX=.",
"SX<XaX0X<X3XrX[.j.w j.,.GX<X8X&Xl.8X.X_.m.r x.<.4X-XiX1XL.iX{.{.a G.,.",
"(.1XeX3 f.;XsX:.B t.T.>.AX1X5X3 0.@X}.=.B y.,.+ z.iXz.i.|..X/.,.B.m.,.",
"` o.O.X.X.( _ #.*.+.$.2.*.=.X.X._ @.@.*.#.+.%.*.n.<.<.1.1.$.4.>.$.=.1.",
"I nXE VXHX( H.SX+XHXMX~ F ~ A SXGX' S.MXAXLXBXF R bXnXnX).%.SXcXSXBXnX",
"P.gXf Z AXY.xXk.z.j.R V W L w H I.-.@Xi.].gXH.H.vXfXM D 8.@ 5X|.`.gXH.",
"oXE.Y Z S.M.NXG.'.rXl.4XoXD Y G CX4.NXi.(.E.z.4X@XD M D ;.$ 6XP.~.E.E.",
"E.yXI k x.o.GXl g qX9X`.uX|.n K x.$.q e q ).XX/.].@Xz K ' 3.e g !.pXfX",
"Y.Y.9 V.m.C.{.L.:XuXgXW.W.0.= K g @.U.e S F.vX(.Z.c.L J :.<.L.T gXCXQ.",
"( @.X._ :.-.o.o.@.o X.&.O *.*.$.$.>.$.X.+ o @.*.+.$.1.$.$.+.+ $ 2.$.Z.",
"GXxX! vXW W vX/.K.U.L.M.xX^ mXQ Q vXFXNXlXU.n.+.JXVXvXW MXVXHXOXP.I.,.",
"HXD /.S.B.D D.>XU.d 4 =.mX).{.z B.b >X3X9 9 ' %.k /.).Y R B.8XF.`.u.O ",
"JX:X*X$X(. X3XwX.Xl.zX-.nX`.s.s./.4X1X<X3 B.} C.:X].d.T.OXpX9X X=XL } ",
"GX:X1X<X1X|.uX5X9.s |.8.MX6XR.0X4Xk.5XS.> s _ 4.h.4X:X>XOXuXeXn.; b.} ",
"....y ;  .|  .{ t c.& Y.8.a.y = ] ]   X X   r.C.] r < r.8.8.6.@ @ s >.",
"$ + # $ C.Y.[ =.%.M.N.J p fX+ $ 2.` ^.*.=.p P # # # i N.>.2.Q.4.4.K a ",
"u u g C 4 ].OX2X^.^.cXA A b 3 * 7 o 7X~.].R m V v f Z 4 '.+X2X].].n B ",
"XXAXf B lX .CXeXOXE.SXJ.T K q m I.X.6Xi.S.L }.H.SXw B lX7.ZXeX].~./.k.",
"5XeX! n V.) BX* ~.(.=X8XpXXXS j i C.~ '.~.(.2X7X6XE z M.) BXg ~.'.[.@X",
"Y.`.B.m M.6.AXF.B..XI.P.T.M.8 v A.C.F.0 E G.OX`.>.u v S.:.+XJ.Y xXXX/.",
"' ' 1 | n.M.>.] 9.p.) ) ) 1 - q.B.4.n., 2 9.' ' ' > r.B.M.C.' 2 e.$.$.",
"/.SXkXR ~ HXHXSX.X X X7.GXNXNXQ SXNXcXJXlXT T.Q.NXBX/ BXKXKXKX!.+X+Xx.",
"cXK.l hXW W W tX7 - J [ JXU.lXA zXE I.<X9 9 %.dXg S zXF F S -X: - c [ ",
"MX%XS.P ~.!.z.wXG.F.H.[ JX^.zXhX!.}.2X<X9 d t dX;XfXU /.S.8X8XF.7 T.[ ",
"cX:X^.*X%X|.pX1X>X%XK [ JXz.$X%X^.<X7Xl.l.d >.N.;XeX-XR. XaXeXt.t.M.` ",
"{.:XuX&X> d >Xs.9 u.d _ +X4XuX= 0..Xa._ ` ; } V.;XE.%X7 }.%X*.B 5 r  .",
"7.o Y.. 5 o.} ) &.&.8 :.*.e.r.1 &.%.%.#.` &.M.M.[ o X X.X.4._ #.#.+.=.",
"Q ^ W LXLX^.X sXAX#XBXW Q ! D LXFX#.#XFXDXNXS Q E R VXSX!.d.KXLXLX~ bX",
"g.vXa M G ..@.-Xh.h.[.w x b q G I.o pX<Xz.V ,XH.vXq N lX@.cXu.~.K A.G.",
"rX7Xc C l 5.( -X}.`.R.;X9XI.C N V.o @XD.'.~.%XiX.XS m i X.NX!.^.[.A.V.",
">X:XW.j b O.( e e wXwXpX,X,XzXc N.O XXs }.5XpXz.j.K h i -.GXg g `.4X~.",
"-.:.r.y r  .( c.j.d.;.r.} ` % y c.+.b.0.9 < -.7.[ % q.w._ t.f.f.q.;.;.",
"` ' . < x.b.( a.%X&X*X7.o.] , m.x.*.n.f.& < ' } | > t t #.e.f.Y.a. .;."
};
