/* XPM */
static char *_7cc6ffd54bc487afb2a28b3d099b7260PNvQhTf5Ahu0Aor[] = {
/* columns rows colors chars-per-pixel */
"32 32 152 2 ",
"   c #222C35",
".  c #1B242E",
"X  c #19222B",
"o  c #111924",
"O  c #16202A",
"+  c #38403A",
"@  c #1C2630",
"#  c #141C25",
"$  c #202932",
"%  c #151E28",
"&  c #0D1520",
"*  c #343D3A",
"=  c #3F4039",
"-  c #3F433B",
";  c #253139",
":  c #2D3A3A",
">  c #3D4843",
",  c #515146",
"<  c #424C47",
"1  c #3B423F",
"2  c #4B3C30",
"3  c #393D37",
"4  c #273740",
"5  c #3C4C47",
"6  c #2F3E3F",
"7  c #584738",
"8  c #303231",
"9  c #2D2825",
"0  c #312E2C",
"q  c #323B38",
"w  c #232D2C",
"e  c #273538",
"r  c #334041",
"t  c #1F252B",
"y  c #2C3737",
"u  c #39332F",
"i  c #47544D",
"p  c #282D30",
"a  c #423B32",
"s  c #20282B",
"d  c #514739",
"f  c #6F644B",
"g  c #5A4431",
"h  c #4A4237",
"j  c #575548",
"k  c #354747",
"l  c #444740",
"z  c #323936",
"x  c #383933",
"c  c #8C6942",
"v  c #83613E",
"b  c #443828",
"n  c #3F3027",
"m  c #28292D",
"M  c #3A492F",
"N  c #333635",
"B  c #3D3633",
"V  c #283A41",
"C  c #3D4C3B",
"Z  c #5D4D33",
"A  c #5E5141",
"S  c #616151",
"D  c #715E4A",
"F  c #675035",
"G  c #283727",
"H  c #504A40",
"J  c #515850",
"K  c #1F2024",
"L  c #314440",
"P  c #445345",
"I  c #484E46",
"U  c #544F40",
"Y  c #656249",
"T  c #635645",
"R  c #6B5944",
"E  c #747560",
"W  c #6D5339",
"Q  c #533D2C",
"!  c #A47646",
"~  c #865D37",
"^  c #4D544D",
"/  c #46433B",
"(  c #514131",
")  c #8E6E4A",
"_  c #777242",
"`  c #5E5949",
"'  c #8D653D",
"]  c #65553F",
"[  c #405029",
"{  c #847352",
"}  c #5E6851",
"|  c #785736",
" . c #6E7055",
".. c #664932",
"X. c #714F34",
"o. c #2D323C",
"O. c #314325",
"+. c #2B3C29",
"@. c #7F6846",
"#. c #25332F",
"$. c #2E4230",
"%. c #213220",
"&. c #806543",
"*. c #866845",
"=. c #74603D",
"-. c #7C613E",
";. c #7C7530",
":. c #897C59",
">. c #4C594B",
",. c #856F4E",
"<. c #685C4A",
"1. c #5A6351",
"2. c #6A692B",
"3. c #7D7050",
"4. c #676222",
"5. c #967542",
"6. c #6F6B54",
"7. c #5E4929",
"8. c #BE8948",
"9. c #745531",
"0. c #62442D",
"q. c #AE7F46",
"w. c #55562B",
"e. c #83784A",
"r. c #5E5B43",
"t. c #4A5843",
"y. c #5A5B4C",
"u. c #635B4B",
"i. c #45432F",
"p. c #4A493A",
"a. c #7C644D",
"s. c #656C3A",
"d. c #6B6754",
"f. c #79602A",
"g. c #907655",
"h. c #52603B",
"j. c #4B4B21",
"k. c #685F3C",
"l. c #586738",
"z. c #575E51",
"x. c #6F6E60",
"c. c #8F8259",
"v. c #7C6B54",
"b. c #A2852E",
"n. c #986C44",
"m. c #9E723F",
"M. c #50492D",
"N. c #372D29",
"B. c #967F25",
"V. c #8D6D33",
"C. c #8F7924",
"Z. c #DEA251",
/* pixels */
"g g g n ~ ..0.| F 2 ..g 7 9 u 9 u B 0 t N p @ ;   O $   % .   $ ",
"..X.g n Z.m.Q X...n ( ( 2 9 2 0 K m # t o.p @ 4 ; X     o O ;   ",
"n n b 0.8.m.0.~ X.Q ..g g g 7 2 7 A h x 3 N 8 + * e * : p X o # ",
"n 0.9.q.X.~ 8.q.q.n.v ! c *.@.=.k.D f u.j , - ^ > i < I > * . X ",
"Q X.~ q.7.9.8.8.! n.v c c ) @.,.f T u.` , J > J P M G G y 1   . ",
"9 Q 9.! C.V.W 9.| g b W Z 7 2 d h a a N = N t * * G M O.y z % # ",
"9 b | c b.F b b.f.f.f.v W F F N.b R 7 u x , ^ < M w +.C e q . . ",
"n 2 ~ c ! ..4.B.' v ' n.c -.v a D v W ] <., l ^ P G #.L y * X O ",
"9 Q | c 5.W 7.' v c c *.*.@.*.B 7 W Z 4.A H l l ^ w 6 5 e +   # ",
"b Q | -.5.F F ! v v -.&.5.e.{ 0 a D R r.T H - < 1.: + i e + $ @ ",
"K 2 7.2 -.n Z ! &.*.&.=.g.{ c.h T D A 6.x.` S I z.s w > $ z $ # ",
"B 7 Z =.) 2 4.5.) =.@.g._ _ c.= d f 6.d.E E h.w.M w = < @ + o.@ ",
"0 2 Z R &.7 j.2.) ,.:.e.;.k.:.8 A f ` d.E E l.O.p.x - > y 3 o.% ",
"K 9 ( <.{ 7 i.;.;._ f e._ Y { a A Y p.E x.s.[ 3 H 8 1 < e * $ & ",
"0 a F U 3.a b 2.2._ :.3.{ ,.,.0 d :.Y  .s.[ + U l p 3 5 : <   X ",
"K 0 ( / 3.U 9 9 u B a K 0 u 0 8 u 8 N p s t 8 p . % + > #.q . o ",
"t B ( / f i.a ] M.Z Z d A R T h H f a U - 1.I C M s C P #.+   . ",
"8 / 7 H r.x ] ;.4.w.R a.a.R v.h T a.h ` S S l } l.G +.C : + ;   ",
"t m a / r.i.h j.w.7 D ] f u.v.h H ] ` S , H , >.h.%.y 5 e N X o ",
"u 0 d 1 , = u T A <.6.2.3.D D x 0 <.S j H j J >.t.#.y 5 e + . . ",
"m m d 1 y.- x j U j  .s.d.h f p.3 6., U Y y.>.< i 6 z k 6 r @ # ",
"K m a s I p l j , j  .E S y. .z 3 S , Y Y ^ t.P i : w 5   *   % ",
"m N = r i w q j , I } } 1.}  .- 3 z.^ J i 5 5 > < e G 5 $ + o.$ ",
"o m x k 5 y O.[ l > 1 J C [ } + - 1.i P 5 > L k 6 e $.k 4 q @ o ",
"O @ = V L w G [ M < < * I i >.p 8 t.C P C k i 6 6   G L ; q . % ",
".   1 4 6 +.# %.%.w X O y 8 p X s z q y 6 6   V ; % O.L ; *   # ",
"& O 3 V V $.+.: 6 p q 1 + 3 l = l 3 - M + : ; k : $.$.V   z O # ",
"%   1 V r V e : 6 ; r r k > < - 1 l > 1 r 4 ; k L 4 V 4 @ r $ . ",
"& % * X @ . O O . o t s t s t # X s t X . X o @ @ O O X % * o & ",
"@ $ : * r q 1 + + + x = - x = 3 = = x - 1 3 1 * * r : 1 : ; . @ ",
"$   X o O o @ % O . O     & . % t $ %     X . O % . & O o .   . ",
"% . o & $ # X o # # o   . &   X # X & X @ & . X O % o $ % X X % "
};
